JMW9912/AVATAR/install/dynamixel_control/share/dynamixel_control/data/csv/poppy/1119/1119_2030_gymnast_2_poppy_robot_point.csv
theta1,theta2,theta3,theta4,theta5,theta6,theta7,theta8,theta9,theta10,theta11,theta12,frame
-101.466712557083,82.5891813760275,172.602267422686,-58.6144052486894,100.800046910562,83.1686340476861,-172.959665568546,61.2316187696865,0,0,0,0,0
-107.86821408183,83.242839994688,173.825039910054,-59.2189674062939,105.73918209797,83.3978247119725,-172.388673537078,59.0905290678817,0,0,0,0,0
-109.171017009865,84.8373926373598,176.524128665,-59.2799748419993,107.298079192826,85.2885780339307,-175.205257748055,59.1833331936222,0,0,0,0,0
-109.431655616388,84.417172530759,176.511976681521,-59.2859699683804,107.572020026532,84.9543827466966,-175.18954411302,59.1992310963711,0,0,0,0,0
-110.46652449114,85.5564428941509,179.092921058166,-59.3243023351343,108.572247370068,85.1464361466502,-175.298307887732,59.2721610348872,0,0,0,0,0
-110.238125761344,85.5111837463148,179.072235485659,-59.3108556259056,108.296347200981,85.1879568495925,-175.278777659861,59.2541786803183,0,0,0,0,0
-109.949830103842,85.4876799416735,179.048149524351,-59.2942301558038,108.021920753254,85.1610563026742,-175.252358465652,59.2347365412066,0,0,0,0,0
-109.019139407178,85.3835767425712,178.966393834091,-59.2353092465786,107.282541947448,85.0859065275233,-175.179474051918,59.1794235808939,0,0,0,0,0
-107.514008905649,85.2730282103033,178.834613918771,-59.1273213970204,106.064903898981,84.9150318382189,-175.0486063118,59.0785020199747,0,0,0,0,0
-105.646947748719,85.3136384388766,178.690701158595,-58.9738793545795,104.319592221957,84.7544405665844,-174.862798290924,58.9153469389247,0,0,0,0,0
-101.734567911724,84.3349350742336,175.380469112761,-58.6066965896483,101.036743489447,83.9098294146937,-172.772382630717,58.5839443048997,0,0,0,0,0
-90.2038743752029,82.8884573996803,168.989838295216,-56.9199970475967,90.1895165188124,82.1539019799145,-166.460995721378,58.7627929006885,0,0,0,0,0
-75.2061517147713,80.1405393918754,160.547141828117,-65.7931823165405,74.6490255421398,78.7956919602891,-157.885754519837,67.6071354752852,0,0,0,0,0
-53.7930787859529,76.076879540659,147.072879270526,-58.1724594370114,51.7406751232705,74.9613906269564,-143.905035719394,59.0020735273027,0,0,0,0,0
-32.9934395856404,81.1911505279799,131.573025958791,-42.2453112016514,30.2547179820082,80.7844129355544,-127.521431003757,41.9550945249823,0,0,0,0,0
-10.7400942105272,83.0781255443831,112.293943472734,-31.253841172288,9.17389169878368,83.4036832229125,-108.921661394751,31.3607583184023,0,0,0,0,0
-1.22057355406412,84.484434398072,101.565825824558,-29.2691582861308,0.134408501727478,85.7626461820661,-99.0069731827741,29.5927716397456,0,0,0,0,0
8.20295355628974,87.5069287845189,103.719223289621,-23.7634980193709,-8.8611225048648,89.0150054780951,-99.8006963426791,24.8274631907964,0,0,0,0,0
14.736878851588,90.4357365601321,110.741674471701,-19.1352619377739,-15.2357050394309,91.6093025031628,-106.578262685322,20.1703521958473,0,0,0,0,0
16.4874919949953,92.3567381183779,118.268386001355,-16.8307960027857,-16.6878671857948,93.0440058573836,-113.446298446489,17.9155950294509,0,0,0,0,0
18.6153249204557,94.3402909525481,123.09752713843,-15.3105223451765,-18.8355772737648,94.5006262355705,-117.803568918976,16.3314530726046,0,0,0,0,0
21.2944660795927,96.0986400659443,128.504326435675,-13.7496592183711,-21.0490743481899,95.7453562951006,-120.637306797304,15.2097045768025,0,0,0,0,0
23.4338465126959,96.9470803953964,133.061697811682,-12.6114824895975,-23.3205902420389,96.5249448997142,-124.721358333965,13.9363161769914,0,0,0,0,0
25.228734000653,97.1418769209476,133.281077310425,-12.2142492018993,-24.9703655831156,96.6014601982241,-124.923888731079,13.5442084488145,0,0,0,0,0
26.2094117608997,97.073215921772,133.407728663842,-12.0002195992695,-25.9487122222581,96.4721508660392,-125.046565069477,13.3130211046812,0,0,0,0,0
26.4034311290652,97.1650412109748,133.441494199896,-11.9637443569818,-26.1760847393323,96.4746461270286,-125.080778688829,13.2618124769688,0,0,0,0,0
26.0051765378852,97.1197781649157,133.382194900716,-12.0457331061116,-25.8076380606886,96.7986783579409,-129.070950784742,12.6992202667733,0,0,0,0,0
24.0287272821022,97.1205605068442,137.673254060668,-11.8879214294998,-23.742807462884,96.3218599368228,-128.760559898681,13.1513775486807,0,0,0,0,0
19.9043836356884,96.4558492317452,137.316096303385,-12.8605641419845,-19.8924246677631,95.5626540127246,-128.341143560899,14.1041788742265,0,0,0,0,0
16.1143477438308,96.4046402543482,140.337767965306,-13.5376907554148,-16.2573993968753,95.1118546471046,-128.703236420026,15.0501371979473,0,0,0,0,0
14.1166646295844,95.9895278762901,139.693567154858,-14.2079721724637,-14.3196618259899,94.6516858274283,-128.121589957818,15.7377583392361,0,0,0,0,0
6.97907273489639,91.9694432628194,124.574291649512,-19.0425403727244,-7.27689086708566,90.7226597129106,-118.690873481412,20.1374324037383,0,0,0,0,0
0.72383110299171,91.1627799971334,125.131572166224,-21.7534344600034,-1.36043651479849,89.4433480557112,-117.266560032842,23.1993277258253,0,0,0,0,0
-8.92245089760874,88.5554435215995,126.915976256495,-26.4367326574716,8.17790538793253,87.1545976647672,-122.578434730961,26.9931956797501,0,0,0,0,0
-24.6432226359933,84.4948868190648,134.484639234201,-34.0139835096033,24.128629603148,82.8509860612253,-130.042747359753,34.6401417534449,0,0,0,0,0
-45.0899537135493,80.8478501162286,147.01974280626,-43.0273668817398,44.1496457240804,79.2177104660893,-142.61120489563,43.2445841775971,0,0,0,0,0
-69.6197619859838,79.6839053620196,165.393597624893,-51.3998430756618,69.1079565984623,77.674410959202,-161.548040054051,51.4736923175287,0,0,0,0,0
-89.6751066946876,81.8753491531797,-177.819234274718,-56.2805424484114,89.5122430999006,78.9637329843313,-176.101437420331,56.2802514709646,0,0,0,0,0
-104.731008183501,83.1865431888634,-164.689173247672,-58.361033206817,104.769771168188,81.3869852322777,168.651640798574,58.2727423148085,0,0,0,0,0
-113.282038482015,82.7271911917832,-154.020738856139,-58.4313662779104,113.940235478201,81.4299619620103,157.632786104904,58.3827250582181,0,0,0,0,0
-118.954016912192,78.5313989586768,-147.880474923674,-57.3064312896543,120.573835483193,77.513362717958,151.153399356107,57.2541855512745,0,0,0,0,0
-126.400511554263,77.2416343548251,-143.265442235867,-56.1895196486964,127.8472859595,76.3343523139807,146.392406479489,56.117588464966,0,0,0,0,0
-132.233088827173,76.1729818351768,-141.011325890474,-55.0394129403156,133.190287622048,76.6177021855332,141.918572023657,55.0742852177501,0,0,0,0,0
-137.885956841782,77.2007948576252,-137.951763017114,-53.9562321757367,138.756263348668,77.5099270426397,140.088441811626,54.0688238817219,0,0,0,0,0
-140.815935669762,78.32697022726,-138.153335407139,-53.5694013951655,140.78547825275,79.99053836326,138.289146045604,53.8790776531894,0,0,0,0,0
-141.812340912817,80.5664652259596,-136.316585647868,-53.5232743251366,141.835758039095,81.9772276368935,138.502248222361,53.977045268956,0,0,0,0,0
-141.745191263768,81.4028781481946,-138.450000767696,-53.9030395710993,141.50110211795,83.1558950363829,140.652264783849,54.4501035577769,0,0,0,0,0
-137.901464371047,83.1837547726893,-140.437179862259,-55.2439744629007,137.525922341298,84.6726037913856,142.597941599422,55.733482732742,0,0,0,0,0
-131.353592969288,82.2202954025211,-146.301481921224,-56.7370050629215,131.311526682627,83.4725025736797,148.477952269426,57.090315678009,0,0,0,0,0
-123.140748291704,81.5617350961811,-152.499329501658,-57.9059351936153,123.317095693905,83.0480025567834,152.284256805548,58.1102687381074,0,0,0,0,0
-116.610845179306,83.7286263649827,-156.150188260182,-58.6575239088265,115.794841661547,83.7240739240646,157.463899997108,58.7112004177946,0,0,0,0,0
-107.345620482902,84.4481278718072,-161.853998931724,-58.6511449720071,106.909712674656,84.2360170748831,163.136166223872,58.6239270238829,0,0,0,0,0
-96.8504583173367,82.9809560056327,-172.296799189853,-57.5372394508771,95.8362543746407,81.9058913565199,175.077213913946,57.355647575437,0,0,0,0,0
-78.1428477740948,75.981471646866,167.592166305076,-59.7009064925036,75.9364709472685,74.5538591469921,-165.002645496821,61.8284560509075,0,0,0,0,0
-48.1303410400705,81.1255677551662,156.284413210812,-67.1303408826255,46.5839243630322,79.2230753949224,-153.401019256742,68.6103464657431,0,0,0,0,0
-4.34451028998387,78.5048133082263,129.351457738184,-44.161838871281,3.534905990239,77.2112224210252,-129.316300939663,44.0966899777629,0,0,0,0,0
17.5811946772674,87.2532908224774,105.764985161155,-19.3182945619018,-18.5261725499799,85.9393777983045,-102.625820490223,19.8248652066866,0,0,0,0,0
24.3792725433857,92.0118532883365,116.875570352578,-14.9204627641004,-25.445160691447,90.6087844860129,-110.146427096771,16.0827439323777,0,0,0,0,0
34.3453352836896,92.6838682993819,122.878797331319,-12.0238309569915,-35.0891846215349,91.1700231377589,-115.783299986593,13.0909643577326,0,0,0,0,0
40.6962044636085,93.6332046473275,128.899356956083,-10.4695546654672,-41.0428257332786,92.4511751425575,-121.440915132905,11.4976732385278,0,0,0,0,0
46.7842598468944,93.7765839839532,131.211840034006,-9.75698989268889,-46.9957238527252,92.7323051629044,-123.798099964481,10.7172795198039,0,0,0,0,0
51.6726574954535,94.8416670800269,136.882988877323,-8.95523672754632,-51.5455923556117,93.8391510065145,-129.288477372837,9.83311842249549,0,0,0,0,0
53.6019442254508,95.9514936175304,141.291198823966,-8.50926280723922,-53.37925751313,95.0616568555092,-133.589176764662,9.33153709102146,0,0,0,0,0
54.7818432485948,96.6848668587593,141.480551041273,-8.52758409669175,-54.6142557900037,95.8433831161388,-133.889795012361,9.33816756459058,0,0,0,0,0
55.3770392418964,97.306968974399,141.49488868464,-8.56675901221749,-55.2530741373062,96.4530520454034,-133.988111128583,9.36921174388058,0,0,0,0,0
55.8124608288431,97.4859411205432,141.582195759135,-8.56891705713548,-55.6494922896602,96.5496094880387,-134.113070873979,9.35873854904432,0,0,0,0,0
56.511262112526,96.9876049250914,138.093110555366,-8.91596482425717,-56.2995885979689,95.9365559434875,-130.805695386264,9.72499323260891,0,0,0,0,0
56.9526732844236,96.6349939176217,138.345904656248,-8.85980083462383,-56.826692267558,95.5723908412694,-131.095360936162,9.65283768044881,0,0,0,0,0
57.1565517369072,96.409783824765,138.481621121436,-8.82747551367217,-57.0834952801752,95.0222564844928,-127.707911351212,10.0542761749901,0,0,0,0,0
57.2303030476497,96.1690926050166,138.576651085706,-8.79870849147085,-57.1195512906543,94.8157646735246,-127.764231869026,10.0276451667007,0,0,0,0,0
57.4484372937096,95.5737323576643,135.036919980717,-9.1614078913627,-57.2031552226214,94.4683650970972,-127.869206250175,9.98173323833106,0,0,0,0,0
56.7858735579779,95.4209069365464,134.823709560692,-9.17557731483581,-56.6280465343686,94.4139198632993,-127.638209858915,10.0124871828621,0,0,0,0,0
55.1816947409941,95.1280812819482,134.277078847488,-9.22825484065737,-54.9365222362322,93.962626622057,-127.006519101081,10.0802945255315,0,0,0,0,0
52.5388868922073,94.717168153204,133.332872351758,-9.35315703691705,-52.480770817708,93.5972997855179,-126.018929048159,10.2401843293685,0,0,0,0,0
45.1674319579569,95.204133837644,130.40133931115,-10.0579298790086,-45.2802295646478,93.9000146502758,-126.731673431627,10.4713750316608,0,0,0,0,0
42.154245924617,94.973784919506,137.53909965703,-9.32976884848819,-42.6579357662362,93.3572539339922,-129.652334794245,10.189848273568,0,0,0,0,0
23.2138674086456,93.6861174731147,142.170776740973,-11.4175026363502,-23.8903964119394,91.3642394378456,-128.267581804023,12.9369066649101,0,0,0,0,0
3.01361459755185,89.3216886718914,132.426492649549,-19.3568279700396,-3.92396416747258,86.8968765798129,-123.434939893739,20.5472810362938,0,0,0,0,0
-8.8687951356157,87.3859100592542,134.586218657548,-25.0142439710934,7.41752491768344,85.109383229222,-125.460605858262,25.9670600783359,0,0,0,0,0
-28.4324894200606,83.4941848858194,147.205410852752,-34.203927431963,26.7036838630082,80.8741978855696,-137.655927396254,34.7258067252852,0,0,0,0,0
-56.5363719887851,77.9842434367458,162.653338814289,-46.5131842136904,53.957433661017,74.9343590485505,-154.075127423407,46.2060044572007,0,0,0,0,0
-86.3229981902794,80.0160610681578,-172.797797284383,-55.2195620644521,84.3910613385745,76.1556884794765,-177.785717228969,54.7642086056662,0,0,0,0,0
-103.635177433532,83.6324131845661,-154.801668823734,-58.1184272790938,103.570222281563,79.6406139843045,164.180410022408,57.7744229147716,0,0,0,0,0
-112.569529869786,80.8819642342156,-141.540954344516,-57.5986657300008,113.356929205205,79.0154246445146,147.719208328037,57.4928743570732,0,0,0,0,0
-118.874631875267,69.450230608546,-139.075874143365,-54.4383947670409,120.494399191739,69.9232709280514,142.466469650417,54.8085784547145,0,0,0,0,0
-129.232036755229,68.5884903126786,-129.122013259537,-57.9813262720195,130.584600809418,69.8670850133806,133.014619029602,58.4996200619252,0,0,0,0,0
-138.273982867879,67.3841737378774,-127.712693375003,-52.4736986291515,138.502092117575,69.1796527657321,129.905923232127,53.021792069017,0,0,0,0,0
-145.200258510133,63.7101324191077,-118.042532194355,-47.9215397775998,144.97731968795,66.0102301157016,121.23661820718,48.6872453145962,0,0,0,0,0
-149.241938691856,62.6301396203886,-111.563184086888,-45.1850897621968,149.283214078336,66.0459747024137,116.537757167978,46.0678557234409,0,0,0,0,0
-150.464340002245,63.901924568197,-112.228861880063,-47.1370273905755,149.561417355569,66.8509345993671,115.956471731118,46.0809233674885,0,0,0,0,0
-150.139074424064,66.855633219391,-116.313215832932,-48.4716154985324,149.40044201726,70.3389185970826,121.160345612354,47.6417569311717,0,0,0,0,0
-147.209605869819,70.8407383162601,-125.051752443162,-49.2909956786811,146.257272703811,74.6715511277969,127.712159658165,50.2722087841002,0,0,0,0,0
-141.739690287074,73.9479765807647,-130.55879870193,-53.8460365356957,141.432683045508,77.9766860975842,134.017618772436,52.8976896683825,0,0,0,0,0
-132.999910800638,75.2340654342056,-139.390768511614,-56.7686353470888,132.30379546481,78.0502167219345,141.941987871454,55.4935182282629,0,0,0,0,0
-120.566552054239,76.0937244027923,-149.130974652577,-58.6300155909823,120.379356390858,79.2599159056525,148.930220397449,57.4516335695961,0,0,0,0,0
-111.895972395311,80.775196261243,-154.209313875182,-58.096970858891,112.125616653032,82.3779217867993,155.390218762452,58.4066545690011,0,0,0,0,0
-102.490733225718,85.2132452188804,-159.564194852428,-58.2929490188252,101.886208761278,84.9803270280582,163.344246286431,58.2482128706191,0,0,0,0,0
-92.142454344369,86.4862946739655,-171.462441555193,-56.9765891118075,91.0681157539249,86.5605529438715,174.073912938244,56.7884631144096,0,0,0,0,0
-67.7759801725974,80.2630033486227,160.957483691086,-56.9335322398535,65.5504225681235,78.2865852630772,-157.706688832794,58.1766867368283,0,0,0,0,0
-26.8990891179738,84.4023332448984,138.077562590234,-43.5794573414416,22.3606882409318,83.1460611291449,-133.365611299083,42.1169190049551,0,0,0,0,0
3.58367251690251,88.5427363628815,110.136667498137,-24.0150518754076,-5.49752130462812,87.7188879046075,-105.214842332427,24.5684176126306,0,0,0,0,0
16.2240938484313,92.4048820645996,121.873224831011,-16.1724963134158,-17.0068050727334,91.3130992096883,-116.268653455965,17.0548207628761,0,0,0,0,0
35.555379291616,93.3090060247748,123.267439168994,-11.8469965683171,-36.0186111559546,92.3371011958097,-116.145642066872,12.9898950715254,0,0,0,0,0
41.540828907083,93.9275647213321,133.241433896038,-9.83459337494935,-42.0937680246688,92.752540333198,-121.832012377741,11.366184212694,0,0,0,0,0
48.4440661502201,92.0294004148211,132.161852652713,-9.4369947379748,-48.8987715062276,91.0358890181429,-124.787432296571,10.3392878297934,0,0,0,0,0
53.877101524196,92.0898795705722,138.418918717878,-8.5607557099882,-54.3375586271036,90.6543987814809,-127.326781674225,9.77798902762561,0,0,0,0,0
57.0438728651598,91.8677389785173,143.732836471808,-7.99312878481766,-57.1004160988296,90.4981363172717,-132.396077204967,9.09642850206973,0,0,0,0,0
59.1951548988403,90.3363829367792,145.037908086197,-7.80115908904872,-59.0300520442512,88.8829261201928,-133.684673390972,8.83520183638325,0,0,0,0,0
60.303056463658,87.6406600011039,146.378723226664,-7.57305389648803,-60.2171212968324,86.1518202875976,-134.974803185023,8.53515437484614,0,0,0,0,0
61.4254860710008,83.2450707159016,144.390995559229,-7.58036692522455,-61.3096571523689,81.6455656777071,-128.964476600767,8.92949727832951,0,0,0,0,0
63.2548351228785,75.674114689402,135.562135498663,-8.08212720151147,-63.4642100042131,73.9709273385259,-124.01900001173,9.10075927763552,0,0,0,0,0
66.9451557827362,64.1027580096083,128.063041298296,-8.51599860771282,-67.4956384549688,62.0430674186972,-115.250696514917,9.65342074195033,0,0,0,0,0
72.6717155620344,52.3895488245984,128.459495668953,-8.77690141774599,-73.2800844736462,50.1987317527383,-114.480179508165,9.79388601324067,0,0,0,0,0
81.5426858783892,37.5127750100794,117.834192178636,-10.5618631298787,-83.2720914040685,35.3454070824761,-101.899424656941,11.7053058409138,0,0,0,0,0
100.137877261388,23.3320090116934,95.9906661545008,-15.0287912658774,-105.824908197126,20.7373555993856,-73.2561564397635,16.6663968721043,0,0,0,0,0
156.897555398381,10.1357311884344,35.8907653479577,-25.1976933795993,-173.067569313955,9.75093268885885,-9.22369833642983,26.5976941890558,0,0,0,0,0
-119.249977538283,12.7785310487997,-54.4047085825321,-32.4896270410806,122.644496847987,16.1238976664969,60.1629972105043,32.7356427641571,0,0,0,0,0
-109.215154570911,31.9320556174007,-89.7018928854532,-42.4142003241309,114.138560042271,34.6013536984058,91.5890165025668,42.2793284704999,0,0,0,0,0
-110.377847901817,51.4812269474399,-104.82776982057,-46.8471037830661,113.94408684419,52.4962908247012,107.89237677623,46.9165880333368,0,0,0,0,0
-104.308864129877,66.1820116239669,-121.660799192412,-52.3790268638614,107.744056427201,66.218121604152,124.906714378929,52.5569793586256,0,0,0,0,0
-103.120611681745,80.09503988718,-129.601490338301,-56.9587645905728,104.875479615533,79.1152358015172,133.458114228815,56.8275795482716,0,0,0,0,0
-97.532412033947,90.0406916982367,-136.053075201074,-58.7290093648994,98.5401016412332,87.8913988938114,142.825092672662,58.3081530032015,0,0,0,0,0
-86.1915593986972,93.5446985551695,-153.091659287206,-56.7054759404873,87.5946277054962,90.9230522598984,159.315288459001,56.5346284390475,0,0,0,0,0
-71.7512404133933,94.2245503687896,-170.79076239366,-51.911736167641,72.1032651332199,91.0856056133713,178.078054604242,51.8646145246538,0,0,0,0,0
-44.5276667891428,91.4556765719599,170.549164716657,-40.5695987597359,43.6951150304257,88.9363667694471,-165.279398254423,40.4471099211408,0,0,0,0,0
-18.3209958489924,94.6955675886095,158.731659165932,-27.2377969743532,17.5492083669137,91.1204810007508,-147.350321428322,27.9343289453419,0,0,0,0,0
-6.28306280334186,95.8505150590764,156.413372393181,-21.1012353862129,5.78327038786659,92.2535175492621,-139.820340511064,22.5428716862583,0,0,0,0,0
5.62567842037777,96.5454041857094,133.591542889549,-18.1316662523772,-6.18293877067487,93.9257593221486,-122.821569172833,19.7743084202239,0,0,0,0,0
15.5842238878067,98.9396168504611,141.0975624956,-13.6976665161866,-15.9595476417712,96.5328229162985,-129.115410702588,15.1343440735132,0,0,0,0,0
18.9901005877816,99.4118064406362,152.877071109558,-11.6964872123465,-19.1401425642277,97.2644188536425,-139.216944376149,12.8612306797584,0,0,0,0,0
22.6868180186727,100.498162143877,154.976678524026,-10.705709733073,-22.893074258907,98.8390895322136,-142.542499018568,11.6593191761979,0,0,0,0,0
23.4124798497678,101.095939332846,164.759931454283,-10.0368962687007,-23.6400192892802,99.3013068872725,-147.706669485543,11.0172626908152,0,0,0,0,0
23.6774041679234,101.049620491952,164.733413683135,-9.97958780367787,-23.863769705981,99.3146582751901,-147.71522150733,10.9699268932389,0,0,0,0,0
23.5667260742118,101.12245203141,170.859669846207,-9.79330333845334,-23.8104738793502,99.4548297712868,-153.099070005205,10.5544656253745,0,0,0,0,0
22.0395252893163,101.249208646247,172.623803677232,-10.0933340525529,-22.4891086544337,99.5820070610803,-153.109716151536,10.8452225304125,0,0,0,0,0
20.3311248191555,101.24917014992,171.955543632342,-10.5161095718526,-20.7735011152961,99.3989882928708,-150.869308077189,11.403897880324,0,0,0,0,0
17.058910745748,101.141056057601,177.025179136015,-11.2790719565787,-17.3477348841793,98.934857056168,-154.86128120962,11.9814083118606,0,0,0,0,0
8.61407151799426,97.885042551784,155.035835276879,-14.7378105738175,-9.41540416450005,95.9455877797652,-141.222298066553,15.6369276008538,0,0,0,0,0
-0.501909438648795,96.1258194236268,155.224959413632,-18.4449938936054,-0.628460346804275,93.6510344812427,-138.68034396241,19.565506152835,0,0,0,0,0
-12.8614767353228,94.748953156368,162.784269787488,-24.0918626194738,11.6201537667241,91.6941918130556,-145.914545182113,24.8576091663155,0,0,0,0,0
-31.9405267547545,90.9417300470625,168.928301165552,-34.188721515989,30.8389998167479,86.9433976323141,-153.531410926202,34.726479070761,0,0,0,0,0
-53.8421428340093,86.8691081323699,-179.499806255176,-44.7545880508456,53.7969296589401,83.440757003102,-171.662009850776,44.8842298462099,0,0,0,0,0
-76.8744990122176,83.3224559671122,-159.721996791454,-53.0912386635423,78.6281273281901,80.2532002459037,166.694430920434,53.1653804961625,0,0,0,0,0
-90.2251594788316,73.4995353124557,-140.511220462515,-54.1082650930086,93.4284764665418,70.9727638266672,147.512805240794,54.0392308117171,0,0,0,0,0
-101.181790739553,58.0773238947853,-125.270593243699,-51.7782984608843,104.230897186753,57.6672379898689,128.300760352861,52.0236455750105,0,0,0,0,0
-117.722282135299,46.2560220315569,-107.861687677827,-45.7709797727987,119.449390674416,47.015687022718,108.41271936906,45.9622585426687,0,0,0,0,0
-125.122385360801,33.0295152786444,-90.0548800788082,-39.8994434359856,128.188706773265,34.0261342061125,92.6687630624111,40.0555337072264,0,0,0,0,0
-145.055711142742,22.0949212649317,-62.4565023318529,-31.5106447195626,147.681874291913,23.4665997292515,65.202641874429,31.3306753698911,0,0,0,0,0
-176.536908563875,19.3467923088393,-22.6437335672119,-25.7279640323976,176.39118149198,20.9221750071816,30.684599690286,26.1260030647324,0,0,0,0,0
148.079359568945,23.1602955181507,13.2646751919795,-22.3898210083948,-151.230984227305,23.8386898585661,-0.701981297545501,23.414491643746,0,0,0,0,0
127.170391754936,29.1488893151445,38.2648108076211,-19.0847698404423,-130.868622514495,28.6472860637176,-27.825003262165,20.2074278782798,0,0,0,0,0
105.152423388583,39.2463006155547,71.5470931572377,-14.6864032935644,-108.297630127516,37.2772069280217,-57.6767277429296,16.2085782747023,0,0,0,0,0
95.6994107684138,49.6505550943192,94.8476602381959,-12.1190316669562,-97.9923835595137,47.0278243452776,-78.0673458607949,13.6971492822283,0,0,0,0,0
89.0886258088229,59.9417074955995,109.673526455711,-10.6976616926914,-89.7842315807194,57.521678240894,-94.1203402236409,12.036336412962,0,0,0,0,0
83.6536322192034,68.7741450259721,120.931939597032,-9.74208486394664,-82.968645177908,66.9360172360104,-109.373052268499,10.6648894679572,0,0,0,0,0
80.1183991635027,75.4738467933315,127.263631726865,-9.31058375730541,-79.0084101137031,73.7508388448226,-115.692477544466,10.2433814264082,0,0,0,0,0
76.8530199411571,80.147396712804,130.403420845055,-9.10225884583392,-75.8667826460664,78.5248299271223,-119.807691919932,9.99876686676788,0,0,0,0,0
74.8834168518071,82.9679017931437,135.583768120366,-8.70989621545598,-73.8369334461967,81.1660127653171,-121.524781631246,9.92476961368951,0,0,0,0,0
71.007928069859,86.3513104764879,136.12931078347,-8.65570260923576,-69.7637917663867,84.6276212089894,-121.974036126522,10.0150852549496,0,0,0,0,0
63.5827532029904,90.65306566375,139.083820592566,-8.46620599472618,-62.2071950427973,89.0269393510675,-127.749081392322,9.55447845403046,0,0,0,0,0
48.5886036114053,95.8951446011509,139.583698527254,-8.81248089935363,-47.5186106840116,94.1824723309281,-127.590334300858,10.2488928477674,0,0,0,0,0
40.4044647446205,98.4612747619495,154.817426953746,-8.03021882109539,-39.996141127513,96.5001718813274,-136.653353407505,9.69869236630217,0,0,0,0,0
30.2147989670893,100.460474811429,158.746164062285,-9.0555260208061,-29.4852469356318,98.4986525941397,-143.173203638803,10.333171982775,0,0,0,0,0
16.3132557874374,98.591868153589,146.243094201245,-12.9435430300177,-16.0682544221729,96.1984178445115,-133.304626750057,14.4452529588377,0,0,0,0,0
3.31954607904186,95.6553958633472,148.247006932796,-17.3277025985601,-3.358878953172,92.3214264629473,-130.75569493448,19.4994673913349,0,0,0,0,0
-15.0067388959659,95.6425079336613,168.98209090165,-24.9524482062191,15.1073214883467,92.0675713608982,-151.828422898268,26.1192323055645,0,0,0,0,0
-42.1219216032134,94.661254801802,-171.567246466443,-39.4111197012899,42.6969633366332,90.3565396912305,-173.964442785869,39.6140178180125,0,0,0,0,0
-72.2541112607539,92.7170793762579,-159.10927362964,-52.5894289611922,74.1155752690591,88.2763446366888,169.869514461021,52.5447522741737,0,0,0,0,0
-92.0474320917852,94.9147633035697,-141.239295507379,-58.5605847310957,94.7818579554209,91.8407070485139,149.965126820598,58.2129528578373,0,0,0,0,0
-103.093257345728,90.7873866300288,-131.360706005382,-59.302831104141,105.907379294556,89.3742982889441,137.884668753487,59.0749214952406,0,0,0,0,0
-112.736227507075,80.437277041674,-128.588378508876,-56.9560737387185,114.981727186793,79.9076403519759,132.132487986408,56.8836679951295,0,0,0,0,0
-119.139375047402,69.4736486195421,-125.532818492857,-53.2531340859422,121.152703959855,70.4996388429057,126.369573731397,53.4751571745715,0,0,0,0,0
-131.31585132516,68.1709162561659,-119.688571086787,-50.8068123098041,132.577054083732,68.2630793996532,120.419392776884,50.7125595373699,0,0,0,0,0
-139.161812388436,65.0784097646328,-113.185469146316,-47.6356700587383,139.624581070012,65.563551621017,114.529084324583,47.8601544045932,0,0,0,0,0
-145.404614973717,64.6676364796366,-103.198485097548,-44.6863866526923,145.782760155739,65.8696943335018,103.705485997005,44.9641726683214,0,0,0,0,0
-147.456190918631,65.6219104607395,-98.2687616503842,-43.6666375749657,148.069042663942,66.2587791704643,98.9163414896436,43.742977566238,0,0,0,0,0
-148.526362739962,66.9226702361436,-99.6634745186917,-43.8786445582963,149.017186081259,68.0350803892325,100.173048347263,44.0643615031606,0,0,0,0,0
-146.175456207067,70.8729903080362,-102.419357482223,-45.8571332006416,146.549173686245,72.1352090276678,102.558265778206,46.0512456222158,0,0,0,0,0
-142.911738840144,73.2324361702184,-112.982005835543,-48.810210980975,143.28837668959,74.0024949534082,113.072193033117,48.8975084261278,0,0,0,0,0
-135.975241018132,74.4781769728071,-120.915843369586,-51.7876639524168,136.775633508811,75.8670697754374,121.067398432369,51.9668328942176,0,0,0,0,0
-128.011593659853,76.7788283299091,-129.703023703285,-54.6980932042019,128.528524652916,76.8761243549906,130.878925026386,54.7571952103323,0,0,0,0,0
-118.196009182431,79.1349778844409,-137.940951472342,-56.8577824267649,118.363599482227,78.6892292268659,139.132745828932,56.820864779546,0,0,0,0,0
-107.036926744348,82.5205774493123,-144.626472252813,-57.9383513693814,107.335352874755,80.8869715015958,148.518660374383,57.7431578939788,0,0,0,0,0
-111.069182125778,74.0398009682288,-168.971760929214,-59.6481235686665,112.019701090514,77.3868472920653,165.393256819359,58.0926504512538,0,0,0,0,0
-114.89386816451,68.3233192994982,-168.842468598934,-63.9292378523916,113.227475610789,76.1186957352396,167.578047309007,58.1834243936153,0,0,0,0,0
-114.671272554819,61.2257604167768,-157.706652585118,-63.122592087263,112.168663599357,75.0457055669077,165.171621697671,58.7882482678995,0,0,0,0,0
-112.514203422346,51.5928593438859,-144.049615226007,-61.2665134422483,114.110705439313,74.8832041560619,162.493679118745,57.5735443667571,0,0,0,0,0
-114.225220408164,46.4482323306955,-129.206280485278,-54.6815552851689,115.651959120899,76.6056411273532,154.718707256206,57.4144246341928,0,0,0,0,0
-112.940291717158,37.8499816722193,-116.969037628395,-49.5242731055885,115.255691376448,76.1881412517387,152.289768217321,57.1788895233972,0,0,0,0,0
-117.453182708768,28.1476030443646,-98.284153205053,-42.2196409917758,116.5877799428,75.2440959067441,149.393335791476,56.7794539132945,0,0,0,0,0
-115.537243290836,11.4921412103144,-93.2021135883838,-36.7928385830976,116.108667384039,73.8153144176798,149.429240186212,56.4671484441045,0,0,0,0,0
-141.943375730429,3.46988937656141,-59.639709015662,-33.2799114248202,113.975299239253,72.6863045140958,147.423191003672,56.0558844112637,0,0,0,0,0
-100.538025049144,-12.8421403865401,-93.3827358998213,-23.0300348398956,114.795442959377,70.9986210447821,147.116363994831,55.611492622753,0,0,0,0,0
-105.082689591584,-21.2996968710733,-81.0518646255327,-19.5298164114312,113.002894459369,67.1274550079678,145.005594131307,54.3602526586201,0,0,0,0,0
-103.457998374658,-27.6748605457923,-77.8666378875046,-15.7212892393322,110.13059993907,61.2606446538433,146.185617535126,52.5914445523024,0,0,0,0,0
-103.543278156568,-32.1883551823367,-74.3812791560505,-14.7854179067738,110.778031242186,57.3615798373105,142.728690690107,51.9463340578454,0,0,0,0,0
-103.436699840999,-34.7713858999624,-67.8804172168935,-15.2015757271486,111.878691509169,53.2607167850315,138.847637741971,50.8530949994113,0,0,0,0,0
-102.770948744672,-37.4504437515538,-68.8740505334241,-14.9457557185768,111.830319568344,48.3287510418445,137.879557185581,50.3575938047314,0,0,0,0,0
-102.982820530267,-41.5764061552314,-66.5028812634761,-15.0484401382931,110.832085995484,44.7653515888732,137.710541723997,50.2664636570029,0,0,0,0,0
-103.44909507404,-44.9607561286034,-64.1234302763107,-15.252556984491,110.319715761616,41.9896835871362,137.315491018462,50.4196092173886,0,0,0,0,0
-103.691858502309,-47.4001081819565,-64.8582767921006,-15.1679052739906,108.77755905199,39.9944038148539,137.941012432005,50.6736863023591,0,0,0,0,0
-103.282387686051,-48.1083224820056,-65.2309168241308,-15.1254122883443,109.300574202131,38.464246053172,140.007476123001,51.1058141247555,0,0,0,0,0
-103.212586688901,-47.8310107609703,-65.159282178114,-15.1311377679506,108.559295688672,38.1538085038217,140.368928519101,51.5398948780348,0,0,0,0,0
-103.302006071433,-46.4081528241354,-64.653975083071,-15.1856055408291,108.598370176124,38.1574421042807,140.235999611307,51.7878890300257,0,0,0,0,0
-103.586590040619,-43.9081709507849,-63.7270597825021,-15.3086050280952,108.839808717699,38.9985773845772,140.104517306306,52.092289883977,0,0,0,0,0
-104.026843088603,-41.3883961445642,-65.9846833510947,-15.1246740709096,108.808486864807,40.0762280765441,140.254737077819,52.385237183268,0,0,0,0,0
-104.878694200211,-36.7000747997254,-64.1875688389415,-15.4995287945335,109.723180381022,41.5615473516171,139.898443520651,52.3007734688497,0,0,0,0,0
-105.169799291174,-31.9336532437171,-66.1999871092066,-15.6006455687213,110.23369685757,44.8160725064932,140.108601444373,52.6714284769573,0,0,0,0,0
-108.195985466315,-27.4707949011636,-64.1972275474823,-17.8442044799091,110.645424706528,48.7540376660193,140.533800778366,53.0808758200533,0,0,0,0,0
-112.581324277875,-21.4149942680225,-68.2160917341878,-21.4621807434093,109.789649685243,52.9931491091618,141.848635276723,53.3377865428611,0,0,0,0,0
-119.671970963868,-14.6921651355207,-65.5835330840995,-25.1990422589463,109.502943351215,56.818385144029,142.675914875795,53.3396653851375,0,0,0,0,0
-139.888450331514,-7.25326994539785,-54.4134431409802,-30.7970567608134,109.761683696278,61.7178476334202,140.861619370869,52.3509749882397,0,0,0,0,0
-54.8777443814898,0.705187789942272,-154.771015913242,-36.7537048909504,110.325684377652,65.3506913542332,143.352312000562,53.6187103678891,0,0,0,0,0
-86.4850810447146,13.5130638077591,-119.874196002107,-37.7822564137398,110.371664481713,70.0509315480242,143.260863879421,55.0062506638997,0,0,0,0,0
-101.813056056595,28.6351302240412,-115.885572776666,-45.3527278054688,111.591267968113,74.7009771522322,142.908108545993,56.239764959482,0,0,0,0,0
-94.2142699222803,40.1793411802859,-131.955701860097,-51.1275223668093,110.256339094651,79.7241905802826,145.671347932589,57.5082650596475,0,0,0,0,0
-93.4070715404969,53.5646399653122,-140.529718600135,-53.8672169509767,106.913463575178,81.8406106515614,153.504583188063,58.0421528748953,0,0,0,0,0
-94.4538820410209,64.2750030483114,-147.329859458597,-53.8321962856041,105.52083332866,85.0034893699485,155.740131774212,58.4802274995051,0,0,0,0,0
-95.1996040620096,74.6314293050243,-150.112931500366,-55.3049968041946,103.820368568278,86.9244305436505,160.453884203152,58.6224078860848,0,0,0,0,0
-100.568465188239,82.5158328918417,-150.17417437892,-57.5803172206034,104.291390267564,89.2468149465925,162.525070075519,58.8831965785214,0,0,0,0,0
-104.865693367672,89.3100820811177,-149.032417478957,-58.9731526631058,104.749796606651,91.0528046809757,164.68765830826,59.0360907645674,0,0,0,0,0
-105.477650813681,91.5955901224314,-148.804277695996,-59.29165834145,104.358859412026,91.2885774191943,167.061720617835,58.9921778546575,0,0,0,0,0
-103.488246141134,89.489451804654,-151.433454174341,-58.8835880029039,102.964857495188,89.631957423168,169.750283320997,58.7608770667472,0,0,0,0,0
-103.345418643264,85.1431976440681,-152.087211524678,-58.2855716305951,102.493240080301,87.894535784773,170.090921921828,58.6193405642105,0,0,0,0,0
-101.075496876549,79.9465005645042,-148.058482142653,-57.1041301259383,101.411769756347,85.418307253277,170.649209919101,58.3350268482366,0,0,0,0,0
-97.0769088446381,70.7078439964945,-148.07731591427,-54.4786239198347,100.922261766294,83.5182421396171,168.650345865882,58.0759344398173,0,0,0,0,0
-93.5837603505708,61.9185663989156,-142.053719399075,-55.1871005592136,100.543629635063,80.9866344698243,169.26667263967,57.7766283224717,0,0,0,0,0
-90.6184467034395,51.8337805080795,-139.092289406985,-54.6536442877155,102.207228756672,78.8139015694255,169.493572934383,57.7221680214895,0,0,0,0,0
-88.8335195365857,43.106328678205,-132.390663246907,-52.2237591598943,104.633529521035,77.2466386961289,169.341118777961,57.7634045158059,0,0,0,0,0
-87.7832764393009,32.4839762022627,-131.224704587024,-48.6437089483882,106.297254268727,75.9258154554157,166.728752529543,57.5798676130851,0,0,0,0,0
-84.3257599626606,24.0622208703357,-125.123942830297,-43.5946659186331,107.413087611762,73.8524487157412,164.243670396457,57.1644220324737,0,0,0,0,0
-83.450106892833,15.8904349852055,-119.297298514478,-38.7076518227702,108.78511073241,72.0583920499261,159.054422459132,56.5533615046262,0,0,0,0,0
-50.3233012264,2.77722515161065,-152.905747623111,-31.3196729596061,109.114512193821,68.5057646523944,159.226676616364,55.7776740877492,0,0,0,0,0
-146.382156979263,0.00822622878263246,-61.0699626806864,-28.3742798581239,108.896037630616,65.5047187965049,156.981855092065,54.8024528488625,0,0,0,0,0
-130.370528197277,-7.47473079360489,-55.7580024160354,-28.671425506458,109.734016869058,63.0889613152925,151.607850115353,53.651709747353,0,0,0,0,0
-111.578664265404,-16.8456811329374,-68.3409187184117,-22.0756534381473,108.709599407611,57.8439023833538,152.295053457153,52.1401487470746,0,0,0,0,0
-106.353664367882,-23.7915012091166,-68.4324556198789,-18.002354335537,108.765425820753,53.6471750524774,149.190515212332,51.5472726815892,0,0,0,0,0
-102.580710200194,-28.6450487307696,-67.1989175531773,-15.7357419693377,109.792689845876,49.9888962327984,145.450017118081,50.6754313302824,0,0,0,0,0
-100.221921398241,-32.2505980325221,-65.7996759507851,-15.5494079722325,111.485226146412,46.6366348056981,141.089144581188,49.5936322453713,0,0,0,0,0
-100.671770455217,-35.8239118960537,-66.222674857846,-15.2753129927107,111.677661391428,42.357498338081,140.059391287586,49.0474190775432,0,0,0,0,0
-102.40047458448,-39.6478607678657,-62.9554433955652,-15.4844609457107,109.335112718564,38.3684392402021,140.921464371604,48.9602499628024,0,0,0,0,0
-103.156865013714,-43.6464564313616,-63.8134666599946,-15.2987776138336,107.035323734496,35.0480285754593,142.081508377223,48.9068337645713,0,0,0,0,0
-102.892248180939,-48.1647532688279,-65.3712227508456,-15.1062316147001,106.255001833754,31.7289440190631,145.015322940138,49.0388320808341,0,0,0,0,0
-103.493886752704,-51.4297093648301,-63.2784165106871,-15.3768650749018,103.06164546711,29.3841270426414,147.275965430614,49.3916378002407,0,0,0,0,0
-103.569857740938,-53.1091615606423,-63.8877673477294,-15.3468704680016,99.0141630171238,27.319099455368,150.550309350703,49.6551240658236,0,0,0,0,0
-102.982540505871,-53.4637309128603,-64.1402052157032,-15.3243940773863,98.1044616226165,25.5030470469091,154.015754450154,49.9698071559247,0,0,0,0,0
-102.745468313154,-52.7440378992996,-63.9295013155851,-15.3283968480196,96.9121568432857,25.1229058454745,155.016515919184,50.1511419520024,0,0,0,0,0
-102.107819345585,-51.161787509905,-66.5749655535672,-15.0018662582903,97.0491183847876,25.1871682572665,154.785682007928,50.4254743526054,0,0,0,0,0
-101.864085904126,-49.2988347869269,-66.0438611707755,-15.031759597912,97.9863396732953,25.5660818222227,153.88656808889,50.5899015158214,0,0,0,0,0
-101.762115524213,-46.2830746573703,-65.146753294004,-15.1184037567183,100.790910496245,26.4219440470709,151.29551498838,50.797622044776,0,0,0,0,0
-101.690995794477,-42.763398496647,-67.386600566072,-14.9105632264237,102.990556757111,28.1328441160232,149.421485473882,51.0814495283645,0,0,0,0,0
-102.171287447925,-38.6676722189328,-69.4713244809507,-14.8210041749968,105.29874297952,30.8245924008883,147.532569515935,51.788480185362,0,0,0,0,0
-103.173282621158,-34.0438819467875,-71.3804677422259,-14.9151996120926,107.299626368231,34.5657063621625,146.288786111474,52.365941164835,0,0,0,0,0
-105.678750717332,-29.391401963285,-69.8755995122502,-17.2712817184444,108.036526992447,39.6743841398886,143.623492188035,52.7550211666878,0,0,0,0,0
-108.420374777836,-25.5549136746588,-71.4526754692045,-19.0464222534683,108.674349240367,44.1645468041663,143.965097707529,52.9725381814242,0,0,0,0,0
-113.30834557677,-21.5535088332456,-71.4237158553747,-22.0312984504102,109.107206036266,48.7442886325032,144.542097683215,53.0179596901361,0,0,0,0,0
-114.543798242122,-16.1753902836919,-73.5183196364205,-24.0846473127772,109.421360195994,52.9424536268874,145.138946633491,52.9439645552357,0,0,0,0,0
-122.351697540508,-10.5245764584447,-73.4132072986963,-27.6667189576939,110.595582917671,58.1370269275239,145.982601308781,51.6261037252207,0,0,0,0,0
-145.116676632964,0.205190820884383,-63.3043483003939,-31.1877774312309,109.847398432741,61.9144349901252,148.973163236489,53.0343165545898,0,0,0,0,0
-77.6348553062575,5.55667048522551,-133.471512675196,-33.6324639289113,108.947829936234,67.1140797784352,149.08705872858,54.5647448384495,0,0,0,0,0
-101.471711484234,20.3244273113708,-115.666306315573,-40.9526382371348,109.21605336698,71.1140759241237,151.370430238138,55.8184907562509,0,0,0,0,0
-99.8944958848029,31.8601501358094,-124.579777722215,-46.4705087537953,109.044268547888,75.7841743908705,153.672661078144,57.0238755414863,0,0,0,0,0
-97.5872443228383,43.384448056182,-135.860932338661,-51.2255199583619,107.041177814596,79.3508753788356,156.243343913921,57.7164075188506,0,0,0,0,0
-94.2826415594923,55.1036234648166,-145.924909261099,-53.4026444010196,105.149893252504,82.0972658784264,161.113967041247,58.1676828845764,0,0,0,0,0
-97.0501383839805,64.2844587150186,-152.358866555967,-52.878070545753,104.825137370941,84.4612482805646,163.25608829552,58.4832043279611,0,0,0,0,0
-98.9441561411559,73.2969602466631,-154.939689167343,-55.6726259266816,103.340160146219,86.134829743207,165.512052527205,58.5435177799081,0,0,0,0,0
-102.154988177448,80.4423678333918,-155.475428873382,-57.4808167812967,103.803814354293,87.8977058838499,165.18947524448,58.7352787433713,0,0,0,0,0
-105.160084561506,86.0899371149272,-154.377634488544,-58.5836977320656,105.575732823266,89.1593150741841,164.98542972411,58.9885084963576,0,0,0,0,0
-105.93703693625,89.0940447653678,-154.006542062046,-59.0064281009415,105.066027085573,88.4569513621665,167.521663895778,58.9032453193929,0,0,0,0,0
-107.163862341786,88.7593974823103,-154.057208363719,-59.0430915723685,104.646287156586,88.0780605207523,165.149692320619,58.8287795517476,0,0,0,0,0
-107.578984248355,86.7337605707069,-151.771622503089,-58.791679842663,102.612845240974,84.3698201565052,165.881674809894,58.3030844643426,0,0,0,0,0
-107.09904786313,83.4929560314989,-149.581418702827,-58.2317253551451,100.283749586539,78.856639648713,162.330554948866,57.2215078253998,0,0,0,0,0
-106.421544630023,78.9432675451948,-147.533570258205,-57.2728168036532,96.5129624393254,68.9695496876194,155.293425013596,54.4544586060618,0,0,0,0,0
-106.735901747062,73.1237701097267,-148.001831744221,-55.9757222180643,96.5399143188055,58.3270277743935,145.547757888365,55.0266220529426,0,0,0,0,0
-106.355631448066,69.1032691265578,-145.838084696753,-54.747806095756,95.2321580512031,46.2065164613433,138.53338359005,53.0234093286292,0,0,0,0,0
-107.155150428796,65.6977944398574,-143.162071655454,-53.5800277755888,100.216201787198,37.4817339819714,126.046392719892,49.0250771784447,0,0,0,0,0
-106.582451390009,61.0470452930392,-143.703582705921,-52.0638855238309,98.734082309205,24.1714338302022,120.103317621237,43.724095333746,0,0,0,0,0
-108.526686579919,57.8647857331717,-140.19743823412,-50.7065148400536,97.1149253375921,13.5665892621459,110.782892369995,37.2288799152831,0,0,0,0,0
-109.023419997613,54.4068139403924,-137.163232356817,-49.1013439084724,119.206354734203,2.553665271044,80.0701532246993,30.7848158698436,0,0,0,0,0
-109.802606869699,50.4787380874951,-133.762202127571,-47.1695590065727,93.4847887972679,-10.6176835824485,94.296346030413,21.8480326189779,0,0,0,0,0
-111.275499085158,46.6496322414842,-132.478767218209,-45.7622340147545,91.9152630556784,-18.8395798996227,85.5908788418511,16.8341155358414,0,0,0,0,0
-111.965001743931,44.0930286885943,-128.188273132395,-45.267718868021,88.8797164981156,-25.4915156551621,86.6732892142518,14.0531943488261,0,0,0,0,0
-113.651809418932,41.1347280061889,-128.940626166728,-45.480750506527,91.1686302030503,-31.2732740249158,80.5917006481059,13.9971786242732,0,0,0,0,0
-113.755613051965,38.3453818979925,-127.832052339047,-45.5022338050639,93.1694066284495,-35.9471530227508,75.6606787489312,14.1865872887551,0,0,0,0,0
-113.126775067532,35.5738667167201,-127.293922568063,-45.7391028173207,95.1408212977622,-40.1362794287354,74.919005857177,14.0927947955539,0,0,0,0,0
-113.631595531993,32.8242088811707,-129.011902350906,-45.9870325196113,96.7057352073806,-44.5606695760489,74.7787819449053,14.0268779078808,0,0,0,0,0
-112.020183801071,31.0084199060654,-129.748400128193,-46.4026905975234,98.4758454899447,-48.0950404096558,71.488180381385,14.39267922892,0,0,0,0,0
-110.178344580899,28.9160838354292,-133.742737355124,-47.14211932248,99.648329699892,-50.6932601652456,71.7524455399872,14.4059417210737,0,0,0,0,0
-108.953552223575,27.1837675501444,-137.371861184606,-47.6478091485797,100.761371228985,-52.5424720742852,68.8548987515366,14.7683463639301,0,0,0,0,0
-107.195311873478,26.7877036729895,-138.835663008283,-47.9653510996154,101.129278961713,-53.0757693294034,68.9351322195243,14.7767622440993,0,0,0,0,0
-107.471632164107,27.2290851507557,-138.595731128752,-48.1707002363364,100.887364095913,-52.3855586490904,71.8965403119191,14.4432634082957,0,0,0,0,0
-109.365144467843,27.5367956994013,-139.763677356796,-48.6014816711676,101.180185865221,-51.5783749598659,71.6038691169895,14.4629943936039,0,0,0,0,0
-109.855970373081,28.6393898944669,-139.510900084122,-48.778935412739,101.12602027071,-49.6448929062281,71.0807581978428,14.4877460256363,0,0,0,0,0
-109.644610320683,30.8474692821318,-137.233637327399,-48.7378013955845,101.127239706008,-46.3459330954088,73.4724561075088,14.2337271070818,0,0,0,0,0
-110.435348049436,33.3837579427556,-137.019271720393,-49.1471589458564,101.283271973755,-42.3498402955889,75.8704354342825,14.0636403881701,0,0,0,0,0
-110.961109261329,36.9569449811573,-137.348221037443,-49.58187454896,102.456202859451,-38.4899400287175,74.4727230912605,14.3584701876708,0,0,0,0,0
-110.987171214903,42.1358114066441,-138.53820506357,-50.0220839963169,104.498166887554,-35.0692937759362,76.1624590183469,14.4761460435883,0,0,0,0,0
-110.052766286839,46.6022897358921,-140.200330430389,-50.374155120064,105.645639697259,-32.494761823615,78.580647016177,14.5350992455944,0,0,0,0,0
-109.670433824914,50.9575271502823,-144.184921178757,-50.7978520149111,110.484307408351,-28.0998185666222,78.7698712870595,17.0711821453593,0,0,0,0,0
-108.879606524314,55.2368862329446,-142.789071721035,-50.1999433809492,111.970181956908,-23.2920096046269,84.6869100335194,19.5616750093592,0,0,0,0,0
-111.038498881664,61.4058427654188,-141.734803594832,-52.2093442065056,121.547589019216,-15.2682342350162,79.5482780862737,24.8762894768063,0,0,0,0,0
-110.713541739149,66.4278141153469,-141.857982252335,-53.8394686424598,178.232481467801,0.0450033508842296,36.3750087532669,32.7990332966638,0,0,0,0,0
-110.566269684242,70.8966102928975,-144.502353615226,-55.3320470913091,-17.1595865918491,-5.32709330896211,-110.465096008272,37.1088817565828,0,0,0,0,0
-111.309446423018,75.8417879045635,-144.26256190183,-56.5922523596782,-50.8458310169253,-22.7754111048498,-69.1895560869905,48.8571484106632,0,0,0,0,0
-110.776111700761,80.3780063734168,-144.31727258598,-57.5988792306875,-56.9387856124148,-33.0272597325466,-54.5182604470902,55.7216340931769,0,0,0,0,0
-109.478730323763,82.9520296678325,-149.425281488371,-58.2332365368094,-62.4417371710403,-42.9977107718344,-43.5712626120304,60.0594275615127,0,0,0,0,0
-107.466373832746,85.3040279386824,-154.373068800345,-58.6246244285641,-61.8944721857416,-52.1736060614179,-34.3437664933656,62.6240636372145,0,0,0,0,0
-107.069321470965,87.5273746427624,-159.083049257083,-58.9313999505894,-62.0137718454191,-60.406991767425,-27.6941157559149,63.7346589605338,0,0,0,0,0
-106.549452537223,89.8657212774944,-161.257201093083,-59.1176832460848,-63.32301738265,-68.8868178974565,-22.55242210692,66.8619090263638,0,0,0,0,0
-106.088661573887,91.1713301821798,-163.509598176891,-59.1641587412259,-63.5178775845724,-75.578176350435,-17.9528364099032,68.8859026417713,0,0,0,0,0
-107.354320250414,92.5762941677673,-163.40612002337,-59.3345797299519,-59.972017899737,-81.6092109064341,-18.0391597112268,70.1315931986215,0,0,0,0,0
-107.087905296362,92.4450985422511,-163.404555428113,-59.3095990119345,-60.2856760574985,-81.8231745287213,-15.8831574322815,70.3598729622212,0,0,0,0,0
-106.653769602193,90.7244421078374,-163.585643868382,-59.1792695379333,-64.6367638494836,-78.7285801309192,-15.5258601784965,69.531953866477,0,0,0,0,0
-107.08081673134,88.4841612106524,-161.420450049821,-59.0399536212544,-63.065450067059,-74.2722855090752,-20.226100971321,68.3888932823313,0,0,0,0,0
-106.656598626727,85.2689878308601,-159.349446102268,-58.6530669256453,-67.5764178056092,-64.1267759892746,-27.8331821900177,64.0601671089508,0,0,0,0,0
-107.072135538481,81.1709905266103,-159.775649924767,-58.1416056331431,-71.3439309157135,-51.1972056846659,-35.1301580413502,62.5394798169256,0,0,0,0,0
-107.85439800876,78.788853225149,-157.421428316546,-57.7176564822595,-69.544832457017,-41.3952029323071,-44.4305473756017,58.8843045864799,0,0,0,0,0
-108.155535369531,75.8334964073926,-155.118745675141,-57.0651183211224,-66.801951589918,-31.4066713959256,-55.0312340901038,53.575672660174,0,0,0,0,0
-108.110530651259,72.5357386930314,-152.858848719546,-56.2050257618031,-60.7019840252086,-21.1645605024995,-66.2982448214797,47.4231556241155,0,0,0,0,0
-108.179270481227,68.2006780156821,-153.178655571133,-55.1490893388278,-42.2824572482664,-7.81682396941844,-90.5063653239844,38.30132522744,0,0,0,0,0
-107.027992551229,64.2061141331939,-151.323398394931,-53.7914870096277,78.4556823831576,0.479257713839786,141.83313303638,35.965034190254,0,0,0,0,0
-107.399950106861,60.6405502905758,-148.800228502105,-52.4584983895686,123.340491786222,-7.62697935149618,73.7337092963908,26.9671359455474,0,0,0,0,0
-108.76607906307,56.7039862266338,-145.655177763488,-50.8574311203137,105.072423259686,-17.0739688512327,82.6303179610816,19.8062882176633,0,0,0,0,0
-109.220583917331,52.9587569070075,-142.747857309516,-49.1498154807045,100.911332904857,-24.0006709166681,77.1831016368205,15.4066105490443,0,0,0,0,0
-110.38780538551,49.0598350753016,-139.205116676942,-47.2213948948838,96.0436636547111,-27.9256472291635,77.1379524809498,14.7257804072673,0,0,0,0,0
-111.169576805776,45.2556576538967,-138.435597085644,-45.8199668753527,94.5165365964118,-31.0794731487164,74.5905485782749,14.6546794159768,0,0,0,0,0
-112.072809013216,42.069699370994,-136.880592560006,-45.5949961116149,94.5066685703585,-35.2027780915391,74.8392617962143,14.3266530250787,0,0,0,0,0
-111.985586347396,38.6342920852201,-135.825326588511,-45.5895124573194,94.5767937637578,-38.8691672933493,75.0842135219683,14.1166724343232,0,0,0,0,0
-110.359877419707,35.1962096510156,-136.103821014706,-45.6414607672024,96.1485681655213,-42.7713332377637,71.3737878698496,14.423598479272,0,0,0,0,0
-108.610516827972,32.2952459001596,-136.834857086759,-45.5933376463672,97.2906047629228,-45.4253733227904,71.3621004102942,14.397744591687,0,0,0,0,0
-108.440894245893,29.5377761374492,-139.334008019013,-45.7262327784442,98.0386909283864,-48.362523800731,71.6799986108773,14.3684663890711,0,0,0,0,0
-106.668893688834,28.0654688658477,-140.491336364308,-45.9841362809873,99.1322487634284,-49.9663818201374,68.5513828264872,14.7414782704478,0,0,0,0,0
-105.233481447174,26.0840914846447,-144.361324976711,-46.2977098445499,99.6438010410734,-51.694806050449,68.8701228772491,14.738001618688,0,0,0,0,0
-103.388672911161,25.2323295386844,-145.868876786268,-46.4647576440113,99.9274835761112,-52.7572169957854,69.0941674049199,14.7389897803064,0,0,0,0,0
-102.789670418354,25.094768846306,-146.315111154605,-46.6953130600472,100.136626726916,-52.6629042397036,69.0236899808967,14.746350702142,0,0,0,0,0
-103.652639545088,25.0714688171546,-148.295012305607,-47.2790545106028,100.495325669223,-52.5214938538675,68.9065852333472,14.7594046573857,0,0,0,0,0
-104.698647120889,26.0848497791655,-147.375455120592,-47.5825320697849,100.610891130971,-51.3393541980671,71.6764828139511,14.4404752349596,0,0,0,0,0
-105.576254401372,27.1398036805042,-146.695068152335,-47.7666253490788,101.278985018705,-49.4270971374225,70.9771589092617,14.4991074500913,0,0,0,0,0
-107.827422425066,29.8848134263704,-144.930271216658,-48.4506264531435,102.286109372994,-46.3100836588577,73.0489009760728,14.3064195662591,0,0,0,0,0
-108.790704955018,34.0299765079465,-141.849858110536,-48.8815663699922,102.683109667106,-41.7478283007701,75.1000748085079,14.1970550818108,0,0,0,0,0
-111.225403878727,39.2240052974921,-141.012294108174,-49.1695150641226,106.156212799706,-36.8173344607092,72.0862479624936,14.7865314834831,0,0,0,0,0
-111.426693109,43.6688036522867,-142.023810985184,-49.271339969138,109.340181107044,-33.7652862735608,72.9243572024827,15.0577392539279,0,0,0,0,0
-111.415711111835,47.9219690436933,-145.888343329726,-49.7185823428138,115.861681812965,-28.8852080694162,71.9310925089915,18.7295158025391,0,0,0,0,0
-110.952649081236,52.320489172217,-144.525089137824,-49.2101893613077,119.804331567448,-22.9340984592796,75.0948909013651,21.954521177616,0,0,0,0,0
-112.473153062593,58.6126620318788,-143.739471045683,-51.4973530347816,135.089667231043,-14.8174164007032,64.6124614951269,27.9633643134252,0,0,0,0,0
-113.545776120946,63.220576847664,-143.355148194962,-53.0228970216788,-160.687457879875,-0.0195992128509772,17.0211905311756,33.8278868658272,0,0,0,0,0
-113.129866763993,67.7843442653578,-146.283015293989,-54.6605999784348,-33.5396132436203,-5.33294692481911,-93.668514846181,39.5619025583491,0,0,0,0,0
-112.907384508127,72.6428498741512,-146.434165575902,-55.9659560470432,-54.7854284839224,-22.8184631381624,-63.4067667563511,50.5523450711527,0,0,0,0,0
-112.661302956272,77.286772573557,-146.55231200035,-57.0631796924165,-57.055596634115,-36.8228196118558,-53.1006826937606,56.1671699030984,0,0,0,0,0
-110.981163516648,79.4971509660329,-151.879173670653,-57.7452711453789,-60.399777575744,-45.8505117814882,-40.985082673245,59.9704451759864,0,0,0,0,0
-109.66777064146,82.4557602973915,-154.416518662841,-58.307891601608,-61.8960951668615,-55.3212180447664,-33.1164680759243,62.127362913328,0,0,0,0,0
-108.094105271518,84.4379083423545,-159.346050207753,-58.6430603328282,-62.134502896273,-63.0571687708871,-27.5124661661451,64.531334366855,0,0,0,0,0
-106.72987665545,85.4852650055081,-164.221686361625,-58.7641396787144,-62.6079732503868,-69.1540320310377,-22.7374304774038,66.9738724294032,0,0,0,0,0
-107.340211741448,87.9793366145348,-163.90918156563,-59.0302279678466,-60.8605516443694,-75.2748637724408,-20.6041664897768,68.7453503447914,0,0,0,0,0
-108.949570496187,90.0167611724354,-163.71192140814,-59.2822553001278,-57.7653325456647,-80.8602603865163,-20.4944668927642,69.9008559809791,0,0,0,0,0
-109.053564214383,90.6503829037902,-163.662285187528,-59.329259195047,-57.2932710437411,-83.1307333030128,-18.1284264996459,70.5037705230226,0,0,0,0,0
-106.505288748197,89.9415713147772,-163.677699922471,-59.1165853736547,-58.7474676487037,-83.5283378772822,-17.9444238198423,70.4731622581282,0,0,0,0,0
-103.605930830413,89.1445971283956,-168.627846976954,-58.8051357080664,-64.5694607856461,-84.5846868385439,-9.03992327497247,70.7170584564345,0,0,0,0,0
-103.38309966286,90.910105333951,-168.766501385427,-58.865028210171,-64.3828133401476,-88.1244850904924,-7.61946114479349,71.0244710472721,0,0,0,0,0
-100.980612971382,89.9254803125695,-171.245757771453,-58.5378290680675,-66.2159006520512,-88.4059930539222,-5.50037859765587,70.8647608829735,0,0,0,0,0
-101.162657930089,87.954819061221,-168.879350744677,-58.4627718600644,-64.7313635503273,-85.8700396469505,-6.89971853226143,70.8930816237349,0,0,0,0,0
-102.966129666127,83.7846668618812,-162.269777017564,-58.20910991221,-60.9557297094226,-83.0212025466813,-15.7032567587459,70.4553758580126,0,0,0,0,0
-103.544949693801,74.6933627984615,-156.233862451252,-56.5402610749219,-58.2799792001741,-74.6407140696869,-23.3143115658228,68.4257236021754,0,0,0,0,0
-103.075765712441,67.0260712091816,-149.761750320221,-54.1800636386675,-56.3874413659743,-67.7764975046306,-31.111478951237,65.5243251375667,0,0,0,0,0
-103.606892365924,60.6994130088135,-145.00711322796,-51.8443390481505,-52.9738313565271,-62.8323303050933,-37.3983959541281,62.8048513028293,0,0,0,0,0
-102.735716621044,55.066739733658,-140.414069228326,-49.2828692582474,-50.3097797721708,-58.8884479177763,-41.4167744168198,60.5587488665787,0,0,0,0,0
-105.106913494471,51.0057642188559,-136.079536013156,-48.3476204808192,-46.5433476361767,-57.0736399537566,-45.745224477096,58.7029484132446,0,0,0,0,0
-109.363810066608,47.8084650346834,-130.419972982252,-46.7074752234828,-42.8021206014483,-57.5571869321549,-51.9383112130057,56.7650059920811,0,0,0,0,0
-117.256497574882,46.8448308817978,-119.359248466529,-44.1274695343116,-35.9213753438382,-59.5262765095918,-59.30728454348,54.2468779577757,0,0,0,0,0
-124.828440372456,47.9847510313971,-107.759465090424,-43.0108928090144,-29.7112188257557,-63.5902352223966,-67.8318005705925,51.1612506008012,0,0,0,0,0
-133.024598836738,54.5335014531514,-97.6667863716331,-43.4459275025519,-24.4077364537624,-69.4333514049516,-73.2164719319717,49.0153373649316,0,0,0,0,0
-135.996732633179,59.267903329501,-91.5036215131191,-43.8137954527042,-22.5686344389233,-75.0177155395112,-81.0713591308887,46.3320179938568,0,0,0,0,0
-136.770882039493,66.0579413803035,-88.9104027283045,-45.4552590041305,-23.2418481953243,-82.4507943267841,-83.7169426781919,46.7617566553165,0,0,0,0,0
-133.219977077576,71.0344659584455,-91.9834896491785,-48.1976392268514,-27.2527864709476,-90.7025956519596,-77.1574659859699,52.1658024097697,0,0,0,0,0
-130.863104939189,75.5043498692298,-98.5741010945985,-50.7564647377868,-29.5327325429137,-96.7157977239769,-72.7461140718109,55.5227645066861,0,0,0,0,0
-127.144275770572,80.1332555586433,-106.890410997458,-53.6581257543224,-31.5454513530211,-99.174692440646,-65.1449472305385,59.2444549018178,0,0,0,0,0
-122.466526379244,83.7704452403643,-117.417901406066,-56.2395985627263,-35.2502578767084,-99.509439076379,-60.3771015736252,62.0195070489954,0,0,0,0,0
-116.902009978309,86.8155886319369,-126.397203052543,-58.067967027425,-38.3624275903769,-98.9132944729503,-53.7131158898015,64.6866793367706,0,0,0,0,0
-106.106634503586,88.7607954587033,-134.163714641645,-58.9805166423374,-45.5272136352586,-96.4945396359786,-48.1988764792853,67.070786358106,0,0,0,0,0
-88.4461650668876,89.1175580802575,-151.847417255987,-56.776628527908,-58.8807768548871,-90.6965095996974,-40.4229778890897,68.5328921800834,0,0,0,0,0
-64.1354969072392,93.1441747967663,-163.882004645889,-49.5103122125922,-81.5895374584983,-81.5292500108723,-26.7329786206689,65.8664398230732,0,0,0,0,0
-47.594127670048,96.6677331672248,177.135119296309,-41.7531128180922,-102.738368497771,-75.2748507124564,-15.9636905661313,59.2131878561362,0,0,0,0,0
-31.2894477246345,100.334119503596,159.751003336993,-33.7730078305071,-121.350743000062,-68.3704855543195,-1.8244827329795,51.131063016473,0,0,0,0,0
-12.8251722562725,100.319236229351,144.973466656134,-25.3418250181724,-143.479178287715,-64.4489328992722,10.6632603713874,40.5900996414814,0,0,0,0,0
3.04948857749855,102.089219370089,133.653706982065,-19.2801465364743,-164.944471674074,-64.7657429788483,24.6739899084514,31.4488093014898,0,0,0,0,0
14.6542214840658,103.163291969229,128.757795441582,-15.9129243372252,178.833260304317,-65.9633904571861,31.0055387928168,25.7592431650103,0,0,0,0,0
22.8643726782819,98.9567889743876,119.304449483828,-15.2581992600005,166.375695198716,-62.2408204309988,39.5584335534144,22.7531349104489,0,0,0,0,0
28.8011822429828,98.6191658273362,118.382789891226,-14.1997941800135,157.478267010679,-63.7336892104092,46.1637300073139,21.0554325555564,0,0,0,0,0
33.6377712412318,97.8741757767756,112.671839373339,-14.5681282737428,150.409503123976,-63.6798078548727,49.2474694461301,19.8598172817237,0,0,0,0,0
36.2814709006826,96.3728346536153,113.182355322299,-13.9332499047619,146.667249710639,-64.4615867470113,50.6960331828778,19.3204275497405,0,0,0,0,0
37.9872849217039,94.7918668464549,110.378889865152,-14.1579873286313,144.501937210151,-65.9347828798393,52.9385164087155,19.0587639349331,0,0,0,0,0
38.9132810042311,93.8487972738955,107.51797519121,-14.5788966577088,144.259559093618,-66.5995582028474,52.6381055007565,20.1138330608871,0,0,0,0,0
38.3198789866992,93.6059630052039,107.31795525451,-14.6745491213842,146.739412567706,-65.1270351288738,52.0900977149748,26.5062752582308,0,0,0,0,0
36.3076587521608,93.8310914928046,109.810094883161,-14.4068880388697,151.412027463546,-61.4511695296794,51.2970568542336,37.144021824853,0,0,0,0,0
31.2483031612375,91.3797799550356,118.998561513012,-20.0074684822702,159.971417622094,-57.2696078967549,44.3535764581933,50.626687100686,0,0,0,0,0
23.2622933578685,87.233477599321,129.379851722753,-31.954194369612,169.926356335829,-52.0961291202871,39.3537248242436,63.4793659004916,0,0,0,0,0
13.1256620759275,81.8673366098879,137.7539654443,-47.879544717871,-175.824415517154,-48.4850035192269,28.0135637850956,80.1454034626499,0,0,0,0,0
0.23472469354553,79.4754352833578,148.188828363487,-68.0309450515128,-157.328529188918,-46.5722952742267,15.3562497300195,100.699053211152,0,0,0,0,0
-11.1994159784579,74.0886748112669,151.952638630084,-82.3873265810134,-136.828872878247,-44.6936370621628,0.145613132617768,114.49190460595,0,0,0,0,0
-20.0941606196871,71.8285708648478,156.240219993784,-92.2961921147387,-120.453294750056,-45.1406867946301,-10.7516089218049,125.077262801667,0,0,0,0,0
-26.5649732660551,67.2332526487893,158.834394828666,-99.834658256069,-105.187133840573,-45.2875555522776,-24.1363985529574,132.6799472746,0,0,0,0,0
-29.6772560149069,65.2246517464249,163.236394037156,-102.494471150964,-97.3062946228508,-44.6428901217828,-33.7118430202727,134.894472910272,0,0,0,0,0
-28.4636373499469,60.174893776603,162.052292830259,-103.545724474654,-91.1224436692073,-40.9773052379238,-41.2933350056779,135.15936584726,0,0,0,0,0
-26.6041019555873,56.1547284903616,160.353220574981,-102.915556209327,-83.835486010889,-36.9850706351888,-50.1814697988301,133.17837913579,0,0,0,0,0
-26.5318361232791,52.4083423267531,158.94113375435,-102.866533584953,-76.0614269323335,-34.2776793287228,-58.0256398115114,130.735321640777,0,0,0,0,0
-27.9537587741794,49.3616210825699,157.910628007459,-104.29875391665,-64.2636104430635,-31.7716828169885,-66.6598968608463,127.882169191401,0,0,0,0,0
-29.7514084984986,44.3174216215987,154.520255426958,-104.160741687147,-54.9860618930568,-30.8527108293731,-70.7732285909987,124.959488632121,0,0,0,0,0
-39.2751015474876,38.1971629488687,156.789908980141,-107.271295939524,-41.892641809709,-34.285757724288,-78.3389313057005,120.755566325243,0,0,0,0,0
-54.6331619910858,34.4839710972501,162.967142909871,-106.479688666073,-32.8441803719418,-38.0017225484671,-78.5372131701554,114.304145638554,0,0,0,0,0
-76.731287266695,32.5288918619587,174.816306328661,-102.848273561925,-27.1691024958378,-42.7620088177053,-76.0305879121125,105.031640809043,0,0,0,0,0
-99.5878121581983,33.7923811115384,-173.30383949775,-96.2026166204633,-23.5547634336812,-46.2253766098873,-72.3388866844665,97.9780771790207,0,0,0,0,0
-118.318870498018,38.1312883770856,-161.94390512058,-87.2533460028978,-18.367846796034,-49.6183680785808,-69.6498869086175,89.9428219419571,0,0,0,0,0
-130.551613734613,46.3895783522074,-150.149385523416,-72.8374991477489,-16.4613696797204,-54.8629785904676,-67.5757120821365,74.9537216688658,0,0,0,0,0
-136.271783026029,54.5466271155412,-138.317484973468,-54.0097408211897,-14.9423168812307,-58.9491555611979,-65.5913532027885,56.0406805588864,0,0,0,0,0
-141.724517097279,63.3694962686903,-124.353766185962,-48.259684384841,-14.0022898946943,-63.4229535659306,-66.4414396096862,47.8295934707007,0,0,0,0,0
-144.746355273271,71.7276882803655,-108.77463186955,-47.3746767751534,-15.6716462686034,-74.1752532885456,-72.4553969066869,47.1338591623656,0,0,0,0,0
-143.839455268817,78.9886487968496,-96.2478464345839,-47.5176191946445,-20.3966986156969,-85.2009170064532,-72.6956966920858,50.3057023927959,0,0,0,0,0
-142.790053933024,81.773556368342,-84.8534247958122,-46.9705143553935,-23.5624567325975,-92.7174583810559,-73.8324497130141,52.1274292012032,0,0,0,0,0
-143.570334832432,83.0325924840354,-82.6768097495393,-46.6418829781277,-24.6600673931689,-95.9348594038806,-69.6537743754891,54.5810775736651,0,0,0,0,0
-143.171600708998,82.557187339095,-82.592503048359,-46.6933833559166,-25.562606123885,-96.3241319207233,-64.1702749778947,57.0442548745111,0,0,0,0,0
-142.209630577596,81.8200992080052,-89.4136650068005,-47.7780738738855,-27.921315313672,-94.8733161009474,-59.4796867098004,59.4139429288864,0,0,0,0,0
-139.159709032101,81.0451723402806,-95.7192149433772,-49.4501022371215,-30.2859371662322,-93.5581657008561,-56.5999590076383,60.9852253546552,0,0,0,0,0
-134.261044632348,81.6635518071856,-103.815493296377,-51.9986133353712,-33.3013742761141,-91.5104824817729,-52.1381157848283,62.9493582399237,0,0,0,0,0
-127.077525277583,81.5446205862186,-113.481059129833,-54.5933368945637,-37.3375242581806,-90.3281548854463,-49.4602700310325,64.4714557165747,0,0,0,0,0
-117.878129506654,83.3243150473443,-123.128772808672,-57.0480813932879,-42.2753597992125,-90.0851378396972,-44.8108892519853,66.4744951096972,0,0,0,0,0
-98.8703711835145,81.3288317943072,-137.636643033647,-57.0808522605732,-58.433610339748,-83.3690928922934,-37.2364926508747,67.7652853520495,0,0,0,0,0
-72.7653666831412,83.2061593611329,-153.105911148302,-52.057174031668,-84.9980355567548,-74.6568705108332,-22.5398781791409,64.1036437808801,0,0,0,0,0
-53.9978621062449,87.7428221292848,-164.465451298657,-45.1189391763609,-105.715732978479,-71.5567150524221,-10.4762899731369,57.8119082785639,0,0,0,0,0
-39.2740695261966,90.4904681333195,178.090933600243,-37.8375413170467,-121.96147132033,-68.9091196721793,1.05165513945997,51.1589598271935,0,0,0,0,0
-26.9765497469191,93.9057855632913,164.990911268267,-31.5966294753762,-136.778816632451,-67.8709342439104,10.4528968607301,44.3616784167744,0,0,0,0,0
-13.934774735152,97.3631245801835,153.786381279758,-25.1790754718055,-151.755956665729,-68.4155469080442,19.69920037512,37.4161619581276,0,0,0,0,0
-0.137253223116801,99.2503645981321,137.639822048662,-20.0690316709414,-167.144801941374,-68.5115597301065,29.0622088708911,30.9197557698716,0,0,0,0,0
11.6919490364414,99.3010469848371,130.898638683642,-16.3369320817667,-179.791947129319,-69.8692022629452,33.8592507122627,26.4011617115193,0,0,0,0,0
19.4630926886136,100.744027661162,125.890612911043,-14.9311952943607,171.197545538036,-70.9260110764761,40.3676747947095,24.0671152853928,0,0,0,0,0
24.7965055181979,101.249630761009,124.84380441146,-13.9242673012069,164.981802141402,-71.0810734782328,43.7082999640628,22.6626289702948,0,0,0,0,0
27.957269167619,101.500796701811,118.589490263749,-14.5697055048971,160.62161757907,-71.8903911151898,45.3903743588895,21.7868142338306,0,0,0,0,0
29.8984453014406,99.3489002695268,115.29677228095,-14.7324257427228,156.631186285189,-70.4333452800526,49.7338085993291,21.1123413404692,0,0,0,0,0
32.7094973293629,100.57891810142,112.778408838481,-14.9746043097213,153.663769461949,-73.6915624277728,51.9841588633582,20.7331419148641,0,0,0,0,0
34.9290109792538,100.546684321392,110.2029183388,-15.2537621549004,151.747682671231,-74.1108687702918,54.2030363190891,20.4769098343848,0,0,0,0,0
36.4072160916996,98.6606748293215,107.393832186395,-15.4991918023118,151.922767871719,-71.7511199354689,52.5815046506823,25.3482529096614,0,0,0,0,0
35.3092929327202,95.9524857947283,106.792199874877,-15.4850377859879,154.317099764099,-68.7133393803278,51.5570022954629,32.264313797749,0,0,0,0,0
33.2741485141242,93.9072429688715,106.043081148507,-15.775460097922,157.889165303004,-65.6852001488515,50.7613680016533,40.2402279198238,0,0,0,0,0
29.7599354576375,90.8730687187985,113.29768253137,-22.4899057536631,162.698302642362,-62.2431606885163,49.8524217093448,49.4841443205481,0,0,0,0,0
24.4206226435558,86.4101854358655,122.606805154571,-32.0256240449752,168.843601576225,-58.5187309209848,45.5612594526239,59.5273575174402,0,0,0,0,0
16.710009359709,79.553718889184,128.619942527641,-48.3732344439214,177.513368711083,-51.3951224118509,38.6248778285853,74.1672400564397,0,0,0,0,0
8.84723361415476,75.5884622246189,135.026978988203,-61.1435117380537,-173.214533040373,-45.5995155111422,33.6128475735695,86.5808066355029,0,0,0,0,0
3.10380150542295,70.4653988894591,140.22056414458,-68.7832677387555,-164.338242528324,-42.5799130407899,25.7299152940457,95.7140958410499,0,0,0,0,0
-3.68820859423502,66.1167268344179,146.146560154666,-78.7412330108935,-152.549768949732,-40.1889377143645,12.5392050749646,106.00477320256,0,0,0,0,0
-13.8021626096839,61.5425872075505,153.513217361291,-90.3708370547914,-132.486370558699,-36.3364942290077,-2.94931373988845,117.821487256944,0,0,0,0,0
-24.8387873913327,55.5519807288079,160.315607092498,-103.461297280879,-106.2978621571,-33.7500369166723,-28.1555303808138,129.053398131914,0,0,0,0,0
-34.3640998360455,51.129502046895,167.716045711726,-113.42143708684,-85.0225448234546,-36.0880015016972,-50.9958926453903,136.555949356745,0,0,0,0,0
-42.8588189116712,45.1400448574375,173.862223833949,-119.756529540406,-67.3810435686947,-38.9640213561625,-69.3148019496852,139.056358933832,0,0,0,0,0
-49.8879224302461,42.2013188886017,-178.661014937068,-122.400753503181,-58.7442834506458,-42.0903400327825,-80.9889534573068,138.984595455176,0,0,0,0,0
-51.2908929291211,40.8529966883369,-176.233528158287,-123.457426847036,-55.8651050444533,-42.4364452174578,-85.35252115136,138.159941006967,0,0,0,0,0
-51.8680283321426,40.9663458095891,-175.876609033139,-123.699704070241,-56.0866535621634,-42.4697765399947,-84.5772005323677,137.465537978851,0,0,0,0,0
-52.8005549188825,39.7138756363782,-177.747898253472,-123.61108559155,-53.700831800992,-41.5121413661967,-83.9349918382846,136.532848992654,0,0,0,0,0
-53.939641313386,39.7975962629985,179.105767316059,-123.564196779697,-53.1434586008526,-41.3886807995076,-79.5321199922743,135.641519226023,0,0,0,0,0
-60.186961469909,40.6752208715629,178.414371322261,-121.59552542407,-50.0036441851157,-41.968686880296,-74.3862484301548,132.219619329748,0,0,0,0,0
-71.4293734003259,40.2421282231428,-179.963045097588,-116.536283493628,-45.732790653551,-43.4107309345863,-68.9349473696296,123.57877881238,0,0,0,0,0
-87.3073938654373,40.7113635569815,-175.311258636442,-111.40784498334,-39.4947361927234,-45.299814136239,-65.1657429459815,114.169792771,0,0,0,0,0
-99.7359606730157,43.880680160358,-170.741669242653,-104.894061802579,-35.961036373812,-46.9719118421826,-62.2793848129371,106.842536973672,0,0,0,0,0
-111.371291742809,46.4732170280138,-167.557699336738,-97.1153936297564,-34.2130991381576,-49.9123868762916,-59.42830540865,98.7315122306324,0,0,0,0,0
-118.243021779711,48.1784950379771,-165.579083403782,-85.4253365196565,-31.8883859582688,-50.623664070538,-55.2599344584692,90.651025380972,0,0,0,0,0
-123.702442905102,51.8766500864311,-158.085138045369,-71.2040211633043,-30.5661160704135,-53.3223817700159,-55.6984453179557,78.8488520342712,0,0,0,0,0
-128.849080009317,56.0679411827767,-151.734215095141,-58.3118695597467,-28.3932479956328,-56.5558916275664,-55.8863822428552,68.750132384614,0,0,0,0,0
-132.50239729813,60.4433926709137,-140.530641561737,-51.0432986626589,-27.2268027195811,-58.3570858592759,-57.2909890409371,58.9414917377669,0,0,0,0,0
-137.429515199943,67.2834324751466,-126.669379257356,-50.3987522934167,-24.6460742088657,-61.3902290587363,-57.9195803582127,53.4997560349803,0,0,0,0,0
-139.648533543164,72.1939733807772,-114.75577503742,-49.6218684791913,-22.4237985809083,-68.2964418374344,-62.1734028329929,52.644912438219,0,0,0,0,0
-140.189216192921,74.9980100932032,-104.336056954769,-48.8093410264967,-22.0608994953959,-73.3097330318008,-66.5805624723506,51.6413996131336,0,0,0,0,0
-136.936132461417,78.3262936599594,-97.4804791205266,-49.7167769257891,-26.8187210848595,-81.2760399972115,-63.8274571227267,55.5535169120015,0,0,0,0,0
-137.206619583389,81.8186121206825,-93.1830238249756,-49.9598638957828,-28.0907204827962,-88.5717156678446,-62.6056469002447,57.5540959705127,0,0,0,0,0
-136.221987653919,84.9314897141569,-93.1300137791584,-50.9691813429538,-29.6377351246641,-92.9613536802992,-60.245416243148,59.4936670126786,0,0,0,0,0
-134.0454523154,82.6492304651657,-99.3903584221212,-51.8172105555031,-31.1292286107434,-92.4897817366388,-55.1623129562706,61.5604821819059,0,0,0,0,0
-130.741967468549,82.9798530564744,-105.420953946181,-53.400972857632,-34.3074658139808,-91.8567555536972,-50.4340942869345,63.7417294075758,0,0,0,0,0
-126.199493346884,82.7806572782066,-113.324918675286,-55.0547406808648,-37.64171900135,-90.4423929942258,-47.6467876521532,65.035331152781,0,0,0,0,0
-119.051159471916,83.3012629942102,-120.374762898267,-56.770434436719,-41.644395187548,-89.4829059330732,-44.8064561426047,66.2930608806883,0,0,0,0,0
-109.290293392839,84.182114876045,-129.092712829094,-57.9797291773773,-47.4488837649961,-88.3655618199851,-40.9212828953522,67.6481395626409,0,0,0,0,0
-93.1845205881819,84.4131997251312,-142.304663703737,-57.0717299903503,-62.6003255445251,-83.6780158861694,-32.5630288258453,68.3674228193664,0,0,0,0,0
-72.612909645866,87.5480560920009,-151.782975564503,-52.6602975207893,-82.0648399004095,-77.4215899263052,-21.4425698763938,65.5026575732259,0,0,0,0,0
-55.3260247781013,91.5509576397855,-163.116117010658,-45.9463500136834,-101.387194465127,-74.7369668305436,-13.2471474612129,59.818863617739,0,0,0,0,0
-42.3217650348419,93.8980710214403,-176.075616142074,-39.3842457718715,-117.027240507908,-71.9972548650067,-2.22031814236129,53.6548732791505,0,0,0,0,0
-30.2832156325684,95.7398148178297,171.088907666411,-33.0929531090404,-130.099223465766,-69.332457141485,7.14010871693517,47.6741494901732,0,0,0,0,0
-17.9037625422591,97.9755147895789,155.158749523143,-27.1484257604611,-143.970369918042,-67.7755703456581,16.7277652835186,41.1547833979052,0,0,0,0,0
-5.16366382790147,99.1977245211671,136.935196602161,-22.5412841150755,-156.986048350334,-66.6127514721577,23.3457771983286,35.0755977009826,0,0,0,0,0
6.74933221891422,99.6215228711123,129.790097916501,-18.3555449510629,-171.065047713196,-67.042651400753,29.4548270239916,29.300399278815,0,0,0,0,0
14.6649875039864,100.447712273844,124.01827766023,-16.6382095982021,179.297752432926,-68.223211950996,36.9844677513831,26.3223557223563,0,0,0,0,0
21.2351612588056,100.341832092158,115.881171272558,-16.5211248991694,171.354899690899,-68.4087479352244,40.6931991484283,24.1187180210641,0,0,0,0,0
25.6442390282376,101.339561677897,112.084100409702,-16.502621907733,165.25428023635,-68.451190497059,44.0767034369305,22.7153354411471,0,0,0,0,0
28.5114659593743,101.412775861597,110.649318058744,-16.29364771122,160.922477030763,-70.6839274057749,48.177061366202,22.325516656298,0,0,0,0,0
31.2510677775838,100.979934557418,112.562941616222,-15.2983543685943,157.766107124872,-73.3588637760128,47.3228565544241,22.0589924262758,0,0,0,0,0
32.9797598499991,101.156978531982,109.892972636284,-15.6878235288175,158.271099000617,-72.1595277387017,45.4578372224447,28.8867812581621,0,0,0,0,0
33.5616261070496,100.495831317563,109.917335279697,-15.5145984479057,161.503254058591,-66.8433584278912,45.7779682972422,42.2519320627151,0,0,0,0,0
29.933286926497,96.4066536145105,121.561187106664,-23.1028636788159,164.924348508565,-63.3976074345897,44.342505155482,51.0807045066329,0,0,0,0,0
25.5975122450241,91.7230211127921,126.989175141626,-32.9739333834496,169.506610819434,-60.1151640857393,39.7169678945885,60.3760505337829,0,0,0,0,0
18.8746155295306,88.5504144841928,134.123860254323,-45.2701167784757,176.36293467924,-57.338353411209,34.7246898568992,72.2076195157538,0,0,0,0,0
12.0602930906819,84.3740826678203,139.233448057404,-54.0932642893722,-175.174149263106,-54.1874875041402,29.3587046158241,82.6469822688815,0,0,0,0,0
2.68206637951511,79.9329513308809,144.892392281243,-66.8584344801612,-163.329934930627,-48.79912196863,21.7540691190933,95.4539894593497,0,0,0,0,0
-7.13177045733096,75.3368217463846,148.556606636095,-80.0639556808491,-148.686646819281,-44.3181871348976,12.6537118892784,108.416534928179,0,0,0,0,0
-17.3121369409826,71.6511495079525,153.449740596054,-93.2884223206413,-131.929176993509,-43.7502721485012,-0.990762527200218,121.915903242822,0,0,0,0,0
-29.3666042586534,65.5472030175672,157.519172233787,-106.554791747293,-109.78677120489,-42.3974484057887,-19.7447208367138,133.811591893768,0,0,0,0,0
-45.9156739262868,59.5341078392404,166.157896821202,-119.687705412533,-80.7512928146661,-43.6184569380576,-48.9570925771025,142.698557672162,0,0,0,0,0
-57.8969880174742,56.5431193423527,173.460772051729,-126.996142693271,-60.8714494819859,-48.9245611920186,-68.5988431384682,146.098018075096,0,0,0,0,0
-62.5813700146807,54.2254066619933,179.918052419608,-130.99238889485,-54.0620603070009,-53.769585549665,-80.403415751001,147.258563158954,0,0,0,0,0
-59.7530776754492,51.6131502918515,-178.125057350797,-131.290960833237,-49.4131406051698,-52.764830832099,-86.0232563859316,146.714642096641,0,0,0,0,0
-55.1074902178035,50.7800373940116,-179.121605784586,-130.999578400723,-51.1494287905992,-53.2026423672887,-86.1155392718547,146.124546514556,0,0,0,0,0
-50.9805367383623,50.3979060147213,178.623043308349,-129.118141475644,-51.2704399407157,-50.8074972709823,-85.4429898292046,144.242776184031,0,0,0,0,0
-47.6601733814732,48.3501201881006,174.829429450616,-127.798784500573,-48.5476470223083,-47.4339398322502,-85.7987047414894,142.383856328559,0,0,0,0,0
-45.9670593874156,46.6782106146817,171.44820798263,-126.249421756796,-46.4821716394471,-44.3856501434903,-84.8348701526319,139.932912911366,0,0,0,0,0
-47.527391020127,42.6894280573044,167.929065716586,-124.128859076718,-43.2438059369256,-43.2936945918141,-83.4532797488167,135.972411162792,0,0,0,0,0
-53.7439489243518,42.249813596221,167.452302988532,-122.166210755234,-39.5978329329616,-42.1309108162046,-79.3040662663902,130.653874677911,0,0,0,0,0
-66.209838000749,37.8469896369627,170.483510471541,-117.324779050262,-34.7299178297899,-45.1382822147477,-75.3505070158806,120.16696588135,0,0,0,0,0
-82.1016787520642,37.3798588156582,175.34204248562,-111.94877265455,-32.2482936469256,-48.3624686047328,-69.8179211510288,111.446717572391,0,0,0,0,0
-101.092381933435,39.6321093716569,-175.854590637652,-104.197098834349,-28.3994206613837,-50.7150230067499,-66.131924924925,102.83463490982,0,0,0,0,0
-118.930497078207,43.7455545972857,-167.273702429978,-93.1723874541543,-24.1621996434017,-53.2979093270836,-61.7503920745369,92.6525557160032,0,0,0,0,0
-128.933351009283,47.6622031100158,-158.938074441899,-78.6059260013819,-21.6358884364638,-55.7112775079952,-60.5864485332264,80.619935082151,0,0,0,0,0
-134.435246349087,55.5212368227734,-149.393075541552,-59.644891682444,-21.4868031562472,-59.2181913383615,-60.6054515339536,68.3996380290731,0,0,0,0,0
-139.628725581913,62.3908317156834,-138.957843779325,-50.4644416252344,-20.9590169836465,-60.9392378923023,-58.1859869387538,55.31400776426,0,0,0,0,0
-143.49358755799,70.6284964806718,-123.130027915304,-49.4829864486386,-19.8869660563473,-68.3040666014539,-60.7820997829653,52.5309466170556,0,0,0,0,0
-140.116487211137,75.9379651297208,-110.824811444184,-49.8938534093215,-26.8134180668355,-77.4802560285845,-61.0714419101167,55.9234226918619,0,0,0,0,0
-140.808668687963,81.0447982233176,-102.588515748312,-49.781710797468,-27.727542390364,-86.6608832778018,-59.291025510296,58.3346191867886,0,0,0,0,0
-139.262596558877,83.04084502315,-98.0584043118151,-50.1380537770882,-29.0726921694272,-91.008029489941,-56.8609397243803,60.1968031612303,0,0,0,0,0
-137.260877579123,81.3123246817517,-104.280859647509,-51.1218000481794,-31.4868030363054,-92.2259555187034,-53.4635268057714,62.1591884067085,0,0,0,0,0
-133.107070313165,81.4834115922135,-107.98951400721,-52.7036557595299,-34.0547636667879,-91.7798331835314,-50.40086537613,63.6801745211387,0,0,0,0,0
-127.752204024814,81.2378294463922,-117.950189097842,-54.7701414241219,-36.6276322854843,-90.1492389075007,-45.6817348973095,65.3109803359136,0,0,0,0,0
-120.504266424233,82.0713826386375,-125.11448940494,-56.5776680953274,-40.6288370661568,-88.7164657296566,-42.9069095475824,66.480999769361,0,0,0,0,0
-107.737366509653,82.7606301791805,-134.34101322033,-57.7749627907929,-49.9113078678829,-86.3840530587365,-37.1126664775142,68.239092951749,0,0,0,0,0
-86.5189384367773,83.980138572149,-147.690191756142,-55.7700808041184,-69.1175484901685,-80.3502092267549,-27.7759633356831,67.7438656459941,0,0,0,0,0
-64.4065154435361,86.0900832573827,-163.210250092327,-49.2323213546192,-92.4741855915621,-74.9689024204219,-15.5094596340093,62.7283846888413,0,0,0,0,0
-48.5082795745708,89.5046605986532,-174.379819837621,-42.4090617885131,-110.441556932897,-70.9947187971003,-5.00360028588693,56.2194018560504,0,0,0,0,0
-35.4257274826254,91.181522973013,165.066683268078,-36.1888408379057,-125.618141553465,-67.4435905244268,7.17035900035785,49.7243557496482,0,0,0,0,0
-22.5505538335212,94.4411069397431,145.759104896318,-30.7215554797687,-141.093339603325,-66.5675274281738,16.7943252076021,42.5937154615436,0,0,0,0,0
-8.7709562241717,96.3443340784842,129.276111766801,-25.697780087593,-154.910499717443,-63.8779912531786,24.4581907182617,38.9863451723515,0,0,0,0,0
2.32051927819137,98.4374294398614,120.856202346755,-21.9716575767698,-168.023977670571,-63.7239332799757,32.6949308370893,37.9760579390988,0,0,0,0,0
11.2828437234122,99.4536135534598,112.350291198171,-20.4355107189743,-178.154081107785,-65.099127474849,39.7707923781165,37.091231764933,0,0,0,0,0
16.997300356606,100.113190948128,108.083080860578,-19.7249928501265,175.881766115152,-65.0701963522761,42.7038197731994,37.8076075460444,0,0,0,0,0
21.2907195052325,97.6812875016496,105.8089328266,-18.9023955467548,171.540656264248,-64.704364315233,45.4154574534565,38.9209756079456,0,0,0,0,0
23.9302353218329,97.0379837434138,104.104075741943,-18.9276909308867,168.720072808347,-63.8749308982837,47.5905361191,41.0488107704658,0,0,0,0,0
23.7697762505626,94.4415208507582,109.474108666537,-21.3627854115142,167.887251887302,-65.5041167232434,47.3445704677957,42.2819432932637,0,0,0,0,0
20.9173682356453,89.5758613232158,118.713094980374,-32.6454035448872,170.942783932404,-62.7227619105326,45.4424249711155,52.5835663468761,0,0,0,0,0
18.0575356413927,84.5833521464217,123.600266619313,-43.3181999022204,174.155326574498,-58.0235684152637,42.7467182342969,63.4186547891859,0,0,0,0,0
13.5333441384667,82.1653484248407,128.265724414186,-48.9293650865766,-179.823638225674,-56.2780546104933,38.554811733302,71.5310701829658,0,0,0,0,0
8.03750146706335,81.9354313790519,135.397138733259,-53.1102696204024,-173.486831054418,-56.5114932479693,33.8118154856086,77.8621607145939,0,0,0,0,0
2.58738021781139,80.0529396808694,139.368430595989,-62.8197370721119,-165.544035750698,-54.5524611877474,27.719476074018,88.5807663535857,0,0,0,0,0
-4.37227694462194,77.6002263071077,144.388520527187,-74.8077403470901,-155.688837717829,-54.1620134161097,21.2133620386022,99.4932268932573,0,0,0,0,0
-17.6486169491047,75.0732871884825,152.562734967434,-91.0833586181087,-139.083572376947,-56.4916203109816,10.4925181326407,114.809234388387,0,0,0,0,0
-33.3336482247118,69.2341066705955,158.554262151252,-103.017552349951,-119.61270280775,-59.0647984797791,1.16442833716599,123.47692815864,0,0,0,0,0
-49.0645539900571,68.0030943292692,166.582392967871,-110.772475545025,-103.248805478877,-64.6435256434854,-6.75628542075128,131.577609731734,0,0,0,0,0
-63.5199974849032,69.7702192437067,173.608525668402,-118.919617037163,-88.9774005308587,-71.1874018288302,-13.7164286707433,138.80944659095,0,0,0,0,0
-93.0918763846882,71.9309890876569,-173.942725716021,-86.8216525735829,-68.9931077477742,-77.2677866548017,-13.9047798138223,102.530685426569,0,0,0,0,0
-100.933055040031,80.8180193069401,-163.058242410542,-57.6162332208395,-65.7219696806781,-82.5135522010362,-15.288081219688,69.9063035725396,0,0,0,0,0
-106.108448463406,88.7097125480038,-161.394761826286,-58.9896068926138,-61.4583156300633,-88.2322451609839,-13.1263413452803,71.0824136370107,0,0,0,0,0
-107.578228436284,89.8063812015016,-166.13498842746,-59.1843626381437,-61.6210011719697,-89.5706815073839,-8.84829333657831,71.3527819184374,0,0,0,0,0
-106.913242878039,89.5701089852162,-170.998168132587,-59.1265630849372,-63.0168644814426,-87.8937848725309,-1.26937724339837,71.347194004481,0,0,0,0,0
-104.846991446129,87.4598091094259,-178.601700958567,-58.9162083562441,-65.0984541154534,-86.8800038451723,2.92294261633822,71.1164629816521,0,0,0,0,0
-104.138462086583,86.4458740195074,178.271669861049,-58.8626977021764,-65.3506243798763,-85.8305951414636,4.97457076138858,71.0837930526017,0,0,0,0,0
-103.378516563422,85.348193141361,175.621956498314,-58.8104400691933,-65.871321066856,-85.6216569519649,4.98180227767057,71.0134836529159,0,0,0,0,0
-103.005029182624,85.137629070311,175.571853272255,-58.7667566452956,-66.132300451327,-84.2747856743088,7.02257135988907,70.9768657262638,0,0,0,0,0
-102.374389049993,83.7383906833622,172.849180038981,-58.7395193539552,-66.5432576414522,-83.8065825429587,7.01048317500158,70.9180607632927,0,0,0,0,0
-102.822291391411,84.1830283179695,175.421813259631,-58.7289757661965,-66.2961473406691,-83.0603744300504,6.92773376440198,70.945755317317,0,0,0,0,0
-104.054960951788,83.2779016356344,175.787954879428,-58.8255085936742,-65.0700273836729,-82.837762531861,4.68283602470092,71.081044530179,0,0,0,0,0
-105.484860886426,82.6395513432666,178.270438835142,-58.8648394937346,-63.4572111205488,-81.6259279942569,3.16070654894406,71.2151379530512,0,0,0,0,0
-106.943927799022,82.2563289746929,-176.768728220489,-58.8129558595228,-61.921582722208,-80.8608554506953,-1.21488653831159,71.1947975681315,0,0,0,0,0
-107.910666795505,81.1854091770276,-169.487239578935,-58.5422640415605,-61.025838474587,-78.6000612857711,-5.66461099539708,70.8466226364306,0,0,0,0,0
-106.916628090334,75.6063767262727,-165.397612003977,-57.5038498332044,-62.1003777514304,-73.46099719676,-12.0754821032276,69.4590091058119,0,0,0,0,0
-106.679255363821,69.1924653528458,-156.14567661359,-55.5312431555283,-61.5791152497841,-66.5845346301981,-21.0646026088527,66.8003980515276,0,0,0,0,0
-106.845577647684,61.6697904539562,-146.269737016621,-52.5224283245785,-59.5038603904258,-58.4063018656355,-32.5138139799855,65.1307864763803,0,0,0,0,0
-106.156163304101,51.7186270895705,-138.396723305351,-48.8920089189266,-56.2582483497798,-49.1516713899518,-43.751882205452,62.272060285119,0,0,0,0,0
-110.143808876424,44.4381821413437,-126.307962568309,-45.4297313571882,-48.3555789285002,-41.3386547118701,-54.7196070695069,56.3474936222865,0,0,0,0,0
-113.369459042647,33.8284066542905,-117.991142610632,-42.4440279288,-40.3244530339479,-30.9395175909451,-69.0474405374565,49.7762398802882,0,0,0,0,0
-123.470227854956,24.9924409006243,-103.042105151634,-37.454545282125,-21.2844395510067,-21.9388368784827,-90.218803569481,40.7540963346296,0,0,0,0,0
-132.60754289863,16.5435176264132,-84.565390300495,-32.9468297710121,6.46783376185851,-14.7120351614961,-121.705633309511,31.0062919581934,0,0,0,0,0
-157.771644787452,13.4163020257963,-54.3511525181569,-29.6992079332537,41.9386411572661,-12.5982557778761,-167.283187561325,22.0319353855336,0,0,0,0,0
176.922528547295,14.8047669504269,-26.6385464204898,-26.4550068235982,59.544592832279,-15.2257016714902,162.80386485053,15.8212675451107,0,0,0,0,0
161.485702396153,17.5017423550283,-5.55477470663118,-24.5277012984411,65.0707645888593,-19.2181375878025,146.136813174564,12.7984945033124,0,0,0,0,0
152.909556367561,19.6996964217782,6.87906480711069,-23.3367117683593,66.8100579681791,-21.9360951891415,134.617649116089,12.0916719357523,0,0,0,0,0
148.544431817779,21.2532933445663,16.0411906255108,-22.3927713011473,66.578365686476,-23.778604185489,128.722236826443,11.7797711364411,0,0,0,0,0
147.477652486457,22.1381632094351,19.7614597481911,-22.0005665777817,65.6227009552413,-24.5658284646982,124.286933765938,11.7421414845147,0,0,0,0,0
147.42929770209,22.1319753193562,25.8705971669361,-21.6183851004629,64.0310675797307,-24.73686441283,120.966486454366,11.8459467409571,0,0,0,0,0
149.769429181587,21.8219807435446,24.1402526048199,-21.8892725255413,62.2107622233201,-24.0556237922029,119.982098867656,12.0381285074483,0,0,0,0,0
155.839454477142,20.7426482176737,22.8441574449852,-22.4874250530608,57.6217918440791,-23.1050774217238,125.461577747418,12.0784910212072,0,0,0,0,0
166.224584985382,19.4665950741363,9.13339576248143,-23.8182004772708,51.2417436774632,-21.0074745185451,138.661125313633,12.3131449472782,0,0,0,0,0
-178.96371339764,18.8457645194479,-7.97937033976496,-25.2415611616601,39.4349390977546,-19.2428246967591,160.639336193219,13.203453559019,0,0,0,0,0
-161.650835503246,18.5053807367091,-27.6930051922725,-26.5087731465613,20.8693297507923,-18.7376829598564,-161.642510785035,16.3625491622973,0,0,0,0,0
-146.924237049163,20.3081902510278,-50.2748351809023,-27.8062943973538,0.918169785721716,-20.7378011972125,-128.244035081217,21.9365054111833,0,0,0,0,0
-131.660486676233,24.1793827010441,-74.7814908836608,-30.569998921784,-21.398287390805,-26.3412594423789,-100.732048937293,31.6513553728677,0,0,0,0,0
-120.294042097492,31.7904499772038,-95.8324875763475,-35.6364826644993,-37.6896530922603,-34.4834722238651,-78.9331454892076,41.5888436992901,0,0,0,0,0
-110.772493151223,39.2488308351711,-112.885520724481,-40.3509364945802,-50.2725008125184,-42.1356232509048,-60.4607204968488,50.581968364271,0,0,0,0,0
-101.896759402558,47.7716717723274,-129.401479052713,-45.150592844704,-61.8275519288997,-50.3256622751125,-44.0715468069855,55.9056419614543,0,0,0,0,0
-93.3224608619092,55.467499249662,-144.905080737373,-48.7633685183431,-74.6787014862812,-58.302131634216,-29.3879164820988,60.6804691487491,0,0,0,0,0
-87.7198809278558,64.8312531748955,-152.617619690412,-51.5444862333638,-79.9473260326274,-67.0325237981191,-19.9010010031221,63.8908207224905,0,0,0,0,0
-82.2183456371446,74.3481293428806,-162.786614960608,-53.0860830485141,-87.5889107777747,-76.2687905747185,-10.5766939039937,64.8471373006482,0,0,0,0,0
-70.7766635651578,84.3538308688163,-170.920515476809,-51.2027214537096,-100.481926007617,-84.8734379885231,1.69143282240816,61.9423203782198,0,0,0,0,0
-52.7509648398224,91.8919065679689,171.49890252615,-44.3653890188908,-116.08761415743,-92.4534908602508,15.3839881054596,55.3092794397549,0,0,0,0,0
-41.3528790666111,99.5462825749091,157.560133793475,-39.0090684724656,-125.675700196947,-100.505181474767,21.0991242126139,49.8528654759083,0,0,0,0,0
-31.242375371815,107.328903542474,141.658745935197,-34.4436482543534,-134.041186876047,-107.644769859875,33.2391734696133,44.6565631243271,0,0,0,0,0
-17.4606341438881,116.021792263912,124.639912948467,-29.4501452551625,-144.002529169044,-115.237738057561,42.7714685767774,39.0243045620584,0,0,0,0,0
-4.88211822870196,125.906917944464,113.921461677151,-26.3056041237873,-151.396529962799,-122.695946267295,51.8956302147519,35.349993368138,0,0,0,0,0
4.77291510530347,132.453739723617,113.723555955489,-23.7964514332077,-154.946263264151,-126.852970562138,57.5011818879775,33.9686193822875,0,0,0,0,0
11.3286918493535,134.450640694503,119.081864951473,-21.1936812546683,-156.230392262904,-127.336111395756,56.6676130261452,33.4755719626477,0,0,0,0,0
10.4050999054114,132.734486967039,128.572102431783,-25.3812381704474,-155.356904558963,-126.715126659681,53.737621078067,33.5756759025321,0,0,0,0,0
7.9584354243479,129.277078925649,127.968083346697,-27.8652060132418,-153.191360152824,-123.945524321567,54.5397987563611,34.7555668450497,0,0,0,0,0
4.32698163057182,126.595596371009,127.103663715078,-27.3211544467887,-151.258030861723,-120.989391109729,54.967193686289,35.9539191304771,0,0,0,0,0
0.34942648930155,123.253884194374,117.257079029964,-23.9070034865692,-148.362938627291,-117.154151680783,51.9477755449181,37.4826185820763,0,0,0,0,0
-5.1257255220938,117.420123325261,118.111351676673,-25.6468376528284,-148.616970426652,-112.154222621409,49.780618292957,38.1971876692594,0,0,0,0,0
-13.2525287546621,108.852047526864,116.214865212136,-30.1096443940697,-144.85033744943,-105.773979973359,46.8684165509485,40.7194010920647,0,0,0,0,0
-20.8286100914104,98.8521475823596,126.908169914485,-32.4141991419166,-141.636725444398,-97.6874529801106,38.3896772819521,42.9486887719892,0,0,0,0,0
-28.5480928930535,85.7401524606246,140.086043533368,-35.210017830558,-136.537606904169,-85.2420499570424,30.0923917927012,46.2885484775768,0,0,0,0,0
-44.4516982604932,73.7257071426383,154.933265624239,-41.5988506977456,-123.355334658004,-74.4797775330447,18.0267969401253,52.3555144827143,0,0,0,0,0
-62.638853973602,62.2281323900672,174.500841183955,-46.0532716106524,-106.491548476191,-61.4100031846006,3.06951834757024,57.6709686051527,0,0,0,0,0
-74.9085025391335,55.2770997643471,-165.92291062569,-46.4730885900013,-91.6709823782755,-52.8086395668071,-12.7499625864759,60.5785733406431,0,0,0,0,0
-84.0542384465854,48.4712949799875,-151.861070458865,-45.848300469118,-80.1816797131161,-45.9102779937337,-27.3571286069339,60.0845666747053,0,0,0,0,0
-94.8815659429346,41.0880069264874,-139.741789744797,-45.373708809153,-65.5555363345002,-38.412878293717,-41.7448824614277,58.0842032384896,0,0,0,0,0
-105.788409320698,34.7069078821873,-128.579038839628,-41.9258568452589,-50.0462571266395,-31.9414594320327,-55.1400255515316,52.2681052668961,0,0,0,0,0
-121.882566249727,27.8813774835514,-113.080054869098,-37.3548148117935,-29.7102343360344,-26.6167659851754,-73.846616076171,44.0619036889017,0,0,0,0,0
-137.231516391436,23.2330472878949,-93.035513194574,-32.7218765405509,-9.53424236045612,-23.0336493530464,-93.6955139737431,35.0128140099282,0,0,0,0,0
-155.727944726794,20.5707041047776,-70.0055441751924,-28.7434248745891,12.666195806662,-19.8898104674095,-117.179068273657,25.7549863594027,0,0,0,0,0
-170.155323333843,20.7115132933952,-46.9972411915803,-27.1644121748509,27.352990622858,-20.2243125137752,-138.597983506222,19.4979218134933,0,0,0,0,0
176.491661180151,23.1932631779726,-29.5109856420015,-25.9586176895295,38.1975163713992,-22.2794141961033,-160.014865091307,15.5173374238817,0,0,0,0,0
164.67602408533,23.7861143340313,-11.2142119673122,-24.4875072856492,49.246169444362,-24.0621568468779,175.116002908147,12.6681349582005,0,0,0,0,0
157.511010715603,25.6127158795675,0.023002836633168,-23.3894496090912,53.4750156092084,-26.5018913877258,158.983345743105,11.3479131665658,0,0,0,0,0
154.168515753205,26.545241269527,8.30480430505145,-22.630206934316,55.1800296596886,-27.9432928704696,146.166421665552,10.8602472740268,0,0,0,0,0
153.704913273775,26.677838179755,11.5819249468437,-22.3912301242198,55.0802640905001,-28.3946301424054,141.066821834214,10.8114248278608,0,0,0,0,0
157.110018819212,25.691750697519,15.2009350891044,-22.4940552176941,52.2749239991975,-27.9397189209583,139.317406322331,10.994441746822,0,0,0,0,0
163.386124798303,24.3231348755951,7.76328860644583,-23.3605195399956,48.127118931201,-26.2601670063077,144.382070058326,11.3739360328664,0,0,0,0,0
176.911554020076,22.7720915146762,-4.98943404853662,-24.8580265835694,39.2807674042049,-23.7759134357862,161.919448965005,12.3678722214739,0,0,0,0,0
-164.67500187656,21.9485621482548,-28.5349047620321,-26.6587014752965,21.5872794538371,-22.0487575536456,-162.067732900376,15.7737557331542,0,0,0,0,0
-145.773902613171,24.2690736708655,-58.2524047850802,-29.0233393470096,-0.954277094889676,-24.2489351250416,-121.92362210196,23.0505494390599,0,0,0,0,0
-133.296407564877,32.0740286795422,-80.1138194080469,-33.4605702407059,-20.3434801080174,-32.1775164998861,-94.1704790718239,32.5912759596571,0,0,0,0,0
-119.549598369959,39.482321030509,-102.687821421779,-39.1538512939553,-37.7586713058376,-39.541358409316,-72.3996423395391,43.0709043976962,0,0,0,0,0
-109.921221081689,50.6940478069942,-121.565128823106,-46.0949696418396,-51.8323899093843,-50.443397054095,-53.8331894555306,53.6876580127606,0,0,0,0,0
-105.526857752344,64.4609911889583,-132.770562847037,-52.3639868351629,-59.5297508344188,-64.2340399688773,-41.6610824301281,61.8467345442849,0,0,0,0,0
-100.827241777956,77.5125079817172,-140.707087590879,-56.372240289479,-64.7187945398628,-76.521925274301,-30.5919794390979,67.0628443295829,0,0,0,0,0
-94.8887837114187,86.0226284081699,-159.60747746988,-57.403628326743,-72.1763350572123,-85.9008718805192,-14.5823807870651,69.3395556605549,0,0,0,0,0
-77.888567293663,93.5684265347512,170.716044292514,-53.5632576445671,-88.8735706567244,-93.8128785311593,10.8215522174618,65.5957027429496,0,0,0,0,0
-57.6217832586203,103.069301796158,138.653508081455,-46.756236227339,-107.114315644646,-103.240427227536,35.0240110389897,56.7789069128449,0,0,0,0,0
-40.3297326805999,111.10981744101,118.869393401647,-40.9824437872852,-119.281719675755,-107.557657453937,50.3685210450213,50.8380853196766,0,0,0,0,0
-30.4362095759047,118.818925361434,107.521339071846,-37.8502957317814,-125.404417745942,-113.160857451036,59.259720403442,47.0910657012421,0,0,0,0,0
-21.2488891775122,123.892712044671,104.09313841117,-34.5677952055858,-132.571159741344,-118.102827334942,63.7445369846764,43.3611088112158,0,0,0,0,0
-13.7139031905114,126.582998766695,104.827876551284,-31.5643070918055,-136.612291149025,-120.843280588906,65.745973631591,41.3852890612635,0,0,0,0,0
-10.1528686233591,125.40455997956,108.623714935108,-38.9489549318563,-138.15151245034,-120.546320152629,71.0033551238947,46.6130053599796,0,0,0,0,0
-9.08949114977793,122.869412678952,112.78529485331,-42.3772258887337,-137.868500175691,-117.928651792906,69.5323761246509,51.9799306777852,0,0,0,0,0
-11.334483673541,120.309458328275,116.459780054834,-45.1964955736909,-136.263796035954,-115.260164050014,69.360472666942,56.1648622644262,0,0,0,0,0
-12.7735656575895,117.412732715107,113.435086642379,-42.2228389490699,-135.262740916777,-112.453185707615,68.6802059248499,54.0808180093765,0,0,0,0,0
-17.4142850164698,112.988282223217,112.161601323592,-45.8259061079302,-131.396076056687,-107.505308038696,65.315806926027,56.101194363638,0,0,0,0,0
-21.2617131538119,109.142019449436,105.86458928063,-36.528181517706,-130.819973956603,-103.64942350214,61.1730057742165,47.9537640093082,0,0,0,0,0
-30.3719903848542,99.6289365597022,114.653941615773,-39.8637476052167,-123.832149326078,-95.6704498803109,52.3143543889938,52.1276921496089,0,0,0,0,0
-43.253912999541,89.4695891625529,126.015190697793,-44.9461622762229,-113.530472342657,-86.5797630634433,42.7522378726427,57.5452059317163,0,0,0,0,0
-63.2841902041716,79.0387583701841,148.291865509467,-50.7722648496824,-96.1112774545911,-77.486331515089,24.437107005599,64.1642651092033,0,0,0,0,0
-79.9820345525761,73.0495539092913,173.699123754652,-53.5509863292134,-80.2887363937759,-69.1812796598933,2.96596657445309,67.0707547476237,0,0,0,0,0
-89.0017335155948,64.6642262215341,-163.207992318862,-52.415440984509,-71.5421471778385,-59.6297465417318,-17.529086819195,64.1248957117191,0,0,0,0,0
-94.5088782520345,55.057940286194,-147.370986065031,-48.9706757695514,-64.7030897830457,-48.7228204703305,-31.5039737841638,58.9467309289793,0,0,0,0,0
-101.711973046495,45.4703536987219,-135.756086364299,-45.047386889948,-52.6314074215958,-39.590677342855,-46.1837309850798,56.1721077308329,0,0,0,0,0
-107.932253724258,34.9819355275457,-129.740961490802,-42.8819259940481,-39.2659608112807,-27.7588142956533,-60.7234291606861,51.8789580194606,0,0,0,0,0
-118.871480151726,25.7804932122031,-120.875723159562,-39.7447598698886,-9.39506850741645,-17.6680444765956,-88.9140289500575,44.7680585102782,0,0,0,0,0
-132.057026980108,18.2461931663224,-108.560414795263,-36.3098015872985,28.9388275818269,-11.8994321531935,-128.660743150157,35.0377801847631,0,0,0,0,0
-149.3051605348,17.6268150398067,-90.9886244502685,-32.3332142989955,60.0267874512444,-11.1012323706119,-164.076559112472,27.9271899906704,0,0,0,0,0
-171.965317876575,19.8570293313912,-69.4281581740557,-29.329970534601,70.2676355999671,-14.5655560815692,-177.724772332866,22.6180862919082,0,0,0,0,0
175.60690576886,23.0526711926437,-54.6254803243809,-28.3852131677924,74.2374608065795,-17.5849152800763,174.748834550118,18.6394153740178,0,0,0,0,0
166.764926312431,26.1295333893146,-43.7776222148149,-27.3757895711424,76.8721307210697,-20.7092543818859,168.501220390051,14.9577722509854,0,0,0,0,0
161.310564623732,28.9148778401786,-36.3060394743385,-26.4751359499747,74.2867673579901,-23.215542976419,167.177273132474,13.608652395358,0,0,0,0,0
158.404488714893,30.2020107913301,-28.5829200695377,-25.5683714502674,73.5081902719401,-24.6071442051295,163.320294881871,12.8528573164645,0,0,0,0,0
155.887706927665,30.2626315512172,-23.799759056214,-25.10915096329,73.9710915591055,-25.1117988080411,157.996290533306,12.4111710630229,0,0,0,0,0
156.914149178369,29.7426724527454,-24.6527409433892,-25.2298922646161,72.7069099942346,-24.4359792153232,160.055173703228,12.6000316672182,0,0,0,0,0
159.873107631022,27.4867500459316,-24.4050808413951,-25.358825234011,71.7179196357547,-22.2307147103435,157.891535514729,12.9371082543166,0,0,0,0,0
166.81573961932,25.485953203069,-32.9863308950059,-26.2395707662958,66.7416475255599,-19.3379070455655,166.208052081878,13.934655961702,0,0,0,0,0
179.051161963175,23.4458545001495,-43.5867407184415,-27.0923379459777,55.2165128711412,-16.6346362601356,-171.843651547427,16.4577449032442,0,0,0,0,0
-164.374803139443,20.9859688253483,-61.7174806304359,-28.2747127185313,31.9642546509865,-14.7792161831406,-141.581368354909,23.6594092051742,0,0,0,0,0
-144.262175508943,22.1953224247757,-84.6346659222065,-30.6702179722725,1.67057805795366,-17.1409319818154,-108.129151024559,32.5045334996393,0,0,0,0,0
-130.260391058974,29.6080585278524,-103.151382745861,-34.6394329046966,-22.7313686147528,-25.1013048379527,-79.5616886736329,41.1471127593312,0,0,0,0,0
