JMW9912/AVATAR/install/dynamixel_control/share/dynamixel_control/data/csv/poppy/1119/1119_2030_Semina_elbow_poppy__robot_point.csv
theta1,theta2,theta3,theta4,theta5,theta6,theta7,theta8,theta9,theta10,theta11,theta12,frame
166.660869509268,18.1486847679778,-59.5474342681369,-44.9205551162613,-156.467565474267,19.8819127979669,45.455693966353,43.2236667865714,0,0,0,0,0
166.410591497011,19.3403239074162,-62.8981278350536,-41.0051126177415,-157.465129052729,20.9525123273015,47.6731222563296,38.3402686615602,0,0,0,0,0
176.143302090365,16.7726046881145,-69.7412813255589,-41.6930457987584,-163.104461734977,19.2555893731412,53.364526326406,39.383466170416,0,0,0,0,0
179.601373942318,16.5384807283232,-74.1881745618699,-41.3037385730833,-166.782149891026,18.8407701178889,57.3458255123156,38.8613938617584,0,0,0,0,0
-177.86025654201,15.9388387159807,-74.3557252627483,-40.5456230739004,-168.929218716222,18.1605769997583,57.1398524562056,38.1751871233159,0,0,0,0,0
-177.665859861783,15.9108480077136,-74.0526569312165,-39.8572560436717,-169.281172220468,18.1506795751111,57.2844038072106,37.4939486564121,0,0,0,0,0
-178.355970957936,16.0018372897242,-73.4763443856233,-39.3872132544395,-169.074222551505,18.1684083980276,57.229273685674,37.0647644063147,0,0,0,0,0
-176.74419308535,15.5122450453013,-72.5696530760435,-38.7799029661276,-169.071126576513,18.1149177225366,57.3185430959727,36.8175420225784,0,0,0,0,0
-176.842366999248,15.5550019798347,-72.5211908788032,-38.6114062157321,-170.825890004862,17.4797350790579,56.5255844911692,36.4749429807366,0,0,0,0,0
-176.520622784302,15.5217276816522,-72.8665564224253,-38.5751757378483,-171.326628275192,17.3902129068929,57.0341610355981,36.4608371645378,0,0,0,0,0
-176.17169007593,15.4689519023366,-73.2302138011142,-38.5704477773774,-171.756814076405,17.2694570470858,57.4545498054148,36.4994191242318,0,0,0,0,0
-175.726756416014,15.4333605848189,-73.6976953738196,-38.5544166277289,-172.394967950541,17.0999514675321,58.0784789692982,36.5555787108659,0,0,0,0,0
-175.232184957724,15.3769237778339,-74.2025671599107,-38.5842357567625,-173.067620122552,16.9815624897967,58.7308480358429,36.625376351801,0,0,0,0,0
-174.784439429977,15.379472232845,-74.6863377082422,-38.5301645433345,-173.812740924159,16.8896909940333,59.4766341062781,36.6363454717561,0,0,0,0,0
-174.275409254968,15.315873224522,-75.2080043966468,-38.5572758543833,-174.492549278627,16.7865958556899,60.1367947358994,36.7075860011764,0,0,0,0,0
-172.20338370671,14.9048457820861,-75.3720134511512,-38.3392674668152,-175.070652263885,16.6841642276149,60.6941277599611,36.7828031435413,0,0,0,0,0
-171.844749538982,14.8662542991917,-75.7475279739118,-38.338687538496,-175.557145306918,16.6119281461319,61.1697659368166,36.8275000724774,0,0,0,0,0
-171.691750774451,14.8550587765145,-75.9167874799926,-38.3125245317378,-175.994488744475,16.6023888563819,61.6235777419347,36.7895597718374,0,0,0,0,0
-171.318957443162,14.8751181068851,-76.3195839586042,-38.2890025470372,-176.200801350121,16.5921345732238,61.8392671528963,36.7677158202328,0,0,0,0,0
-171.121341244113,14.8096316137292,-76.509242193853,-38.3308683620714,-176.589945890146,16.5310934742975,62.2210655805239,36.8018781719054,0,0,0,0,0
-170.919099118367,14.8152402558592,-76.7278143358573,-38.3174232710837,-176.839177910231,16.5274643111603,62.4816029813336,36.7758404503174,0,0,0,0,0
-170.705304641292,14.7484869006844,-76.9227349887825,-38.394138215766,-177.083722014676,16.4427655102484,62.7078632812779,36.8400404882229,0,0,0,0,0
-170.482265877755,14.6848547445342,-77.1365444524886,-38.4441016077686,-177.284471144767,16.3592394642736,62.8810308361739,36.9304481659764,0,0,0,0,0
-170.424601128089,14.6345858923673,-77.1779621133917,-38.4902983201734,-177.321851409964,16.295342922952,62.8891097996055,37.020484844733,0,0,0,0,0
-170.362694770909,14.6196001773402,-77.2357813025396,-38.5093712121791,-177.613624336028,16.2302048271283,63.1809126054889,37.0322924066943,0,0,0,0,0
-170.424794806425,14.5900862909039,-77.1660202213891,-38.5146439472074,-177.632428878066,16.1868730166902,63.1909603081925,37.0605468706017,0,0,0,0,0
-170.390112138026,14.574531368835,-77.2081346093077,-38.4941415088535,-177.917162458509,16.1438486636848,63.4904663731525,37.0279112184335,0,0,0,0,0
-170.395814571491,14.5171290891122,-77.1986048089888,-38.490430130471,-179.92691612389,15.5500538032706,62.8352882326344,36.7019654224638,0,0,0,0,0
-170.635934734574,14.5183646496533,-76.9566827198735,-38.4564723674585,179.641698149234,15.4823719862308,63.2473212219672,36.7677698139036,0,0,0,0,0
-168.27858888926,13.9539057169418,-76.628882935497,-38.0786952159462,179.293746983219,15.4378188124747,63.6051385070666,36.7446931000316,0,0,0,0,0
-168.463309107615,13.8971172399573,-76.412257967538,-38.1340082813932,179.151882010286,15.3623851361217,63.7115289708307,36.8554341136725,0,0,0,0,0
-168.793255739281,13.7853275290942,-76.0325317807159,-38.2112725458786,178.925755584442,15.2247798611439,63.8896983984961,37.0069474612061,0,0,0,0,0
-169.016093887544,13.7071080538682,-75.7531205036289,-38.3368249067727,178.909704974474,15.1644130628209,63.8707894129489,37.1145821029664,0,0,0,0,0
-169.147026686191,13.6585198825622,-75.5851363300828,-38.4233237114489,178.673225119846,15.1337526487243,64.0828688980833,37.1950072648657,0,0,0,0,0
-169.762884826953,13.6910415428521,-74.9773962989785,-38.3240196922799,178.724646901894,15.1585267428706,64.067063691873,37.0842960939127,0,0,0,0,0
-170.540425500838,13.5846110333784,-74.1488810446772,-38.3648487846315,178.893407068142,15.1082186321007,63.8929465732833,37.0972388508847,0,0,0,0,0
-171.134551942723,13.5996365071256,-73.5499414037228,-38.3134764017729,179.285415723547,15.1190161276899,63.5059292661083,37.0743537214469,0,0,0,0,0
-171.669453858817,13.5157525550099,-72.9703966097877,-38.380971435846,179.438460103352,15.0710153478499,63.3251414379111,37.1570653730038,0,0,0,0,0
-172.102327793968,13.4838348397223,-72.4954478513826,-38.4645773210406,179.748526887688,15.0833398582068,62.980403024024,37.2582440578532,0,0,0,0,0
-172.389748572578,13.4886737210946,-72.2006278073906,-38.4600384779114,179.64002225481,15.1055806086677,63.0958987497877,37.2381635110223,0,0,0,0,0
-170.192983064266,12.9805153515998,-71.6743206207106,-38.0786364108749,179.757794568991,15.1163981707849,62.9742150500013,37.2481766298392,0,0,0,0,0
-170.35016112755,12.9625660085595,-71.4819004885538,-38.1774479918226,179.673431912143,15.0839456930822,63.0162133556814,37.3800889374475,0,0,0,0,0
-170.436717144634,12.9143089879934,-71.3455018891114,-38.3263062558348,179.648045113096,15.0540484122326,62.9872810444543,37.5486957767551,0,0,0,0,0
-170.447739108161,12.8666065402077,-71.2868119753344,-38.4757187252989,177.475282781895,14.4010850779576,62.3663803337381,37.4524426021237,0,0,0,0,0
-170.405968601468,12.758532735261,-71.2572350171614,-38.7011554541735,177.50109265428,14.3127357598679,62.2730034426268,37.6681296611884,0,0,0,0,0
-170.537198833879,12.6804254098801,-71.0787124040158,-38.8397905050144,177.550604835476,14.2884367736369,62.1812037488462,37.8042610083415,0,0,0,0,0
-171.074215641825,12.6989833998977,-70.5564507881221,-38.7545912781354,177.933382460854,14.3394367758949,61.8323630984117,37.6962067048978,0,0,0,0,0
-171.466418149481,12.6449349349011,-70.1228906855204,-38.8629762844808,178.406231741441,14.2958058561903,61.3260999249826,37.8060378427376,0,0,0,0,0
-171.922743873948,12.6918350009403,-69.6415753408371,-38.9253625478438,178.575899656814,14.2923854009161,61.1218127378567,37.9186743557098,0,0,0,0,0
-171.056322035123,12.4678086555473,-69.6968886625194,-39.2710471239583,178.834525704312,14.3449389892318,61.3429297431143,38.4879620874269,0,0,0,0,0
-170.688286961368,12.2575487983698,-69.856806597895,-40.007488328642,178.528470213322,14.152809892637,61.4316888870996,39.2478281658774,0,0,0,0,0
-170.097379147202,12.1148374776091,-70.2373616668201,-40.7962950731661,177.809737600854,14.0641465070668,61.8999609338033,40.149448852358,0,0,0,0,0
-169.326214325209,11.6529727754102,-70.5750646643999,-42.4357774435252,177.44064735242,13.669724397414,61.8405377359889,41.8064060837573,0,0,0,0,0
-168.333892749728,11.1784465218144,-71.170478198017,-44.0335996674569,176.695970528474,13.267520361061,62.2079735122894,43.4041261691671,0,0,0,0,0
-167.799646464194,10.6099085355968,-71.209495306703,-46.0562981014038,175.939779263302,12.7533540425953,62.5770144889329,45.2088673065452,0,0,0,0,0
-166.412821091236,9.68381049146441,-71.9843457761708,-48.7348375839624,173.559027312079,11.7894860124961,63.6434057637144,47.312871035366,0,0,0,0,0
-162.191826164788,8.39364653813649,-75.663780694777,-51.5630920670893,170.605744981283,10.6788887618412,66.1005547089306,49.64715806439,0,0,0,0,0
-155.357238852728,6.77064052493012,-82.0031005975947,-54.7132574932303,166.021260200812,9.5220036708532,70.2017349640061,52.2926735185855,0,0,0,0,0
-154.453465668527,5.66192092699438,-84.9818666489107,-58.5765994967922,166.097472272025,9.00819444294905,72.3220487511562,55.3673738729752,0,0,0,0,0
-143.093057930664,3.43836687388992,-96.3171107791939,-60.389352468719,160.109869966345,7.78827641358117,78.2015969518612,56.7434800333413,0,0,0,0,0
-135.179161194494,1.61680367967898,-107.148011054517,-63.2439218606609,157.73844211743,6.66466564939876,82.9753244018623,59.2319769917945,0,0,0,0,0
-127.269517099885,0.497680352736381,-117.486918415865,-66.1512802844723,146.422301458007,4.80118910244815,94.4086516397101,60.6116973624912,0,0,0,0,0
-133.559708198481,0.368808922934647,-114.344332188243,-69.8737291000533,143.81916153394,4.36868827032785,99.4928422132261,63.5564244134286,0,0,0,0,0
-157.932165265835,0.195821842280651,-94.2657467231065,-74.1636291093136,128.808203462158,1.19319398018001,118.09245621012,65.4775566016058,0,0,0,0,0
-176.937111818853,0.154563161509287,-77.3465679719153,-76.946028410979,126.030900142077,0.346094327859902,124.074709337709,68.9176327165702,0,0,0,0,0
109.745172429609,-0.289811108489744,2.55075042853628,-79.7966539656102,151.359653207366,0.231081808775826,103.5366163932,72.2545905267579,0,0,0,0,0
95.0605405969394,-0.197304013876789,16.9136013258748,-84.1679023037687,179.983058645526,0.0422923276927634,77.0780844422191,75.3342782242023,0,0,0,0,0
129.429188141932,-6.18718142240081,-18.1155259431826,-86.1322446476745,-95.4458301306024,0.233840664458228,-15.7990838987936,79.4008019933012,0,0,0,0,0
139.937112740934,-9.78616420848402,-29.0764173123837,-85.7898418793574,-105.454804683666,-0.0104971250151493,-2.63507755000563,83.3833693228535,0,0,0,0,0
146.776954213185,-11.0014383820594,-38.1298274580267,-85.8040552425864,-98.5955981766895,-0.0903900026962106,-9.64597830588966,86.3368806037037,0,0,0,0,0
150.712146930685,-13.1142876360867,-42.2462695646956,-85.4127612778506,-121.100022450365,-3.51346217799966,13.1287911879513,88.2286664516903,0,0,0,0,0
154.099359063771,-15.6345154071975,-45.9608445882064,-84.774904087214,-142.296455966724,-6.77633049423591,36.2635183904483,88.4887511313923,0,0,0,0,0
156.807404047479,-18.2438741987648,-49.0844713286263,-83.6732948195447,-149.430616321501,-10.151110287446,43.908257133174,88.0644548275883,0,0,0,0,0
158.675779103128,-20.3936149915482,-51.2541800523251,-82.8829017877246,-152.116877879638,-12.5058497252407,47.1416672216037,87.7996787736803,0,0,0,0,0
159.018861351523,-21.5183267725613,-51.8143384273828,-83.3747150119702,-151.823274767739,-13.3791314507071,47.2043370229181,88.6286103589729,0,0,0,0,0
159.268714792686,-21.9195694393549,-52.0535039203173,-83.82106159195,-151.32447990969,-13.5976538058416,46.8545553188269,89.205091104425,0,0,0,0,0
159.505698589045,-22.2509685561827,-52.2471293645374,-84.3382572958719,-150.86805238515,-13.818830134737,46.4922942753559,90.1373205822188,0,0,0,0,0
159.353462984777,-22.2429637065477,-52.0306787523193,-85.1880961322582,-149.801374485065,-13.4407958409621,45.4536445578418,90.559430630287,0,0,0,0,0
159.606957587201,-22.489087058239,-52.2710628000366,-85.2200210957762,-149.796302555956,-13.6585718481712,45.5720310247511,90.4770593440375,0,0,0,0,0
159.952171505197,-22.3848184375107,-52.4006954787235,-85.5176110349569,-149.340800510397,-13.2369320207173,44.9642121706365,90.8564109647435,0,0,0,0,0
160.245710713977,-22.3066204575751,-52.5646881774614,-85.4240416878896,-149.272350613115,-13.0072466675047,44.807601956661,90.7674612396413,0,0,0,0,0
160.621906029487,-22.2655429717556,-52.7777908375084,-85.4351804222383,-149.171041485328,-12.7391893220019,44.5823631634124,90.8456574142456,0,0,0,0,0
160.666199868833,-22.2676541244851,-52.7814633389993,-85.601534615572,-149.123530707118,-12.6480631285658,44.4859972120739,90.9396929443455,0,0,0,0,0
160.70895899322,-22.219592375495,-52.7768732522139,-85.6975404791534,-149.153646953873,-12.4910476873048,44.4202498844523,90.9925435641575,0,0,0,0,0
160.719187735805,-22.3911991551801,-52.8512413270991,-85.6393497387943,-149.3783119161,-12.7085556869979,44.729767076186,90.7982506645952,0,0,0,0,0
160.680263659138,-22.5428165098101,-52.9055822254387,-85.4653186542566,-149.430561469564,-12.8989619291645,44.8824919849033,90.6866809349117,0,0,0,0,0
160.738101581751,-22.7703973119317,-53.0405207676523,-85.32057514386,-150.013951260038,-13.2962228212022,45.5511986516789,90.472888616525,0,0,0,0,0
160.714041821768,-22.8819680586607,-53.0649478743252,-85.3206591672119,-146.166020238607,-14.0767984854825,40.0008268260199,90.8769821263645,0,0,0,0,0
160.476524862921,-23.0399871166114,-52.9895336448911,-85.2420362552661,-146.002253204393,-14.279372108466,40.0053963808801,90.7959242650047,0,0,0,0,0
160.330389588964,-23.0215839514193,-52.8541209552846,-85.5359956996466,-146.152383629445,-14.4418451008986,40.2000063334542,90.8426941124825,0,0,0,0,0
160.683520508627,-23.6000335653464,-53.3489578109208,-84.9605484696165,-147.359546648694,-14.9870061291699,41.4514907269401,90.3650090596038,0,0,0,0,0
160.930760806441,-24.0489503939389,-53.7220967677758,-84.446373895612,-148.332139118992,-15.5272530186989,42.5223225827967,89.8167066190465,0,0,0,0,0
161.21756199289,-24.4021989844884,-54.0814407396338,-83.9325393594038,-149.115401981109,-15.9003116960663,43.3335338480006,89.4262853225488,0,0,0,0,0
161.261164558369,-24.5172834366511,-54.1519342299019,-83.8882982494173,-149.594806488125,-16.1117352960583,43.8046305284111,89.2744242224518,0,0,0,0,0
163.993726592168,-24.1563136522499,-58.6309914513699,-83.539698767078,-149.937456573718,-16.282166584677,44.1292854703968,89.3073961855792,0,0,0,0,0
163.898817181627,-24.0592628834431,-58.5255887771728,-83.7002788586348,-149.837403549754,-16.3455926384397,44.0724523947853,89.4390503630947,0,0,0,0,0
163.771240284622,-23.9773473930119,-58.4095969902085,-83.8307291779026,-149.676830811719,-16.3029907587871,43.9264089525685,89.5171520614382,0,0,0,0,0
163.689962090729,-23.8665900212789,-58.336846071659,-83.7753538832117,-149.929825997336,-16.3198314205518,44.1461177634488,89.2856423614314,0,0,0,0,0
163.767110158228,-23.7493186656221,-58.3445232148385,-83.7914020261858,-150.067142652326,-16.288443081401,44.2433780412933,89.1703011989259,0,0,0,0,0
163.578822875106,-23.4871714704492,-58.149270348005,-83.838881689985,-150.030923187184,-16.1195745404301,44.1220978224659,89.2426905238432,0,0,0,0,0
163.246945888641,-23.6451196216596,-58.0881382945158,-83.2084441582503,-150.053921409646,-16.4047000297022,44.3735647368864,88.5968272987915,0,0,0,0,0
160.531413701546,-24.0154748598262,-53.6557467100734,-83.1670954739023,-150.167377187111,-16.3831051087998,44.4809838383563,88.3249323189098,0,0,0,0,0
160.301450185144,-23.479862234103,-53.420205691095,-82.5388771000527,-149.893640210056,-15.9217710698807,44.1335695307364,87.7765999886603,0,0,0,0,0
159.263554314283,-22.3553912838519,-52.4199537694629,-82.3274971736842,-148.055490935607,-14.7980324854156,42.2246723780837,87.8347820735094,0,0,0,0,0
158.083567259882,-21.0836377792667,-51.2772319700107,-81.8543858649411,-146.168886160763,-13.409952569213,40.1929771406038,87.162920986068,0,0,0,0,0
156.896299725956,-19.8006185231622,-50.0947821904164,-81.3106459163998,-144.133748177066,-11.8756498030193,37.9410002233538,86.3094150935054,0,0,0,0,0
154.931593289497,-18.0941826699985,-48.165259951899,-80.8057736691022,-140.53732090451,-10.0784231981588,34.278222865868,85.2441869966908,0,0,0,0,0
152.735303731456,-16.1646522089279,-45.9308791593845,-80.0349408398408,-134.796990415773,-7.88581975029771,28.5762769205182,83.7617006607558,0,0,0,0,0
150.532489651095,-14.1967895450018,-43.6582237280794,-78.7733464540019,-122.393600368627,-6.06501290113377,14.4019105580239,82.1995752030632,0,0,0,0,0
147.456327004067,-11.9022901732237,-40.5977338423556,-76.8220790275964,-101.356280609354,-2.230363025343,-5.97687720346815,79.5390114491955,0,0,0,0,0
142.609574075624,-9.47644733977617,-35.8991338589401,-75.1550097215411,-84.6914385857594,-0.191574382721285,-22.9467302382469,74.6966282626227,0,0,0,0,0
134.928632953288,-6.65510764557553,-28.5655670419209,-73.0260014794074,-80.9986302950184,-0.0778056195781858,-28.0050499106194,69.4774702664338,0,0,0,0,0
118.175364966342,-4.09778384807163,-10.6973364954891,-70.8034355692601,-77.3616768065535,-0.0463951481394815,-33.19814561916,64.3460614355574,0,0,0,0,0
94.4611087929173,-0.244132513562562,11.7386846633113,-66.723357673484,-56.3281148411106,-0.110163758982537,-58.6825846092776,60.471487902624,0,0,0,0,0
97.8094385713047,-0.0332816845972843,8.48780138491361,-61.996993008259,-51.0000823783844,-0.0939259820388827,-66.3226102397538,56.755555560937,0,0,0,0,0
110.301178543651,0.0073727986958545,-5.29949060021707,-56.9804713605141,-34.5699871022355,-0.221019064877424,-85.5092084133359,54.5429772532948,0,0,0,0,0
141.154827683591,-0.011064478432445,-40.8334715579919,-53.0208927244051,62.5045158808924,-2.85913369719006,-168.27181389418,55.4863442206266,0,0,0,0,0
167.035333221903,0.328263598004952,-69.1868973566671,-50.980282216087,139.166780189867,0.348922240004271,118.571004948231,49.8199702796612,0,0,0,0,0
-176.65932644713,0.187279391534474,-84.9102106181034,-48.5656765874731,133.134410620303,0.466088326694688,122.555696296826,47.1719794710547,0,0,0,0,0
-156.898571632519,0.284225030479035,-103.053653755252,-47.0419178745846,131.835777929911,0.78855720885818,121.515433355697,44.5611738186433,0,0,0,0,0
-145.054025953236,0.373669087779035,-112.696061990462,-45.0746239067317,139.908994917508,1.96645196230025,111.189907758221,43.0538260566873,0,0,0,0,0
-138.097152078284,0.518912785820248,-117.062267262706,-42.8740806008786,151.764270531108,3.85368545243205,98.4440093933119,42.6084650241336,0,0,0,0,0
-135.853216727434,0.976947427521054,-116.38904237278,-40.715382314974,160.372222499711,5.49677893965367,89.6197883422495,42.1702509739632,0,0,0,0,0
-143.653579762239,2.44559650660617,-106.493649302162,-39.9420515309365,164.964157566928,6.83525537644988,85.114324410678,41.5027590078604,0,0,0,0,0
-150.684688665306,3.64234986258461,-98.9188796426178,-39.8440403978751,167.687600939588,7.58207519296656,82.4733568231495,41.0148517267904,0,0,0,0,0
-155.849430079792,4.77727565236177,-93.5184757209014,-39.8454694922414,169.564982167541,8.29339109396432,80.6432529749083,40.7503548952727,0,0,0,0,0
-159.73868016871,5.86416436854088,-89.5995280219473,-39.5856630034392,171.634903896705,9.03736002810339,78.6603589836681,40.3307021445623,0,0,0,0,0
-169.193723799153,7.65860334691394,-82.6128398112037,-40.0690727644795,173.336961895506,9.8535386104432,77.0420559439162,39.9613456958964,0,0,0,0,0
-171.135783568349,8.24622655757443,-80.6827419792398,-39.9014380569924,174.586201247146,10.3039219225588,75.8340435390431,39.7430922270722,0,0,0,0,0
-172.695219361464,8.96143987738503,-79.190947896511,-39.597495132231,178.825127262082,11.4733906017531,74.228494504625,39.8419406196132,0,0,0,0,0
-174.549912909282,9.47342741589097,-77.3396884213793,-39.45927013274,179.682226409947,11.8329906622644,73.4001866261671,39.6682781446574,0,0,0,0,0
-175.94650461363,9.9899868919604,-75.9766631466531,-39.2621575357733,-179.594095484466,12.2114625228656,72.7330933180523,39.4162465395577,0,0,0,0,0
-176.641019434341,10.4780136979523,-75.3364582290074,-39.0481036086209,-178.881975439704,12.6354554844561,72.0747012285706,39.1722499646741,0,0,0,0,0
-177.571567652975,10.8570962756538,-74.4100271393935,-38.9709296514256,-179.037320244916,12.8471605465675,72.2538315094729,39.1015834251662,0,0,0,0,0
-177.308527724777,11.1530607962612,-74.7085347146089,-38.8811258218696,-179.548067914325,13.0671212240527,72.7948313888582,39.0442577704974,0,0,0,0,0
-176.425659518004,11.4544083338055,-75.6812063019577,-38.6791750768319,-179.720652730431,13.4346552898579,73.6520748633433,38.9688163371296,0,0,0,0,0
-175.875808003022,11.7222394774045,-76.3162746563045,-38.4727275187365,179.462751023145,13.6566679469246,74.5609444264593,38.7813097870116,0,0,0,0,0
-175.689991770854,11.9136503175331,-76.542254388529,-38.3731985952346,179.296272357686,13.8275769872025,74.7597197066202,38.7139476314207,0,0,0,0,0
-176.454814601406,12.2601346118971,-76.3792864733041,-38.4094978401639,179.183149263532,13.9818964918424,74.8991570640467,38.6594399160369,0,0,0,0,0
-176.528777750466,12.4248478822577,-76.3285491721854,-38.3530814587143,179.060146186068,14.1734322952158,75.0562610913165,38.5875502792623,0,0,0,0,0
-176.746363545129,12.5699764489907,-76.1133133728823,-38.3434455750986,179.257433092938,14.3125770605531,74.8551181921461,38.5849705362097,0,0,0,0,0
-177.030239523879,12.7357615458683,-75.8498842911731,-38.2744472497531,179.516857056428,14.4607749804601,74.6027374351828,38.5414945531174,0,0,0,0,0
-177.396324370998,12.8253199238104,-75.4744853959484,-38.2774422090966,179.750272860113,14.4950277387151,74.356562398577,38.5517418332677,0,0,0,0,0
-177.874174214429,12.9274687807417,-74.9992472538641,-38.2351495836648,179.848158468961,14.6130997113715,74.283920283117,38.4715011753078,0,0,0,0,0
-178.200596388104,13.0500026606304,-74.6780059161014,-38.200434312135,177.678506031188,14.1174116078798,73.8883409446689,38.151818845757,0,0,0,0,0
-178.366132705933,13.0736466496148,-74.5081556206094,-38.200121364395,177.520292241377,14.0948906941393,74.0443105576745,38.1748952548595,0,0,0,0,0
-176.102827441112,12.5968915875729,-74.1985741732286,-37.7958500606653,177.646425129994,14.1013464645498,73.9091510260881,38.1876214367338,0,0,0,0,0
-176.609893224741,12.6377364132522,-73.6795602108301,-37.7967021607645,177.917094178384,14.1030583764723,73.6253389024356,38.1958685810889,0,0,0,0,0
-176.931432720697,12.6278422750206,-73.3315376341989,-37.8519493401087,178.037495874792,14.0671176124702,73.4852527895261,38.2382593607999,0,0,0,0,0
-177.20779736768,12.6045831268833,-73.0235111963622,-37.9264351454086,177.805669638383,14.0046147583521,73.6978328894846,38.3167534647407,0,0,0,0,0
-179.234853322101,12.9864851682635,-72.9196583698375,-38.2914572685351,177.51967184812,13.9526093754819,73.97287950608,38.377387132245,0,0,0,0,0
-179.428452629176,12.9372160732738,-72.7030028150641,-38.3465632820169,177.497273656236,13.8863092906186,73.9737581318522,38.4387789198952,0,0,0,0,0
-179.373976771057,12.9317434595743,-72.7507192254061,-38.3719307963744,177.195775639725,13.8384541128421,74.2751147598481,38.4687801222594,0,0,0,0,0
-179.392022588155,12.8956043925314,-72.7337319993895,-38.3677833665101,177.060620700908,13.8108438187659,74.4195042312308,38.4535925736958,0,0,0,0,0
-179.492435209839,12.9413357478027,-72.6368268988711,-38.3479133333977,176.827710172044,13.8175879818167,74.6632170195153,38.4486419603561,0,0,0,0,0
-179.513916424811,12.9468482756431,-72.6300755687898,-38.3009545402028,176.904980911879,13.8645175624705,74.6012765317907,38.3984909040768,0,0,0,0,0
-176.855419787846,12.4198083495336,-72.7218432823246,-37.8784507337374,176.76022113456,13.8750222974638,74.7566892626481,38.3847287105538,0,0,0,0,0
-176.925753438161,12.451899077695,-72.6620820873004,-37.841521453698,176.752717180368,13.894499330314,74.7692287441189,38.3726746012656,0,0,0,0,0
-177.405194520775,12.671937054716,-72.8505578651478,-37.8440906721843,176.498030114159,13.8939556258127,75.050363431722,38.324158857152,0,0,0,0,0
-177.284771619351,12.7340543667777,-72.9867805754974,-37.8093828200596,176.181668061125,13.9705250390307,75.3976393800992,38.2807733200356,0,0,0,0,0
-177.583174496201,12.8360068415433,-72.7028865707807,-37.7520602634243,176.043566433555,14.0933244973932,75.5677561516079,38.2196712582334,0,0,0,0,0
-177.894434067146,12.9518595932709,-72.4052727622443,-37.6968206462147,176.026671399052,14.1846157890506,75.6061913735477,38.1705129584012,0,0,0,0,0
-178.456139575513,13.0174232665257,-71.8491713346096,-37.6453894783361,176.359951666736,14.2340591125113,75.2696574149847,38.1422067387149,0,0,0,0,0
-179.223970210901,13.070928646691,-71.0420370139967,-37.7164811737876,176.429475069206,14.2570881456465,75.1682100048641,38.230275425307,0,0,0,0,0
-178.99291902268,12.9165433603824,-70.5576751925018,-37.8213630640763,176.489130101923,14.2175136743251,75.0304927840119,38.450034529049,0,0,0,0,0
-179.58057710893,12.8737815114976,-69.9142456298438,-37.958087629693,176.594410446767,14.1607089938418,74.8753899150024,38.5792942501632,0,0,0,0,0
-177.889472453156,12.3126737763244,-68.9515154495747,-37.6328349232327,176.831137801616,14.1750157914114,74.6350355088558,38.5615361471238,0,0,0,0,0
-178.220950498994,12.059553698991,-68.4876792181092,-38.0299954003916,174.199804639666,13.5508950641971,74.5581346603724,38.5448951395487,0,0,0,0,0
-178.718047252422,11.8556843548255,-67.8887956844635,-38.3343359469245,174.36797447547,13.4328985991908,74.2936743908317,38.8086049709472,0,0,0,0,0
-179.406604294481,11.7960008421316,-67.1123837284387,-38.5951225896006,174.446807288328,13.4105998715188,74.1483525728589,39.0059777024585,0,0,0,0,0
179.292207072173,11.7453159984117,-65.7383304068258,-38.8070110652883,175.021298285582,13.4091902207888,73.5207830193678,39.1127865848064,0,0,0,0,0
178.223982441674,11.8435808968501,-64.6107779230339,-38.9825545879667,175.405247416338,13.5127214489283,73.0752842154067,39.2804254537973,0,0,0,0,0
178.340389157248,11.4866292609222,-64.4018694590941,-40.0419930675546,173.905574547851,12.9913457160228,73.6247690604035,40.261529581483,0,0,0,0,0
178.031078279406,11.1507846057227,-63.6884737342439,-41.3995126877803,173.339162485108,12.8395365964158,73.869418248604,41.4362608884709,0,0,0,0,0
178.241838362167,10.4608567335448,-63.308629919653,-43.5029179527077,172.055560053964,12.2506904750525,74.681683875548,43.2797130378821,0,0,0,0,0
-176.104434794421,8.58619273090417,-65.4986088337012,-46.2230303878146,170.087588314321,11.5696943067486,76.0569348589799,45.8338462314485,0,0,0,0,0
-174.240015338763,7.23872396659849,-66.4471650996259,-50.0436691602463,168.158897056185,10.7724509470594,77.3250264286511,48.8662753750741,0,0,0,0,0
-169.514387430968,4.79595895935066,-70.0778797510378,-55.0277536164812,164.577906168713,9.26508114212137,80.0831264402103,53.0977145052156,0,0,0,0,0
-169.999282880877,3.50215723805258,-71.7111857278066,-58.304179060884,158.756005182169,7.59272081654544,85.5987376172055,55.4698764211986,0,0,0,0,0
-161.356962455012,0.863526389274455,-81.0622214109214,-59.8502271695849,152.839424781158,6.05539876501214,91.404532874339,56.8465195806731,0,0,0,0,0
179.496481709777,0.323872978378091,-65.3115593987606,-64.4185879029397,131.632598486048,2.03471745866864,113.400660140093,57.7380139668077,0,0,0,0,0
145.144780656001,0.127516020896906,-31.744639016089,-69.3992061703552,135.749598572303,0.443183232332387,114.539592656938,61.7963147127147,0,0,0,0,0
142.702101773277,-1.96204573412388,-29.9103589165081,-73.4541446802195,156.497471416485,0.281479824640968,97.8070457364899,65.7682360779095,0,0,0,0,0
157.735910146871,-6.94661426127323,-44.7886470523492,-73.4336296921768,-177.605495674075,0.150602452913205,73.9001031325248,68.5511498445248,0,0,0,0,0
166.305377236378,-10.7297239851426,-55.6856029563111,-73.103374849939,-148.577641936269,0.0944272397753423,44.8229220613565,71.8281175242367,0,0,0,0,0
163.812974652566,-12.0795105690578,-53.6642626777439,-75.0662946607454,-140.172187442678,0.115421511658127,36.840990709103,75.3964718283821,0,0,0,0,0
163.280360785594,-14.4506811488956,-53.6939486537795,-76.0005794837995,-116.106419001074,0.232308266577519,11.1784884996075,79.6301769706188,0,0,0,0,0
161.112156051211,-15.048664261648,-52.1029531718823,-76.9073627748827,-123.233982263382,-1.57057756184668,18.0451696779482,81.1828103791989,0,0,0,0,0
161.349158540011,-17.5023757545034,-53.0630552931935,-76.5307910395778,-145.45316933295,-6.90088459070114,40.3413013059866,80.4107394956377,0,0,0,0,0
162.925119084015,-17.7853226652348,-57.119172060768,-76.5675054733085,-143.135896883144,-7.63865391552523,38.5370824781249,81.9205393461082,0,0,0,0,0
162.483669642211,-18.5605944907348,-57.0529430861677,-76.4415211616838,-150.019156267995,-8.6744237764392,47.5961626875584,81.8392828694022,0,0,0,0,0
162.794912623506,-19.6776914477201,-57.6074736901474,-76.275976140546,-152.039710382999,-10.4192471866991,49.9610584532371,81.9728210678094,0,0,0,0,0
162.46086531986,-20.5886892425236,-57.7420060055163,-75.6409700811523,-152.905431931806,-11.7732444948954,51.2617109607131,81.6184365147208,0,0,0,0,0
162.549707509045,-21.3078024127863,-58.076637372421,-75.172785818783,-153.619865027099,-12.8245747018971,52.2827373293939,81.3609101683311,0,0,0,0,0
162.140796385309,-21.4772797957971,-57.8789239089723,-75.0656899889882,-153.165413311931,-13.1828433474317,52.0961897213863,81.2900382524464,0,0,0,0,0
161.421700142021,-21.1665305257322,-57.3013966555357,-75.2066413688229,-151.894623012451,-12.8966303263365,50.9739817697669,81.5575602368847,0,0,0,0,0
162.320970602719,-21.9368081652034,-58.2871302670138,-73.9630617719242,-153.615062098171,-13.6868749399508,52.7607299919283,80.4107558480944,0,0,0,0,0
162.08073932343,-21.8047019116026,-58.1753938131244,-73.3991954529698,-153.186757547425,-13.3587804532984,52.3684262285173,79.9096931650033,0,0,0,0,0
161.861038813463,-21.4199620530343,-57.9509278033781,-73.1831715878982,-152.979444367659,-12.9388609111138,52.1314903577394,79.2039866682371,0,0,0,0,0
162.098281600818,-21.6293455817622,-58.2484226857125,-72.6111541886916,-153.597921683015,-13.0908048637473,52.7705797219936,78.4165780316314,0,0,0,0,0
162.458495458988,-21.8911664063386,-58.6596112341399,-71.8969104875758,-150.239568856978,-13.6689619893373,47.6561976937682,77.9946008162548,0,0,0,0,0
162.50438258468,-21.9873759285792,-58.7600589978474,-71.5988851960727,-150.569772657987,-13.8169628892242,48.0258819487561,77.6041950627454,0,0,0,0,0
162.65214594748,-22.0746918997654,-58.9257810776717,-71.2823655341776,-151.122264882189,-13.9175560539469,48.5303813622671,77.2852180952163,0,0,0,0,0
162.788450274088,-22.2429207411001,-59.0978550763203,-71.0263567888129,-151.662734695498,-14.1803773362924,49.0800458541569,77.0592611206965,0,0,0,0,0
162.492678432783,-22.1188147767968,-58.8552640042871,-71.153504197902,-151.636804845328,-14.1521132769121,49.0215355735562,77.2491867597478,0,0,0,0,0
162.769522787599,-22.5172733756872,-59.1909296597857,-70.8365528778867,-152.414920610996,-14.7181334695615,49.877385088826,76.9789496596609,0,0,0,0,0
162.795225909632,-22.6885486147021,-59.2652251274437,-70.7699022290395,-152.814344149722,-14.9898696166283,50.289798199123,76.9460809372056,0,0,0,0,0
162.701616146419,-22.7032758820017,-59.1898082481543,-70.9103515439903,-152.85581412492,-15.0876823204418,50.3455158303605,77.0543163935987,0,0,0,0,0
162.487787089436,-22.5836390944702,-59.0112748544559,-70.974654624282,-152.812242389152,-15.0664496701139,50.2988747144036,77.0957455177867,0,0,0,0,0
162.337238663089,-22.3840370671273,-58.836695989278,-71.1238657715054,-152.234511134935,-14.9123888201519,49.7719062990435,77.3601318766709,0,0,0,0,0
161.936745572955,-21.9327092749053,-58.389541303713,-71.5359272818098,-151.544300994557,-14.6164499556782,49.0956109501098,77.6439118235342,0,0,0,0,0
161.731388880583,-21.7145333529205,-58.1590938999826,-71.7693142187478,-151.127089681649,-14.390066711216,48.653742249449,77.8851560427397,0,0,0,0,0
161.512321969248,-21.4107596221584,-57.8641088661008,-72.2012821867708,-150.732221630224,-14.1276936087565,48.2148015310974,78.0940893192965,0,0,0,0,0
161.469936683771,-21.1882602958966,-57.7091429118032,-72.6193150568937,-150.511161313259,-13.9218269285883,47.9239092215115,78.3372047994946,0,0,0,0,0
161.491186678298,-21.3818187026167,-57.7908241100023,-72.5533695155276,-150.81620139111,-13.9657916799561,48.1535175492978,78.4677951358587,0,0,0,0,0
161.27083838151,-21.0448267139434,-57.453432109638,-73.1911263514469,-150.596174584059,-13.6100672389931,47.7730384739771,78.8762446352854,0,0,0,0,0
161.222862508651,-20.8598784163507,-57.2714573270679,-73.8460076456624,-150.881740771905,-13.3411659780024,47.799620597194,79.3670831419344,0,0,0,0,0
158.634431093878,-21.0878837852056,-52.5962209036308,-75.1795925729052,-151.683059733592,-13.0526144201358,48.1977700775975,79.945230115287,0,0,0,0,0
159.575172899854,-20.9819971196521,-53.0025229340707,-76.3246960061369,-149.646898263634,-13.1160417525687,43.5804854685949,81.2046766026594,0,0,0,0,0
161.333674463384,-20.8898500548489,-53.8884644198338,-77.8256394741335,-152.974199260635,-12.9048375538672,45.8326034949924,82.3489467661046,0,0,0,0,0
161.20152612404,-20.7661213472925,-50.4656268028194,-80.3036338196152,-152.302973071555,-12.6307769801128,41.9777123268494,84.0816273747103,0,0,0,0,0
165.331304550321,-20.0769643512043,-52.6346876399524,-82.2311509706161,-153.950924052069,-12.4559705232722,39.9685679646188,85.4613411226125,0,0,0,0,0
167.519001550034,-20.1225658481684,-50.9831442180477,-83.2159415143702,-158.28551275916,-12.683688078608,40.363237952849,85.8586141661751,0,0,0,0,0
169.666236742393,-18.9428901292114,-49.1612834897938,-83.9028485354143,-158.628191567886,-12.2769259248786,34.5601531456556,86.5076164021185,0,0,0,0,0
169.560080948967,-19.0041893816286,-43.3304559795546,-84.2388525549862,-164.141419383384,-12.0297669289305,36.1215164718885,85.9025757076581,0,0,0,0,0
172.889331568893,-18.5864207430408,-42.8654486675922,-83.9749752670924,-165.929765371836,-12.5681152180025,32.1426421646643,85.8233183708262,0,0,0,0,0
176.097047392403,-18.0133479277941,-42.4720436316134,-83.6227237463671,-170.825373700781,-12.2116031562767,33.5183586601869,85.0550300979654,0,0,0,0,0
176.538416639664,-18.3907935567091,-37.4181290886525,-84.0778820520027,-175.648497796463,-11.9843062906014,34.8781236131697,85.0208597597748,0,0,0,0,0
-179.740028286416,-18.3072280380009,-37.7274556652179,-83.6723778335654,-177.193445597201,-12.7796082148528,31.2152262615048,84.5786753997077,0,0,0,0,0
-176.703829417662,-17.9682257946081,-37.575223051911,-83.7192740505816,178.067263019279,-12.7372294218072,32.8542915458044,84.209499933849,0,0,0,0,0
-173.270319435507,-17.4097758435395,-37.9143376387824,-83.7454634633535,173.037966551152,-12.5717735671525,34.910391714545,83.7822464205483,0,0,0,0,0
-169.951158707614,-17.0368051010386,-38.3340947190405,-83.6434802296926,169.433690734003,-12.7982484302478,35.3201883498218,83.4102873864919,0,0,0,0,0
-169.484153566894,-17.2259579618743,-34.1048459716367,-83.8937935646045,165.515724626433,-12.6916237047883,36.009026981423,83.2112127541686,0,0,0,0,0
-164.147926512769,-15.9417292918442,-38.027422452636,-83.1695590348802,158.59375791141,-11.9577390530505,41.6963295550512,82.4474190452501,0,0,0,0,0
-162.495724241706,-15.816959507129,-36.5787922656185,-83.2957922212315,156.451184911155,-12.1450114739162,40.8212748007443,82.5177825222504,0,0,0,0,0
-159.518863599641,-14.9969945535909,-38.6630444042051,-83.2136259524253,150.90035190951,-12.0254080806808,45.5913749314111,82.10279661938,0,0,0,0,0
-160.097181086309,-14.8757458030092,-35.1391348901958,-83.4768718074274,151.373117753872,-12.1928497909123,42.3196051071825,82.2540841239624,0,0,0,0,0
-158.461400143162,-14.1008665408724,-36.121498588651,-83.9590833416092,148.216148519997,-11.825810336647,44.8737055131764,82.5017427796059,0,0,0,0,0
-160.573703042123,-13.9928138410311,-31.2116479466457,-84.4151595157683,149.581542969774,-11.9046020317113,40.7661700836434,82.9743461557178,0,0,0,0,0
-159.499583393245,-13.2432761976734,-31.6317513799515,-84.3845730602746,147.266233994686,-11.5689546458366,42.5598846407174,82.9642617156096,0,0,0,0,0
-158.58188736383,-12.5260958615813,-31.9477024297903,-84.4025095173989,144.785945010385,-11.2675223248142,44.5100766719008,82.8978145497148,0,0,0,0,0
-158.06675267112,-11.7456424508025,-31.891863984983,-84.5968138205836,142.510266516187,-10.8976047433852,46.275424575192,83.0943997043218,0,0,0,0,0
-157.843419284099,-10.9182148687823,-31.5483860464775,-84.7665913637793,141.214104690229,-10.2265194364825,47.0198185917191,83.2715183206361,0,0,0,0,0
-157.88713658428,-10.4306943264685,-31.1862436823098,-84.8043265338163,140.950160563438,-9.76532471294129,46.997953154436,83.4206289323641,0,0,0,0,0
-157.750427531902,-10.1617753855435,-31.1718267651247,-85.1835334887726,141.476020692322,-9.36582394168701,46.384130137462,84.0875180792542,0,0,0,0,0
-156.933810830994,-9.90846182895629,-31.7463642279602,-85.3395407485722,141.652720403748,-8.91762408931595,46.0010041589976,84.367628574936,0,0,0,0,0
-156.18201515795,-9.79364827319165,-32.3192759785699,-85.176450688555,141.855355156801,-8.54455875250318,45.6012330113964,84.3002583533844,0,0,0,0,0
-155.046320482891,-9.93010341450804,-33.433569519441,-85.332891788689,141.693658314094,-8.44815508865355,45.7071507330802,84.4821634694278,0,0,0,0,0
-153.917151236659,-10.1279383641716,-34.5759642020335,-85.4506451497926,141.738326659352,-8.33555460054268,45.6369986348487,84.8019072197818,0,0,0,0,0
-153.136524063174,-10.2707317254914,-35.3862590974609,-85.6866678696765,142.217794733847,-8.28561581179156,45.2187907067504,85.1075462454759,0,0,0,0,0
-151.762765718267,-10.4225739122268,-36.6983100060007,-85.7144426356349,141.535184602626,-8.31698087015084,45.8484297533296,85.2173834570189,0,0,0,0,0
-150.377382340381,-10.6613989443776,-38.0654629019006,-85.6747100888773,140.885108111278,-8.45128461421234,46.4883867710342,85.1417075510426,0,0,0,0,0
-149.33639002017,-10.9231616817642,-39.1280490519979,-85.5183336114587,140.620026209876,-8.578076502697,46.7739169290132,84.9585402469554,0,0,0,0,0
-149.364546007938,-11.1234488666125,-39.2273045900419,-85.4531958039948,141.050276077357,-8.70131311689894,46.4587972657632,84.8768503900927,0,0,0,0,0
-149.039454146126,-11.2346953427436,-39.5714788817106,-85.3543815117069,140.801270187828,-8.7959296161379,46.7158753149347,84.73507020568,0,0,0,0,0
-149.448423264915,-11.3673141724003,-39.2966004172831,-85.3020131412495,141.307980064383,-8.83084790681215,46.2907576228642,84.7191777974897,0,0,0,0,0
-149.736744772927,-11.3987717170832,-39.0517860141096,-85.1848450843988,141.401631571918,-8.797773097625,46.180196625724,84.6314175243888,0,0,0,0,0
-149.936946405156,-11.3690472448055,-38.8571339875927,-85.1803209926229,141.298046225917,-8.74899665242276,46.2482339822755,84.6817952665093,0,0,0,0,0
-150.150089823611,-11.3964898759067,-38.6805258748125,-85.1077782623433,141.827382063788,-8.67834233714461,45.7391961304773,84.6403199562468,0,0,0,0,0
-150.6263232826,-11.4371939007947,-38.2876189357213,-85.0702778053001,142.686322413169,-8.69468188708396,44.9984316814891,84.6674412763591,0,0,0,0,0
-151.086537011124,-11.5185230968103,-37.9429398856345,-85.0913494004411,143.52486573825,-8.70644590308035,44.2695953871553,84.667205314683,0,0,0,0,0
-151.853600443123,-11.6056011902483,-37.3227480876374,-85.0240674583472,137.336309662476,-8.66888292926882,52.6583656546313,83.8131898174494,0,0,0,0,0
-147.813584532444,-11.1292256438412,-43.5371155202155,-84.5773090977702,138.671474205903,-8.60799177308428,51.4681763596781,83.9408899692679,0,0,0,0,0
-148.258451210507,-11.236481930474,-43.2093516386803,-84.5059949507334,139.108371238081,-8.71658746008046,51.1396926593909,83.8974995561316,0,0,0,0,0
-148.319935280539,-11.4054094497608,-43.2668834311342,-84.5206810221949,139.694451990109,-8.7953803122314,50.6784197192976,83.9780159994111,0,0,0,0,0
-148.557981597642,-11.5879987776237,-43.1853242272129,-84.5742175602152,140.395613944779,-8.89695134365871,50.1202719612232,83.9757718140072,0,0,0,0,0
-148.493504439589,-11.8672333524343,-43.4220363488581,-84.5602308572066,141.242314392815,-9.04995815292273,49.4816589047966,84.1214398307494,0,0,0,0,0
-148.290621275544,-12.0803675439973,-43.7152503410823,-84.3916364744908,142.076061907381,-9.10458581778957,48.7799410628697,84.1007996939366,0,0,0,0,0
-148.81661712624,-12.4034398886244,-43.4420398602404,-84.1741700163345,143.25288629319,-9.23620622563206,47.8181660409829,84.0432524747734,0,0,0,0,0
-149.670001776656,-12.7066671953248,-42.8841072541263,-84.0374249191916,145.704491298906,-9.24598927502245,45.6901595149704,84.2000598803493,0,0,0,0,0
-150.868655885365,-13.1685470961969,-42.1298898098325,-83.8687746363325,148.478593832502,-9.43515920787118,43.3659323274887,84.2139470283854,0,0,0,0,0
-152.226785088898,-13.6741637360293,-41.2933491066897,-83.8636737141793,151.27921627954,-9.65320183310391,41.0504074689191,84.3756520427115,0,0,0,0,0
-153.905829044202,-14.1665169800771,-40.1724034296714,-83.8763235483181,154.663663735624,-9.90694806479965,38.2420363571223,84.598021631897,0,0,0,0,0
-152.777621345785,-14.1348121496477,-44.1118539168413,-83.7651111474901,153.637960372008,-9.77455412005074,42.0790953911658,84.640349045287,0,0,0,0,0
-156.722690247676,-14.9569513727598,-41.2617005239863,-84.038962822336,159.108591450996,-10.0955006270642,37.4762177417403,85.2606055587918,0,0,0,0,0
-157.281164561395,-15.1742656750278,-43.8089631347782,-83.8438379657867,159.326999681955,-10.1738885710982,40.2344383880792,84.9340559428754,0,0,0,0,0
-162.231519917036,-16.1418005517805,-40.0436932411123,-83.862527223285,161.583483157819,-10.1687866500714,41.0427395717375,84.653747847786,0,0,0,0,0
-165.434496563894,-16.2458553102764,-39.994785211459,-83.8286355548467,169.993420291521,-10.6016447672809,33.6296424822131,84.8723375386621,0,0,0,0,0
-169.552794805507,-16.3246969915459,-38.6997547784036,-83.9890926862631,169.452470800728,-9.81990777848972,39.1300090003006,84.2385606331195,0,0,0,0,0
-170.025223582563,-15.0045881075192,-43.2336436880786,-83.8478114890134,176.179421119657,-9.20131075009019,34.587957045546,84.3950245335538,0,0,0,0,0
-176.466956648614,-14.620291900191,-40.4013411419639,-83.7303523789258,-175.970040064969,-8.6808610701874,30.0996018504725,83.9528345011271,0,0,0,0,0
177.160577940922,-14.3833005511712,-37.790094178443,-83.7049443788663,-168.931061988909,-8.34261054830992,26.4648230884281,83.6333938247149,0,0,0,0,0
174.857710610841,-13.5395719948262,-41.2136760261648,-83.6396664689441,-166.347096586636,-7.48400717683217,29.4151218308324,83.1806012373246,0,0,0,0,0
167.984455986766,-13.0312301234721,-38.3950224902052,-83.8717488873283,-156.572797533001,-6.78786168083988,23.4859607367651,83.1089078952379,0,0,0,0,0
165.043174886911,-12.7813470847223,-41.9719383226566,-82.3683611224543,-148.44396918373,-7.21372947832714,19.6311442805652,82.2705363169781,0,0,0,0,0
158.411087190853,-12.8253620198729,-39.8872883137089,-81.5464200771793,-146.307999886712,-6.96038863617622,23.6482906427064,81.1133729395701,0,0,0,0,0
153.255109298579,-12.5303293804653,-38.7425726380422,-81.4180427422614,-140.45750017971,-7.11388071269343,21.7904373876557,80.6364445803842,0,0,0,0,0
155.286768705323,-14.3672648373364,-44.4758311142982,-78.1389568728371,-142.83493807727,-8.91561701724862,28.1023270700701,77.9614560171691,0,0,0,0,0
154.120604378513,-13.7218138304055,-46.1933802424073,-78.4784139388941,-138.259777896641,-8.30856905368762,26.7982747399424,78.6757622561439,0,0,0,0,0
154.82988292011,-12.8991199017401,-49.2882413394063,-78.5692514533507,-132.716885809203,-7.14103914880297,24.2318835852373,79.8050425332275,0,0,0,0,0
159.206384187782,-16.0895938654955,-54.0377386944884,-76.1298364864565,-142.760484912513,-9.27217917510257,36.8051781027589,78.2343690490665,0,0,0,0,0
160.839281965612,-18.0919928506744,-56.0893997039565,-74.3669836785219,-149.459154069149,-11.0109936254116,46.0730541490713,76.7253470854868,0,0,0,0,0
159.454835495446,-18.7035004459479,-55.4679703313684,-73.4061443290561,-145.169224198588,-11.1692853475377,42.8176689240397,76.4400973974914,0,0,0,0,0
156.891592261085,-18.8789301530526,-53.7398647892388,-73.6087581747373,-140.306904828415,-11.0721272864379,38.8798156008225,76.8486207875005,0,0,0,0,0
154.876247139499,-18.6408757361623,-52.2355870548359,-73.8104118888967,-135.524207058342,-10.9466188116789,34.9986243832771,77.0417227249773,0,0,0,0,0
153.608773104692,-18.5487968396378,-51.3275421705876,-73.7750998806629,-132.265431381343,-10.9669636722388,32.3943397703018,77.2206267072841,0,0,0,0,0
152.301306949462,-18.1683183408587,-50.2261761427929,-74.0237744063293,-128.599483263892,-10.5369482700443,29.1272186682089,77.6415796189778,0,0,0,0,0
150.656851697771,-17.4397587252873,-48.7348993875069,-74.1654158415819,-125.866065291,-8.61555340943878,28.4356200715548,78.0417411105825,0,0,0,0,0
150.235621572515,-17.1895007816414,-48.3285667388312,-74.1380868718711,-123.032024421657,-8.01014323148399,25.6964390687652,78.0420021246546,0,0,0,0,0
151.129214956609,-17.4103450841914,-49.0957824704728,-73.8890266506552,-120.877304519963,-8.89554708837659,21.6760236276327,78.0653843117384,0,0,0,0,0
151.217222093387,-17.4629530018132,-49.2200830998979,-73.6096759361159,-120.114281141721,-8.78515379210171,20.9877763529919,77.9594924268856,0,0,0,0,0
152.304278295007,-18.1803862651803,-50.3586323344765,-73.122234434413,-122.973461316709,-9.44685621726839,23.8503240850154,77.6049230022326,0,0,0,0,0
153.060283215757,-18.7135440387771,-51.1377639555468,-72.8914947383398,-125.55015139295,-10.0123825350832,26.36318433746,77.3839323580501,0,0,0,0,0
152.974719255254,-18.8662981429604,-51.1144758566608,-73.0861628593328,-126.02714085841,-10.2959993935697,26.9042120093447,77.5887072331839,0,0,0,0,0
152.822250492702,-19.0589028149564,-51.0656161056308,-73.2579409681327,-126.48830746341,-10.5775090766606,27.4269757694825,77.8149111737916,0,0,0,0,0
151.683569956097,-18.7472427247243,-50.0756031277053,-73.7890109359596,-124.892919510475,-10.3491872390956,25.8879293924565,78.4451959124374,0,0,0,0,0
150.883983106095,-18.6776435874563,-49.4741284538923,-73.9138723057641,-123.203413673179,-10.1557890483704,24.3439245287064,78.7040357920879,0,0,0,0,0
149.076707570115,-18.0699208778454,-47.8966185396899,-74.210225956416,-121.353562918692,-8.46579045127649,24.4812074263652,78.9171393594743,0,0,0,0,0
148.412622088237,-17.9962504521603,-47.397389853156,-74.1882584144345,-120.010841758077,-8.30888939686852,23.248432860943,78.9899177610657,0,0,0,0,0
147.521957819057,-17.6493883032624,-46.5610199503393,-74.4940131717996,-116.697847931573,-7.73067979623164,20.0307059950378,79.2896289263534,0,0,0,0,0
146.910077827078,-17.3985316140192,-45.9922035367559,-74.58116832922,-114.170390990132,-7.34741426895445,17.5997862171849,79.485270962914,0,0,0,0,0
146.821044538838,-17.3184116626737,-45.8724503435077,-74.70817700653,-113.585676495986,-7.22028497688467,16.9822989273144,79.6765553894091,0,0,0,0,0
146.032805728586,-16.9897705142636,-45.0944171223236,-75.0850068305285,-110.469952481881,-6.70214849938247,13.8900449848333,80.0920448726726,0,0,0,0,0
145.939812935911,-16.8746579162809,-44.9611349731152,-75.1522135936451,-109.470399806208,-6.55758636759754,12.9083713761046,80.2226791138889,0,0,0,0,0
146.128612477654,-16.9497014559433,-45.1723936312859,-74.8714708950933,-109.199801443549,-6.54103334466839,12.6772286518103,80.1543438141849,0,0,0,0,0
145.226576217109,-16.6110946828577,-44.2881636828957,-75.3380903398504,-106.267391961631,-6.13059937847558,9.81400618279156,80.4041464094933,0,0,0,0,0
147.057897541896,-15.7081488781267,-47.9796278859375,-75.6817181499436,-101.682583323551,-5.58358231720567,5.36094892494896,80.8232064673641,0,0,0,0,0
146.911548426881,-15.8223691809713,-47.8575343522047,-76.2342397728094,-103.639031702867,-4.66185288450816,9.13885662344904,81.1990210138778,0,0,0,0,0
146.820401163586,-16.0089648122002,-47.8030680570285,-76.8669448902464,-106.789447014581,-5.29772673757174,12.2737430511694,81.617774157322,0,0,0,0,0
149.368928214112,-15.4387702259438,-52.090025283504,-78.2193768154718,-105.494031379329,-5.30076430463657,10.9540849034584,82.8399319803112,0,0,0,0,0
151.501527354772,-14.8230005320791,-56.0986592555415,-79.5388100108996,-106.389596830684,-4.39596072860607,13.7233102314092,83.8385035343635,0,0,0,0,0
147.304517255594,-14.0177518204053,-52.2941504782952,-82.4308949478245,-97.0037380566285,-3.72359388057001,4.62398701880187,86.1555889072255,0,0,0,0,0
146.058109436537,-13.1440296826929,-53.5868184384383,-84.7619575498929,-86.2033636630197,-2.11792409429455,-3.74068132221515,88.220821348936,0,0,0,0,0
141.772705099362,-12.0019146133133,-52.3419297240706,-87.6764645683069,-68.5091722015932,-0.644573595066476,-18.8074148494555,89.9407568439275,0,0,0,0,0
138.664518376341,-10.5854801008771,-54.7140945523003,-90.246834235171,-55.8887286281513,-0.77208869532555,-28.1793699395658,91.933495443323,0,0,0,0,0
124.741642215868,-9.04539763782771,-45.09099994347,-93.3117093686786,-44.2797852635938,-0.613792021549585,-34.3612841554723,93.3389704876093,0,0,0,0,0
115.329087732722,-7.41208338343839,-41.516833602799,-95.6545137587954,-33.0865204570169,-0.614818226862298,-40.1335089933102,94.8313869101617,0,0,0,0,0
104.712235575493,-6.72149997913604,-34.5169831858794,-97.1765889527049,-28.2006876955465,-1.14625821744261,-41.1753420564893,96.2047200956904,0,0,0,0,0
95.213571726677,-5.09222107664121,-30.1111562019626,-98.4276125975356,-20.9171324350909,-1.785745837912,-44.4539415628403,97.1166920271544,0,0,0,0,0
87.5045397609245,-4.70431078979937,-25.4156620224048,-98.6921454063716,-25.27875889063,-3.00643998057333,-37.0596239370711,97.8283940544773,0,0,0,0,0
76.1383939669286,-4.6313799444672,-16.4338649067242,-99.1323276099116,-27.7328334956705,-4.15899616890783,-31.5719026543998,98.1361190192033,0,0,0,0,0
62.3012824515061,-4.06181237279262,-5.69102270884022,-99.6210650725376,-24.3050212938557,-4.97571418002067,-31.7907253988557,98.1960346159162,0,0,0,0,0
50.5168960283456,-5.09641286630534,4.45939102885063,-99.568511321982,-27.8757002758541,-7.67336213210766,-26.4612908472179,98.1837480215167,0,0,0,0,0
46.9860101594488,-5.53847942952089,4.92046378818853,-99.3591138430462,-30.2118805678281,-9.74996555889712,-22.7934067272366,98.0648326942479,0,0,0,0,0
44.9043885591742,-7.32829062629736,5.61415003289804,-99.233422541743,-27.7278360487217,-9.81100474936153,-22.5350484378516,98.0821158306301,0,0,0,0,0
40.4529674247076,-7.08394240448979,7.22726001129038,-99.0518844704855,-26.7895680821675,-11.1720392662426,-22.3820198554171,98.0660679606205,0,0,0,0,0
38.2119744248532,-8.22755564069496,8.3362259560403,-98.7575295246443,-22.9035528716879,-10.7497596154927,-23.7260270443157,98.1394421757344,0,0,0,0,0
35.3653757213597,-9.49060018955211,9.91162836691871,-98.5843165009431,-21.2490640087149,-12.0777397860528,-24.2795618155373,98.3273193636257,0,0,0,0,0
32.1306199223361,-10.9141151484179,11.747790034761,-98.613221244154,-16.2226546941818,-12.1575357474734,-26.45619110043,99.0003860151211,0,0,0,0,0
29.768177143746,-12.1739275407369,12.8587679593147,-98.4807343540491,-14.6751305287954,-13.3805228935865,-27.0082880546782,99.3423203232443,0,0,0,0,0
25.7428351552929,-13.5715270622259,15.3170949009603,-98.3721423084383,-12.2418622612399,-14.8678356891232,-28.124264447917,99.5809185035597,0,0,0,0,0
22.9759380393066,-14.7841693028963,16.8348071315866,-98.3862060764284,-10.5724268169067,-16.0898208867156,-28.7366472533257,99.7867608651005,0,0,0,0,0
20.5648233624753,-15.673557780779,18.3148248860309,-98.5115611715563,-9.13487485518783,-17.0220581997379,-29.3336736419708,99.8646667766435,0,0,0,0,0
16.8475493321916,-14.7079375646048,19.7700536313321,-98.3781327871946,-7.34516869912318,-17.4445058984566,-30.6286531950381,99.7262138376379,0,0,0,0,0
15.7484582681386,-16.7926370641579,21.6979072965541,-98.343991155531,-5.23168648806768,-18.1617943720318,-32.0965542449404,99.9325507443181,0,0,0,0,0
13.9861153789819,-17.2987439919126,22.798995463769,-97.9952558134635,-3.60429713777103,-18.6012330502205,-33.2359400548264,99.7289635777366,0,0,0,0,0
12.9895203434211,-17.6521843894369,23.330635000726,-97.6327303644247,-2.47046541992768,-18.8777324127718,-34.05118977903,99.5417879861703,0,0,0,0,0
12.3116975745348,-17.7335909995364,23.8146366105558,-97.3556424202478,-1.96432576695133,-19.1373231023064,-34.281487715269,99.3707357471554,0,0,0,0,0
12.520535045289,-17.513501128579,23.787840904717,-97.3105334932897,-2.07931345202587,-19.0036783760881,-34.2801122567794,99.3688418013674,0,0,0,0,0
12.9010794474856,-17.1706067844546,23.7013071323561,-97.2645356953396,-2.31239090674603,-18.7228545945127,-34.3039332928755,99.4334377069889,0,0,0,0,0
15.1129993908019,-18.5242906731972,23.2484057534444,-97.3365341469124,-2.78694693715875,-18.8497664646036,-33.7179686266227,99.353751533249,0,0,0,0,0
15.7195457045981,-18.4947311294877,22.6994950327353,-97.2489732856054,-3.67550547501082,-18.8457372756247,-32.8578484009963,99.329888154673,0,0,0,0,0
16.6066275173794,-18.2186728532254,22.1110102960799,-97.2323454247623,-4.58381303967622,-18.5795708659149,-32.17920528737,99.2274537574484,0,0,0,0,0
17.8498855838414,-17.8566644597329,21.2549661929588,-97.1535270518878,-5.94724318538215,-18.28743401885,-31.0842738840036,99.0935822873656,0,0,0,0,0
18.7329665712092,-17.6205043270297,20.6279717895523,-97.0804918899054,-7.48679613055913,-18.0584106882078,-29.8259225873812,99.1308123725871,0,0,0,0,0
19.3868690720028,-17.6782272611115,19.9795480993985,-97.0030094229655,-8.70152744141069,-17.9914802193372,-28.7696031007308,99.2423798967259,0,0,0,0,0
20.1383834886187,-18.0252066201384,19.0478785202064,-97.0104325139756,-9.8632462875687,-18.1606239333607,-27.5460641084683,99.2433562550846,0,0,0,0,0
20.7965330454959,-18.3972676881788,18.2033305823441,-97.0937477371642,-10.7621942768116,-18.3608729591853,-26.5635949134287,99.3061513087071,0,0,0,0,0
21.0778098197691,-18.7867017888886,17.6592850427884,-97.09959909299,-11.2821507693216,-18.6332937580871,-25.8236811745137,99.1699895682983,0,0,0,0,0
21.6018912574625,-18.9460192298816,17.092482690897,-97.156500051747,-11.7633886255459,-18.65259462431,-25.3660849393059,99.1768859841361,0,0,0,0,0
21.8835250147504,-19.1535295852306,16.7017308662323,-97.2113217580864,-11.9806620595859,-18.7163302520472,-25.1296635857958,99.2372878835436,0,0,0,0,0
22.0254778046902,-19.2004697680126,16.5291767460366,-97.1608754741732,-12.1086673237655,-18.6806457100343,-25.010711460007,99.1194553358521,0,0,0,0,0
22.144250113547,-19.2713589825042,16.3526558660085,-97.0861806787664,-12.1420800226823,-18.6686234760015,-24.9704460938891,99.0445416548597,0,0,0,0,0
22.5040669900516,-19.179437963919,16.0724267879513,-96.9414004959551,-12.2057877850041,-18.4782758016324,-25.0272091058974,98.8905819958971,0,0,0,0,0
23.1446616125373,-19.1740808338429,15.4946094523334,-96.842034019381,-12.4972187442971,-18.4471083781104,-24.7757094045996,98.854568968994,0,0,0,0,0
23.5944971750935,-19.1379805330541,15.0932257045022,-96.6892423137558,-13.0652987390112,-18.411710025754,-24.2693551354098,98.7975042546288,0,0,0,0,0
24.256440214972,-18.9290017356427,14.6516248319179,-96.5888941308345,-13.6116237385988,-18.1954069302986,-23.9547626890283,98.8323838382994,0,0,0,0,0
24.7628161621515,-18.8684658916421,14.2370815741049,-96.5003145881146,-14.0935212145048,-18.0636141065196,-23.6134822672676,98.7994486218522,0,0,0,0,0
24.8661630665365,-19.0240706408331,13.978941163271,-96.2887196502458,-14.6848210406067,-18.2576877880056,-22.8940901571272,98.7023582824196,0,0,0,0,0
25.0387132844799,-19.1373962415694,13.6846864696737,-96.0424699061454,-14.6909614965041,-18.2163201261223,-22.8996509343307,98.617279197741,0,0,0,0,0
25.6477705265206,-19.0566518595856,13.157470263759,-95.7892310235011,-15.2193458200695,-18.1620861845561,-22.416765911076,98.4341797652076,0,0,0,0,0
26.5360755118767,-18.999718013918,12.3949651558549,-95.6148454598111,-17.1038270158067,-19.3969411818876,-22.3031013176805,98.20932575676,0,0,0,0,0
27.5675613886311,-18.7219819675346,11.6332507902393,-95.2883928796448,-17.5619606428224,-19.0476990813376,-22.1052128997516,97.979005537839,0,0,0,0,0
29.2707374879932,-19.8254997410813,11.8389838616812,-95.0284622843775,-17.9322972419989,-18.505931552657,-22.1337124795838,97.7461903102852,0,0,0,0,0
30.3889984526874,-19.5532614236142,11.0087206946929,-94.7299517394669,-18.2354371543795,-18.058543499801,-22.138588371118,97.48769528445,0,0,0,0,0
31.3108571775212,-19.3083208936748,10.3342069454496,-94.4681940047535,-18.4744903848056,-17.685914341113,-22.1784122359895,97.3653278961269,0,0,0,0,0
32.5432652599529,-20.4282224740753,10.9214624420626,-94.1314766874459,-20.222816119131,-18.666441933162,-22.3788942051917,97.1371582284025,0,0,0,0,0
33.3203495241702,-20.0233276897038,10.4589968999965,-93.8163185906866,-20.4669838599498,-18.1403335908759,-22.4730701505601,96.8386502783191,0,0,0,0,0
33.9727454146773,-19.5351829307681,10.1792628676333,-93.6031282402858,-20.7680288449059,-17.3574628528635,-22.6757099705853,96.4414690642048,0,0,0,0,0
34.0845604402637,-18.6515928370943,10.6484198988992,-93.5444202932973,-21.8178686920339,-17.6536513878499,-23.9897489194291,96.2036531836862,0,0,0,0,0
35.7126339585389,-18.5225240244366,11.7855717024544,-93.5069497651534,-21.2990410329287,-15.7142502058371,-25.803836349066,95.965594083855,0,0,0,0,0
34.7960012748088,-16.823028277581,13.7519731679004,-93.8309759139849,-20.5529542651316,-15.1918421853636,-29.3748218034669,95.9393956953436,0,0,0,0,0
34.2222753926131,-16.2674137797279,17.1804951144861,-94.3047238638408,-18.954498066463,-14.3933669604532,-33.8431884545508,95.6740774636897,0,0,0,0,0
34.5678730773686,-15.2128499003817,20.1456114675557,-94.7905229629404,-16.9812581558831,-13.0802643008485,-39.0342001097587,95.4218773374498,0,0,0,0,0
35.6111332283603,-14.7581471046256,24.4985090434155,-95.2693202378963,-17.0004658398091,-12.7480232959782,-43.9544392639552,94.759703027566,0,0,0,0,0
36.6431220791053,-14.2927274065428,28.8305229731074,-95.8103822705506,-16.4678489801647,-12.3012057779378,-49.4404883591916,94.1806615833036,0,0,0,0,0
33.0563706998628,-12.0088228795231,35.7996359634408,-95.7198141442156,-14.1310030549752,-11.357482195731,-56.8090402263534,93.3210480356588,0,0,0,0,0
35.1049251790747,-11.5038735582987,38.9532335453491,-95.9710540309351,-11.836532346321,-10.4367864637507,-64.1553427961886,92.6896598706391,0,0,0,0,0
37.290747101817,-11.0909202770252,42.1544746248147,-96.1710939485109,-8.51878405398452,-9.3510558880283,-72.7796477526057,92.2045960257733,0,0,0,0,0
43.4160365005486,-10.1447782755263,42.1115683571231,-96.4112103090448,-10.7198574414809,-8.51514428392591,-76.4256256032483,91.602811195693,0,0,0,0,0
48.4676694941272,-8.26497964849787,40.9458555430202,-95.7372076404124,-6.14241905908511,-6.38652476771665,-84.625174099395,89.7627449470204,0,0,0,0,0
74.9321181337797,-8.44319230069419,20.3316872814849,-93.6593923602534,1.92150005821213,-1.62304899762347,-97.3347431973203,85.445992926804,0,0,0,0,0
101.316591949711,-10.3405897650872,-2.81388419791026,-90.5700896639493,-34.448983650987,-1.78944771015895,-65.8646714575008,85.771722904351,0,0,0,0,0
117.696152952808,-13.6806169387152,-16.9885110851786,-85.93767928789,-65.4397555629553,-2.14158830284845,-34.2918587213851,84.6722331926134,0,0,0,0,0
128.943142869008,-17.4976548739087,-26.0540204250985,-82.6641347623064,-108.819492211817,-7.71085414795459,6.75102772009262,83.7969394951197,0,0,0,0,0
130.84465064241,-17.2225800379065,-27.4563539539762,-81.4122510500653,-114.036008613492,-7.86779057510663,11.5038495204568,82.7216978835518,0,0,0,0,0
129.974298425672,-17.3601072772804,-23.8659513066115,-81.7327573147612,-113.177306008752,-8.31121163442003,8.16013595682489,82.6886929234206,0,0,0,0,0
131.084642646359,-16.7215929285284,-24.2432238732516,-81.8877461520171,-113.272953538418,-7.5737990943471,7.69483268416968,82.6337136749534,0,0,0,0,0
133.021267548716,-16.3319249446544,-25.3693483749907,-82.3315601224004,-114.908974938367,-8.51672040425436,6.77657738453661,82.7835726492302,0,0,0,0,0
132.617508764169,-16.6964504217522,-22.2270537371239,-82.7994969094281,-114.044016435949,-7.73615410667435,5.43169844968378,82.923416550281,0,0,0,0,0
133.919310427597,-16.1161485274822,-22.7552611468233,-83.2254165509378,-113.578090034057,-6.99844111750605,4.44308191739532,83.1015168978067,0,0,0,0,0
134.486756203476,-15.6250705145403,-22.8345712826397,-83.4220067168115,-112.866785569072,-7.65786722204294,1.34493266886727,83.059572736282,0,0,0,0,0
134.791273100381,-15.4156141819433,-22.9711953693229,-83.1969496786433,-111.93343179022,-7.31433906930405,0.357045057860603,82.7659160232929,0,0,0,0,0
133.583455935063,-14.7296534626616,-21.5833043130207,-83.3823713296816,-106.826720826429,-6.33850996525405,-4.78049404639688,82.7025210756439,0,0,0,0,0
132.293560867124,-14.1898107730529,-20.1963695478148,-83.6394130740731,-100.388058975618,-5.36193241028039,-11.1873009358405,82.6716426199789,0,0,0,0,0
131.67791139792,-13.9505991844843,-19.5994987552142,-83.4417899825973,-97.1711765794355,-4.81683715900419,-14.4064822742887,82.3919934353811,0,0,0,0,0
130.687268205052,-13.7378189725696,-18.7032696810088,-83.3610002683666,-94.0551410100869,-4.38928837239968,-17.4897167319959,82.1958477839493,0,0,0,0,0
130.607560197138,-13.8062844887016,-18.7040485631684,-83.2643543897285,-93.782454915877,-4.29587675611904,-17.7823657714887,82.0945013044795,0,0,0,0,0
129.72860508267,-13.5382413572023,-17.7863757054737,-83.5455265639459,-90.6583989779167,-3.83962807948902,-20.9698849532749,82.0599848956936,0,0,0,0,0
129.31601147397,-13.48213224341,-17.4056216301219,-83.6488856870825,-89.4332867740491,-3.69025424584137,-22.1954310726596,82.0175155764691,0,0,0,0,0
128.190373067778,-13.3324313024821,-16.3132809229047,-84.2074594028107,-86.770672870091,-3.47949907650454,-24.8589534678708,82.1970831868334,0,0,0,0,0
126.330147118102,-13.0549762511307,-14.572838392131,-84.6000323024212,-81.5714085361834,-3.02507093065805,-30.0468000720976,82.1689611819834,0,0,0,0,0
125.940726771043,-13.1828736429765,-14.3275014691764,-84.733133623977,-81.3097933007805,-3.10182493156046,-30.2573526095899,82.2804617588099,0,0,0,0,0
125.447943617181,-13.2256171385862,-13.965433411171,-84.7319784754246,-80.5268124481887,-3.18058912131539,-30.9046860832089,82.232615783957,0,0,0,0,0
125.595833958489,-13.3124753568338,-14.0946945015922,-84.9989743207003,-79.7901761585235,-3.22623333580236,-31.613692255252,82.4319053611148,0,0,0,0,0
125.044637310402,-13.3624404221095,-13.689880129051,-85.0065243481158,-77.9050756020972,-3.23483395128628,-33.3385466982161,82.317020915438,0,0,0,0,0
124.052324203986,-13.4155724010215,-12.9060011943222,-85.1685143291044,-75.6697782562819,-3.26645505541961,-35.3937417746012,82.2399838151184,0,0,0,0,0
124.515387322829,-13.571883903385,-13.3636006708174,-85.3011110430054,-75.8343384103309,-3.37667137357022,-35.1888621892627,82.3916764351241,0,0,0,0,0
124.88536802396,-13.6237985569602,-13.6701926011235,-85.4378962493401,-75.4520950662599,-3.31368637210321,-35.6157700984971,82.4275029031406,0,0,0,0,0
124.191376761883,-13.4296009167599,-12.9190973649261,-85.7488904965786,-72.0030697983835,-3.03740120878149,-39.1077361107613,82.3326852604311,0,0,0,0,0
123.762902891355,-13.384304118206,-12.5279996040417,-85.8329494807425,-71.7433724192329,-3.07029679597272,-39.3177314631205,82.3060317758305,0,0,0,0,0
122.124215996552,-13.1014225263993,-10.9643504343594,-86.0441434827411,-79.2421618615706,-5.02902330235546,-33.8431635603615,82.7144529536907,0,0,0,0,0
120.058169387955,-12.7087517786465,-9.03641967291921,-85.8397537760698,-76.4625291899459,-4.84322517617224,-36.4777272542278,82.2504282125123,0,0,0,0,0
117.052835566709,-12.1279328303993,-6.21987700411086,-85.3942224087748,-72.6213740650683,-4.55712535122339,-40.0770581016632,81.3156320422445,0,0,0,0,0
114.331191198392,-11.6642738073762,-3.80861939681637,-84.3839199797998,-68.5830082734698,-4.20289598098339,-43.7830954938356,79.8627103410483,0,0,0,0,0
109.870525031897,-10.9848834296512,0.237399285652202,-83.2602685062243,-62.0757084153302,-3.76867556447715,-49.9027498394745,78.1487081408312,0,0,0,0,0
106.067828383244,-10.2326597838928,3.69818344039027,-81.5577345155792,-54.243767669452,-3.1044193086405,-57.4111786917337,75.8229383867355,0,0,0,0,0
102.488480178524,-9.54666622951396,6.9313722200676,-79.8507226171567,-48.5352047491197,-2.61090411474336,-62.8414503584593,73.67491818632,0,0,0,0,0
97.5176400993656,-8.66471503637612,11.5110256454699,-77.9993318859271,-40.6644973708404,-1.94840581153881,-70.6650152967254,71.0231520097552,0,0,0,0,0
91.4375275759801,-7.65969351115794,17.1961553048533,-76.1344372546004,-27.3410828632332,-0.717941948769919,-83.8985256970789,67.8758952157369,0,0,0,0,0
84.658385189797,-6.61450971030718,23.5922377639379,-74.2808272354673,-23.6791346185,-0.590377847439186,-88.2401471867422,66.0072189283283,0,0,0,0,0
68.7477078167848,-3.59801746013832,36.697850763224,-71.3921490538546,-18.8079911171526,-0.467819660522451,-93.8957606331885,63.5620403284795,0,0,0,0,0
59.0035056791364,-2.29209084995145,46.1667371842272,-68.4465210892716,-17.4378163129697,-0.398831297349574,-96.3226262222756,61.5349650690989,0,0,0,0,0
48.4337821528051,-1.25441065608374,57.0581688501258,-65.2671744169378,-8.05246536736013,-0.4087620534481,-106.484665444267,60.039840324141,0,0,0,0,0
41.2289002925876,-0.780422584210868,65.0215282502587,-62.0210865304712,5.71429063800724,-0.255041813112427,-120.653128831851,58.3336929267029,0,0,0,0,0
35.3967347681897,-0.330229461383567,71.97227806597,-58.7465236734915,41.3123060183812,0.0497628813150186,-153.665513037527,57.4986392089896,0,0,0,0,0
28.1642474963608,-0.27922223578048,81.0970325932019,-55.9949722653701,134.219384693051,0.299738930705075,126.327485931979,53.4897006112021,0,0,0,0,0
20.8399045763349,-0.307470305667493,90.0890045284322,-53.9173373348398,133.762978997135,0.356474758752256,125.475846606814,51.1897096471172,0,0,0,0,0
-6.61806502687369,-0.263557826493809,118.077712688723,-52.5182925374313,130.928458457747,0.502906876533672,126.230405671675,48.4362890249232,0,0,0,0,0
-64.7815329476007,-0.471308330744392,169.107405523458,-52.4017566463971,133.706900390958,0.853762874214425,121.461082858549,46.0925146392823,0,0,0,0,0
-129.908071733957,0.33963552540618,-133.16458000217,-47.7903789081977,147.663662099703,2.38679768129359,105.151653344148,44.8477318139458,0,0,0,0,0
-127.045066641292,0.485980081605248,-133.496464242853,-44.7333051535932,160.796764845449,4.35328890843238,91.3581493809915,44.4725776586744,0,0,0,0,0
-131.586422196628,0.923612037132216,-126.245665995272,-42.4946451467156,177.03742448004,6.91400185461129,77.3992236115897,44.7993252887479,0,0,0,0,0
-148.324908299122,2.78021300215593,-106.756289309665,-41.7137618633523,-176.692827666006,8.29774342795707,71.264762812826,43.881916685158,0,0,0,0,0
-170.48299435247,5.91590768274909,-86.1403918514711,-42.393238602494,-172.075586603466,9.77566033441354,66.8783671874573,42.7337161571842,0,0,0,0,0
-177.864591982235,7.45573027849463,-78.71438001931,-41.9144949376773,-168.685719728172,10.9236141359317,63.6813817224177,41.8264861326238,0,0,0,0,0
177.674248521895,8.73834268836501,-74.3290776027309,-41.3197154908902,-166.671022491829,11.9963205868706,61.8886081100252,40.8607594162688,0,0,0,0,0
174.20864282696,9.75465899029356,-70.9182690562768,-40.8813342360315,-163.212571622564,13.455878609289,61.011062071764,40.5193954975105,0,0,0,0,0
169.173075403885,11.2072600281012,-68.4283205829681,-40.7603842864761,-162.684338592899,14.1461140950637,60.6514388424534,39.8047719063317,0,0,0,0,0
168.617712931203,11.9316590127798,-67.9990569888368,-40.1760861941397,-163.220859113276,14.7404148492766,61.3805325268347,39.083718153835,0,0,0,0,0
168.142434105114,12.4785461349516,-67.6044712560176,-39.7831936518447,-163.695563437206,15.2520889913351,62.6200381115023,38.7446628422121,0,0,0,0,0
168.458167647868,12.9060502192972,-67.9895147812083,-39.4875866937345,-163.045968588393,16.1059353902318,64.4480487040279,38.6681570404127,0,0,0,0,0
168.370163781181,13.3069192441095,-67.9418105250235,-39.2740833018635,-164.144037003147,16.4043833375167,65.6291217259561,38.3825270414106,0,0,0,0,0
168.152264885385,13.6314219535565,-67.7543783024489,-39.1019362036018,-164.547471108841,16.6383696045399,66.0909146986777,38.1683331163081,0,0,0,0,0
168.147867848646,13.8538924589487,-67.7651260149022,-39.0090503847102,-165.042791447398,16.8341128375063,66.6118591240079,38.0757614459235,0,0,0,0,0
167.762245560411,14.0380185362459,-67.3637751742031,-38.9950067608778,-165.252893510353,16.9976120568506,66.817806677527,38.0599598027795,0,0,0,0,0
167.098980584486,14.1638384478545,-66.6743274722674,-39.0095376852064,-164.907843645109,17.1843260962316,66.4567669169428,38.0209798314257,0,0,0,0,0
166.827641693987,14.3633027684375,-66.4109099390528,-38.9272775803082,-164.677240611971,17.3440144850741,66.2306815756646,37.9390476579759,0,0,0,0,0
166.12272372598,14.5166377316575,-65.6936827460083,-38.8929956428273,-164.006410117879,17.5109798118411,65.5341926890972,37.8996504439,0,0,0,0,0
165.409373517705,14.7258166092713,-64.991307918312,-38.7783925421117,-163.203935108526,17.7319147341548,64.7405141966078,37.7307128258712,0,0,0,0,0
164.730768793711,14.8582398441595,-64.3075550947414,-38.7318138009555,-162.743967537506,17.8669543662971,64.2729888991623,37.6662565457734,0,0,0,0,0
164.183187557665,14.9779595940226,-63.7429907112725,-38.7285240310729,-162.287139326262,17.9945326804423,63.7990561715076,37.6312992391821,0,0,0,0,0
163.743797887317,15.0203039763013,-63.286582122102,-38.7500776795723,-163.323116737832,17.4925602122426,62.4130766694307,37.4566377226303,0,0,0,0,0
163.362986895893,15.1091148545178,-62.8753290602755,-38.7999692348277,-163.064681767029,17.5557754718255,62.1228291489966,37.5090469159647,0,0,0,0,0
164.277519468607,14.7829443027268,-62.0211340402415,-38.5911703582395,-163.252597390559,17.590958238182,62.3175197232455,37.4869488702924,0,0,0,0,0
163.180555382048,15.1618437777801,-62.6618104611372,-38.8681013286604,-163.657874327395,17.4491282908314,62.6917674848914,37.6512246293456,0,0,0,0,0
163.330391801607,15.1514939009167,-62.7921194162403,-38.9318885751605,-164.026014929193,17.3930895917229,63.0433185023179,37.7411570251006,0,0,0,0,0
163.536022757466,15.0055497655141,-62.950660542227,-39.1142259843797,-164.487551792918,17.2347717426166,63.464426764,37.9418528323998,0,0,0,0,0
163.88255983748,14.919722450936,-63.2677312516651,-39.2355448657923,-164.977075458117,17.1711511090164,63.9317620922943,38.0601947112039,0,0,0,0,0
164.1335624193,14.8292027042584,-63.4916121785249,-39.3485322067323,-165.227036376941,17.1135218811877,64.1571852334082,38.1678869536744,0,0,0,0,0
164.119743930714,14.7532606720596,-63.4448575784747,-39.4646935366801,-165.487413865183,17.0053025698033,64.3948958300621,38.2871450846508,0,0,0,0,0
164.418130646256,14.6710118307142,-63.7208656838843,-39.5644275359729,-165.853689760995,16.9198164050309,64.7337075418352,38.4210296865418,0,0,0,0,0
164.738202067469,14.6296312230941,-64.0261138980298,-39.6326345043462,-166.098613380053,16.8426017742512,64.9673338559684,38.4959034102477,0,0,0,0,0
164.921502297079,14.6322622426982,-64.2043119178934,-39.6551741596726,-166.387582713283,16.7980442379396,65.2521206894925,38.5435016242484,0,0,0,0,0
164.870531799233,14.5678135737396,-64.137841121564,-39.7157209593528,-166.564320097307,16.6844113680034,65.4184071327298,38.620613633042,0,0,0,0,0
164.935635832137,14.4954669139152,-64.1817372971199,-39.8006694878376,-166.883276771545,16.5658473352101,65.7158708035734,38.7422960131866,0,0,0,0,0
164.994207552073,14.3916388053619,-64.2246949478554,-39.8771941571493,-167.050244437949,16.4685268644105,65.8568863173315,38.8592667834985,0,0,0,0,0
165.625108471974,14.401727927484,-64.8605995272232,-39.8887130562094,-167.621663486594,16.420335719369,66.4219808158763,38.9369705323492,0,0,0,0,0
168.736783172343,13.8395792615738,-65.5535149241258,-39.5947489941384,-168.608031279139,16.4192591888597,67.4221143140013,38.9847229361957,0,0,0,0,0
168.653042484462,14.29394464276,-67.9298118511074,-39.9753538346529,-168.983375653693,16.7096835938316,69.6394498812072,39.319092011575,0,0,0,0,0
174.03036894753,13.4267707370341,-70.8826402872982,-39.8988237064676,-171.197789483134,16.4980123290964,71.8556322899462,39.639757592011,0,0,0,0,0
178.790487739329,13.2536182919025,-75.8079392451962,-39.9066378293408,-176.786281705894,16.0530751234723,75.8137893444481,39.5263518593428,0,0,0,0,0
-174.879812693083,13.3502389478533,-82.9844049796475,-40.0911292284761,177.861122327598,16.1695900829106,81.4795226266137,39.730362857586,0,0,0,0,0
-165.23078317184,13.4748468343739,-93.1722864189994,-40.5767922098982,170.157280989962,16.3417291855142,89.6778154137445,40.4112003879574,0,0,0,0,0
-155.180629885445,14.3959082789983,-104.135632640667,-41.2708950683754,161.39921712916,17.1242221585487,99.3060162135207,41.2105720991056,0,0,0,0,0
-146.150938899439,15.5245168375593,-114.133775498848,-42.2393938189011,153.182447873077,17.9255358310548,108.367093197812,42.3845739227547,0,0,0,0,0
-141.436921357689,17.227319865376,-122.254566285612,-43.7552099761198,148.736151335306,19.4185657871132,116.110322871442,44.0811535084431,0,0,0,0,0
-136.222427168675,18.9862754326549,-128.359466989444,-44.6207173662479,143.24544641987,20.6432832378163,122.329068545646,45.2177387434745,0,0,0,0,0
-132.254007271934,20.7196961083719,-133.177207839947,-45.1840130622114,138.814949095097,21.9530187377369,127.485847343504,46.0247820149825,0,0,0,0,0
-129.99254214101,22.9017363548647,-136.430690746257,-45.417709258264,136.087140559858,23.9378065738727,131.204308153616,46.3369290744485,0,0,0,0,0
-126.784611676305,24.2258085698208,-140.105519949854,-46.1031071939139,132.436057039954,25.098834218299,135.300546355513,47.2324617600145,0,0,0,0,0
-123.731710745743,25.5186771733066,-143.73217713213,-46.3640621066913,128.920191714374,26.1632718716161,139.428697346342,47.4627143687864,0,0,0,0,0
-121.840011013445,27.1243034277327,-146.236836048445,-46.5597361809616,126.54762937834,28.0697527917898,142.569281359362,47.7958855287757,0,0,0,0,0
-119.062859037219,28.1549996578418,-149.066763657883,-47.2928928272426,123.365551587768,29.0670299236782,145.91887186713,48.4712087702328,0,0,0,0,0
-116.61699046169,29.0347916808359,-151.56393024504,-47.7581712581155,120.23416459929,30.0487484092999,149.003026183987,49.330963847377,0,0,0,0,0
-115.913302060108,30.4631417183107,-152.678749527671,-47.8792640643797,119.253795875958,31.5967962660344,150.402320762373,49.578291758147,0,0,0,0,0
-114.023701755336,31.2676260525094,-154.686716177737,-47.99518214268,117.289932055282,32.5452338360698,152.497868679853,49.804169223203,0,0,0,0,0
-112.386243787239,32.0341824731786,-156.283857941834,-48.3052809770829,115.168691672814,33.3754984155827,154.463302620946,50.357810400792,0,0,0,0,0
-110.554516074964,32.9970305239747,-158.057875331196,-48.6242350869275,113.272359871305,34.5601707916067,156.326284911602,50.7771271387208,0,0,0,0,0
-109.175421975119,34.2159808888849,-159.308347279131,-49.1550839881112,112.841450266287,35.3391027995576,159.453807097733,51.3917800080771,0,0,0,0,0
-107.706064240236,35.6435243003449,-160.804541709951,-49.3622757671619,110.95707327993,36.7519845908756,161.377357252221,51.5418071162712,0,0,0,0,0
-106.213319755917,36.2125169356773,-164.658903578527,-50.0584041189172,108.657248807453,38.078558532157,163.263650404994,52.1765175529123,0,0,0,0,0
-104.718208486304,37.8701533800767,-165.974669249229,-50.4200109098973,106.908081012316,39.8192419632659,164.819573847041,52.5142072426335,0,0,0,0,0
-101.987639011142,39.1717861501117,-167.938465505473,-51.0546713152134,104.861376523841,40.358308281635,168.889734361214,53.222845234792,0,0,0,0,0
-101.227656148302,39.9643575015236,-171.294687179711,-51.267781945528,103.481019860364,41.9537786337669,170.062284586311,53.3195457237579,0,0,0,0,0
-100.031627013787,41.6591935006836,-172.27045841982,-51.3319244917159,102.402544476021,43.7277235159053,170.930508757965,53.4379132155921,0,0,0,0,0
-99.559990767134,43.3374883712577,-172.900899775483,-50.9751483839195,102.121644837305,44.4155786343257,174.022979160153,53.2211956428051,0,0,0,0,0
-99.1181239136477,45.089281536848,-173.399288361096,-50.7283454284409,101.722998803569,46.0341981551853,174.452935900638,53.0778741124702,0,0,0,0,0
-98.7152184196344,45.7750799242839,-176.570933467622,-50.5481452743163,101.038034643486,47.5252484320732,175.080330581135,52.8255766894957,0,0,0,0,0
-97.9887960381713,47.6423174019259,-176.978590982228,-50.5805893970039,100.738522241068,48.1970981599706,177.929715297907,52.9097044434423,0,0,0,0,0
-97.8110429491258,48.9369806542663,-179.283925734261,-51.3584898811608,99.9671661688878,49.9657796803776,178.315930846094,53.0086267332146,0,0,0,0,0
-97.389370774071,50.9328516836437,-179.069587412843,-51.8830945723929,99.7095481361796,51.6228999402873,178.634252891399,52.5935455085157,0,0,0,0,0
-97.5541938706524,52.8118396435835,-178.506191805363,-52.3954645372734,99.5241089936359,52.1736237496397,-178.863269707391,53.0011247104146,0,0,0,0,0
-97.6241873773859,53.9120439378984,179.339459119057,-53.0436372187897,99.2415799802202,53.8986045004014,-179.037734971893,53.349980825572,0,0,0,0,0
-97.5681070904483,55.8814244726828,179.802209120399,-53.5070952305894,98.9713275696773,54.5405930457366,-176.599709810957,53.8406744843286,0,0,0,0,0
-97.8717099205197,57.932496737589,-179.518871369512,-53.9993237719835,98.9206639625153,56.1918860815045,-176.948492145117,54.2086705222764,0,0,0,0,0
-98.9932182420828,59.1751018542401,178.897315168222,-54.6875228570552,99.5026658547595,57.2656500696203,-175.089510869411,54.8213866002742,0,0,0,0,0
-99.7610044447058,61.4686517623269,179.794739047639,-55.2189659465417,100.04757715131,59.3943463928656,-175.833559074371,55.2914812444132,0,0,0,0,0
-100.399998245113,63.786474637625,-179.403186182532,-55.7161788705013,100.788966827888,61.5714953640621,-176.651138285997,55.7637396134581,0,0,0,0,0
-100.608497768267,65.0200835967313,178.520876158225,-56.2097060889881,100.923937958948,62.8538910822485,-174.57609417184,56.2810191018716,0,0,0,0,0
-101.343761044984,67.1499158441815,179.261879531231,-56.6205313250924,101.484576513243,64.9871673493113,-175.250431240039,56.6689724000509,0,0,0,0,0
-102.312977794058,67.9986281471223,177.36767173041,-57.0652496540535,102.348905870044,65.8521593213959,-173.373315657415,57.1217330540605,0,0,0,0,0
-102.974960123871,69.7666010666038,177.931463582862,-57.365556285254,102.957419154391,67.7099492201013,-173.946727613243,57.422584740596,0,0,0,0,0
-104.264707281491,71.5478316166854,178.654134877003,-57.7039989352244,104.343995114383,69.5826145873406,-174.755511573268,57.7687276896647,0,0,0,0,0
-104.948511234149,72.1896097304933,176.555315604081,-58.0188244408418,104.79240157875,70.1337328769925,-172.604535195949,58.0708021389156,0,0,0,0,0
-105.425456920997,73.7044162994162,176.918959449176,-58.2158189418006,105.301139970469,71.6979889113471,-172.998299324939,58.2702168410572,0,0,0,0,0
-105.698432298747,74.1809418305293,174.662662935708,-58.4452614759901,105.442582021229,72.2296987655461,-170.734842596666,58.5128153651207,0,0,0,0,0
-105.651316997855,75.5054478839699,174.839104414787,-58.5525594863864,105.343255216839,73.5417336884595,-170.891245663358,58.6122671203772,0,0,0,0,0
-105.783168392526,75.8837574248123,172.530143776589,-58.7366317371503,105.252889596994,73.9367786476469,-168.542074719492,58.7995079465657,0,0,0,0,0
-105.489016965892,76.2400004921786,170.120212167272,-58.8783170697972,105.080101968655,75.2668517024308,-168.6871101716,58.8661097698945,0,0,0,0,0
-105.720305418995,77.4191593387198,170.338347316298,-58.9564779519036,105.336467510897,75.4638541578261,-166.40027499032,59.0459433687189,0,0,0,0,0
-105.480370984413,77.6598924843549,167.930874668172,-59.0761364440002,104.979751377209,75.6306461625877,-163.957084375013,59.1746704244641,0,0,0,0,0
-104.407862971108,77.6507013925158,165.308512917989,-59.118397318585,104.188709547538,76.751724775853,-163.928518464617,59.1458172932495,0,0,0,0,0
-104.199517576253,78.5531825391064,165.404646743367,-59.1199187142589,103.814005956642,76.8120296283407,-161.469474194622,59.2566790789216,0,0,0,0,0
-103.62413809241,78.3567630211323,162.864201443416,-59.1917892147735,103.619417156536,77.6929670389096,-161.563377602887,59.2505593577371,0,0,0,0,0
-103.191672204204,79.029395144932,162.886829597698,-59.1575411333943,102.740313188305,77.5285530662414,-158.954829016084,59.3102574599521,0,0,0,0,0
-102.985575321456,78.3113766624849,160.333128447828,-59.2635995091141,102.661382693262,77.97805770319,-159.012981969104,59.3019763646632,0,0,0,0,0
-103.426591535225,78.3789844425957,160.438887606455,-59.3016984547041,102.882744477754,78.1865677453526,-159.096884922011,59.3202667104046,0,0,0,0,0
-103.906371992894,78.172746594131,160.509822673391,-59.3416230092851,103.328388044084,78.1014906203618,-159.180681451423,59.3586243182431,0,0,0,0,0
-104.287601688751,78.0039795466075,160.567564411952,-59.371725208554,103.729689614089,77.949969707774,-159.245496610505,59.3920154654604,0,0,0,0,0
-104.318798771154,77.8730925059524,160.555235843143,-59.3737528465685,103.95526649134,77.7567606553851,-159.266588274357,59.4102671900731,0,0,0,0,0
-104.519055480337,77.6820785939539,160.57215969735,-59.3883271028592,104.22791745413,77.5425044166445,-159.296650107483,59.4313394315873,0,0,0,0,0
-104.73712499223,77.4625379016324,160.59035668349,-59.4033735620733,104.437081253731,77.3351124370743,-159.314855460198,59.4467003785815,0,0,0,0,0
-104.802949310248,77.2966122744629,160.582389541733,-59.406974594818,104.153221858548,76.207247049241,-156.715162700095,59.5635357918597,0,0,0,0,0
-104.728029322498,77.1331108857472,160.542467646136,-59.4000549079506,104.099512566115,75.9873690499852,-156.671050233775,59.5595257129072,0,0,0,0,0
-104.558212272776,76.9813135012353,160.481518252141,-59.386030012504,103.907004027059,75.7858634529065,-156.593541851388,59.5454423088267,0,0,0,0,0
-104.302583224245,76.8492528559207,160.402240327859,-59.3654268963909,103.696303060009,75.6983632375876,-156.526633950231,59.5300334644228,0,0,0,0,0
-103.948668841993,76.742153194784,160.302068799425,-59.3369353256234,103.34265394263,75.6214137589764,-156.423504710882,59.5037218227346,0,0,0,0,0
-103.752428412926,76.6825039293332,160.245929202204,-59.320772783285,103.225343870274,75.6372709852494,-156.395365367729,59.4949220755495,0,0,0,0,0
-103.759756634633,76.5848309686984,160.23268014409,-59.3203093759866,103.177032750786,75.591345644783,-156.375772205668,59.4911373932481,0,0,0,0,0
-103.986480348928,76.4584136251023,160.268556813432,-59.3366784494359,103.40620485274,75.5080877966461,-156.423065980433,59.5081026203945,0,0,0,0,0
-104.004803149309,76.41520273293,160.266561404307,-59.337564016799,103.433209733228,75.4770653558696,-156.425538805567,59.5099875774579,0,0,0,0,0
-103.858598452534,76.3832349977766,160.225976569547,-59.3257473240352,103.336577794186,75.4815559994165,-156.400853952344,59.5028173357765,0,0,0,0,0
-103.851882239968,76.3596518099978,160.220743915601,-59.3249221571951,103.350319736514,75.5046993118374,-156.407912863337,59.5039285282311,0,0,0,0,0
-103.845136749177,76.3806199579705,160.222228189503,-59.3246582191431,103.38412433971,75.4940127052464,-156.415177831831,59.5064092304239,0,0,0,0,0
-103.760778211439,76.3821155277291,160.20182963743,-59.3180144003875,103.386048734278,75.5243914945882,-156.420222441068,59.5066619272441,0,0,0,0,0
-103.793968223247,76.4154747637553,160.21501835431,-59.3210543484989,103.369719515296,75.5403597547879,-156.418355617277,59.505499057015,0,0,0,0,0
-103.719913649827,76.3885800095404,160.192820412109,-59.31484851357,103.377968706448,75.5487972336529,-156.421775341329,59.5061424799653,0,0,0,0,0
-103.840788337138,76.404084563523,160.224745644215,-59.3246081191515,103.462650126125,75.6285966891656,-156.455742152353,59.5126882007395,0,0,0,0,0
-103.913137113485,76.4115025939133,160.24353898454,-59.3303790585215,103.519965965315,75.629508731647,-156.470774452451,59.5169278336363,0,0,0,0,0
-104.026239736179,76.3866623486429,160.26750327217,-59.3388634692585,103.608912524227,75.6015828350115,-156.489816975056,59.5233642009256,0,0,0,0,0
-103.835957565764,76.3791514693505,160.219795849244,-59.3239160784731,103.391700932852,75.517600076298,-156.42072049192,59.5070571859346,0,0,0,0,0
