JMW9912/AVATAR/install/dynamixel_control/share/dynamixel_control/data/csv/poppy/1119/1119_2030_Semina_Robot_joint_poppy__robot_point.csv
theta1,theta2,theta3,theta4,theta5,theta6,theta7,theta8,theta9,theta10,theta11,theta12,frame
-102.585055276926,81.2490607848919,-6.40697738021589,64.6248046121695,102.462809869772,79.2897180201615,15.8842063676728,-68.5777356037267,0,0,0,0,0
-105.287393652785,80.7820841267273,-6.32209926290312,64.1252280888949,103.884244377308,79.552907961218,16.0085756009808,-65.4231691306453,0,0,0,0,0
-105.793519893907,80.9695040952085,-6.27438989404584,64.2053910997082,104.442938766787,80.9508505390333,13.584140856856,-64.37316075019,0,0,0,0,0
-105.313286348204,80.5322517973423,-6.32776646961622,64.1211959841825,104.210477805425,80.5267891593971,13.6275482115698,-64.3422047253962,0,0,0,0,0
-105.101792272379,80.3890481563138,-6.35042198884037,64.0848704650051,103.981509835796,80.3340345308293,13.6626241436522,-64.3093288750567,0,0,0,0,0
-105.216119036928,81.6182071746776,-3.90268383789999,64.0269736675229,103.972742991853,80.1917746105611,13.6692174376361,-64.3086589127207,0,0,0,0,0
-104.721595608371,80.2656659348024,-6.38740681278341,64.0230735841718,103.809040353619,80.0714575026387,13.6940389475539,-64.2846235785412,0,0,0,0,0
-104.37220632887,80.2082428000671,-6.41989479048789,63.967219862088,103.573663241364,79.9295165162453,13.728860029121,-64.2495309367008,0,0,0,0,0
-103.980205633184,80.2155368973932,-6.4538956327759,63.9059392442159,103.346439804907,79.8939469265451,13.758647067575,-64.2149875269644,0,0,0,0,0
-103.773577584946,80.2994637473399,-6.46865662412208,63.875875702596,103.331313675815,79.7986831344107,13.7645165100533,-64.2128671645195,0,0,0,0,0
-103.259687050237,80.3381395147715,-6.51177469061059,63.7939845707041,103.088771427164,79.7025880121952,13.7990944178547,-64.1756438539105,0,0,0,0,0
-102.755764072944,80.3486202790069,-6.55519571996808,63.7108914687668,102.81338094316,79.5406531049103,13.8411006128187,-64.1328673966817,0,0,0,0,0
-102.30013398324,80.4073644102646,-6.59210218034002,63.635743875107,102.563689100233,79.3522089315697,13.8815408833999,-64.0934941241492,0,0,0,0,0
-101.795128369466,80.3806095778302,-6.63743976728367,63.5477364720379,102.402629473084,79.191936486316,13.9097091560509,-64.0677100280504,0,0,0,0,0
-101.622036450792,80.2563526947502,-6.65904452426105,63.5134426491999,102.39114277007,78.9625554287634,13.9217631604103,-64.0653045858309,0,0,0,0,0
-101.082891776263,80.1818351711438,-6.71070386891401,63.4152910272586,102.200619871978,78.7829543369911,13.9551744390945,-64.0341536534877,0,0,0,0,0
-100.694595369845,80.0957561365243,-6.75010627639443,63.3422298697699,101.968469427685,78.6180301435259,13.9938162471438,-63.9959195378821,0,0,0,0,0
-100.410380373248,79.9750175091367,-6.7826018661795,63.2861081577315,101.611193524009,78.3988374872974,14.0524306091868,-63.9363176406636,0,0,0,0,0
-99.9161105718671,79.8822200468839,-6.83288440191657,63.1910361071276,101.034316856373,78.2740098153218,14.1224084630887,-63.9404794551922,0,0,0,0,0
-99.7008459192535,79.8653806644091,-6.85349984602746,63.1498890320273,100.831967272184,78.1294058184866,14.0999029657445,-64.2941369201927,0,0,0,0,0
-99.2730090551855,79.8399830810996,-6.89410409225107,63.0674056071611,100.571799794731,77.9445058234961,14.0210162821669,-65.067237156541,0,0,0,0,0
-98.893117416661,79.7614161025446,-6.9340384252402,62.9911496571204,100.284293315685,77.8224950198746,13.9698704910581,-65.6403573872604,0,0,0,0,0
-98.3420046539808,79.6961819241702,-6.98926044088879,62.8803778027979,99.9076275610755,77.7242506365863,13.8954008665772,-66.4192165278911,0,0,0,0,0
-97.7308113152988,78.3015163553415,-9.53144581406107,63.4319367014905,99.5913143996856,77.6636853631933,13.7786545635075,-67.4360689730929,0,0,0,0,0
-97.416004619211,78.2273158987266,-9.44857406724299,64.0258003866148,99.1979316226307,77.5793060014257,13.655640574933,-68.547725463834,0,0,0,0,0
-96.3375483363622,78.2811034999839,-9.36210593104124,64.9161495590218,97.7326412808718,76.134752499476,16.1595470599003,-69.6539425723009,0,0,0,0,0
-95.6491441062289,78.299933651754,-9.30881644385397,65.4783220919014,97.014987109244,76.1196592047597,16.1226091974547,-70.4051223991909,0,0,0,0,0
-94.8245771941135,78.3401938877176,-9.22794730134183,66.2498988384227,96.1027810937221,76.1462853868559,16.0692984765672,-71.4120564020104,0,0,0,0,0
-94.0319658979449,78.4360759316431,-9.15036242989757,67.0005820152189,95.3205655852062,76.1971657598797,16.0143153405429,-72.3520815380676,0,0,0,0,0
-92.4194831393247,77.1820037005651,-11.7259771234041,67.9596833693684,94.0254682648294,76.3767183549646,15.9881053734413,-73.5361886621601,0,0,0,0,0
-90.7331416204826,77.6140380012119,-11.735685396533,68.685132835978,91.9169287549204,75.1183042832478,18.6265443085983,-74.4669357922057,0,0,0,0,0
-89.9128890621659,77.7652692574013,-11.5877701683242,69.9599972940741,91.4584109070698,75.2150058549797,18.5218221753528,-75.561126812524,0,0,0,0,0
-88.3057466105545,76.562254850848,-14.2287130256754,70.8064175809936,90.4162133369747,75.4856095585832,18.5774862117572,-76.1403454438109,0,0,0,0,0
-86.873618007088,76.7433820030245,-14.2719836301841,71.27588043227,89.4273719242442,75.5005728340482,18.6755265596623,-76.1540751039249,0,0,0,0,0
-85.1680312261583,77.2385006580352,-14.3142842129394,72.0071876705936,87.9012125861091,75.7229027079741,18.8147125002272,-76.4133185079465,0,0,0,0,0
-83.5178500539699,77.681312241208,-14.4788411297489,71.919343739807,86.1527094683491,75.9403083330261,19.0727701127171,-75.9629616250616,0,0,0,0,0
-82.4965545897415,76.3585656161647,-17.2602341777543,72.0072250391674,84.9574070352408,74.4380211441514,21.7751448692538,-76.1098016483941,0,0,0,0,0
-81.1863015098528,76.5829756915246,-17.391584964151,71.9454600968203,83.4505549403027,74.7595141160247,21.9908307207526,-75.9644541086678,0,0,0,0,0
-80.3697288183611,76.3798123230585,-17.424022004935,72.0397615663511,82.8482806177145,74.6088351088976,21.9933706194714,-76.2137339307893,0,0,0,0,0
-78.7954982948895,76.5106866649735,-17.5047248550818,72.3129009409854,81.2943608847307,74.6523196602468,22.1351619390985,-76.3109995635732,0,0,0,0,0
-78.5482956473936,76.2309714689408,-17.3115105223378,73.392699614129,80.5330042900297,74.337988824752,21.9997919446018,-77.3193896492177,0,0,0,0,0
-77.2765888917069,76.0209729772193,-17.3705156004187,73.4455316845263,78.8904685500687,74.1233244710937,22.0983466737457,-77.4529935878189,0,0,0,0,0
-74.9768019367303,74.2048297297578,-20.3143620314398,73.2636725374097,76.6697544820954,73.8863145122903,22.2922017866341,-77.2723382798213,0,0,0,0,0
-73.7915118175414,73.9620435610217,-20.3341399058975,73.4776267861226,75.4387478774747,73.5347228228501,22.2519211019736,-77.7870287758881,0,0,0,0,0
-72.3236701129592,73.69372222518,-20.4797715960818,73.1491815010984,74.107651364469,73.1969911935271,22.3309809793311,-77.6735023674141,0,0,0,0,0
-71.2875589993188,73.371389330973,-20.50889431396,73.1862051368076,73.1736261681143,72.7938978053614,22.288668397874,-77.9564426849473,0,0,0,0,0
-70.649195977854,72.4812116615767,-20.4124000602531,73.3837809070407,72.0333967926122,71.7795588910357,22.2468380840672,-77.8189352863627,0,0,0,0,0
-69.1295036864584,71.7333499916265,-20.3228506166619,73.7817834062956,70.5034248045582,71.2541288565849,22.1952926523608,-78.1681461904073,0,0,0,0,0
-68.3641935511668,70.8896351973863,-20.1388585968066,74.2692875793787,69.6302496389535,70.4958349491484,22.0477275684386,-78.5203572992227,0,0,0,0,0
-67.5913688891077,70.2866517211919,-19.79134506892,75.4685240581725,68.3615047602198,69.9665633526777,21.8807941725619,-79.1784702640466,0,0,0,0,0
-66.2252673835382,69.6011444784911,-19.6748500090458,75.7444938436877,66.3312044727954,69.1891405415326,21.8474530887609,-79.1799933102377,0,0,0,0,0
-65.3887565886459,69.0758336917493,-19.5820861581648,75.8960574689126,65.5184115421929,68.7546255503549,21.6916001731878,-79.6382010969564,0,0,0,0,0
-64.9904507390741,68.6797157774362,-19.3094161338426,76.7166193274248,65.4231626721159,68.2207446110051,21.4020980727811,-80.382617621731,0,0,0,0,0
-64.660838498416,68.170161613743,-19.2915345857276,76.4799773987143,65.2801277813195,68.020677574137,21.2732653097891,-80.7542275439567,0,0,0,0,0
-62.6967810922914,67.945700391136,-19.574121423969,75.5414794030088,63.3475412735664,67.9247085852734,21.4510403807835,-80.2963721605127,0,0,0,0,0
-60.8933469754689,67.5127145456383,-19.6947669433744,75.0110672164904,60.9125549868717,65.80279874763,24.2350802953632,-80.4452528542913,0,0,0,0,0
-59.1103255357959,67.3189958983829,-20.0334564972829,73.8713124493417,59.4069378787436,65.5875875387323,24.6006012373809,-79.1981586708779,0,0,0,0,0
-57.8684236323995,66.7692426733351,-20.142908112363,73.2660695917999,58.2859543120314,64.9142081090531,24.5974891262832,-78.8596550858308,0,0,0,0,0
-55.5350352211898,64.9109749145029,-23.332162135278,72.7405847039742,55.6912917020545,62.8971081309283,27.7381211973212,-78.2369607691368,0,0,0,0,0
-55.0491935068145,63.2258159081115,-22.7414746003392,73.5867000360494,54.7333248798339,61.3964767189602,27.2555875397738,-78.8089385384091,0,0,0,0,0
-54.1677334282966,60.4161051036336,-25.3055479949777,74.3482445780724,53.3687692349274,58.7895049840468,29.8070464505976,-79.5812620219313,0,0,0,0,0
-52.6606841502026,60.0653137153604,-25.1406199854203,74.5813623883393,52.2878250648272,58.3266850193089,29.5734204267214,-79.9783351235014,0,0,0,0,0
-49.6739258012183,57.7643524473855,-28.3409034027047,74.0599617798444,48.8603279950821,56.0564700575756,32.6903430380502,-79.6362475528657,0,0,0,0,0
-47.2110074459617,57.2632733940416,-28.808157868903,72.6598354059879,46.2020100374043,55.7059946047716,33.3609737340102,-77.8328925364376,0,0,0,0,0
-44.0891491234595,57.2541445501043,-29.6717766212754,70.5421404589425,43.3913600661141,55.5356681964086,34.3593292840505,-75.3724502850616,0,0,0,0,0
-40.5138866098538,57.5927031255213,-30.4476075628857,68.6403911253668,38.507701278934,54.6530879346822,38.6917127999682,-73.2552344071309,0,0,0,0,0
-38.0888986064624,57.2261630188781,-31.0143089429596,67.0166599226273,36.086343881421,54.6743038225407,39.3085283169067,-71.7815171421971,0,0,0,0,0
-34.7546900462499,56.1670050426381,-35.1901099874157,65.4230561914838,33.8682777779418,55.4405763665155,40.3231809510051,-69.7194437298694,0,0,0,0,0
-30.5299897296618,57.9247930083657,-37.0953150071909,61.5446638326735,28.5458545275913,56.2190259165282,45.4847294394759,-66.4513031884501,0,0,0,0,0
-28.5816228064356,58.8885351779076,-38.1185238964079,59.4797591882849,26.8335444846714,57.2558940397857,46.3654382634321,-64.6847923699602,0,0,0,0,0
-25.5961289317896,60.0880212330541,-39.6836188690462,56.2762338837382,24.0090172569277,58.4400346576325,48.1161614726389,-61.2012263679002,0,0,0,0,0
-23.8305715466304,61.893710028062,-37.2729868885138,53.3539896186155,22.4646268729815,60.0933413611107,46.0009620384332,-58.019708401731,0,0,0,0,0
-21.891207180417,62.0819989237897,-38.1892622900664,51.3733751261545,20.6445598857545,60.5067361143014,47.2135737600323,-55.6779969634259,0,0,0,0,0
-19.689173152593,62.9263819383118,-39.150485973748,49.2718221580229,18.7907040597476,61.8813732380117,48.1467960386004,-53.7544645127654,0,0,0,0,0
-18.4605728437912,64.9993929290775,-36.4428277953571,46.6778275432819,18.0913958471203,64.1892174875356,45.5529307912176,-51.3578066318356,0,0,0,0,0
-17.0822990012704,65.9148652689227,-36.7313860222939,45.768369693948,16.2116175430038,65.1281310445206,46.3505310093192,-49.6078834989247,0,0,0,0,0
-14.3423758539317,67.3168705951254,-37.9459852597774,43.0320536204977,13.1750013915624,66.5375536785655,48.1219655842709,-46.1617170141736,0,0,0,0,0
-11.8005915349629,68.0907199442869,-39.1693055246033,40.4651868589592,10.1782206389871,67.0722716380366,49.9273878757097,-42.9497753828516,0,0,0,0,0
-9.41694727246954,68.8956222809625,-40.408552771023,38.0322962693294,7.42828473307634,67.8443955132572,51.6351591801943,-40.0890279130682,0,0,0,0,0
-6.76227085917026,69.5619507822439,-42.9861528532387,35.652731704285,4.68956338301877,68.9097275491686,53.4524395569694,-37.2652617133528,0,0,0,0,0
-4.27353541795083,70.3637492212772,-44.8589885956708,33.3739704940462,2.05947459205044,69.9850014723411,55.63402204261,-34.3677127088432,0,0,0,0,0
-2.02125753110977,71.1713429754812,-46.7097711566647,31.2947954385784,-0.238818092440056,70.9913628066797,57.6978381002608,-32.1823061343066,0,0,0,0,0
0.147731305857633,71.8876978168896,-48.7090974131645,29.2520391109872,-2.25136262214164,71.9756128453487,59.7724955215806,-30.2546352926787,0,0,0,0,0
1.60481931540062,72.3385496281733,-50.2696675393486,27.8200810531208,-3.62529602872405,72.6629110529418,61.427121905133,-28.8765573811723,0,0,0,0,0
2.45943305400476,72.799260660059,-51.5196522891547,26.7817895007112,-4.38129456348042,73.3573679016946,62.8082410487723,-27.8575555604494,0,0,0,0,0
3.06037263924009,73.139943839714,-52.5915644620876,25.9615408630265,-4.61479444097921,73.7281106529036,62.9249470788241,-27.7279197399507,0,0,0,0,0
3.24271441516078,73.245589236707,-53.104976866684,25.5980726979076,-4.57253685978509,73.8994439361475,62.8966649824643,-27.7403035642792,0,0,0,0,0
3.17790182603335,73.2540118883502,-53.0782153516095,25.6205673508217,-4.51222488811175,73.9271423634937,62.8734219601618,-27.7620787288974,0,0,0,0,0
3.0210005449303,73.2339267105458,-53.0156349947359,25.6756466556267,-4.2956297862537,73.9268968125325,62.7977953169438,-27.8423418518385,0,0,0,0,0
2.87843100281702,73.1997439565564,-52.9595584728871,25.7260277488862,-4.11623829055537,73.9635689607691,62.7327323716239,-27.9084718289737,0,0,0,0,0
2.47851228558284,73.416730619783,-52.7888606027955,25.8649156585191,-3.5118193818405,74.2342027984645,61.8819337325752,-27.9359150743708,0,0,0,0,0
2.11208942112478,73.4641129806333,-52.641221979887,25.9951297262301,-3.13879417580523,74.2305822648257,61.7768032284842,-28.0839019524415,0,0,0,0,0
1.87628073562405,73.5917330117895,-52.5440033405417,26.0788230519428,-2.79726107607433,74.338426365306,61.664240244328,-28.2154255864986,0,0,0,0,0
1.73324674435435,73.5895124810685,-52.4878785070674,26.1304642058856,-2.58638800260985,74.3956265079987,61.5959288036115,-28.2972817229165,0,0,0,0,0
1.64975079487317,73.5664726986512,-52.4557080805956,26.1608276846038,-2.49696528893776,74.3611170845713,61.5755369621797,-28.3346034349693,0,0,0,0,0
1.7144729171639,73.5088355649853,-52.4826397850366,26.1378025602959,-2.50102480175957,74.282463024497,61.5882290379016,-28.3363912682418,0,0,0,0,0
1.51852842515723,73.491001111487,-52.4059519615036,26.2088635929266,-2.30288865346313,74.2154177873117,61.5417931431785,-28.4189659599729,0,0,0,0,0
1.42209372153593,73.5422496872445,-52.3669807617249,26.2435937311974,-2.13000147023007,74.2582938229056,61.4863146983163,-28.4867544383407,0,0,0,0,0
1.224394009143,73.4860801234269,-52.2905304623948,26.3159283428696,-1.99202237691975,74.1653328307901,61.460842303347,-28.5466771890856,0,0,0,0,0
0.881809821879983,73.5275812521148,-52.1560468809154,26.4412857123556,-1.77064276783682,74.0474560556503,61.4155128670957,-28.6418124592818,0,0,0,0,0
0.480464572205392,73.5741218024173,-51.8758333612117,26.678645514479,-1.44952465967225,74.1002767058159,61.316244229691,-28.7701141031122,0,0,0,0,0
-0.114885226604315,73.5580712459927,-51.4078706759223,27.0790648638492,-1.07702850000908,74.0309222974462,61.2206656816337,-28.9258419128902,0,0,0,0,0
-0.852614937339013,73.3975063499936,-50.5947678279567,27.773108039801,-0.55912674895086,73.9323868424161,61.0881813413775,-29.1440653291043,0,0,0,0,0
-1.31277595571873,72.8390746853377,-52.080404495138,28.6889483748127,0.0668629191483205,73.7819701254414,60.8936778900788,-29.4365790842671,0,0,0,0,0
-2.25719105294775,72.5916500226084,-51.1950872363591,29.6193832572695,1.11519156443427,73.436651245657,59.7067017642983,-30.5169492398713,0,0,0,0,0
-3.03040863934427,72.4299940113419,-50.6690991682388,30.2527169929029,2.06243815962102,73.274006146591,58.8559861032856,-31.3685835279493,0,0,0,0,0
-3.94422301260192,72.2583990003526,-50.0097474753513,31.0536256306407,2.99109559329605,73.087396758893,58.0667339064701,-32.2104147077335,0,0,0,0,0
-4.65582732835651,72.0533942908224,-49.6777618346038,31.5540798033194,3.89786329731805,72.9253604964999,57.3361723242597,-33.0298290580559,0,0,0,0,0
-5.65032196077345,71.7458663338774,-49.1659417555624,32.3138720438614,4.94941367422967,72.5431256766622,56.6146993529512,-33.9462753648123,0,0,0,0,0
-6.88572402450313,71.2766169049289,-48.6106252534387,33.2267877478685,6.27647554984588,72.1943378107437,55.8993427122168,-34.9549755038237,0,0,0,0,0
-8.10191143027407,70.6052583234647,-47.7601286521908,34.4724350910255,7.54779572601404,71.6278884768703,54.9336411294729,-36.2472231968464,0,0,0,0,0
-8.88914432407228,70.2590862716672,-47.3756488905064,35.127076922379,8.15695254297873,71.0265044997352,54.9211674413742,-36.5280397600367,0,0,0,0,0
-10.4174429918152,69.4024538068201,-46.5780488676718,36.5107743909512,9.63254276897862,70.0427632199866,53.9175976799366,-38.0446187948635,0,0,0,0,0
-11.8780779488679,68.6314469061924,-46.1349216301599,37.5267825667071,10.8346957536308,69.1153461743414,53.5012677479185,-38.9448590118106,0,0,0,0,0
-13.4945494401704,67.8778701411387,-45.4833718477811,38.8234092126453,12.2205369898111,68.0570166407885,53.0891013832812,-39.9255446098446,0,0,0,0,0
-15.5454486705116,66.6404032503868,-44.4737209466526,40.750299200729,14.1653136689467,66.654314981682,51.8775928856617,-41.9582202979635,0,0,0,0,0
-17.6351276725986,65.4096964702795,-43.6286408820716,42.5312125482299,16.0964819622893,65.2827265181552,50.8625365347744,-43.8201279580397,0,0,0,0,0
-19.3573695638599,64.4430014714696,-42.8969658860258,44.0439246854618,16.8362493953957,63.0968496640109,53.6476967707938,-46.0578008489153,0,0,0,0,0
-21.1600532594674,63.2046420309442,-42.3223933434298,45.4239218920969,18.45804916084,61.7740508588952,52.9680969364109,-47.4473028204631,0,0,0,0,0
-23.215258233289,61.7251453098908,-41.2706294074574,47.4806853642646,21.4477181100672,61.1122268896034,48.3989551798076,-48.7021185988319,0,0,0,0,0
-26.3427143278789,61.9747935981587,-36.8987126919062,48.5555044704365,23.6687164326488,59.9222422011466,47.7734295280302,-50.1541218361422,0,0,0,0,0
-29.047486588121,60.8791523595503,-36.1617744809662,50.3660137979301,26.4764056714927,58.5865475068752,46.780492272534,-52.1738280434951,0,0,0,0,0
-31.9192725388686,59.7174648941928,-35.379223028518,52.22804780796,29.5847458000284,57.2634136518881,45.7046676999114,-54.3065944837885,0,0,0,0,0
-33.8950733352176,59.3153485324367,-34.8861233337408,53.3962590354355,32.766319657044,57.9575805445871,41.5154376619753,-55.1089409731407,0,0,0,0,0
-37.5095429920281,59.9457507471975,-30.6767457112646,54.5607573880764,35.9818391859101,57.2143774391941,40.6128208092482,-56.9508295231405,0,0,0,0,0
-39.7371976691612,59.8325629622778,-30.1184946701955,55.881414620049,38.4761580581632,57.0274628353178,39.7936541040202,-58.4998672921141,0,0,0,0,0
-41.7662912139591,59.7505993668439,-29.9880705795036,56.4597629087024,40.4860005845391,57.0778346934505,39.5444566235066,-59.1172306505337,0,0,0,0,0
-43.6905758886463,59.9024134613555,-29.7553739495833,57.1524631595967,42.5181309458934,57.2933987760204,39.1619634727888,-59.9007797508505,0,0,0,0,0
-46.1490722695041,60.1873623957632,-29.3150629223617,58.2285683822037,45.0295919181698,57.5949430269655,38.4800137497465,-61.1555332521447,0,0,0,0,0
-47.610865256372,60.8869904278812,-29.4456654391824,58.2015789612769,47.6131298082293,59.7034538133668,35.0493167489857,-60.9896160890182,0,0,0,0,0
-49.0310883272629,61.5846722342594,-29.2224492520361,58.7296480167263,49.2469918460715,60.3411159046712,34.7714020835074,-61.5458233966468,0,0,0,0,0
-50.2344822973477,62.082757454242,-29.0613263747439,59.1136385218807,50.5585616128274,60.8373509821042,34.5553548333032,-61.9633294037218,0,0,0,0,0
-51.6132290797013,62.3708186782404,-29.0004365468429,59.3169075974791,52.0913973853415,61.2199412701766,34.3805176512887,-62.2893738080851,0,0,0,0,0
-53.4165736072006,64.0251625766916,-25.4905962184841,59.4036716687485,53.1772851743814,61.414524532032,34.1037988694368,-62.788288690872,0,0,0,0,0
-54.895614535379,64.2107609728416,-25.2255478857127,60.0041571027429,55.6492712219375,62.9315517342762,30.4955736165554,-63.1254432540885,0,0,0,0,0
-56.5325590211311,64.5430294319821,-24.9954928034743,60.5256600517697,57.1200856886272,62.9481669184038,30.4175352623793,-63.2369394682162,0,0,0,0,0
-57.9105536450376,64.9338187637422,-25.0108498391142,60.5198004519945,58.550631726991,63.2127733175815,30.3543609641438,-63.2996207934186,0,0,0,0,0
-59.0149830168741,65.3424408092969,-24.7882265749571,60.9742291293064,59.4351751877865,63.514750838147,30.2536055179996,-63.4512742358284,0,0,0,0,0
-60.4381396062822,65.8108162193417,-24.6010997240507,61.3410819155864,60.7770648044431,63.9762108350034,30.1025717905856,-63.6592611874667,0,0,0,0,0
-61.4707651107467,66.3569914485792,-24.6579134195448,61.1660038564784,62.5176094452908,66.0681464584134,26.8883744250089,-63.3944436644592,0,0,0,0,0
-62.5284753263011,66.7866203777064,-24.7657818443386,60.8571367430852,63.320710644327,66.814938123006,26.9399956283773,-63.1746930139331,0,0,0,0,0
-63.9730407227534,66.9858344489443,-24.8132001512757,60.6530901082763,64.4959717067876,67.2899524437478,26.9241775356203,-63.0523363583597,0,0,0,0,0
-65.4239248242852,67.2177510839874,-24.8048111234425,60.5381660507923,65.6258887282087,67.76007853948,26.8347109819511,-63.0836450409163,0,0,0,0,0
-67.0673746177158,67.2336296378455,-24.7136255068099,60.5873964307088,67.3810165288918,67.8890202781057,26.5815344562211,-63.4255629171782,0,0,0,0,0
-69.4197336749551,69.0283660772758,-21.6346131281156,59.9425155799689,69.2067851200225,68.1564608012534,26.5715954196745,-63.1034634394436,0,0,0,0,0
-70.6633613583525,69.2970098319913,-21.7205951815503,59.5580710663064,70.4280828325342,68.4313076335459,26.6814670497874,-62.5561613779926,0,0,0,0,0
-71.7300128452089,69.4270368453946,-21.8767728126446,59.0404756751199,71.7000734211208,68.4358206575921,26.7526566963824,-62.11184728375,0,0,0,0,0
-73.6974767486598,69.7410119721567,-21.7948480076795,58.8831654157489,74.1179829069256,69.8024613294006,23.6455889912515,-61.6047582212784,0,0,0,0,0
-74.9587246228409,70.0657436417499,-21.6883130017086,58.8445784519909,75.1365662273443,69.8757447322658,23.574521779724,-61.5489838629968,0,0,0,0,0
-76.3558174783653,70.603423156902,-21.5015405143845,58.8835007136776,76.3641078300385,70.2121415487663,23.4134713735875,-61.6086551298594,0,0,0,0,0
-77.3830818558207,70.8721654110078,-21.5088832000258,58.5741146308239,77.4445350205875,70.4361628756786,23.2801049064269,-61.6392961688551,0,0,0,0,0
-79.6980957833596,72.2142572115798,-18.2162125212325,58.6725313684146,79.0698736697751,70.3957490500916,23.132312989778,-61.6057128025894,0,0,0,0,0
-81.5733977132179,72.2061021726065,-17.8715027372556,59.2294338123905,81.0502803055706,71.9385462940645,20.1150728236426,-61.1111105695002,0,0,0,0,0
-83.5636248580803,72.2896400750583,-17.4958477237333,59.7990585611028,82.3163986466455,72.0608457552378,20.0675510964236,-60.85322960496,0,0,0,0,0
-85.7103335671552,73.7964942907608,-14.2811666578602,60.1190189774528,83.6295069382488,72.2701741735004,20.1412056369147,-60.1659334133645,0,0,0,0,0
-86.943385541347,74.1749205336533,-14.041321679721,60.4636385165349,85.1824467785256,72.5814394113067,19.7974984689809,-60.5859680250873,0,0,0,0,0
-88.1914652327976,74.3583000430735,-13.8265336896939,60.7954462093894,86.9508123988117,74.2034384673647,16.6587556115909,-60.7591801057617,0,0,0,0,0
-89.4467066919153,74.6863667137407,-13.5981895301492,61.1240475413523,88.5577448677208,74.5636442310182,16.3454345309177,-61.17526992559,0,0,0,0,0
-90.3684071177405,74.9686481693113,-13.4292826151646,61.3601223074407,89.7751829479501,74.8214028904433,16.1146799239942,-61.4792437185231,0,0,0,0,0
-90.5660339338183,75.4195006817849,-13.3530181186225,61.4223821403174,90.3683931685361,75.3507325430579,15.9619905687969,-61.63130221675,0,0,0,0,0
-91.2639475267615,75.7883643168489,-13.2132317056112,61.6006343854277,91.32636354223,75.7761769113196,15.7647102810479,-61.8634955958355,0,0,0,0,0
-92.1377194867866,76.1509291477776,-13.0517325358658,61.8159395935691,92.3894047906196,76.2829790780865,15.5479506652574,-62.1140063258753,0,0,0,0,0
-93.1385228951542,76.45221101824,-12.8817084818871,62.0529422169979,93.5631459526894,76.6928834935544,15.3292381047129,-62.3794714397687,0,0,0,0,0
-94.4890411688392,78.0336866403686,-10.03033684083,62.188798322474,94.6781079867276,77.0083408326203,15.1333032884817,-62.6221411581039,0,0,0,0,0
-95.5555618911381,78.1955212965003,-9.8925276466338,62.4261570715668,95.5671687592017,77.3467820388939,14.9735334633627,-62.8103713911826,0,0,0,0,0
-95.9477796678073,78.4780183743764,-9.82441301297703,62.5178742793766,96.4041477114958,77.6491331961531,14.8278149786098,-62.9823327042308,0,0,0,0,0
-96.312811219729,78.7055012409888,-9.76488431059263,62.6009886288818,96.8879953557893,77.8645209181609,14.7420397554117,-63.0797366499035,0,0,0,0,0
-96.8759789897612,79.031680889317,-9.67673020366843,62.7263188114481,97.4512024873762,78.0478755277765,14.6486349584039,-63.1905772017572,0,0,0,0,0
-97.5085001805855,79.2867381101518,-9.58834805602632,62.8612968689567,97.9931563341242,78.1211071061696,14.5671542465801,-63.2946054771333,0,0,0,0,0
-97.8751970071035,79.6195714486439,-9.52465491111752,62.9422534699182,98.2932210965206,78.2201591959454,14.5184225855017,-63.3516474342582,0,0,0,0,0
-97.9610665550714,79.8691816259571,-9.49755091313546,62.9644995169975,98.328591504618,78.2445720764229,14.5118344507891,-63.3583903880237,0,0,0,0,0
-98.2987700877853,80.1596629832059,-9.44168612015699,63.036753802785,98.4833823920097,78.1673449379837,14.4953841840042,-63.3868736942465,0,0,0,0,0
-98.4412982604219,78.964381907194,-11.9822423702333,63.2076560199086,98.6427463835528,78.1368083479487,14.4751494410101,-63.4162563152074,0,0,0,0,0
-99.2265325952306,80.4208480399743,-9.32909505350742,63.2206792695502,98.9094095746125,78.0984785866525,14.4404073680386,-63.4650755542569,0,0,0,0,0
-99.9454909624135,80.5213227197804,-9.25035093258956,63.3572258980693,99.3969151254273,78.0288621446085,14.3767754574173,-63.5529790341728,0,0,0,0,0
-100.384004240839,80.5087996479221,-9.20722705946258,63.437466098702,99.5761750435409,78.0726701070751,14.3492067033364,-63.5853748155523,0,0,0,0,0
-100.684271762402,80.4625699352376,-9.17989255897408,63.4909548223562,99.7625953639639,78.0661760391291,14.3236814624158,-63.6184515659596,0,0,0,0,0
-101.390482008469,80.3535201035049,-9.11529062115412,63.6140818829184,100.525751452165,78.0498259258687,14.2189600939562,-63.7513924307402,0,0,0,0,0
-101.740704665501,80.2376964415663,-9.08620756796742,63.6725426430666,100.922177416534,78.0664996338,14.1634010942036,-63.8190394827609,0,0,0,0,0
-102.114529481111,80.1322248709462,-9.05385440149877,63.7341909905611,101.243141373425,78.1884386082947,14.1130550555369,-63.873886050554,0,0,0,0,0
-102.454667246879,80.1186726761179,-9.02019973253931,63.7910523219339,101.590864480627,78.3844732602361,14.0559439894404,-63.9328841572857,0,0,0,0,0
-103.610350382216,81.3869771830636,-6.43778397552882,63.8817768933741,102.465589419036,78.6059898089819,13.9281723111711,-64.0755069595643,0,0,0,0,0
-104.381215150805,81.386885069971,-6.37553808376009,64.0042044404473,103.205527733161,78.9322341085086,13.8166734742552,-64.1925411862944,0,0,0,0,0
-105.061235523774,81.5870128138536,-6.31410209027729,64.1137313514781,103.794658439499,79.2245750429734,13.7288535779011,-64.2827624620989,0,0,0,0,0
-105.368709812727,81.9280220921271,-6.27873994604047,64.1680191342776,104.349698315892,80.9097251924379,11.2015806923661,-64.2340638345226,0,0,0,0,0
-105.611646858711,82.4106880967473,-6.24493061319913,64.2142581055205,104.730298149555,81.2832097807784,11.1478080240971,-64.2918382508757,0,0,0,0,0
-105.658096191051,82.8584988119826,-6.22733393630449,64.2292040476869,104.883454896865,81.729160972568,11.1162486861479,-64.3144623855417,0,0,0,0,0
-105.5970709118,83.2146721980982,-6.22014015745154,64.2256688080157,104.70313968995,80.7381407603805,13.5609831190646,-64.4126238402619,0,0,0,0,0
-105.23611719832,83.5704338447197,-6.23288180609916,64.1763874791694,104.468356914911,81.068890291009,13.5767896849832,-64.3757796140301,0,0,0,0,0
-105.226903182519,83.6226329532216,-6.23165463495701,64.1755919347029,104.395153338447,81.2828585770102,13.5773808969148,-64.3628355740815,0,0,0,0,0
-105.190614283969,83.6050952787949,-6.23469097449217,64.1699217790642,104.367227038955,81.3352886218552,13.5786271338571,-64.3581377102414,0,0,0,0,0
-105.306184667631,83.5593575879432,-6.22848783206456,64.1867902397692,104.521410340767,81.3715468260895,13.5594867257184,-64.3802908611247,0,0,0,0,0
-105.296100421851,83.5112036660539,-6.23082505581499,64.1847080031453,104.585455792738,81.3430346769399,13.5531084314275,-64.3899459003027,0,0,0,0,0
-105.546035974542,83.3888223954084,-6.21793511743309,64.2204678353423,104.825196517428,81.2194649443726,13.5298087944433,-64.4259348101581,0,0,0,0,0
-105.587277650161,83.2156155650236,-6.22075379815257,64.2242334517441,104.886200040858,81.127694812495,13.5259196651979,-64.4356035700336,0,0,0,0,0
-105.840711881325,83.0540204343245,-6.20822495451517,64.2590789724316,105.466914692202,82.3098707356899,11.0384605559813,-64.3972318713663,0,0,0,0,0
-105.897307914668,83.0100518993035,-6.20558130932869,64.266642735052,105.601077834984,82.2699653921595,11.0265936927308,-64.4165522276172,0,0,0,0,0
-105.936659266651,82.9129088129428,-6.20575101345784,64.2708083097632,105.726748384607,82.202655834482,11.0163911405708,-64.4346415356757,0,0,0,0,0
-106.315321160385,84.0190819534981,-3.76241311248262,64.2609308649757,106.009306670461,82.0421378720853,10.993413557397,-64.4747659754183,0,0,0,0,0
-106.291367700199,83.9569415631917,-3.76542820377136,64.2561162727988,105.752121874515,82.0191322736835,11.0195213852237,-64.4388560067945,0,0,0,0,0
-106.179211112686,83.804811812139,-3.77587180428597,64.2364378855274,105.68439234226,81.8952703826985,11.0300462434972,-64.4296049929441,0,0,0,0,0
-106.221804654171,83.5767432954042,-3.78022689009958,64.2372009978304,105.849132140159,81.6257107592955,11.0216322822658,-64.4530418728925,0,0,0,0,0
-106.515827908078,83.2356726219109,-3.77319802213646,64.2707041618725,106.093329096204,81.4096964733043,11.0030100062358,-64.4867991273978,0,0,0,0,0
-106.716341894621,82.8701596379926,-3.77107169092281,64.2888262046886,106.234827119039,81.0873193456521,10.9972417758412,-64.5053496088528,0,0,0,0,0
-106.796754405693,82.4429024219561,-3.77688819359133,64.2868899457902,106.49698308526,80.5888880330503,10.9824952338374,-64.5380569853406,0,0,0,0,0
-106.788517368291,82.0027547455302,-3.78812123709849,64.2707642635605,106.606462917039,79.9868404008512,10.985121268556,-64.5469191591953,0,0,0,0,0
-106.729572088163,82.6913617241152,-1.39237354267831,64.1916777685577,106.733873111929,80.6111491738598,8.58315169414669,-64.44867199564,0,0,0,0,0
-106.631461988156,81.7206489969147,-1.42138675429842,64.1323085314721,106.551789046752,79.4620831215389,8.62754793678312,-64.396422917294,0,0,0,0,0
-106.485564896531,80.7044891626924,-1.45439893326554,64.0569677950495,106.413147456838,78.155088208806,8.67129631632821,-64.3351584402298,0,0,0,0,0
-106.348976741707,80.5309635089857,0.630544535718741,63.9214877055386,106.536413439843,78.3090570850702,5.25596117475931,-64.1429031913312,0,0,0,0,0
-105.855265359,80.1682191910869,2.79219593557829,63.709279203199,106.191851093033,76.1567772189838,5.55414536068611,-63.9789241397599,0,0,0,0,0
-105.95381992654,78.4733799833535,2.60648749430891,63.5814848857147,106.256506039122,74.9351047688529,3.4136129223501,-63.7256843762111,0,0,0,0,0
-105.82028023346,77.7966833472771,4.78475339221293,63.3558452804354,106.075366917973,73.6183260443568,1.33916336134629,-63.3930568992666,0,0,0,0,0
-105.680237272365,75.7606961272686,4.51054551568478,63.1112179112698,105.636215068496,70.9063687413011,1.7688175756893,-63.0442315063157,0,0,0,0,0
-105.2390018213,74.7119572214933,6.57127382294368,62.7436340845159,105.517802998354,69.4486213930949,-0.289153025195105,-62.6078326769384,0,0,0,0,0
-105.035260232475,73.8630635672953,8.71554395878215,62.4102953885128,105.540247118399,68.3619386291465,-2.44170916196543,-62.200750732564,0,0,0,0,0
-104.83616339938,72.0099469192811,8.42129016482372,62.0940683727704,105.417658527545,66.4073459022216,-2.16816021973364,-61.8738761187922,0,0,0,0,0
-104.201490997005,71.3220868040401,10.464987440709,61.6773391350902,105.159782785591,65.8693909945114,-4.29348966023949,-61.4653428448767,0,0,0,0,0
-104.601833505302,69.2856184291136,10.309732625559,61.3611778287606,105.731635407762,64.0406804772487,-4.29812151016071,-61.1927858214523,0,0,0,0,0
-104.006069194723,68.5953183396363,12.3571729374503,60.903649461664,105.414158425266,63.4691255541503,-6.40360656980883,-60.7317795242204,0,0,0,0,0
-103.333033301905,66.5343300845773,11.8275934342856,60.3843711521123,104.954263523856,61.6104216141578,-5.98992221911561,-60.2876829779994,0,0,0,0,0
-102.79359750471,65.5174898249372,13.8320711565639,59.8135070081274,104.808050607423,60.9001486179357,-8.1534143063825,-59.7736651157038,0,0,0,0,0
-102.501389075306,64.494071402566,15.9410759338692,59.2499534396985,105.214493298852,58.7866305371878,-8.09079019084848,-59.3128557038423,0,0,0,0,0
-102.753049632039,61.9239503021856,15.6519940622016,58.6291015344619,105.45311128819,57.6505378666222,-10.4165969790899,-58.6742736316226,0,0,0,0,0
-102.237741129086,60.7719758104437,17.6634345332841,57.9343892906925,104.846692878856,56.4302195842606,-12.3342729627281,-57.9002454993039,0,0,0,0,0
-102.799531517626,58.8192388843148,17.6334028595408,57.4449271849864,105.271997555132,54.3046680500949,-12.3743861098845,-57.4178278868708,0,0,0,0,0
-103.004474682399,57.8745437640397,20.0496968753575,56.8329561601359,106.101065409255,52.1752093814067,-12.817254999745,-57.1654829734035,0,0,0,0,0
-103.213517719205,55.6130883631079,19.856606412338,56.1426104717238,106.036687321108,51.071573879307,-15.5050127271729,-57.1130841373061,0,0,0,0,0
-103.638010979776,54.4270388952196,22.4306555127067,55.4045868691097,107.475215460773,48.8805692589119,-16.458474908633,-56.8135659341282,0,0,0,0,0
-104.278554727139,52.2047529537027,22.5456813619918,54.6869849579853,108.135113655536,48.0125097795794,-19.5662032060504,-56.5286686534778,0,0,0,0,0
-103.765439335675,51.3935129470944,24.9752069906222,54.4015794356144,108.895080641795,46.0420378390026,-20.3871309374108,-56.4408684687979,0,0,0,0,0
-104.558758060122,49.5228734201654,25.6233138533286,54.3269578686109,109.104006841954,45.1416501520909,-23.3102368921592,-56.0919467978426,0,0,0,0,0
-105.378369363506,47.649603423019,26.3883639786677,54.2759888475152,110.225797926874,43.2463473398902,-24.4333307061321,-55.8643279014478,0,0,0,0,0
-105.88289719904,46.846272146039,29.3968462380247,53.6792814720486,110.817645618884,42.5133425594124,-27.4997561360729,-55.1169708351677,0,0,0,0,0
-105.941226598931,45.8290539680373,32.3659866072109,53.304670076046,112.299303226835,40.6101843255696,-28.9378213244083,-54.6447306847519,0,0,0,0,0
-106.967889173854,43.9068249014569,33.2583798185512,52.836828798976,112.555607873145,39.555844011367,-31.9990887479983,-53.9099225274178,0,0,0,0,0
-107.149093690758,42.9599853263129,36.2680979341985,52.1706076291332,114.108996136964,37.8332957034684,-33.4883105256156,-53.2055810378585,0,0,0,0,0
-108.303932246663,41.3598353608729,37.4238485404221,51.8726479605195,115.684148688633,36.3297060206385,-35.1051598437043,-52.6506443828679,0,0,0,0,0
-109.719674351025,39.4506137588981,38.8226211447602,51.3112504252073,116.305441373673,35.5498912605245,-38.4908838894386,-51.7398148609057,0,0,0,0,0
-110.309343276005,38.5155808212697,42.3493635622741,50.5907382986084,118.542839868129,34.0070048849462,-40.839873020448,-51.0743852540742,0,0,0,0,0
-112.429176616917,36.8808954127705,44.494353228022,50.0898519550581,121.017422947267,32.6358109377936,-43.566102429432,-50.5711170494778,0,0,0,0,0
-112.948994767205,35.732765142899,48.2084850616839,49.3191476925024,122.171808515908,31.8629196202395,-47.6934102389798,-49.6227688943451,0,0,0,0,0
-114.661480240651,33.836172660453,50.3154367260633,48.8159594843647,124.578726772222,30.3180614046799,-50.6405209891766,-49.1224100145237,0,0,0,0,0
-115.668603205307,31.4644230628883,52.0163408659554,48.2471676018317,126.370055907486,28.2985260138323,-53.2102033545087,-48.5229451668765,0,0,0,0,0
-117.82453464091,29.3863791173193,54.6290319647144,47.3639622465156,129.011229457786,26.731807395233,-56.3886895823037,-47.6825481203597,0,0,0,0,0
-117.75717406498,27.9138186310073,58.0546863364698,46.3208826402576,129.451991131575,25.638121302434,-60.1111169219967,-46.6294407053606,0,0,0,0,0
-119.589977870779,26.2506588855813,60.3474556800305,45.5557400120683,131.717802027878,24.2612227610171,-62.9813676050172,-46.0112469641009,0,0,0,0,0
-119.309355345701,25.0420281980526,63.4772198725316,44.4025641560035,131.516042468646,23.343065367406,-65.8910908140741,-44.8095549170271,0,0,0,0,0
-122.246520532487,23.6901422954573,66.8420235611054,43.5547765943023,134.478407757242,22.4795294491994,-69.2408181410594,-44.0551975001308,0,0,0,0,0
-124.884854940167,22.0510611739236,70.115622946725,42.7717383651165,137.875977980909,21.6197193594388,-73.1372431252313,-43.3703841114933,0,0,0,0,0
-127.047715704581,20.2873415139013,73.0241604385737,42.1444486500609,138.71870600688,20.4563678285196,-77.462780729761,-42.349560756017,0,0,0,0,0
-127.510857679452,18.9756011061417,77.1187857728568,40.9970281699565,142.797886000143,19.8736511961424,-81.9815900372074,-41.6613225693296,0,0,0,0,0
-130.984827891324,17.6342545249809,81.2352761410547,40.3541114270791,147.105468538606,19.2545454249081,-86.7934093897825,-41.0555031174504,0,0,0,0,0
-131.528587955183,16.3125642145181,85.4711860249079,39.2926859952544,148.058098105416,18.254252887337,-91.1286056395323,-40.1266145564243,0,0,0,0,0
-136.422233291114,15.6491280121973,90.7933714047326,38.7447445785844,152.600699442413,17.9829159812487,-96.0012117525433,-39.5949846322144,0,0,0,0,0
-137.917696991856,14.271893988425,96.044252118337,37.817426179914,156.930229170068,17.4577856996171,-101.546745044606,-39.0946316890311,0,0,0,0,0
-143.19309878119,13.6095141399608,102.452815873128,37.281397225794,159.22247522585,16.6409453960046,-107.02781678957,-38.2180362799483,0,0,0,0,0
-147.139504808382,12.5275124419883,109.83844693498,36.3922250930345,166.096038351777,16.905316239664,-113.884469129563,-37.6200947053059,0,0,0,0,0
-157.539420327648,12.593157565153,119.275997635095,36.2027298909846,171.170422695196,16.5332584354113,-121.319737218119,-36.7345249659858,0,0,0,0,0
-163.041792296804,11.6798796199801,127.727159973495,35.582091469284,177.611309525173,16.8373012876589,-127.598976996825,-36.2309137801782,0,0,0,0,0
-171.981648867529,12.3166010756038,135.922430838132,35.2494574729205,-178.396436267616,16.6016660095968,-134.240413583777,-35.2593110123846,0,0,0,0,0
178.639686421249,13.151048648729,144.349602052967,34.8462855409061,-172.016608444541,17.2487049576694,-140.179803396083,-34.6881213076821,0,0,0,0,0
171.807315464634,13.2558235373815,153.180077048733,34.0010751047045,-168.353515852808,17.2194723220923,-146.32171349811,-33.9160166960427,0,0,0,0,0
165.145929253392,14.1550864435575,158.851374275424,33.5301972064764,-164.449154167072,17.8858402366096,-149.999506662967,-33.8214438463377,0,0,0,0,0
161.334805249465,14.8441821563538,162.047407195074,33.1232671036304,-161.942987220058,18.3473059687257,-152.348089434272,-33.7446996997659,0,0,0,0,0
158.483707491077,15.3699493918703,164.430720277854,32.8567061874187,-160.430840027508,18.6614944222586,-153.768308947031,-33.6892980564291,0,0,0,0,0
158.025960036306,14.8893422239807,167.588588824151,32.5752775294365,-160.423537437422,18.0654869702958,-156.468500188331,-33.4031556734548,0,0,0,0,0
157.620113590148,15.0559374295907,167.965052281994,32.5489751672115,-160.078235183271,18.1996065874832,-156.809149736983,-33.381831213235,0,0,0,0,0
157.944866601241,15.0646762107973,167.715445829317,32.5518126023279,-160.447333566985,18.2202741886332,-156.504391096876,-33.3832651748253,0,0,0,0,0
158.984402363327,14.8282721947811,166.81795203805,32.5938551729938,-161.054824149398,18.0459926661313,-155.926160007769,-33.4124085083567,0,0,0,0,0
160.559461876079,14.5104484094447,165.467085061858,32.6487061513369,-162.264453489295,17.7590249280458,-154.793868741359,-33.4605189783692,0,0,0,0,0
162.147420019209,14.192476597665,164.099507218696,32.6990337664553,-163.602838405575,17.5266819350652,-153.565819559495,-33.5005692121614,0,0,0,0,0
164.292261803081,13.6794201597365,162.32077619203,33.019513332755,-164.832012193423,17.1286925451822,-152.373141148777,-33.5549982963095,0,0,0,0,0
166.670336677665,13.1929152162767,160.336246605035,33.3057950749964,-166.058130738302,16.7425042887678,-151.186753096254,-33.6034390288801,0,0,0,0,0
168.339780749878,12.8441027279886,158.933345569103,33.5088694436105,-166.8346307531,16.4681729288572,-150.426439163409,-33.6345288904445,0,0,0,0,0
169.726059471075,12.5342537488323,157.765819388363,33.7006277783403,-167.604733403033,16.1725567677382,-149.666096726583,-33.6653335509049,0,0,0,0,0
170.593979059468,12.3044755494371,157.025152175443,33.8305867580115,-168.368545407301,15.9626861442262,-148.977038943594,-33.7761293129038,0,0,0,0,0
171.437453001443,12.1026336450412,156.307086488771,33.9456732344981,-169.088023329719,15.7597593350697,-148.347199551861,-33.9288314243838,0,0,0,0,0
172.303262778772,11.9207470398997,155.565246852431,34.0306205901556,-169.819667647774,15.6464144008106,-147.696221714822,-33.9947959044286,0,0,0,0,0
172.757874886936,11.816759140032,155.174515086116,34.0801713744169,-170.410554090358,15.5449124724323,-147.170280141331,-34.0567777012456,0,0,0,0,0
174.59317725397,10.6902110411007,156.489411852812,33.9168323174716,-171.006945442581,15.4696006560068,-146.638926440778,-34.1010109797725,0,0,0,0,0
173.434376411129,11.5411184881546,154.584185110941,34.2341669591012,-171.252827033057,15.3654743355392,-146.425925865914,-34.1847389063576,0,0,0,0,0
173.552758078914,11.4565284049131,154.477519019832,34.2828528918834,-171.562585791172,15.2529405789112,-146.143814019558,-34.2444877300148,0,0,0,0,0
176.188848190768,10.292140035772,155.127659012949,34.1067627283218,-172.287818398804,15.1871812443951,-145.496189394802,-34.280904505555,0,0,0,0,0
177.420185515016,10.1291974963962,154.089419619178,34.1692948761491,-173.285717427309,15.0563506290173,-144.605720021305,-34.3653971409233,0,0,0,0,0
178.436937436534,9.98746613456171,153.225586269608,34.2100758048897,-173.93381279531,14.9720154940312,-144.016194616658,-34.3954168150031,0,0,0,0,0
179.835705186861,9.82230864651433,152.045817820573,34.2799780514699,-174.961683600071,14.8085424029602,-143.103476965607,-34.5211197637185,0,0,0,0,0
-178.759625074956,9.68649857925047,150.858595009055,34.3266480563365,-175.765128323549,14.68268921635,-142.386808840307,-34.6137153291424,0,0,0,0,0
-179.078404635905,10.6948529192843,148.190016334209,34.5932096900862,-176.960514511726,14.533784629125,-141.324780494972,-34.7460936475521,0,0,0,0,0
-177.151622226531,10.3399730979091,146.518780329433,34.7541261610359,-178.516173730062,14.3049378739489,-139.932583175687,-34.9242087185061,0,0,0,0,0
-174.26633085996,10.0369124182113,144.016728433671,34.8569515223456,179.562367251645,13.9509380301594,-138.205213154836,-35.1739843364476,0,0,0,0,0
-170.180117630944,9.7021203824286,140.454137212886,34.9568229215384,176.979098339277,13.8520802380172,-135.86273012307,-35.3064999107181,0,0,0,0,0
-165.175594041514,9.37701295245785,136.047725972193,35.0244640371366,173.548744983031,13.5226664104369,-132.724673879353,-35.565573753921,0,0,0,0,0
-164.138579300733,10.3183496165794,131.978094340041,35.4701101755903,172.75994920703,14.3497942495865,-129.011373217642,-36.1120308546912,0,0,0,0,0
-156.832552897741,9.9212635445426,125.311452717912,35.5884917733107,167.864500290875,14.1175158792961,-124.385605424705,-36.4340326537349,0,0,0,0,0
-154.370708709051,10.7554573939241,119.740440348817,36.2388297722169,162.645098903301,13.7308084165279,-119.421092608763,-36.8613723804588,0,0,0,0,0
-146.777972269648,10.5512246827558,112.497375232952,36.4321891583153,160.433402377598,14.4083200596768,-114.155691452524,-37.7050700466135,0,0,0,0,0
-145.75327580412,11.8839420725826,107.985622065867,37.1161975132321,155.655079235491,14.5109014711364,-109.365798809208,-37.9758873665788,0,0,0,0,0
-143.161460578859,12.8363455323375,102.759652225254,37.824896397041,153.174062158227,15.1120477652632,-104.450092819952,-38.7221492765736,0,0,0,0,0
-139.045689732789,13.5631727703277,97.565000934638,38.2101490912096,149.154732417524,15.5671573070389,-99.4404873838096,-39.1833157930366,0,0,0,0,0
-134.999840624576,14.4717519595069,93.1131059171933,38.5012898021326,148.750377481336,16.9010886540766,-95.5769894032763,-39.9294743169753,0,0,0,0,0
-134.901652149861,15.8646050789283,89.319469853389,39.4228412898532,144.585248609133,17.4760012008728,-91.0132892121964,-40.330126461601,0,0,0,0,0
-132.171976352404,16.9777472403553,86.0827626278123,39.8070645819282,141.032301404971,18.3185943224266,-86.9590694796855,-40.7204809458248,0,0,0,0,0
-129.591720879939,17.8262822800433,83.073048351348,40.1758752442796,138.104616853205,19.0814778026696,-83.5739188776806,-41.0980497616299,0,0,0,0,0
-127.754748889839,18.662373216586,80.8557877634355,40.5370768957395,138.659543635935,19.9764135680897,-80.7512188572398,-41.8639715280841,0,0,0,0,0
-129.517711422826,19.7802820468665,79.0866647640833,41.3284016894219,136.699135735678,20.6784793189065,-78.4185242133112,-42.2358894981514,0,0,0,0,0
-127.925877924278,20.5274858204048,77.1766408467192,41.7360444262357,134.363512654548,21.3114414192777,-75.7613855800305,-42.7559974166709,0,0,0,0,0
-127.03024573954,21.9072421998003,75.7098134285764,42.106048373233,132.799394219937,22.4984255695391,-73.6752757562888,-43.2240714561535,0,0,0,0,0
-128.33633478941,22.8801308733148,73.5591704699172,42.9227266571853,130.871523723281,23.609830296406,-71.2766265372878,-43.8180934946707,0,0,0,0,0
-126.596290123327,23.8340671521605,71.4507179156566,43.482320588908,131.452076156938,24.6401063795508,-68.4984287201709,-44.7681237302209,0,0,0,0,0
-125.345199514929,25.0233145499271,69.7024953709757,43.9085274585485,129.626486446011,25.8665015851653,-66.1374059023425,-45.3223672990762,0,0,0,0,0
-124.491145883675,26.3459928689119,68.2518962989236,44.2040463670459,128.456231210182,27.4247214005832,-64.2837445919683,-45.7820403627868,0,0,0,0,0
-123.256083774714,27.5756430251734,66.5777477187242,44.7515751103928,126.790397437411,28.7568677620305,-62.1772683111994,-46.5192570421694,0,0,0,0,0
-124.013411167763,28.6076200017142,63.8255481576527,45.5418596362453,126.869638812478,29.6225370043288,-59.0173622301044,-47.498305277816,0,0,0,0,0
-122.464441388883,30.0136754282395,61.7836964149104,46.1375925591379,125.004860192502,30.9948389058391,-56.7204776518559,-48.2039522522042,0,0,0,0,0
-120.477284081832,31.3024973628625,59.4489405762708,46.8206929990934,122.659610652395,32.126665348704,-54.1758863939068,-49.0143876480997,0,0,0,0,0
-118.714337345746,32.3529467489705,57.3896398104038,47.2606975179943,120.622162311174,33.1358628212978,-51.8688614455764,-49.4468417853246,0,0,0,0,0
-117.330400410286,33.7034425381838,55.5797408587663,47.6424885904822,119.185953371201,34.5046076280045,-50.0575097107477,-49.8927117381012,0,0,0,0,0
-117.47532214831,34.430830562667,52.4363609376554,48.3365374902624,119.0973579071,35.2182697182008,-46.8205892501372,-50.5745310151857,0,0,0,0,0
-116.148764034579,35.8263640025735,50.7121772805327,48.662637194232,117.898531668263,36.764363887968,-45.1355063838244,-50.8328158686716,0,0,0,0,0
-115.403678957246,37.1512644390335,49.5777597758238,48.936268288749,116.773662261894,38.0726063451405,-43.7516148257335,-51.2030783888911,0,0,0,0,0
-114.236885299958,38.3093776850817,48.1342047677701,49.1365691335919,115.68058369885,39.2818184791599,-42.3735231777616,-51.3796800513822,0,0,0,0,0
-112.980151436363,39.427847680808,46.7755480355502,49.4781605253691,114.774441857693,40.6347818544736,-41.2331589278223,-51.6942604759304,0,0,0,0,0
-111.984286820457,40.7038251557862,45.5318083067019,49.6657835043819,115.068672434526,41.1090414009666,-38.4109223292526,-52.0463028330008,0,0,0,0,0
-111.855092374197,41.0613678184035,42.4083854579496,50.1713367863616,113.898464326925,42.1381015141861,-37.2738611553648,-52.3878789123733,0,0,0,0,0
-110.100462035682,42.2389196033473,40.8366407299846,50.5668112927946,112.37345744873,43.3119778505987,-35.9019766845878,-52.7835852926197,0,0,0,0,0
-108.327496140343,43.7296048188864,39.3335527883969,51.0865108852045,112.066162487118,43.9062166597947,-32.7961708566868,-53.3078321873475,0,0,0,0,0
-107.062445853549,43.9329675958732,35.5967960029412,51.5993829594027,109.785490882054,44.8796123002649,-31.1698588182205,-53.8548466851886,0,0,0,0,0
-105.990026772858,44.6097347468326,32.0299077167046,52.2179699332142,108.673622907495,45.3426390372816,-27.7322241096277,-54.4891739149553,0,0,0,0,0
-104.912657820543,46.5381585759321,30.9971062777458,52.3960527947309,107.828375371628,47.4207828240337,-26.7803273800974,-54.6337449855528,0,0,0,0,0
-104.189765815478,47.4733978929253,27.7221960112636,52.8730869103654,107.151942604585,48.3061571066838,-23.6258549987209,-55.1141569295057,0,0,0,0,0
-102.891913109331,49.1939675115821,26.7483363226584,52.9764065266267,105.857350652047,50.1204677430562,-22.5591506799058,-55.131770771914,0,0,0,0,0
-103.195223594447,51.4197418759867,26.9518105375726,53.4878010614083,105.809348340013,51.8957492545409,-22.2002712523722,-54.9766424952106,0,0,0,0,0
-103.146501066945,53.4953318784503,27.1535473933154,54.2568713054475,106.359457963115,52.9539533145498,-20.0736990400785,-55.7305234754342,0,0,0,0,0
-103.233984192636,55.5291711365641,27.4330401104283,55.0007176535134,106.153163076028,54.8528229566374,-20.1168442936675,-56.3495254297457,0,0,0,0,0
-103.750930922081,56.4688799136444,25.2528522121819,55.7365945954657,106.035342480656,57.0483618893392,-20.24953283333,-57.0468570298281,0,0,0,0,0
-103.936946068246,58.5831500461954,25.5869969383544,56.464723699036,106.487632931207,57.9857151121183,-18.1218432504078,-57.7436801148089,0,0,0,0,0
-104.044732442208,59.4878543314258,23.2345222321469,57.1006635951725,105.882735066811,60.0064914188902,-18.0197114518073,-58.2817494321815,0,0,0,0,0
-103.705924342597,61.5078495766143,23.3252274281259,57.6875247163321,106.213576304462,60.8973623370528,-15.8546917968623,-58.9010701649917,0,0,0,0,0
-103.856052747764,63.3306863336177,23.616721216587,58.2461192867264,106.382493580506,62.6126945331155,-16.0965594997395,-59.373680216248,0,0,0,0,0
-104.413100310378,63.7879553943838,21.442138325118,58.7258178426343,105.962101077274,64.0682511402268,-16.0681560956379,-59.7032324712895,0,0,0,0,0
-104.648426094909,65.4002292411738,21.7272990611097,59.1956330258828,106.676756249005,64.4186966008192,-14.0170021408317,-60.162788813256,0,0,0,0,0
-105.105318204918,65.6260704951469,19.5017247711911,59.5778650110897,106.499213770098,65.7985058671842,-14.0828239303288,-60.4682241962493,0,0,0,0,0
-105.257911048042,67.024786001215,19.7174861154291,59.951371146631,107.045689714391,65.9470413747466,-11.9518534612514,-60.8425105962751,0,0,0,0,0
-105.49911840814,68.3429765574688,19.9491548946206,60.305019925039,107.127205489235,67.3317080726658,-12.1103345878248,-61.1492999157028,0,0,0,0,0
-105.975742256719,69.6911546859823,20.2510588483137,60.6835881322326,107.314694804393,68.8398413073455,-12.3134484923434,-61.4818305855497,0,0,0,0,0
-106.865815683709,69.8963902111894,18.165197680324,61.059199875432,107.520376666575,70.2467996863832,-12.5060608580873,-61.7839844241366,0,0,0,0,0
-107.450267291096,71.5415648313543,18.4915373257851,61.486507824242,108.310347677487,70.490498713057,-10.4415476274138,-62.1489282882696,0,0,0,0,0
-107.394496211494,73.1269870231249,18.6106041933828,61.8157014408812,108.359851450717,72.0712749387652,-10.5789432620257,-62.4354105328097,0,0,0,0,0
-107.421113359643,73.5990323846446,16.2944375939386,62.1040196802369,107.915495561287,73.6669822117288,-10.5873700173173,-62.6526833292554,0,0,0,0,0
-107.720081582264,75.2863432639802,16.5145641677799,62.4542408871163,108.404195232985,73.9391978945254,-8.42183242182611,-62.9443044716957,0,0,0,0,0
-107.982378521767,76.9047576926323,16.7064136041745,62.7717626752268,108.821575975553,75.4220281378594,-8.63581848275643,-63.2076352023625,0,0,0,0,0
-108.504206618675,78.322113544725,16.9205460703756,63.0702057717524,109.381807813179,76.7375694838468,-8.85131872670533,-63.4515337179294,0,0,0,0,0
-108.662643282232,79.4978648541278,17.0328007538361,63.2774436210818,109.320161500303,77.9932205654658,-8.92016127811141,-63.6076831794894,0,0,0,0,0
-108.839890454139,80.5495940516976,17.1339711705884,63.4596574522934,109.332684854156,78.9365274995116,-8.98424882600332,-63.7251138596859,0,0,0,0,0
-109.057983727334,81.3147665007344,17.2172115866964,63.5977864833272,109.769012608738,78.4328807535151,-6.73118204357223,-63.8525440339091,0,0,0,0,0
-109.653174895867,80.7099724344767,14.9395132184237,63.6838729036131,109.839031094615,79.0880595840015,-6.78246110224757,-63.9322509930263,0,0,0,0,0
-109.818698100438,81.0884437209285,14.9859860775312,63.7538612278604,109.918551787145,79.4379557273029,-6.81650791494118,-63.9784384693089,0,0,0,0,0
-109.949040129884,81.3562448236663,15.0197394245038,63.8041681410847,110.119482436911,79.7016836725979,-6.86528027933608,-64.0283562869739,0,0,0,0,0
-109.98526229375,81.4223330748886,15.0284942934435,63.8169301379895,110.085928314859,79.6991676126249,-6.85955071715731,-64.0243928032771,0,0,0,0,0
-110.022836942969,81.443334958825,15.0351519880866,63.8237350970028,110.049754730661,79.6613060239672,-6.85142142336596,-64.0164477793032,0,0,0,0,0
-109.959466635438,81.2121475574291,15.0139319271713,63.7857317583527,109.968696452597,79.4842139403033,-6.82777067664813,-63.9888954421235,0,0,0,0,0
-109.783511201657,80.9947498508384,14.9755875679483,63.7372512381936,109.797691195274,79.2516384416211,-6.78483430456043,-63.9451550252435,0,0,0,0,0
-109.579893367444,80.754841511225,14.9304856184269,63.6821620669253,109.565753856063,78.9945111463449,-6.72836972533054,-63.8913731892287,0,0,0,0,0
-109.210919714731,80.5701095998915,14.860901493643,63.6158608169984,109.114413591431,78.6828257835164,-6.62661023823577,-63.8054869810817,0,0,0,0,0
-108.935804886289,80.281403753345,14.797673273477,63.5444256253845,108.80992486499,78.3226106644215,-6.54458734286681,-63.7298860292069,0,0,0,0,0
-108.376188934722,80.1071520749786,14.6933867769939,63.4551707954912,108.241192667272,78.0008693116051,-6.41187275757602,-63.6252492922088,0,0,0,0,0
-107.871020395482,78.643608002975,12.1631393804422,63.3140613220623,107.630700087381,76.4591767294783,-3.86335252086926,-63.5312336562249,0,0,0,0,0
-107.260843921187,78.4323991099617,12.0307271562579,63.2086835659065,106.958963710546,76.2074920853003,-3.695675614343,-63.4176520614377,0,0,0,0,0
-106.805307918154,78.2123134469314,11.9233991999857,63.1194410053751,106.369289049969,75.9170484611952,-3.53707158751214,-63.3076071616111,0,0,0,0,0
-106.639737617713,76.7289354461287,9.42270220932315,63.0389089924771,105.948166632937,74.4465459909346,-0.994774736573561,-63.2690138892446,0,0,0,0,0
-106.274286130539,76.6767530876361,9.34018889166254,62.9832800276221,105.59696904296,74.3871173576025,-0.903891926161037,-63.2148579163812,0,0,0,0,0
-105.845325157983,76.6864116510461,9.25125173300791,62.9263567314132,105.059455377614,74.3189467944437,-0.766764882895103,-63.1327393894059,0,0,0,0,0
-105.294993827817,76.7768434127922,9.14762008321137,62.8617657946897,104.51693229493,74.3083032324789,-0.635550001817705,-63.0539255814015,0,0,0,0,0
-105.079925183102,75.6152984206679,6.65086178022131,62.8396162805317,104.150565254002,73.0962773244892,1.89108557022959,-63.0748001422677,0,0,0,0,0
-104.609233191834,75.7702494036433,6.56711755693556,62.7913400739801,103.799579242955,73.2041668578447,1.96493766512728,-63.0341081574663,0,0,0,0,0
-104.265691183193,75.9850943239107,6.52210662641858,62.7675912596648,103.620900554545,73.4440671188852,1.97451388489912,-63.0308009866578,0,0,0,0,0
-103.99587813531,76.1762852316426,6.49174662494221,62.7507611434126,103.334307617943,73.7165051068227,2.00428211201279,-63.0134680154571,0,0,0,0,0
-103.824181107752,76.2542401133245,6.46679045480025,62.7342158478528,103.153149660329,73.8648459526148,2.0255488974274,-62.9996188435392,0,0,0,0,0
-103.737730206162,75.1375447943489,3.99069229003831,62.7553795421822,102.956409118169,72.7737317201971,4.50338011813966,-63.0769245327984,0,0,0,0,0
-103.397997827989,75.3512143442609,3.94657036061693,62.7278804640637,102.662083251597,73.0943754328755,4.52763527664746,-63.0592348441273,0,0,0,0,0
-103.220663147798,75.5668514277604,3.94094283854994,62.7248406697781,102.539664357708,73.3594699223557,4.51533033170861,-63.0622663054797,0,0,0,0,0
-103.214068622545,75.8043099971158,3.97709275990368,62.7506023277976,102.630578517138,73.5826058582239,4.45648551093709,-63.0946051526098,0,0,0,0,0
-103.348233799205,76.0452939154239,4.04395650369511,62.7985727064679,102.682483065715,73.8712339108056,4.39704930729397,-63.1258442791243,0,0,0,0,0
-103.488932170796,76.2081083709907,4.09919446502764,62.8385995311361,102.732380986349,72.7861293668637,6.80902049656757,-63.2573268906592,0,0,0,0,0
-103.615421463863,76.3921220939545,4.15397805692942,62.8785242711317,102.795333978248,72.916719025931,6.7724044366324,-63.2764639655301,0,0,0,0,0
-103.744259962408,76.5765939214091,4.20868367338932,62.9186249037933,102.912946012188,73.0694265527133,6.7187298546167,-63.3053665080377,0,0,0,0,0
-103.841181767071,76.7529295773024,4.25500219571541,62.9526877074035,102.965847399076,73.1752177136897,6.68898721454323,-63.3209981169398,0,0,0,0,0
-103.87581128186,76.7654303489743,4.26394058114585,62.9593713076205,102.994214561117,73.2622489520441,6.66843839446233,-63.3315335473226,0,0,0,0,0
-103.865365842426,76.8260722948569,4.27083604828397,62.9642913986776,103.090057504805,73.3276209747644,6.63450873429892,-63.3506273032694,0,0,0,0,0
-103.856884129381,76.8012529498938,4.26545011864189,62.9603133078886,103.171544240233,73.4252351528034,6.59939485284835,-63.3698086960293,0,0,0,0,0
-103.728848822277,76.8026661925653,4.23969826425153,62.9406650790344,103.120636826813,73.4224630303474,6.61235444234472,-63.3619772645727,0,0,0,0,0
-103.795458243751,76.7748695270992,4.24904790676698,62.9479896519605,103.262795843497,73.3721233507722,6.58482609710237,-63.3796418961915,0,0,0,0,0
-103.727136113858,76.7044865063614,4.22455624868314,62.9298250297953,103.366242277057,73.39217338265,6.55621567014958,-63.3964579753264,0,0,0,0,0
-103.560972450104,76.6478758666065,4.18196115652447,62.8978629480502,103.384835072552,73.338108735098,6.5596316037828,-63.3953197558817,0,0,0,0,0
-103.344064756075,76.6780976787637,4.14227888460482,62.8670775635946,103.287584478508,73.4230021143607,6.57106954343018,-63.3869778979637,0,0,0,0,0
-103.21312601334,76.7435856453308,4.12597936397202,62.8533727352597,103.310899095156,73.6265576229273,6.53473077184862,-63.4048800970555,0,0,0,0,0
-102.914097613697,76.8395910100056,4.08099336467353,62.8157511345458,103.168966232724,73.7595259988647,6.54911192184457,-63.3928925157915,0,0,0,0,0
-102.704795180891,76.946850667823,4.05680302390576,62.7931586845626,103.233945583378,73.9051302726485,6.5112710898359,-63.4126942395646,0,0,0,0,0
-102.423864893243,77.061427526032,4.02036668028086,62.7590738786187,103.283757828318,74.001081258089,6.48483506589045,-63.4267341911356,0,0,0,0,0
-102.512140363981,77.144218574619,4.05188760186161,62.7822226373945,103.495613408448,74.1635811870353,6.41020549522625,-63.4694508410473,0,0,0,0,0
-102.466430544345,77.3248208346683,4.07366448981438,62.7933240744121,103.625954430251,74.3411579945532,6.35342452875187,-63.5007732173014,0,0,0,0,0
-102.490689218808,77.3414280454555,4.08121726663552,62.7990321447284,103.941601360973,74.3976820521847,6.27162151592114,-63.551087121652,0,0,0,0,0
-102.005583768308,77.5518232932193,4.02484017739127,62.7394465877966,103.563814711044,74.6944092770834,6.31586774381154,-63.51473660406,0,0,0,0,0
-101.459878640324,77.7359855781995,3.95566882891026,62.6645349724962,102.882875175838,74.8303013832773,6.76872264005661,-63.4466424626318,0,0,0,0,0
-101.042371095483,77.925068615233,3.91417746339488,62.6101441586292,102.367684159829,75.2571615396119,6.813436938731,-63.3910323766717,0,0,0,0,0
-100.477871621504,77.7550682154225,2.94364422913137,62.5453463403572,101.533653090115,75.7330477747773,6.88942855470032,-63.2800791845107,0,0,0,0,0
-99.8472414836622,78.0356226016322,2.92819538879317,62.4531727880622,100.609660313903,76.2340381685494,6.96932362357609,-63.1473530966618,0,0,0,0,0
-99.3093104998213,78.1398565829481,2.90888637723606,62.3584430334687,99.6224474253643,75.5073423167549,9.58381420604201,-63.1280759910344,0,0,0,0,0
-99.3774554764047,78.37603381278,2.92637835211562,62.3951727223258,99.2272191473852,76.0621307642722,9.60217523415713,-63.0819388638035,0,0,0,0,0
-99.0614654360937,78.3534705723193,2.91062405563301,62.3303774666027,98.5945644031166,76.4638858424663,9.65630241417983,-62.9802396721747,0,0,0,0,0
-98.709285047877,78.1399446626958,2.88092635500203,62.2387270232966,98.0157039749011,76.808341859693,9.70482695925992,-62.8824706002126,0,0,0,0,0
-98.3878010645485,77.8736743534809,2.8485100147077,62.1468479729604,97.4792783210603,77.1008373643066,9.74965367486001,-62.7877504042361,0,0,0,0,0
-98.1939013644877,77.61365398719,2.82201796619361,62.0806677409927,97.1743392639065,77.222642485994,9.77759678462289,-62.730986351334,0,0,0,0,0
-98.0708579869619,77.3040346277467,2.79536717197379,62.0232043876679,97.3056965243239,77.2756373068735,9.75803555721808,-62.7594890847256,0,0,0,0,0
-97.7728143415573,77.0021465299215,2.75985437611232,61.9295081713409,97.1736263364483,77.2370768486309,9.77661807713855,-62.7313796679068,0,0,0,0,0
-97.4594579574297,76.6962427244868,2.72248132171637,61.8309415653308,96.9912722353241,77.3417099139067,9.7908030495486,-62.6982016160082,0,0,0,0,0
-97.4328523955758,77.759808567109,5.30226507308097,61.7836969085269,97.3256395846873,77.3384426146747,9.75113271775845,-62.7658241368626,0,0,0,0,0
-97.2642644048281,77.545122713061,5.28159393833158,61.7231719933116,97.2740192327235,77.4021707039024,9.75269460004347,-62.7577394178898,0,0,0,0,0
-97.3434243511639,77.325660066743,5.26893887041257,61.7141585551773,97.4035073497641,77.4781961333924,9.73186055279501,-62.7865571060563,0,0,0,0,0
-97.3991075030062,77.2092569151672,5.26282441827277,61.7121160812865,97.6069848875553,77.5300334378753,9.70410955037895,-62.8291612758482,0,0,0,0,0
-97.5409717681036,77.0939691745365,5.2600925689149,61.7282089719382,97.8906364624303,77.554359878948,9.66896041189071,-62.8863626645479,0,0,0,0,0
-97.7558198315642,77.0486870930972,5.2650445013893,61.7677167777856,98.286083557053,77.5488196993782,9.62280090872847,-62.9637628301363,0,0,0,0,0
-97.8477315415302,77.1026033699756,5.27203087958955,61.7933084045405,98.6708721877328,77.474389541952,9.58237500333016,-63.0354958595172,0,0,0,0,0
-97.9791347456598,77.1583543172693,5.28060137076028,61.827212327521,99.0218250314112,77.4097369848581,9.54510143842631,-63.1000644016322,0,0,0,0,0
-98.1217612715716,77.1931770489654,5.28821689189041,61.8607917350494,99.4761564579775,77.4793554366339,9.4874044417133,-63.1880661800085,0,0,0,0,0
-98.1955814379835,77.3283176543815,5.29967668119443,61.892007248015,99.8671134283448,77.52043299501,9.43916477069448,-63.2619279758026,0,0,0,0,0
-98.2683736669136,77.3641236422344,5.30468580985669,61.9111615872647,100.145867327719,77.6223130042101,9.40082338411156,-63.316620851954,0,0,0,0,0
-98.3059787342016,77.4355826304477,5.31062328891906,61.9272736668754,100.407813077674,77.6280347098219,9.3700648630244,-63.3641908797352,0,0,0,0,0
-98.3517303384233,76.2186361432948,2.74046932746029,61.9628425933604,100.567600175265,77.6350258884297,9.35112376220644,-63.3930982609288,0,0,0,0,0
-98.4765754954134,76.2212902577272,2.74774200901342,61.9885343334533,100.852156100408,77.5589329862604,9.32213611320151,-63.4408254564561,0,0,0,0,0
-98.5621331720165,76.2464137249086,2.75415370254447,62.0086957332531,100.944934948254,77.5214654414211,9.31329444048538,-63.4557668445461,0,0,0,0,0
-98.3667985560174,76.3276912477116,2.74812547435255,61.9781328443106,100.77894888948,76.2216817741639,11.8430212244567,-63.5684484141818,0,0,0,0,0
-98.3771053215183,76.4873689780515,2.75869897326149,61.997976869845,100.9778479281,76.1694068468782,11.8185953101856,-63.6008408480121,0,0,0,0,0
-98.4013546097019,76.6760612748262,2.77193880172558,62.0236565449395,101.052411225385,76.0773634251835,11.8129413919626,-63.6103739624033,0,0,0,0,0
-98.7847812199544,75.5565749941453,0.236909839725627,62.1637374855221,101.303909574922,76.0394216713498,11.7804257622173,-63.6516891265377,0,0,0,0,0
-99.1423545890773,75.7216873251384,0.273285783763924,62.2517134666475,101.692908435043,77.3681431209073,9.23373637808319,-63.5794157852889,0,0,0,0,0
-99.4301860542393,75.9101262321023,0.305286285523266,62.3274032274233,101.845836601697,77.3671251242889,9.21589665127212,-63.6053685057183,0,0,0,0,0
-99.7823001179567,76.1465734180415,0.344122938786597,62.4194946662306,102.050002099988,77.337164679003,9.19341742357591,-63.638615594737,0,0,0,0,0
-100.039498719204,76.285124950316,0.370202927751961,62.4826091367027,102.024953398938,77.2871678919258,9.19861005207736,-63.6323989963937,0,0,0,0,0
-100.119704840318,76.4013716813627,0.382160939915167,62.5093653910186,101.82522680076,77.2586729408337,9.22334803417445,-63.5975356634733,0,0,0,0,0
-100.239257863471,76.4336139838383,0.392392786566944,62.5352381204738,101.823498523876,77.1684303423811,9.2277391580005,-63.5935697485272,0,0,0,0,0
-100.568562044787,76.3326568115206,0.410704740425814,62.5873147890612,102.116543917021,76.9920503619657,9.20107237498854,-63.6355449397585,0,0,0,0,0
-100.751476860875,76.1790629939966,0.416256770728097,62.6061485138092,102.27371427533,76.7801667213309,9.19159142206786,-63.652570416826,0,0,0,0,0
-100.905552231958,76.4456505103652,1.32416414939013,62.5974900860963,102.383258265092,76.6304977338898,9.18481882185924,-63.664030929082,0,0,0,0,0
-101.127666399624,76.1927325657886,1.32175072308672,62.6125484301244,102.598613538791,76.4198300069621,9.16743012382685,-63.6897193550037,0,0,0,0,0
-101.383162823856,75.8943420816325,1.3196841670987,62.6280591783678,102.748482170054,76.2277999257523,9.15679157811556,-63.704997508943,0,0,0,0,0
-101.593353145847,76.9549899483931,3.83719075318797,62.6084735600434,102.930576410379,76.0090073723267,9.14280248038989,-63.7236688902947,0,0,0,0,0
-101.905787902,76.6896395474516,3.85185549266126,62.6337950025142,103.33119473532,77.1528946427173,6.63342172042991,-63.6659005127555,0,0,0,0,0
-102.205441550638,76.5069526031512,3.88082304758882,62.6644956167,103.631872805516,76.9848341223482,6.60769721665642,-63.7047906025389,0,0,0,0,0
-102.475521564711,76.3552868273953,3.91060768862374,62.6927082102379,103.87885785526,76.7826940599424,6.58829198427733,-63.7323624704042,0,0,0,0,0
-102.883689309277,76.2982327671945,3.9862753806554,62.7526852139778,104.104432557483,76.6455466465189,6.56848188278343,-63.7596648135442,0,0,0,0,0
-103.292989997294,77.5684471697713,6.56132879793515,62.8075715835213,104.45867302747,76.3675104167991,6.53848132158981,-63.7976447018394,0,0,0,0,0
-103.632946204213,77.5547317071805,6.62444869089364,62.8595405776701,104.628651213632,77.4509193332684,4.08159537564595,-63.7202664845258,0,0,0,0,0
-104.230261522748,77.5293164419873,6.73574861954603,62.9485913549535,105.03720497573,77.4915082506294,3.36226118691056,-63.7393476892309,0,0,0,0,0
-104.580508345041,77.5288309198726,6.8034130766226,63.0012365305775,105.141207963065,77.1582948638368,3.38516556792698,-63.7330614273873,0,0,0,0,0
-104.98027375756,77.626766198086,6.89385743082838,63.0717273888644,105.350497338026,76.8042263158099,3.38864875980283,-63.7395263889908,0,0,0,0,0
-104.922368192673,79.0830520410885,9.37560019057892,63.1015759611391,105.394030280696,77.73470384476,0.997743456537222,-63.6565451894164,0,0,0,0,0
-105.031041642487,79.2377750615968,9.41454359047597,63.1361221958669,105.49475603161,77.285383513958,1.03449792858845,-63.6370353614631,0,0,0,0,0
-104.884269617676,79.367036714435,9.40690005266512,63.1299392210294,105.481711701991,77.0516777281541,1.06595699512224,-63.6170373984331,0,0,0,0,0
-104.998121210866,79.3987824035883,9.43012614204307,63.1504905500149,105.577686141229,76.6322589115321,1.09825031831053,-63.5972437346855,0,0,0,0,0
-104.530367473627,79.4566750444552,9.3602457971113,63.0877584971594,105.157262750012,76.195092622776,1.23987227773424,-63.5016991171643,0,0,0,0,0
-104.437117698593,78.2072837783112,6.87101620058016,63.0575383419614,104.82104901802,77.2531699163737,-1.10207957940446,-63.3825345620678,0,0,0,0,0
-103.741131816718,78.2616426554706,6.75202539394022,62.9566413039538,104.228824518754,75.5801175889902,1.52161889523185,-63.3144594111262,0,0,0,0,0
-103.046371866241,78.0207213808573,6.58725474132345,62.8194004865281,103.577222306483,75.0014979362147,1.7512310250128,-63.1665082631532,0,0,0,0,0
-102.675617733691,77.8787659718865,6.49522857916389,62.7432408857059,103.31654928559,75.8290551567898,-0.586252078418596,-63.0236961955646,0,0,0,0,0
-101.962428379252,77.4855049825555,6.29281345102086,62.5803666673868,102.728808131088,75.1417748360552,-0.346613804601958,-62.8652593640649,0,0,0,0,0
-101.705406383273,77.0361704563868,6.16207861125218,62.4854513779556,102.510734323744,74.351638906715,-0.165062741559098,-62.7524714525696,0,0,0,0,0
-101.508456105618,76.6586474785813,6.05352787669798,62.4079931587532,102.246897674634,73.5519630367794,0.0341000807330829,-62.6282242043971,0,0,0,0,0
-100.879469320533,76.167038949639,5.830616582174,62.2414055163245,101.732044430869,72.7064288201779,0.312378139691788,-62.4553844938887,0,0,0,0,0
-100.395284191479,75.7532566862756,5.6459170249812,62.1067466261806,101.333669093725,71.9264996256357,0.558997914619596,-62.3049611780071,0,0,0,0,0
-99.8425951188231,75.4621633326707,5.46590401206035,61.9726614818534,100.915756172922,71.4104407394858,0.769946129853992,-62.1784005254742,0,0,0,0,0
-99.2602977863583,75.0762120206809,5.25411408363422,61.8194800162978,100.440719234445,70.7168307202722,1.03786110095771,-62.0201404259424,0,0,0,0,0
-98.9491217651782,74.6924825953648,5.09896163781244,61.7148369170058,100.140352950188,70.1402514313081,1.23937847933195,-61.9024623937279,0,0,0,0,0
-98.8632777771133,74.3376099246591,5.00008239393404,61.6548528127235,99.99864069058,69.6013023214337,1.38953370095186,-61.8143263653487,0,0,0,0,0
-98.6809442700947,73.7817214501015,4.83183996589514,61.5508413418604,99.7418527962856,69.0259512182857,1.58501985123141,-61.7012207084531,0,0,0,0,0
-98.5485906800958,73.1592458387789,4.65832466008061,61.4460862953831,99.3854238409269,69.8440351418937,-0.741362847357919,-61.4944929626387,0,0,0,0,0
-99.0207300596027,72.690760138324,4.67527854274243,61.4710755734226,99.5991847240754,69.5401138028291,-0.74301678454384,-61.4911670882254,0,0,0,0,0
-99.0631766268604,71.9521962934132,4.52509378127814,61.3787484163912,99.6509893065976,69.1294367785163,-0.674257220526016,-61.4450864279372,0,0,0,0,0
-99.2900346409762,71.3174011865023,4.45064378969727,61.3308339946852,99.7908795295675,68.6812099922509,-0.626767971065334,-61.4075320214227,0,0,0,0,0
-99.5565055683655,71.9622429570837,6.96051572980764,61.2592261444659,100.063085352853,68.1709148809074,-0.612173909809741,-61.3813987983785,0,0,0,0,0
-99.8245922797721,71.2160152572534,6.8797293903875,61.1916811507747,100.173064085942,67.6531389699899,-0.546206769337971,-61.3254799453496,0,0,0,0,0
-99.9731802405389,70.553504487388,6.78708144674008,61.1130057108502,100.231270501164,67.2185820634279,-0.480742706377043,-61.2716913942356,0,0,0,0,0
-99.5873737674523,69.82306389178,6.5213220124682,60.9300712570058,99.9591454579899,66.7271878191975,-0.29013982473441,-61.1557478387688,0,0,0,0,0
-99.7276235412079,69.3017009150442,6.4565419446287,60.8686787561991,100.170322994743,66.2073169658268,-0.262188366189719,-61.111194120179,0,0,0,0,0
-100.05691858864,68.8995601201036,6.47860625298574,60.8567767643876,100.391966018062,65.8180083236682,-0.266546756946127,-61.0860756420036,0,0,0,0,0
-100.520990278492,68.5925491598206,6.56702843663678,60.8806585373059,100.712537182277,66.6592372084904,-2.8176607081945,-60.98432836238,0,0,0,0,0
-100.841006392487,68.2374385176427,6.60363864610844,60.8707565827245,101.001036203973,66.1976735838412,-2.83404694539661,-60.9526086748809,0,0,0,0,0
-101.3329735492,68.0220185580151,6.7266886663775,60.9100483364264,101.270046397119,65.7034546331427,-2.8416578810436,-60.9099647009661,0,0,0,0,0
-101.893367267907,67.8987201907473,6.89217711894685,60.9734991631971,101.556434999608,65.2801494241906,-2.87238926277433,-60.8795240306469,0,0,0,0,0
-102.765181829183,67.7501715217775,7.16149089860124,61.0747391463511,102.283229143693,65.0274737242793,-3.10166015558318,-60.9390157984551,0,0,0,0,0
-103.017675999183,67.692776174555,7.2381721016491,61.1002950283762,102.281058968212,64.6508518258144,-3.03928657169399,-60.871843334857,0,0,0,0,0
-103.473753911432,67.6661837153464,7.3895256014834,61.1591755855342,102.528712718428,64.3373636568918,-3.08395467587187,-60.8494743903474,0,0,0,0,0
-104.034764645237,67.7769833133506,7.59680784885538,61.2558569968689,103.075423030988,64.2615126696948,-3.28425836191371,-60.9089405841621,0,0,0,0,0
-104.41110147272,67.7948112606619,7.72756103992825,61.3091552923761,103.376303845767,64.200490831909,-3.39236631578413,-60.9371154176461,0,0,0,0,0
-104.635010100967,67.7952018024837,7.80401602054567,61.3385054623246,103.683549505155,64.0871324801888,-3.49620564707592,-60.9556236751881,0,0,0,0,0
-104.886103955316,67.8373233365231,7.89518079963258,61.3787099971505,103.931274587029,64.0001464502805,-3.5814160164343,-60.9706918792585,0,0,0,0,0
-105.031472995877,67.7905997551752,7.93895313337708,61.388595814217,104.026911610888,63.8595090938465,-3.59984050284882,-60.9562334239027,0,0,0,0,0
-105.239822826403,67.6982479931245,7.99898370434434,61.3976787105044,104.185010443824,63.7009296528212,-3.64118571996241,-60.9457966693872,0,0,0,0,0
-105.456424108318,67.5055598169643,8.05054600084441,61.3884458599787,104.221107946712,64.8011753088304,-6.09960775579708,-60.8565463199852,0,0,0,0,0
-105.536335435483,67.2431455828719,8.04737990758872,61.3485674437062,104.294954897107,64.5893923305512,-6.09964138582535,-60.8242942762942,0,0,0,0,0
-105.501386736806,68.3218893409592,10.4842333679045,61.2914885327678,104.394825950706,64.5369053867407,-6.13139333791398,-60.8263483631434,0,0,0,0,0
-105.742944307257,68.2096696636124,10.5528152060619,61.2991162364961,104.525063175553,64.3830253883635,-6.16196079992227,-60.8119207178153,0,0,0,0,0
-105.899404095808,68.0126640409966,10.5837540498829,61.2790982396887,104.598876068861,64.4165558467523,-6.19513970565214,-60.8275831261835,0,0,0,0,0
-105.990392933271,67.878264423305,10.5999931678643,61.2632524912623,104.628146888078,64.5047642398984,-6.21794385545869,-60.8486324673782,0,0,0,0,0
-106.020675225348,67.8074765662726,10.6026045395307,61.2527222481154,104.648731951393,64.6518740934134,-6.2448957576498,-60.8802094011188,0,0,0,0,0
-105.976859851094,67.6832175302079,10.573694462388,61.2226315493317,104.616480523255,64.7141231937873,-6.24046909212248,-60.8885238560414,0,0,0,0,0
-106.00759672231,67.5981667763277,10.574979428513,61.2091972289889,104.655892131947,64.8142645971309,-6.26859497671487,-60.9130280102266,0,0,0,0,0
-106.109801768795,67.5872262012067,10.6094257961885,61.2190633231381,104.726843061016,64.9512521391773,-6.31342999214451,-60.9485553305079,0,0,0,0,0
-106.151627782263,67.653848434929,10.6312216729413,61.2373924847611,104.737208258564,65.1834283092003,-6.34708876537189,-60.9950938761958,0,0,0,0,0
-106.228113917348,67.8145257314809,10.6750533875785,61.2786281605061,104.741752347916,65.3743532556812,-6.37327155429517,-61.0326440904574,0,0,0,0,0
-106.302883705104,67.9298428881283,10.71316152947,61.3104615924875,104.785517555925,65.5298979428525,-6.40961186831404,-61.0680337967976,0,0,0,0,0
-106.43987560284,68.0882304657452,10.776813695016,61.358047281719,104.901786071994,65.6168849226646,-6.46413836169262,-61.0990818258338,0,0,0,0,0
-106.60774247198,68.205469502193,10.8462449066912,61.4008253961725,104.923165219658,65.7038897697937,-6.48306366966418,-61.1184114079887,0,0,0,0,0
-106.652741574694,68.3239027458171,10.8735525775144,61.4295299902875,104.96626999117,65.7571569910343,-6.50579352522024,-61.1339140079301,0,0,0,0,0
-106.590218486011,68.3834792849909,10.8584433724164,61.4341009101581,104.873514450403,65.8217016868604,-6.47949783533076,-61.1348314872035,0,0,0,0,0
-106.542071670118,68.5228856964055,10.856468310077,61.4560134763555,104.78813098566,65.8748406265739,-6.45467341292152,-61.1343770376514,0,0,0,0,0
-106.465544584822,68.7327651682277,10.8526221231673,61.4882201545496,104.792019129647,65.9413807522086,-6.46462885356931,-61.1475159174412,0,0,0,0,0
-106.269665473956,68.8590315493957,10.8010212936005,61.48963093842,104.759892387844,65.9865793235751,-6.45858975550098,-61.1520915188239,0,0,0,0,0
-106.04370985504,69.0734922910809,10.750194225176,61.5039130592796,104.707882853088,66.125353548605,-6.45739766126877,-61.1718346668076,0,0,0,0,0
-106.01234066188,69.2986853199199,10.7650078794632,61.543290220654,104.596669853368,66.3624266701791,-6.44780546613288,-61.202334891425,0,0,0,0,0
-106.078525658236,68.4850237544475,8.37504876778471,61.6468756148751,104.354312580854,66.7529222300187,-6.41287881543153,-61.2437079517679,0,0,0,0,0
-105.884364517335,68.7981226689788,8.34577111387421,61.6804729634416,104.161985033207,67.1344904457098,-6.39719165055882,-61.2883001523638,0,0,0,0,0
-105.775087783006,69.3523340284967,8.37387088236773,61.76670649286,103.932101004961,67.7640416878856,-6.40622328277971,-61.3705162175399,0,0,0,0,0
-105.511500883048,69.8191536775259,8.34546137989327,61.8158121998508,103.650380892488,68.2233472368491,-6.37787998830785,-61.4126523847057,0,0,0,0,0
-105.311090299094,70.3635707061615,8.34989276946476,61.8841849840743,103.546670685506,68.9193658552259,-6.44687102069503,-61.5178267444732,0,0,0,0,0
-105.036300822889,70.9680091039801,8.34352576317241,61.9502090227964,103.392450869359,69.6487633095242,-6.50771992384253,-61.6181305989172,0,0,0,0,0
-104.768652308002,71.588188400422,8.34662286203741,62.0164435462892,103.310015786417,70.3565002129048,-6.59056773223585,-61.721749745849,0,0,0,0,0
-104.620219875937,72.0521151012095,8.36680266143745,62.0709868926548,103.308539454783,70.9782782927362,-6.68573777571618,-61.8206607742169,0,0,0,0,0
-104.53890348553,72.527379361137,8.40887619526859,62.1351105591256,103.322383705878,71.4623900438713,-6.76427730634197,-61.8983875938786,0,0,0,0,0
-104.441994178668,72.8692967230925,8.42979188812041,62.174878330212,103.288020035965,71.8586419552189,-6.81584655506487,-61.9542501017846,0,0,0,0,0
-104.411298711587,73.0320719778913,8.44417024157713,62.195710086042,103.386441591655,72.098669360513,-6.88002442291301,-62.0054144065115,0,0,0,0,0
-104.269409257161,73.1348631672238,8.42139989166014,62.1912278450845,103.326370976504,72.3262959943479,-6.89871210752619,-62.0307954336581,0,0,0,0,0
-104.204240831765,73.3490592394046,8.43471702688441,62.2145657607923,103.451502900962,72.424340195742,-6.94762601125299,-62.0641739431669,0,0,0,0,0
-104.083413854534,73.456652753247,8.41909086004165,62.2133590083569,103.566411834702,72.5813224941168,-7.00231977148511,-62.1047212327613,0,0,0,0,0
-104.091876616114,73.6700168415266,8.45183321982501,62.24675098014,103.849317834258,72.7994883182589,-7.11007675577497,-62.1789172525251,0,0,0,0,0
-103.9738582322,73.8036398628501,8.44148997635992,62.2494581869395,104.061976154215,73.0207378733469,-7.19819419265349,-62.2427386405396,0,0,0,0,0
-103.972350580073,74.0219447340858,8.47284890282626,62.2816644925488,104.396303675763,73.3059999971053,-7.32536022307804,-62.3330208708357,0,0,0,0,0
-104.214232745326,74.1534787097906,8.55126953075316,62.3365659656089,104.797212931313,73.5927308292751,-7.46696850653353,-62.4319754396334,0,0,0,0,0
-104.462534594198,74.2877319463177,8.63073938719535,62.3923669676571,105.161062858034,73.8386817752265,-7.59089345585718,-62.5186211941505,0,0,0,0,0
-104.702639282545,74.4574478635561,8.71209783630621,62.4517501489818,105.402244356882,74.1171194458715,-7.68601392216169,-62.5921087248781,0,0,0,0,0
-105.060440885809,74.5466610379696,8.81012436650903,62.5154392524281,105.821832774492,74.40752251925,-7.82410302967179,-62.6908049672573,0,0,0,0,0
-105.065589234804,76.0520288864802,11.3191532175581,62.5701718900796,106.222483990824,74.7765014649468,-7.96307999159947,-62.7966920353272,0,0,0,0,0
-105.342998475986,76.1972398286554,11.3980289145153,62.6307619604013,106.767337106936,75.1133120913656,-8.12820880745079,-62.9151934761238,0,0,0,0,0
-105.583313110704,76.3933658299364,11.4739267333861,62.6932588178693,107.177521505867,75.5528351817172,-8.26740142652966,-63.028617987474,0,0,0,0,0
-106.240993663813,76.5568973384054,11.6335998548363,62.8063865447042,107.771017439138,76.0582699202671,-8.44810706762254,-63.1716819912158,0,0,0,0,0
-106.599668999254,76.7947349785699,11.7352640892998,62.8887948089417,107.843353898907,76.6094447155738,-8.5125525814712,-63.2545132581,0,0,0,0,0
-107.063278699408,77.0219438700468,11.8553372131142,62.9818919333886,108.099055909602,77.1860527543661,-8.61563998155168,-63.3612759364696,0,0,0,0,0
-107.421450313184,77.4298362000862,11.9677324502728,63.0865292898,108.234510405773,76.5360047516447,-6.28941522066455,-63.4529500084881,0,0,0,0,0
-107.272011870324,77.9893869999536,11.9906390620509,63.1479743504495,107.736279317967,77.1990020733647,-6.24304501509971,-63.4706449541936,0,0,0,0,0
-107.509960538828,77.4617216057682,9.67415861552124,63.2494634576783,107.413966641308,76.631702808111,-3.83390821196903,-63.5224880462634,0,0,0,0,0
-107.443616886547,77.0803405931401,7.3210646126619,63.3429111439127,106.920027756466,75.9795616875487,-1.38310486332784,-63.5555429219876,0,0,0,0,0
-107.083935087377,78.0357069239572,7.34321582266091,63.4112057501879,106.487116362448,75.3844019112388,1.04741537741637,-63.6149200147217,0,0,0,0,0
-106.8581044594,77.5980576204509,4.96188934062448,63.4769626897813,106.196840456537,75.9592065846146,1.04776847441306,-63.6266272864427,0,0,0,0,0
-106.895082152956,77.0931359306563,2.63187599791735,63.5812494892441,106.05690773258,75.1772087554961,3.43184380646261,-63.7183299422372,0,0,0,0,0
-107.197209425716,77.8322572244768,2.7654326910851,63.6921723527153,106.366010356783,75.645304700044,3.31191434857783,-63.7957541722117,0,0,0,0,0
-107.198704426666,78.511529702497,2.83302446960491,63.7549762465541,106.501240973344,76.0135806154933,3.24329828734415,-63.8413631283698,0,0,0,0,0
-107.546672383797,79.2154909540707,2.96159800896166,63.8626993099876,106.917558854935,76.4592337462169,3.11020941298904,-63.92858966955,0,0,0,0,0
-107.988085299267,79.8565480002649,3.09226819655439,63.9738561922766,107.378456977209,76.8338155929101,2.98023679737977,-64.0146234233896,0,0,0,0,0
-108.259421974329,80.5342693520524,3.19213974941252,64.0631968217307,107.743871521077,77.3521244469044,2.86114872449386,-64.0967130434561,0,0,0,0,0
-108.734501103838,81.1397631278249,3.30941365266858,64.1693786576388,108.372876684773,77.8388006630087,2.70120903718615,-64.2069171250365,0,0,0,0,0
-109.271920617579,81.6971197859796,3.42306017147024,64.2761092359908,108.84691456456,78.3983743679561,2.57261755097358,-64.2999323191949,0,0,0,0,0
-109.343245905473,82.1950780517443,3.46594532068556,64.3201526236239,108.95759723022,78.9415338619488,2.51451360796301,-64.3464682938462,0,0,0,0,0
-109.516305496944,82.6612553048798,3.51764922539519,64.3726539276702,109.212881786797,79.413644032432,2.43955344558634,-64.4042111182162,0,0,0,0,0
-109.743980603132,83.024275682171,3.56666160459395,64.4234439498771,109.589967371497,79.9077753148417,2.34786920031979,-64.4756268844721,0,0,0,0,0
-109.795075794116,81.9805438281981,1.22521036454484,64.4549400721212,109.606720395033,80.3825973966751,2.31608064949899,-64.5027612822791,0,0,0,0,0
-110.053001019106,83.507214762754,3.6286029370485,64.4900032923643,109.948751113567,80.7524095261181,2.24466327504342,-64.5605870832551,0,0,0,0,0
-110.069009724326,83.5835889312892,3.63460110760354,64.4965679647292,109.897165435401,81.0351834095311,2.23585621232695,-64.5684968752225,0,0,0,0,0
-110.108235461931,83.559181510971,3.63734182595277,64.4995702204131,109.738054631855,81.1916478982115,2.24842095898907,-64.5576377376129,0,0,0,0,0
-110.205159196394,83.4950636652933,3.64401230715401,64.5066795890023,109.654116179527,81.375210342227,2.24856563580144,-64.556362061528,0,0,0,0,0
-110.237778805513,83.4081667906494,3.64281350659431,64.5049584462762,109.519521495922,81.5105953887163,2.25781923927727,-64.5467221397071,0,0,0,0,0
-110.145581536444,83.3251161880397,3.62842041002804,64.4892118239511,109.423265337345,81.4765138321363,2.27253566190649,-64.5338815688424,0,0,0,0,0
-110.216245845439,83.1900609781698,3.628794471161,64.4886597116981,109.450870993451,81.4855641436353,2.26835778085152,-64.5375394073803,0,0,0,0,0
-110.120057103289,83.0796119227526,3.61210790194286,64.4705683146941,109.242528096149,81.493874995906,2.29500266958584,-64.5131975121607,0,0,0,0,0
-109.946761003899,82.9566911762734,3.58559363548306,64.4426384894574,109.075163537679,81.3222777267169,2.32882640538722,-64.4854646358129,0,0,0,0,0
-109.837243166005,82.7522093225939,3.56097997047416,64.4164309754886,109.008885309192,81.1965143165795,2.34658485445453,-64.4717526589451,0,0,0,0,0
-109.725300298556,82.5753969739855,3.53707722546565,64.3914946061599,108.951113681407,81.0466194747809,2.36515170817916,-64.4578322075325,0,0,0,0,0
-109.428890854148,81.0958086862903,1.12086768568949,64.3570260944134,108.444849826114,79.5496443767227,4.82368452194319,-64.4449872003622,0,0,0,0,0
-109.090450758952,81.0513823195977,1.07043576036807,64.3137346979492,108.127653414067,79.3739358009082,4.88818566756748,-64.3982034254013,0,0,0,0,0
-108.739508625881,80.9609000557699,1.01439702060807,64.2650667397356,107.811746583436,79.2114223263408,4.95297906102641,-64.3513838090983,0,0,0,0,0
-108.238323485511,80.9331948213845,0.941357190764336,64.2005575115746,107.348128897667,79.081874112338,5.04052670681651,-64.2862255114042,0,0,0,0,0
-107.771776473053,80.9371301787286,0.875887970407945,64.1407286289514,106.869185818673,79.7649419995149,3.83275420580827,-64.1851951463251,0,0,0,0,0
-107.25657166282,80.9312904956527,0.802865120754234,64.072101990476,106.192981206963,78.3466554351749,6.30668096970874,-64.1608366965381,0,0,0,0,0
-106.84195510377,80.9155669656014,0.743033308705549,64.0147327803511,105.668946310922,78.2967040508607,6.35916347884691,-64.0834096910346,0,0,0,0,0
-106.39924903035,80.9115288951952,0.680487763893098,63.9528688804264,105.067305787545,78.2864742182569,6.41854742956465,-63.9943012666693,0,0,0,0,0
-105.973168743572,79.5231567009993,-1.81509086378205,63.9270417690835,104.514764298698,78.182668961994,6.47632556805937,-63.9055925985737,0,0,0,0,0
-105.36457235251,79.6077658011595,-1.55513671915475,63.8247950889555,103.944702579253,78.0551080565798,6.53740039200156,-63.810708332474,0,0,0,0,0
-104.278832087569,79.4484918858012,-1.63342759668416,63.6454058202474,102.863685491948,77.8601905278517,6.65378383064274,-63.6265164651733,0,0,0,0,0
-102.980696317665,79.214561691694,-1.73122203582329,63.4165325122075,101.724038693392,77.6193260854194,6.78108189360847,-63.4213246214031,0,0,0,0,0
-100.704126412114,77.6564764824094,-4.43003910517425,63.0702196565643,100.422104360913,77.3735896832694,6.92908178426981,-63.1768754649431,0,0,0,0,0
-98.8214239159826,77.533585372557,-4.60804382304787,62.7047026501108,99.7136353451597,77.0988538304645,6.96517836864544,-63.2740144340884,0,0,0,0,0
-98.0017152124674,77.5176913926803,-4.09312211404995,65.1449752808018,100.05958174719,76.8728604356592,6.46460449285127,-65.4957998373445,0,0,0,0,0
-97.9596474027002,77.6245789597203,-3.07557985709681,70.2028609762797,100.25152235368,76.6689455058822,5.90250987500065,-68.1354435377972,0,0,0,0,0
-97.7731979779223,77.6770064798603,-2.24829237932224,74.9177962739745,100.248909199312,76.5343327612429,5.17503628414102,-71.8525647755839,0,0,0,0,0
-96.779350107762,78.0855800509831,-1.59964616341281,79.7238534981848,99.5167731981985,78.3213788223367,2.09437132940843,-76.140002217193,0,0,0,0,0
-96.0159628156399,78.225471834239,-1.18906616456533,82.9765356568415,98.9920640482993,78.3976189202734,1.58273603770215,-79.796637693512,0,0,0,0,0
-94.2462001054272,78.4921989572742,-0.955519356281684,85.6538026100963,97.241813588155,78.643645804871,1.24297633559584,-83.117104548652,0,0,0,0,0
-93.435974906778,78.4353395538308,-0.576419504033794,88.6158840087846,96.6692744530749,78.5100559778389,0.847193738720392,-85.9520605027595,0,0,0,0,0
-92.7131064990513,78.3698530876858,-0.244885292665003,91.2169673152988,96.3995434987144,78.4903919625251,0.533581663869313,-88.3988872391413,0,0,0,0,0
-92.0776624508767,80.0463673487488,2.23514073278994,93.0750552836353,95.8386347669451,80.2702289262651,-1.97919675398887,-90.9133353502583,0,0,0,0,0
-91.2819306927387,79.7110158948126,2.49923041779027,94.3553606021169,94.9398502573208,80.2081432939107,-2.20533093328203,-92.8873756672153,0,0,0,0,0
-91.2201924391312,81.0461147809605,5.11823118694437,96.5113018929705,94.8146004859826,79.886716497546,-2.65331092365778,-95.7460911705031,0,0,0,0,0
-91.1090610218769,80.5447439215455,5.49263191714277,97.9524317910409,94.6171727401173,79.6940311698659,-2.96986109219355,-97.8425451101446,0,0,0,0,0
-90.1649316240794,80.2921299092602,5.81432656913259,99.8913118326074,93.74886412819,79.635248861311,-3.19769031707622,-99.7935030731094,0,0,0,0,0
-90.6358905211085,79.9318859788753,6.21350703112708,101.819682975752,94.2576941753674,79.468638848068,-3.46086387741778,-101.314120448052,0,0,0,0,0
-90.9954659550389,79.5836259390142,6.67402966922251,104.194500260245,95.0531471432261,79.2224126676499,-3.83629740567793,-103.342315726818,0,0,0,0,0
-90.764689289912,79.4010576654009,7.06655381151148,106.703040803618,95.0484581322144,79.1077788241338,-4.16251855367139,-105.641568074275,0,0,0,0,0
-90.1949517570006,79.339820568046,7.34629411524324,108.853257426457,94.4859883823129,79.2962061438062,-4.31191359895732,-108.003717458266,0,0,0,0,0
-90.8128125997896,78.9103103237183,7.86455371637882,110.948403602168,95.2266238073568,79.2375017387293,-4.6232807898482,-110.287160825627,0,0,0,0,0
-90.8861136015477,78.5877437416646,8.16515799337773,111.777429754688,95.0832548054291,79.2293646545923,-4.77874610964238,-111.66331929268,0,0,0,0,0
-90.290390978231,78.2276266831457,8.42026689010504,112.154888955742,94.3334744471554,79.0632287559655,-4.88631501439551,-111.908959153912,0,0,0,0,0
-88.6115173553407,78.1200128873845,8.48938184648256,112.486574904832,92.9534265887448,79.0645583489421,-4.87152744298251,-112.130725450247,0,0,0,0,0
-87.3519603878751,80.1107859859026,10.4365389462206,113.368560179793,91.7727947969485,78.9086084073675,-5.00165708192699,-112.719544396353,0,0,0,0,0
-87.482512113514,79.7376344000094,10.850478301137,114.916581812214,91.7780579733824,78.4137971663192,-5.45017665065828,-113.917091179153,0,0,0,0,0
-88.0007298219463,79.7340937181114,11.0474123834588,116.480727959457,91.8315237295073,78.3693075807919,-5.63876793617683,-115.250103932478,0,0,0,0,0
-87.6744609982504,79.8176806218542,11.0868491135511,117.347092447245,91.2799746142844,78.1905079368339,-5.79867760835185,-115.752670417508,0,0,0,0,0
-87.5939480804194,79.5879017403242,11.4553299860695,119.210310219469,90.7688376654805,80.0284378666667,-7.93928597407347,-117.696779635125,0,0,0,0,0
-87.2814796976104,79.5007851648784,11.6971509402518,120.836541105039,90.0849528800643,79.8146173462397,-8.23855684547837,-119.279542368586,0,0,0,0,0
-86.9210519671468,79.461808711296,11.8990625354359,122.425909126517,89.571522884693,79.730003420085,-8.42785677405607,-120.598039957145,0,0,0,0,0
-86.2128383819651,79.647377346548,11.906287658229,123.838568399176,89.0710608275866,79.6442505209373,-8.60255626883611,-121.768660426981,0,0,0,0,0
-86.1001433684456,79.6434762661609,12.0242479994449,124.9038907693,89.0290923465494,79.5582872450742,-8.78992951932725,-122.923103934919,0,0,0,0,0
-86.5210996455552,79.6738906340178,12.1474011195112,126.094988304399,89.4533104479174,79.4584126983195,-8.98129783650137,-123.874484333228,0,0,0,0,0
-87.5147303050113,79.7386382890672,12.2564412967362,127.20521318828,90.5005608213267,79.5159609346811,-9.07497307700169,-124.777968825677,0,0,0,0,0
-87.6562462081046,79.70009471829,12.3381812131126,127.633046736903,90.6209737470124,79.5551104891036,-9.08597040996344,-125.098983206269,0,0,0,0,0
-88.1381258454546,79.5785156637647,12.4964466687524,128.053776326579,91.0369461297787,79.5120053736385,-9.16533697977633,-125.389288746969,0,0,0,0,0
-88.6578149417892,79.5543049342723,12.5929886481804,128.560795407981,91.6013842326598,79.4142845659604,-9.31243258004577,-125.856530337227,0,0,0,0,0
-88.8073664008159,79.5988724183491,12.5835996446132,128.729740849652,91.7927472999036,79.4088057903225,-9.34708150291539,-126.060899052127,0,0,0,0,0
-88.7354709848486,79.6099990137017,12.5741922891535,128.749093867063,91.9218122951705,79.4688628892285,-9.32268271442442,-126.205243548804,0,0,0,0,0
-89.3167153511356,79.4215686167327,12.7612515984161,128.89034409136,92.7028408447508,79.3969691380599,-9.43296832490333,-126.42726906999,0,0,0,0,0
-88.9512109057774,79.6299296091972,12.5797001743472,128.856974262976,92.5012118250837,79.6491360880765,-9.23385401052363,-126.443476214995,0,0,0,0,0
-88.9318147349905,79.8160021287152,12.4403706229184,128.911721164877,92.3328060393548,79.8767949168308,-9.06155555517543,-126.514655195487,0,0,0,0,0
-89.3837723204648,79.8704509288535,12.4548518542063,129.25852168743,92.7022369480108,80.053061562289,-8.96299591692744,-126.721274215978,0,0,0,0,0
-89.4409198330835,79.7831518002896,12.5525816185761,129.50134683548,92.8317573353764,80.0533383281885,-8.99660414147829,-126.988234295848,0,0,0,0,0
-89.1437551800279,79.8329944379378,12.5207658777878,129.680848813281,92.7510246356772,80.0988035728842,-8.97846231572552,-127.171157838046,0,0,0,0,0
-88.8939299877567,79.5448472973487,12.7716093482424,129.992585996619,92.8331659450171,80.034345375116,-9.06601348347945,-127.490768138278,0,0,0,0,0
-88.9108102893636,79.5052162322447,12.8283279638488,130.21193013966,92.6999156588243,79.9885270086154,-9.14334958604377,-127.920417376852,0,0,0,0,0
-88.346164940575,79.572594318576,12.8031054165529,130.690157858939,92.4300300238701,79.9727671918444,-9.21718305579643,-128.581034349425,0,0,0,0,0
-88.3302210102465,79.6505068652108,12.7993343638589,131.228959048552,92.342302845801,79.8961323416964,-9.38148479122589,-129.56514231968,0,0,0,0,0
-88.0518608275932,79.6935035082751,12.8251446865875,131.905022590784,91.9223780850788,79.8515062801113,-9.50265525312256,-130.508325631425,0,0,0,0,0
-87.8105928760767,79.699002657851,12.9045567337916,132.801654574558,91.3413540590038,79.8121510312697,-9.63142819264576,-131.630582521604,0,0,0,0,0
-88.1362950768815,77.2601868492231,11.8389558281863,133.772504275939,90.5675181628477,79.6447188998606,-9.87038924791193,-132.891529220535,0,0,0,0,0
-87.4733610966465,77.4724380360012,11.7235351564051,134.58162900388,89.7951713328098,79.6673731632653,-9.91804351206395,-133.842529961816,0,0,0,0,0
-87.2129148320807,77.7661572690515,11.586701466936,135.64494715595,89.4525704201485,79.6475614375043,-10.0402054012232,-135.001535998895,0,0,0,0,0
-86.6622520180985,78.16672476058,11.3550882582829,136.888304352126,89.0084832553772,77.285877346808,-8.95245717789703,-136.590075686925,0,0,0,0,0
-85.8010693978947,78.575860241541,11.0487078978042,137.750635032454,87.7151513096208,77.4162308664302,-8.906688015778,-137.72474696309,0,0,0,0,0
-84.4471795768488,76.661902365001,9.44907387339558,138.2723104528,85.2042487684227,77.8001134785351,-8.52849514831547,-138.490427527573,0,0,0,0,0
-81.2482833458965,77.7460026422458,8.3782867041395,138.50772823864,80.9889198028199,78.6890145385459,-7.61894152783836,-138.997052017308,0,0,0,0,0
-78.0598671144597,76.8182308778942,5.791244988019,138.468944807138,77.5837564841717,77.4384845613431,-5.32523680356181,-139.108547184051,0,0,0,0,0
-75.1930643745967,78.1170799903798,4.60735107006926,138.392772543388,74.3249648241509,78.5215297597843,-4.33247293134937,-139.242943112987,0,0,0,0,0
-71.9694983978142,79.2195966255933,3.62446669415417,138.37290405729,71.3632677796249,76.9584441094643,-2.32153129690576,-139.101101606544,0,0,0,0,0
-69.6275179100517,77.8665038465548,1.49458810841531,138.511327610185,69.3394818985958,77.8695337499661,-1.5671180159498,-139.278075577603,0,0,0,0,0
-67.7464250075926,79.0448305603883,0.5473108662041,138.54886144573,68.0481856976252,78.6113900551428,-0.960755263155079,-139.281526341307,0,0,0,0,0
-66.2057935240497,79.7785142455916,0.0027683803493801,138.962476170752,67.0655384236764,79.1376045490532,-0.58705746889504,-139.793612204132,0,0,0,0,0
-64.1910942606097,80.733474403128,-0.724496091774228,139.137157596052,65.4692081917567,79.6720364703523,-0.167505887811274,-139.947944367731,0,0,0,0,0
-61.9959211729579,79.187821784312,-2.64954627097654,139.055415860651,64.0523449544697,80.3445567075684,0.354606951705364,-140.004932921724,0,0,0,0,0
-61.267715198128,79.5667865503873,-2.90727704259274,139.257534764506,63.5681871329804,80.3937468550777,0.360665773102568,-140.394303118651,0,0,0,0,0
-60.0321256591204,79.9268363514403,-3.16069612926174,139.349532786445,62.7159233784652,77.9095939362875,1.51343784444697,-140.528652748358,0,0,0,0,0
-58.8591693837025,80.445059296845,-3.56318690513268,139.093728917598,61.8117506897409,78.1308021180734,1.71711713430338,-140.284905482478,0,0,0,0,0
-58.1187784627588,81.0230613068785,-3.98814529166168,138.978416540857,61.1915432896624,78.4036583347924,1.94726058893298,-140.101523241626,0,0,0,0,0
-56.9987762966431,81.5446672553406,-4.38244486001418,138.701906064107,59.8020522831424,78.7218901337189,2.21250225475023,-139.909239632632,0,0,0,0,0
-56.1926320550155,81.8340640731918,-4.58076762578349,138.697067762781,58.718779570635,79.0152809596651,2.43005585941242,-139.914476789064,0,0,0,0,0
-55.7748761558937,82.1063393764042,-4.76414968619557,138.735970393988,58.1345640570311,79.2969166665216,2.63528468349196,-139.920537486553,0,0,0,0,0
-55.3531409161489,82.3693990874543,-4.94147405853164,138.760333302,57.7125150623837,79.4758005613892,2.75013590162951,-140.047055711196,0,0,0,0,0
-55.2351056297262,82.5321151782537,-5.04311514320335,138.8611583947,57.3738533891271,79.7318054846943,2.91063538733948,-140.252681710926,0,0,0,0,0
-55.0451112580527,82.6976648173631,-5.16752212238683,138.757910742333,57.1271285766372,80.0136667032955,3.12152514517734,-140.183977907068,0,0,0,0,0
-55.0582644087311,82.6667929321445,-5.14423820513287,138.775581525319,57.1855871616418,80.0511736557209,3.13726879296505,-140.280737677356,0,0,0,0,0
-55.2067712989649,82.6377253803202,-5.12953941991898,138.740501052748,57.2820182456546,80.0635143299357,3.1474891493456,-140.271902318628,0,0,0,0,0
-55.5022629484857,82.5911430446456,-5.10164569229855,138.730377997306,57.5527925308573,80.094249095291,3.1691094127373,-140.283308213062,0,0,0,0,0
-55.7984328720713,82.554280473938,-5.07175003546053,138.801625426874,57.7991509538841,80.137863925329,3.18918891610883,-140.385975139181,0,0,0,0,0
-55.8495894920728,82.4899984004599,-5.02614965799955,138.811998312998,57.8481018967437,80.1097393519544,3.17598580635715,-140.326985581838,0,0,0,0,0
-56.0905210190723,82.3682404687647,-4.93959088402511,138.847371924223,58.0247464564076,79.9796717233195,3.07760672612369,-140.367072146721,0,0,0,0,0
-56.2388387177858,82.1953687172847,-4.81537370004489,138.886332477259,58.1112631774361,79.8760052506895,2.99906700298047,-140.397443434487,0,0,0,0,0
-56.5625141178143,82.0810506709976,-4.71960539499625,139.057138229983,58.4349327942703,79.6559719091008,2.81447954714361,-140.607995069264,0,0,0,0,0
-56.6903855531016,82.026975775232,-4.67135047342634,139.161114959043,58.51387542738,79.5644655440914,2.73182105838799,-140.741090536186,0,0,0,0,0
