JMW9912/AVATAR/install/dynamixel_control/share/dynamixel_control/data/csv/poppy/.data/251118_1513_gymnast_2_poppy_humanoid_Robot_point_GN_LM_rviz.csv
theta1,theta2,theta3,theta4,theta5,theta6,theta7,theta8,theta9,theta10,theta11,theta12,frame
105.645364193611,82.9106929746439,-174.193823591271,71.5783875058315,58.1128220431706,-82.3382771575844,-3.38449884782964,-84.5493793270791,0,0,0,0,0
111.867411332898,82.9885023761025,-173.849483897872,72.0410327394841,51.7886867058748,-83.022485169877,-2.69947291125898,-84.9370880326951,0,0,0,0,0
113.406274763248,85.0628973071542,-176.233647606754,72.0938755892717,50.5544960196801,-84.8014362214044,-0.940593133837427,-84.9899922737252,0,0,0,0,0
113.682263292668,84.7491996885365,-176.290917321452,72.0989074657487,50.2815328490641,-84.4071160205121,-0.770816024244748,-84.9876020743744,0,0,0,0,0
114.67295328579,84.9342870450574,-176.340895211087,72.1364731360589,49.2947049199767,-85.75607630796,1.09749599477544,-85.0066795859646,0,0,0,0,0
114.398518470228,84.9721814094339,-176.315796021811,72.1283997879513,49.5203936658226,-85.7122733235017,1.09968367419986,-85.0007785515771,0,0,0,0,0
114.126381704898,84.9457220144676,-176.299510400996,72.1187077590938,49.8061068300115,-85.6885878863884,1.08972147491325,-84.9937098807538,0,0,0,0,0
113.393280379828,84.8718601740559,-176.254846598757,72.0899835441325,50.7276312191024,-85.5854957652628,1.06652616186523,-84.9661126133438,0,0,0,0,0
112.186809926056,84.705537628276,-176.182260819355,72.0337544039917,52.2191558475549,-85.4729788931966,1.00501591309474,-84.910195375635,0,0,0,0,0
110.457003827961,84.5462214835404,-176.062422500123,71.9371470135485,54.0737981602359,-85.5012634649219,0.86957735519857,-84.823756632757,0,0,0,0,0
107.201767608199,83.5482894588901,-174.227452657483,71.7273288685242,57.9195734858668,-84.2533252331327,-1.65646726858701,-84.5790405862964,0,0,0,0,0
95.568515641321,81.4256446396308,-168.367176814517,70.5082634022348,69.3007432915428,-82.3659079524495,-6.40387993597409,-83.2608206807207,0,0,0,0,0
74.6490280330648,78.7956982283878,-157.885770625727,67.6071349764485,90.0873950953908,-80.2180090322546,-14.9683994011197,-78.9028370211227,0,0,0,0,0
52.6196454794299,74.6069691759184,-144.791304743693,61.1350178892945,110.220924531028,-75.8135221879802,-24.2697770482357,-72.7841462502941,0,0,0,0,0
35.463675832537,77.8312417909405,-135.777743187607,55.5202901467308,127.17512216567,-78.688638640005,-31.8814646911787,-66.3350469171011,0,0,0,0,0
14.7534186535949,78.2607593161015,-123.026268742105,48.4876286111448,149.107154169045,-78.2807797737265,-41.7519524523933,-57.1219838565215,0,0,0,0,0
4.57586153451809,79.8923083779477,-113.169555141164,46.0629885558425,159.927878603183,-78.7563925386249,-50.3133936866766,-52.8561413026775,0,0,0,0,0
-4.62824027646754,83.2471515210624,-114.397230442774,41.0546417449448,169.758447654381,-81.8293282030567,-47.1873562338575,-47.8080190944401,0,0,0,0,0
-10.6614727307798,86.334832588039,-121.541286644926,36.3241214469501,176.171372479325,-85.1581212229155,-40.7068638634988,-44.3082336460894,0,0,0,0,0
-11.640567207698,88.2044594829911,-128.377207806186,34.3463978462998,177.471890882273,-87.5396458422367,-34.927559054722,-43.2750238506253,0,0,0,0,0
-13.5930845834972,89.9561198139403,-132.382218807893,32.7483530127299,179.404621565156,-89.8179563229195,-31.7742683606513,-42.2743388742484,0,0,0,0,0
-15.7415249739397,91.4011195958008,-134.790888458162,31.4760758955044,181.888317898547,-91.9151387595579,-28.4480058031451,-41.1286605965446,0,0,0,0,0
-17.8898507173582,92.4612240022089,-138.262797279554,30.0863385722745,183.871487587398,-93.0611734792111,-25.7204808596948,-40.2710689998734,0,0,0,0,0
-19.6295877355451,92.5704004185207,-138.264449710297,29.4503252516716,185.773845573538,-93.2551571014298,-25.6684192238869,-39.6203668062965,0,0,0,0,0
-20.6630817386349,92.4617563333024,-138.269938412214,29.0737200956081,186.817177163934,-93.187772480034,-25.5988417240381,-39.269945038811,0,0,0,0,0
-20.90261544791,92.4691500959358,-138.272624437114,28.9887990664078,187.020428898813,-93.2797131650399,-25.60894629867,-39.2052649464077,0,0,0,0,0
-20.2777993724239,93.0348235350934,-141.816494721276,28.6823373277575,186.599043588101,-93.233911024367,-25.6208592397227,-39.3434345831925,0,0,0,0,0
-18.1048456853841,92.5211671969923,-141.81180208756,29.4466448716002,184.230850954773,-93.563169498286,-22.9431619090276,-40.0068751941046,0,0,0,0,0
-14.0444754779461,91.7039968207061,-141.842410851155,30.9705614857723,179.864748086381,-92.9179917120686,-22.9695627353491,-41.5702108201831,0,0,0,0,0
-10.1750921403286,91.25093980404,-142.387203518138,32.4571548764701,175.678671475898,-93.1338054333328,-21.2815295277586,-43.0973702068848,0,0,0,0,0
-8.16383554198914,90.7410313871818,-141.975264745093,33.3677938003576,173.60296735344,-92.6951413095449,-21.638663929689,-43.9544420659779,0,0,0,0,0
-1.37866074803939,86.151671106951,-133.668398068791,37.8858018496727,166.934727333032,-87.6707719057469,-31.0065752019586,-47.4720230319067,0,0,0,0,0
4.64617035597069,84.7685534695823,-132.020818728062,41.151601121245,160.361643731294,-86.9961091722579,-31.3178292340736,-50.5184267373161,0,0,0,0,0
14.7334198449809,82.9659321810966,-136.281075270335,45.3148885212206,150.316578197109,-84.7392364803504,-30.9880735759538,-55.3326209403856,0,0,0,0,0
31.033626468456,79.5324779209945,-141.53013148407,52.3426786749568,134.14261603261,-81.6509370543265,-27.0778302098091,-62.807522348277,0,0,0,0,0
51.0792940235691,77.1100408679322,-150.906166849876,59.6030099108829,113.632828874851,-79.2057220006822,-19.6023758108435,-71.2243153829927,0,0,0,0,0
75.8023775096949,77.0233381925734,-166.329106587169,66.2700061328057,89.418118536101,-79.3128227382822,-7.00582594591437,-78.8624396105919,0,0,0,0,0
95.9042649161641,79.435510386339,-179.032554592031,70.0192918186374,69.8337697028311,-82.7027541637954,5.58371965818385,-82.8355989684613,0,0,0,0,0
110.716619831403,83.3107315451226,-193.440027811933,71.4813555610204,55.2769830020576,-85.2940236689681,16.8653667351078,-83.8853005542105,0,0,0,0,0
119.324076499455,84.6022762401219,-204.694306355261,71.4916907808562,47.3182117982642,-86.0326539609377,26.9993354902849,-83.0032881982693,0,0,0,0,0
125.471396888894,81.5997135086276,-212.170688929224,70.5172750262162,42.0691825727206,-82.7036701010565,34.3751557728291,-81.2210838227265,0,0,0,0,0
132.324618527183,80.9492719117509,-217.352284163074,69.4547457443122,35.0528206287179,-81.9468138725163,39.1757566513733,-79.5085708132816,0,0,0,0,0
137.257295062506,81.6259247484017,-221.957570355129,68.5056928223512,29.4476701042149,-81.1466453123493,41.628359816148,-78.0401859534929,0,0,0,0,0
142.646060296177,82.6403948615313,-223.789332530443,67.4894374465557,24.158425782694,-82.4144931413704,44.0257515239466,-76.5717208573649,0,0,0,0,0
144.512257386818,85.1942620526945,-225.344144339436,67.275527895541,21.2557158220321,-83.4998963865639,43.43428516485,-76.184058272015,0,0,0,0,0
145.593322130636,87.1035490101831,-224.888034253837,67.2877080916591,20.4781754346814,-85.8263424725838,44.3700064415422,-75.9367813952812,0,0,0,0,0
145.466206735756,88.0581909088989,-222.496967869505,67.6264385014754,20.3480849580718,-86.4630490759637,42.1461292353549,-76.5477430229101,0,0,0,0,0
141.68587324159,89.3416386638964,-220.183977697147,68.7949333803638,23.9850427095893,-87.9964892097273,39.7666327410995,-78.1202097483885,0,0,0,0,0
135.968586210414,87.59425189556,-214.119031675063,70.0345954752906,29.9813244824883,-86.4850531414917,34.6740417197356,-80.256852203067,0,0,0,0,0
128.299218691964,86.7582826686735,-210.07260045306,71.0768935450128,37.6586868052902,-85.1830964035253,29.0982009351852,-82.1057661525201,0,0,0,0,0
121.166629702968,86.7932292776338,-204.446774013321,71.6996168405521,43.9135022336448,-86.8015931649353,24.7471177523104,-83.2893171547416,0,0,0,0,0
112.642556636667,86.5825924472099,-198.366855945397,71.7698309990943,52.8096237209578,-86.7890582994326,18.9696740982994,-83.9326158462255,0,0,0,0,0
102.019798902518,83.0678437999528,-186.872147533736,70.8559296536657,62.860466879147,-84.2799393550177,9.98802298556593,-83.6589225131338,0,0,0,0,0
78.2077935964616,74.3587557204548,-166.504554616171,66.7829505947181,83.7710764602165,-75.8910615800848,-5.85281909452043,-80.1353545395357,0,0,0,0,0
46.583924422281,79.2230755151278,-153.401019563525,68.6103464549263,117.581274668286,-81.2769112419239,-19.4010865317395,-79.0402437199955,0,0,0,0,0
3.53490599072226,77.2112224222909,-129.316300947655,44.0966899758478,161.54679924982,-78.4549055252223,-38.5195108074784,-53.2123963277611,0,0,0,0,0
-14.4145209099428,80.5484307095181,-117.799001745333,35.4232649237382,179.537342448365,-81.7148276718605,-43.9405950112767,-43.2188124225192,0,0,0,0,0
-21.139410763308,85.7609449832582,-124.648451721776,31.1794115017959,186.041223805051,-87.0931379746861,-35.6945279969973,-40.0768970518417,0,0,0,0,0
-30.956256691762,86.7983999646156,-128.615268953303,27.085626172726,196.295281036297,-88.0860216425554,-31.9907208801384,-36.6323967200835,0,0,0,0,0
-36.8816647042543,88.4426723338857,-132.597070983474,24.8998644352012,202.639808333544,-89.3503098549161,-28.8505944357456,-34.9495961853354,0,0,0,0,0
-42.9831830528076,88.8995601121976,-133.442818212496,23.4715687739679,208.923691381275,-89.5891825977781,-28.1907533810774,-33.6799469072087,0,0,0,0,0
-47.4151054127955,90.3128357531321,-137.348817125924,22.2578195041232,213.657568848262,-90.9764078428863,-25.4928761381666,-32.9334333147906,0,0,0,0,0
-49.0838564432366,91.771103094458,-140.768657491729,21.6909703447383,215.361589736054,-92.3764618286277,-23.2367836972704,-32.7360169416134,0,0,0,0,0
-50.3373426425487,92.5744509362522,-140.819493489241,21.5841656649046,216.557663518584,-93.1153232855509,-23.4083034245273,-32.639783840776,0,0,0,0,0
-50.9840435005006,93.1920384806329,-140.806423299472,21.5575788023488,217.155511941978,-93.7349907007891,-23.5917626938923,-32.613878908874,0,0,0,0,0
-51.3861805033485,93.2969540361686,-140.846543284369,21.5133512033533,217.59618628725,-93.9173535111206,-23.6251418964536,-32.5783900692311,0,0,0,0,0
-52.2339778004905,92.5116208178731,-137.801028656052,21.7304453115709,218.568796107622,-93.1707119133082,-25.7986430661522,-32.475657254457,0,0,0,0,0
-52.7687820999137,92.1646930613652,-137.94724593432,21.6189830445536,219.021314223754,-92.8313884336326,-25.6276417080871,-32.4042365857023,0,0,0,0,0
-53.2180292466886,91.4449928629777,-134.882509538801,21.9093162928183,219.230525669355,-92.6134875030573,-25.5249302380241,-32.3674982980371,0,0,0,0,0
-53.2549870330333,91.241488084802,-134.920260582616,21.8813906273806,219.307433003113,-92.37822809726,-25.4283063462279,-32.3432715469234,0,0,0,0,0
-53.3401247948662,90.8996822562149,-134.988306553007,21.8317847888765,219.791906069266,-91.5493050518233,-27.5964896469101,-32.2788245597107,0,0,0,0,0
-52.7593899902136,90.8312850863166,-134.892368616025,21.9059920043696,219.121422385673,-91.3871271407902,-27.6127492366023,-32.3370571003551,0,0,0,0,0
-51.050030890056,90.3407105568383,-134.653059335597,22.1087335155507,217.495390151667,-91.0703165859464,-27.6840860550601,-32.4972803585163,0,0,0,0,0
-48.5627964762732,89.9130893626076,-134.267066490403,22.475237313847,214.808868305715,-90.6185343671738,-27.8368447361749,-32.809242351233,0,0,0,0,0
-41.0178146396279,90.1991770333395,-136.404108107496,23.5197731222429,207.255524278599,-90.9793758666063,-28.8158152640133,-34.0702742587579,0,0,0,0,0
-38.1162539708769,89.7914622369358,-139.519989889565,23.6753186175347,203.595951195036,-91.2362330066437,-23.8841178503121,-34.6356774346993,0,0,0,0,0
-18.3110196230851,87.5696802116686,-141.755492001148,29.2112233409901,183.178752631484,-90.5074957292283,-19.4018059653171,-40.1952253091175,0,0,0,0,0
2.46006457403506,82.72455225665,-138.384713541926,38.8336754574355,162.286052184274,-85.7204482654173,-25.2305147144107,-49.2434931778489,0,0,0,0,0
14.1821849013731,81.192924229766,-139.34544569651,44.4850982269281,149.972281866374,-84.2006862004962,-25.0497105414445,-55.1156923629071,0,0,0,0,0
33.927311438388,78.2720933546881,-148.389003238408,52.5871642717832,130.063622632167,-81.6877962386061,-18.1861929395294,-64.177490410736,0,0,0,0,0
61.041493978494,73.9776504611886,-161.331569275142,62.0035548525654,102.121208985724,-77.6184806448743,-7.5592243558773,-74.8927797577697,0,0,0,0,0
90.9055059016246,77.0466134912678,-181.507812953208,68.8519467902906,73.1633029685348,-81.4378393222479,10.715507916952,-81.8871075280722,0,0,0,0,0
109.372232307246,82.1629230869168,-198.286921763359,71.1548332759563,56.7884636145144,-86.6719646882055,25.5359798450439,-83.0761395610329,0,0,0,0,0
118.090092239413,83.2984884119348,-215.133198799457,70.9760453314432,48.8559656495169,-85.4012818837981,39.0010105420271,-81.0468014915278,0,0,0,0,0
124.71018507275,75.1210137383044,-222.177710849362,68.7553474534175,42.482903698096,-74.7397294020682,45.4915687212247,-77.5608658457347,0,0,0,0,0
132.667848892163,73.2852681716153,-229.608860786429,66.9651771945271,34.0297100832223,-72.0084818960697,53.20477670692,-74.1646247807225,0,0,0,0,0
141.089055413159,74.4123740412477,-234.275124503934,65.3877557369867,24.561614748975,-72.6109166184055,55.5994988499067,-72.0102578004634,0,0,0,0,0
146.871753579989,72.1809702899819,-243.600888822197,62.6493519025105,18.2954123657837,-69.8438245573168,65.0142966591392,-67.0483476563455,0,0,0,0,0
150.72951716183,72.7944811628091,-248.609116064345,61.1729016433254,14.9224376749553,-69.243469370787,70.7996065948974,-63.9932245715051,0,0,0,0,0
150.935802792154,73.6079842310533,-249.132632254604,61.1886765005693,13.7001703973891,-69.6185016582755,69.3758653901032,-64.2438607712485,0,0,0,0,0
151.360258970551,76.8355516005865,-243.769560223528,62.2928458666203,13.8624961783635,-72.4212630755797,65.136858587848,-66.1421874754375,0,0,0,0,0
148.910741333223,80.7558115291718,-236.812891978557,64.39157981873,16.014704755805,-76.9136659151969,57.1285817888524,-70.0169421099699,0,0,0,0,0
144.733702949389,83.5727406519661,-229.987993471481,66.5734531287112,21.3023309141865,-78.8117183924962,51.0805256431825,-73.5209446464146,0,0,0,0,0
136.379352722344,83.0044890192933,-221.706723690593,68.8756297885357,29.3142009726098,-79.4636369575296,42.8970009896995,-77.4934856596654,0,0,0,0,0
125.121788108509,83.47512212062,-214.100561781343,70.7207725911471,40.8918819882595,-79.6314165572983,33.8084004467008,-80.8466215969601,0,0,0,0,0
117.407320739951,85.7144437649898,-206.718875866261,71.5871664441747,48.6546035184471,-84.1561022289865,27.5599457903718,-82.7309383649244,0,0,0,0,0
107.687217167799,87.2081355753346,-197.859234736974,71.5614917045727,57.6999938092853,-87.6748987178608,20.5449363018356,-83.6200286161029,0,0,0,0,0
97.2672301787729,87.4537633752432,-186.66208281824,70.4776118654559,67.5966816374551,-87.5811161991599,9.0724935354945,-83.291871571297,0,0,0,0,0
68.39163844899,77.6991090387876,-159.636101102694,64.6980075406455,94.2477520326725,-79.7819113426165,-12.656782291548,-77.6629498075894,0,0,0,0,0
25.3948017253739,81.4462562118178,-137.643582243065,50.3259144872115,135.911793445612,-83.0765976251344,-30.1928743457646,-62.1257608216423,0,0,0,0,0
-0.608600935921233,82.2547989711179,-120.218342531613,41.4017804518684,164.35872734456,-83.2897197899188,-42.2935359653694,-49.7427815925245,0,0,0,0,0
-11.7665123240819,86.6731699394257,-131.307549057487,33.6381042722227,176.924999214662,-87.8313941769612,-32.2131661401424,-43.2919388123143,0,0,0,0,0
-31.9108473044791,87.9945912718736,-128.717118423205,26.8599697433196,197.562788408143,-88.72646045157,-32.0002341871184,-36.3088246858014,0,0,0,0,0
-37.9612757590286,88.7747620107566,-132.721436658776,24.6451917279809,203.237687305618,-89.9090322081362,-26.2326555247327,-34.7430056391451,0,0,0,0,0
-44.9243502102914,87.2675386443772,-133.921119510274,22.9267500582344,210.61242419955,-87.8864820591686,-27.4345325527805,-33.2943126205998,0,0,0,0,0
-50.4393545044198,87.0436750697768,-134.997802452973,21.8934721513077,215.884411211191,-88.3065517361839,-24.291399152098,-32.4905265536698,0,0,0,0,0
-53.0326044259475,87.1549567359972,-138.876611497959,21.0982037937124,218.843220779236,-88.4384568382087,-21.4093222803349,-32.132211142576,0,0,0,0,0
-54.962468216052,85.6103098203882,-139.575893701836,20.7227731995499,220.987629112311,-86.9870815484802,-20.5999357343705,-31.8699504372641,0,0,0,0,0
-56.1158847905387,82.9440192547443,-140.385599501157,20.4008262364171,222.007919689946,-84.3841788207672,-19.4267981187789,-31.7035596621618,0,0,0,0,0
-57.520808700899,78.1154468715692,-134.801958838839,20.6762654197673,223.116089861055,-79.8166061965799,-19.9892584885803,-31.5179466020744,0,0,0,0,0
-59.8830998055585,70.1727657941498,-129.973018234567,20.8663480116727,224.986232759043,-71.5960032733229,-24.1523565408483,-31.2347216086956,0,0,0,0,0
-64.188131856208,57.7771880189383,-121.777670654721,21.6966310148903,227.555389533825,-59.5360051777523,-26.392809536855,-31.2579751925396,0,0,0,0,0
-69.4314884775859,45.7291115187814,-120.877577940292,22.5793197794619,230.029769100509,-47.8058342803962,-22.8128111743778,-32.290378084982,0,0,0,0,0
-79.4926964157042,30.0269943258121,-109.503544492558,25.8287756107596,231.523999235177,-32.2790295906469,-22.2837982419849,-34.4926464688908,0,0,0,0,0
-110.022746476597,13.7962534688869,-74.262085243378,33.0702604427438,233.868452432819,-17.0461495358362,-23.6822220454247,-37.6581550247494,0,0,0,0,0
-221.14736104543,5.59328338103243,32.0644384148002,41.7614090778406,225.223942013888,0.87226997210749,-23.1280787909828,-41.3986199021214,0,0,0,0,0
-244.260485107606,20.6258353049985,68.1602539682999,46.4016846958065,249.720339011764,16.7247123194072,-65.2027517736262,-45.3539611083693,0,0,0,0,0
-246.206107055485,39.4588276311491,90.9797425519945,54.3033588341595,251.080418479763,36.2437173085917,-89.7005865490504,-53.1640294455501,0,0,0,0,0
-245.085586708505,59.1293919772685,104.387118404037,62.4904257228741,248.82911826108,57.985134496197,-102.02409609268,-62.2402737547527,0,0,0,0,0
-249.431300115643,72.5213310169716,121.03658117479,67.7652040997363,253.063750767111,72.5811124792489,-118.287954629813,-67.774821313946,0,0,0,0,0
-251.369766449545,84.4080737608574,131.246190995424,70.9302913155184,253.397477156454,85.568054732915,-127.763974010296,-71.1416465422622,0,0,0,0,0
-256.641218283807,91.8891581744973,142.517704122631,71.9117927333545,258.054527463147,94.4792343175303,-136.24511705427,-72.3467730548519,0,0,0,0,0
-266.45236174183,92.9358788163681,160.161659795728,70.3692524885128,267.988191371866,95.9495328447889,-154.798647041077,-70.5276520154636,0,0,0,0,0
-281.393923029178,91.1672559322971,178.519810425181,66.7112565856211,281.739715445664,94.696794153063,-172.637973918701,-66.7313745538407,0,0,0,0,0
-309.196200463367,87.9806258301937,191.820394355396,57.7423105595785,308.360562298042,90.7009689041159,-188.15966487804,-57.8726541168693,0,0,0,0,0
-334.915566058192,88.785292813883,204.375092836102,47.2835425199181,333.918319145656,93.0357138865896,-196.464010728625,-46.9537689782497,0,0,0,0,0
-346.845630860795,89.2513009172078,209.189383579015,42.0651715174795,345.84966805828,93.9809302303395,-197.303744068243,-41.2901619107355,0,0,0,0,0
-359.971337488801,89.5956008176272,222.885105096501,37.8928581061331,358.763511070702,92.9582679886786,-213.822803435465,-36.9672250147372,0,0,0,0,0
-369.82750267058,92.6817701253817,217.390830032251,32.6007488395157,368.805434374972,95.9033280215286,-207.793457301988,-31.814499235562,0,0,0,0,0
-372.672438379589,94.1296165331059,209.213016314398,30.3752460976519,371.958393531468,97.2409105118789,-199.102951156448,-29.7510894050041,0,0,0,0,0
-376.485000086038,95.9394269885662,206.95591181718,28.7240887390088,375.782680409637,98.4805325830043,-197.781557875925,-28.2403101717664,0,0,0,0,0
-377.062518725788,96.7667922177941,203.083819233895,28.1576520275088,376.298322234263,99.810473898971,-190.980251634999,-27.6845286719842,0,0,0,0,0
-377.299405788063,96.7813241802172,203.092828003098,28.0738530552471,376.580206772267,99.7634248370085,-190.996461830533,-27.5829323160994,0,0,0,0,0
-377.053700057774,97.3111920917013,199.111467052212,27.8441021460542,376.366636257515,100.305612546038,-186.83064578017,-27.5068678535149,0,0,0,0,0
-375.650305906256,97.4349557645266,199.052505809076,28.3525548687535,374.73099564821,100.560426027787,-185.690564381871,-28.0740440951832,0,0,0,0,0
-373.909554372693,97.0849803506788,200.603012166105,29.1163835370096,372.935521937975,100.500683814155,-186.183373193627,-28.7600932855085,0,0,0,0,0
-370.175494887876,96.9131486006275,197.627923310374,30.3404351153628,369.456957375565,100.762957704729,-182.973285092476,-30.0511082445857,0,0,0,0,0
-362.359802301018,92.943110178253,207.432523704034,34.5148641022896,361.04472846431,95.8748119322839,-197.55973654056,-34.2028447976351,0,0,0,0,0
-353.395354118688,90.5039344289978,209.669686583613,38.9485862745445,351.699516324329,94.1602371490704,-197.724426112278,-38.5300803701597,0,0,0,0,0
-340.806545773193,89.2014405994062,204.930496592798,44.5002362396113,339.217139307595,93.3730648617982,-193.072269517195,-44.2283610649226,0,0,0,0,0
-321.783719603692,85.2921936571152,199.964033491281,53.0318447114978,320.567103075531,90.148231458531,-188.792349265421,-52.7876020536341,0,0,0,0,0
-299.258317590483,83.2997547350697,185.384580917935,61.2172608786075,299.258551091508,87.1367177498632,-178.71884288125,-61.1597479552867,0,0,0,0,0
-275.127776740641,82.2555618500528,164.926929827523,67.776445239242,277.047296416892,85.6764385852879,-159.279042453411,-67.7737558561659,0,0,0,0,0
-261.481879756178,75.4502617324323,144.007013139996,68.6328686641328,265.072473898103,78.2880721617639,-138.156098368515,-68.8464994365712,0,0,0,0,0
-252.904748052182,62.8301141275676,124.300701309581,64.9123056039939,256.100446670998,63.3634148159915,-121.702315109647,-64.926608657128,0,0,0,0,0
-239.617331792379,52.9122539225881,104.825874022943,59.8491734867567,241.343135824859,52.1281407637558,-104.421927408298,-59.6516528439245,0,0,0,0,0
-232.524987513247,39.4315249620628,91.1089289668088,53.3516711617766,235.790427938512,38.3213114662633,-89.1158424486279,-53.0635551537794,0,0,0,0,0
-218.886132426411,28.8977185618499,69.367771076037,47.5068658659159,221.961924600892,27.2070601335616,-67.6542905238705,-47.1700459746232,0,0,0,0,0
-199.910572932104,23.4917502880745,42.3827075506018,43.7802437572541,202.542499661392,20.9855944903807,-37.2930810637622,-43.5189453840304,0,0,0,0,0
-169.016646412882,22.0198760452628,9.59187131407514,40.1506713330058,166.718346284751,19.8058266142183,1.9709824802169,-39.5700078617672,0,0,0,0,0
-143.420718498191,24.0465347493031,-22.8962667658739,36.2191743722953,137.960283644784,23.7728995057281,34.4407715028156,-35.0483487023277,0,0,0,0,0
-112.620629370494,31.5767789915401,-59.7930549641661,30.177887401221,107.098718974663,33.4266860967255,74.4602965453815,-28.3231122587121,0,0,0,0,0
-98.5900314304522,41.5763644203443,-82.0065947930746,26.2135959339651,94.3891746698027,44.4502627072666,98.3174990668781,-24.4250445067545,0,0,0,0,0
-88.614718530521,52.5496169706548,-98.2344980169229,23.5829736660397,86.6238984034419,55.3851113475266,112.656007724452,-22.2096843961884,0,0,0,0,0
-80.6320111711328,62.5047539763082,-113.2031041784,21.7758338257375,80.5479843611714,64.7726057231222,123.632183010914,-20.8865199109753,0,0,0,0,0
-76.2993376049595,69.611440484149,-119.590424113517,21.1707408880459,76.7232030568669,71.8217721650587,129.933930431798,-20.29850725884,0,0,0,0,0
-72.9068226684319,74.5818730274561,-123.913180915303,20.8944515561821,73.301997139906,76.6834818317676,133.380191602409,-20.076863645428,0,0,0,0,0
-70.7607473723574,77.3098577539855,-125.872592339637,20.8389092134861,71.056658664711,79.7891588284649,138.422932939038,-19.7573069207046,0,0,0,0,0
-66.5972964106684,80.805859996734,-127.096147780226,21.028543079275,67.0984369534232,83.2197721996247,139.692892186929,-19.841363506154,0,0,0,0,0
-58.5415544211747,85.4642792936735,-133.743412677651,21.0509650408438,59.3877957368681,87.6855325917608,143.44307249175,-20.0772247684003,0,0,0,0,0
-43.3081619832136,90.5427684845923,-136.690839231542,23.0598311251253,43.8044148902841,92.9253867859144,146.849113836535,-21.8731847959297,0,0,0,0,0
-34.9262029518531,93.3131029474192,-145.998791587897,23.7972783605705,34.5810680857992,96.4760789489786,160.66961866969,-22.6486181571106,0,0,0,0,0
-23.4678705453146,95.6724864554231,-152.923555121751,26.331591431815,23.6544090469494,98.7406931065008,164.577335390727,-25.4326272474615,0,0,0,0,0
-9.71815082958482,92.6434785187962,-146.200039218871,32.1231106184377,9.37283547706186,95.9363970190882,156.160601663608,-31.1677774261184,0,0,0,0,0
3.42448149417324,88.598887493299,-144.171728606604,38.3078354982376,-4.20515134117075,93.1804930931784,157.590886273257,-37.001631794052,0,0,0,0,0
22.7913880757351,90.0145403785582,-159.1835936429,45.8118551638021,-22.9714208856338,94.6589482876916,171.018893927109,-45.072458825734,0,0,0,0,0
49.8847040632291,89.9177736392006,-174.988557152429,57.1179902527972,-49.3603671178543,94.9385605305147,185.632378009425,-56.9245331796127,0,0,0,0,0
80.5079608254276,89.3217289952003,-189.873783141201,67.2611359325382,-78.5477334735913,94.3499204108205,198.655431090712,-67.2942994318305,0,0,0,0,0
100.222480325275,94.8527580553094,-209.287840599884,71.7167584708705,-97.1501642842201,98.5020870202104,217.137159255502,-72.0784508287801,0,0,0,0,0
110.209091537279,93.8829561216182,-222.727641324508,72.4930871044523,-106.964790711718,95.6954032642733,228.858586742005,-72.829814195419,0,0,0,0,0
118.375499528948,85.4175325244061,-230.632078032318,70.7948478436404,-115.850508744706,86.1251320491005,233.933054579433,-70.9905473865019,0,0,0,0,0
123.792959193699,76.7270574766342,-237.87088817436,68.1002750303861,-121.729736422767,75.7579780380402,238.695951895316,-68.0105593957449,0,0,0,0,0
134.434890677153,74.8666094432078,-244.358743884452,65.6516579214552,-133.101427288982,74.8030999511716,245.030994481645,-65.8035757554553,0,0,0,0,0
140.788914318176,72.4224226871556,-250.459943417601,63.2261836388737,-140.170593363551,71.9836048963886,251.767889801357,-63.1141636499987,0,0,0,0,0
145.661899493132,72.9326499665662,-260.97513668218,60.9498877683396,-145.223973625869,71.7496282150206,261.471631439071,-60.761728314706,0,0,0,0,0
147.379394183301,73.3460527417967,-265.58679191711,60.0098327639787,-146.685551240015,72.717539041053,266.188961241431,-60.0077230058535,0,0,0,0,0
148.484027291787,75.0994065649293,-264.396300998559,60.1694186914445,-147.92925237113,74.0004213981127,264.881384922684,-60.0653040947454,0,0,0,0,0
146.287013708095,79.1431724374111,-261.986330437538,61.8388278184304,-145.895458357241,77.8953921333978,262.133433973561,-61.7080620939773,0,0,0,0,0
144.264429779505,80.7743681626058,-251.496023933018,63.927393851704,-143.876362742274,80.0181458227027,251.617345273924,-63.8811470469519,0,0,0,0,0
138.683184119681,82.2921176430208,-243.207891210473,66.442777339858,-137.865639423119,80.9368872773235,243.451424399104,-66.3438269370842,0,0,0,0,0
131.557403231941,82.6988010034418,-232.966008024701,68.7252020778551,-130.924150362456,82.6765123102828,234.138065022327,-68.7304817021171,0,0,0,0,0
122.324371057899,83.7731214103407,-224.001129845567,70.4917024669943,-122.057428174845,84.2922150548617,225.118050365708,-70.5518187475577,0,0,0,0,0
112.233908395281,84.9244634046753,-213.722700818133,71.2883163427842,-111.686604544303,86.8147092639069,217.271220775198,-71.5111086268113,0,0,0,0,0
117.807950490813,79.957878737153,-197.679345776202,71.2029051408241,-116.186529787727,76.0103606563144,194.169048162848,-70.8493435321645,0,0,0,0,0
119.060978655739,78.500926684216,-195.719858199124,71.1215085284858,-117.735856666598,69.4332858786352,193.281017728015,-69.9643902336137,0,0,0,0,0
117.499603783253,77.5221162121248,-198.06427103219,70.8674782459462,-116.582884135726,62.4459089049953,204.190582148134,-67.5331813427871,0,0,0,0,0
119.769670906815,77.9275666588053,-201.154446791251,70.7658547499896,-113.209921014421,52.2346165014666,216.827761763441,-63.1057364002495,0,0,0,0,0
120.836591502739,80.3635279670251,-208.641953531854,70.72629519891,-115.697003976168,48.6559718325147,233.118054896521,-60.2041801055563,0,0,0,0,0
120.282418212528,80.2051359847887,-211.152090856334,70.5937924842791,-114.177693608325,40.4550065602737,245.255260566141,-55.8583810301166,0,0,0,0,0
121.393173641271,79.5904727457476,-214.263287018754,70.2948723497716,-117.799142867506,31.7437152318635,263.050687698152,-51.0271052616933,0,0,0,0,0
120.924343279032,78.2269025709395,-214.480787142626,70.0588169951941,-115.727593529125,14.1077136213982,267.31059442999,-43.2984619036211,0,0,0,0,0
118.665502305628,77.3185801144711,-216.621657585204,69.8319654055791,-126.057850460944,4.60582640996591,285.033124487926,-39.7079816832479,0,0,0,0,0
119.459508040306,75.7436323208088,-217.25814887854,69.4607279392521,-97.419204914966,-9.11611553497882,262.139354384256,-32.9536849137864,0,0,0,0,0
117.552192405871,72.2154756597115,-219.977990246281,68.5536221912562,-106.065531894024,-16.2786922928812,277.124664229853,-31.6357636496083,0,0,0,0,0
114.919133142895,66.5019491427841,-219.849656125239,67.1403611136727,-104.842143645365,-21.5702733469358,279.108403562082,-30.2393073501451,0,0,0,0,0
115.079907234083,62.5518348768935,-223.292569348753,65.7589322504368,-105.402684463407,-25.9727566965704,282.400043247015,-29.4432010082361,0,0,0,0,0
115.760848646865,58.4495502510712,-227.160087329116,64.1671342846871,-106.224197136158,-28.7437053427899,288.969744543698,-29.4424256934097,0,0,0,0,0
115.434612144681,52.9878389578087,-227.895987069473,62.2723516838953,-105.12689993214,-31.5742970464733,287.759343878577,-28.7642465601667,0,0,0,0,0
114.208462725369,48.858357587554,-227.676170463956,60.7937007940511,-105.390217477778,-35.9468874452092,290.159655930938,-28.2862391138903,0,0,0,0,0
113.39507949557,45.5196837390279,-227.54020959386,59.532838082301,-105.957968557128,-39.5299713639964,292.630321495564,-28.0645832973926,0,0,0,0,0
111.635251826701,43.0310782768197,-226.469950804941,58.6011142244401,-105.987426585121,-42.0588419331057,291.969372891381,-27.7095577371607,0,0,0,0,0
112.064870952079,41.1254699440026,-224.198071786566,58.1418487450291,-105.48762186525,-42.7905597561704,291.542964650498,-27.5785598556156,0,0,0,0,0
111.13116228787,40.5566769999993,-223.495486269868,57.9373830545981,-105.436755126634,-42.5038080272252,291.597308023802,-27.6120865871277,0,0,0,0,0
111.056577952409,40.450169152493,-223.445289091838,57.8958536265707,-105.659620321738,-41.0311464038016,292.091954385921,-27.8262817148256,0,0,0,0,0
111.267125805083,41.3066024656759,-223.527863894378,58.2389827832391,-106.216261839357,-38.436263377961,293.04465437494,-28.2508388789645,0,0,0,0,0
111.256781998072,42.4421445680313,-223.399619689979,58.6974267178148,-106.558905257335,-35.752184150638,290.871307135503,-28.4154390194629,0,0,0,0,0
112.352289783491,44.2317848784823,-224.063765504668,59.3777322620389,-108.128510162838,-30.8320542981631,292.949683635861,-29.4720413528563,0,0,0,0,0
113.075446479462,47.8728788066289,-224.160098968067,60.7639156505692,-108.712408710111,-25.7288400330881,291.246581322151,-30.3495645334118,0,0,0,0,0
113.739541068121,52.2580431683245,-224.039986439328,62.3629875638957,-112.694938108773,-21.6841262988541,294.964732578987,-31.7313883105758,0,0,0,0,0
113.26696372243,56.9815664562825,-223.075316110525,64.0223407739518,-116.845758475182,-16.5625787136697,292.815661325907,-33.0421792162565,0,0,0,0,0
113.355270709602,61.2948613620596,-222.53082468788,65.4206353896842,-127.070367884715,-10.1599651067959,299.382881210844,-35.7367091364983,0,0,0,0,0
114.046925638295,67.2523761038872,-224.730030407977,66.9838624279183,-190.005721190541,0.870828350617765,349.15705616342,-41.4490208248177,0,0,0,0,0
114.798496642277,70.6282306009777,-221.810918817437,68.0687870132523,-28.3853650154983,-0.305852183066004,182.476164621583,-38.0059652231839,0,0,0,0,0
114.790780550653,75.1196850577289,-221.053634836969,69.1811333667831,-90.123489587897,15.8715378685475,244.212364210362,-43.5148337242259,0,0,0,0,0
115.955804510275,79.591097904279,-220.621208322097,70.1359793854855,-103.386465688023,31.0501451637723,246.331285795907,-51.345759790154,0,0,0,0,0
114.890701522457,84.1187725621468,-216.915683258956,71.0995052777528,-96.1056998173665,42.2874785024307,230.538649619156,-56.7673625514558,0,0,0,0,0
112.146325760554,85.3431789219447,-208.541109241155,71.4449678753878,-96.3707931538525,56.6904410728824,222.916733362755,-62.7984983243627,0,0,0,0,0
110.933593403879,88.0686530172792,-205.584506380418,71.7701608994445,-99.0145855083851,68.5020911376538,216.938676743275,-66.9634283913132,0,0,0,0,0
109.503328500143,89.3482244254586,-200.372127752031,71.8450403775779,-100.401406722225,78.7144583528603,212.84891094634,-69.552990515572,0,0,0,0,0
110.081618144484,91.2926436193535,-197.784277150442,72.0082887729828,-105.713926127444,86.2031219022009,211.414911904001,-71.2398567391796,0,0,0,0,0
110.635092203211,92.7374736747012,-195.207218741361,72.0911200074399,-109.98476863082,92.7753831178202,211.403698936722,-72.2323601950635,0,0,0,0,0
110.318392976377,92.6840340290974,-192.743901472105,72.046350326778,-110.629311590575,94.9605215723757,211.209201134207,-72.4506558749667,0,0,0,0,0
108.980993828157,90.8305294963133,-190.388418176425,71.8821045927875,-108.778306702855,92.6793074402744,208.867092655542,-72.1470820950664,0,0,0,0,0
108.507856734408,89.1785754588988,-190.446094758811,71.7825005822602,-108.591735379381,88.5335470614258,209.111882438483,-71.7059302915058,0,0,0,0,0
107.43983691029,86.8158018564477,-190.455905968362,71.5770754973499,-106.048875558987,83.9846884836295,214.049575529202,-70.9067513829247,0,0,0,0,0
106.902305985615,85.2715662541898,-192.892061435461,71.3960374255132,-102.119477969954,75.2129724369006,215.708422835523,-68.9190561547484,0,0,0,0,0
106.551184849303,82.8554491982854,-192.874595895395,71.1586249171457,-97.018263985456,65.5023826262293,221.231209340506,-65.7581388002042,0,0,0,0,0
108.220307742708,80.8201820490332,-193.17936804228,71.0790890078137,-92.9220427833804,54.2181344071043,223.50114833746,-61.5163054809196,0,0,0,0,0
110.635479618068,79.3842716427132,-193.712000856522,71.0612259686772,-90.5496377767948,44.9858640541204,229.6463049144,-57.3872748985567,0,0,0,0,0
112.202708083142,78.4392120001973,-196.631137615361,70.9057383389675,-89.3110242035163,33.8699397292412,230.672723543108,-52.3998248332715,0,0,0,0,0
113.225414686147,76.7682105098481,-199.583816412864,70.5753200498331,-86.4144882283352,25.7964723663126,237.281401262592,-48.1202409203247,0,0,0,0,0
114.333114048194,75.618322852766,-205.140154084094,70.1322986067427,-86.6407583946811,18.1849838193347,244.143769875678,-44.3984019642035,0,0,0,0,0
114.726415732559,72.2601069827028,-205.743095712673,69.486068657547,-71.0087340231078,6.70564267593594,230.994540643812,-38.4290307256581,0,0,0,0,0
114.432016001464,69.6425158133902,-208.588791057483,68.7391073108585,-81.038986813374,0.54528017210077,235.385438346443,-38.9735890407803,0,0,0,0,0
114.931783608915,67.8277284652014,-214.310968189029,67.9026246152901,-173.981705739057,0.315930192938869,340.972057189284,-40.2186785679779,0,0,0,0,0
114.092183668183,62.7248650877266,-214.646777999892,66.5339284064655,-117.861680695332,-11.4883969099036,294.427531985358,-34.6327310026323,0,0,0,0,0
113.670348044668,58.4199907208576,-217.674765598593,64.9982873039398,-110.655986113388,-17.7615784408633,290.764272880999,-32.3229334227873,0,0,0,0,0
114.284739763348,54.7384323786331,-221.288862557848,63.4983132028411,-106.295524970457,-22.2043101360788,289.957784948028,-30.9966750911208,0,0,0,0,0
115.576776794705,51.4044524686732,-225.455338702087,61.9762593227779,-103.494955082127,-26.0930698850048,290.573807179114,-30.1173708967679,0,0,0,0,0
115.545155187401,46.6716674357976,-226.202959783082,60.1992307861905,-103.482812150625,-29.8910760239222,290.064744260944,-29.2759408486404,0,0,0,0,0
113.013207341863,41.989828343172,-224.867194849904,58.4596993748947,-105.41760718722,-33.9795894556351,293.637137202515,-28.9493175492471,0,0,0,0,0
110.507511696696,38.0579473227326,-223.225735604722,56.9217799474102,-105.777208334453,-38.1623096614647,292.882062838727,-28.2610554660483,0,0,0,0,0
109.604591033664,34.170015278021,-219.96961036362,55.6658568111568,-105.066290636816,-42.8484410950456,291.339614125311,-27.5422482568451,0,0,0,0,0
105.955420149075,31.199628975089,-216.901773868277,54.4444090301308,-105.766234106018,-46.2753054831339,293.574282491388,-27.482853048588,0,0,0,0,0
101.410767238565,28.5903127179053,-212.821062451306,53.3176338820745,-105.715044721342,-47.9988652767555,293.022149931905,-27.2990108660148,0,0,0,0,0
100.195688128792,26.4600065874708,-208.889519972433,52.796637364159,-105.072409997284,-48.3621457223348,292.689931691367,-27.2270603072699,0,0,0,0,0
98.7495078614892,25.926584529122,-207.522071370487,52.5553450507253,-104.87613950634,-47.6239711586012,292.842701643081,-27.289237671241,0,0,0,0,0
98.6634424226918,25.8938574888211,-207.440265206577,52.540425950155,-104.004888097367,-45.9398278797831,290.089426844026,-27.1106048853716,0,0,0,0,0
99.5685333675254,26.2820032041192,-208.299083407374,52.7157884133333,-103.881366676169,-44.0190371193578,290.526435031485,-27.3205339259849,0,0,0,0,0
102.416869341405,27.2299559948511,-210.966801701351,53.136611341917,-104.015645263176,-40.8980352608678,291.336231117256,-27.7315598733195,0,0,0,0,0
104.820482004215,29.1425696748318,-213.15441478568,53.9606534806656,-103.858571081861,-37.1851809688368,289.046530722018,-27.9629582090297,0,0,0,0,0
107.222951147815,32.0286796364424,-215.210786486224,55.1802173931758,-104.323442404218,-32.8558787350645,287.031466507791,-28.4499729747164,0,0,0,0,0
109.560504923644,36.1883631578022,-216.985011793117,56.8933825847357,-105.411408054962,-27.9534170696331,285.361108552999,-29.2580596453532,0,0,0,0,0
110.590252982762,41.8936422940701,-220.123948769957,58.830185997263,-108.501855851183,-23.8188455224927,288.226788786355,-30.5130236915371,0,0,0,0,0
111.695630769046,47.024842386937,-220.459382493501,60.7946795411554,-111.323719912104,-20.3561411243036,287.723168202031,-31.4333040932589,0,0,0,0,0
112.608717308675,52.2782342510955,-220.50531944219,62.6911339189205,-116.54770549455,-17.09880976773,289.262137416589,-32.6618558581283,0,0,0,0,0
113.360308010545,57.084899335012,-220.378412731501,64.3131762784487,-118.446609234426,-11.8876321967528,288.392511418998,-34.1952808641318,0,0,0,0,0
115.423555239357,63.4939253111708,-220.599202322187,66.2603461624174,-129.32863501879,-6.4968196703061,292.421035722604,-36.6850836662688,0,0,0,0,0
114.864873196821,66.9247876008533,-217.076553364543,67.4629439605232,-110.559644832745,0.588860520018529,261.370003421431,-37.8893193465972,0,0,0,0,0
113.882248280705,71.8533896444783,-215.918096893374,68.7267172556876,-87.8379487788592,8.64455617320287,238.3924863539,-40.1965113607324,0,0,0,0,0
114.270542601712,75.4506395614617,-212.908164376734,69.6793592671296,-103.799035797019,23.0327773372543,247.434764697475,-47.5950388433363,0,0,0,0,0
114.234749507369,79.6481991125427,-209.689853565329,70.6016184325679,-102.074957063682,34.5660179464658,238.55166230732,-53.3287199827166,0,0,0,0,0
112.415613892991,82.7351499409954,-206.334797378918,71.1488388899693,-100.177389222717,46.2611806822009,227.724106656113,-58.9534315627369,0,0,0,0,0
110.804828414011,84.7888713583728,-200.825710865797,71.4715937025183,-98.0132994413873,58.6220204057144,218.447576612078,-63.8769147986322,0,0,0,0,0
110.586126753634,86.7618873600666,-198.14439211183,71.6975361586933,-102.47946692939,68.8207760557128,213.0376621445,-67.5537542557341,0,0,0,0,0
109.209317969245,88.0602963084597,-195.464618716049,71.7458552903427,-104.370048726763,77.0969835536869,208.658557752758,-69.7045622190031,0,0,0,0,0
109.673242167777,89.7384712587372,-195.395403677345,71.8849620059637,-107.559461710676,83.7802297998508,206.694726378154,-71.063760069123,0,0,0,0,0
111.434583509659,90.9516768727801,-195.362025381724,72.0477625885429,-110.520675959693,89.2207310741629,206.705639242243,-71.8704361761611,0,0,0,0,0
110.997297915814,90.0083768838411,-192.950413044047,71.9747020912306,-111.32008359083,92.0867944529846,206.48174000719,-72.1713527233197,0,0,0,0,0
110.507471743403,89.9185838486126,-195.416859840346,71.9430663876039,-112.52458728378,91.7868801764302,206.558933039297,-72.1796972175824,0,0,0,0,0
108.491876243269,86.3739561740711,-195.485233148269,71.5698379257246,-112.764968754391,90.1248704144786,209.306431632068,-72.0222150367997,0,0,0,0,0
106.047222243461,81.6001592237314,-200.228973781879,70.7975839931498,-112.104291171732,87.2806356024877,212.136744255041,-71.6466012071051,0,0,0,0,0
101.993829258714,72.9324434789532,-209.144838359044,68.6423346218304,-111.249682931452,83.1642431787622,215.036073879366,-70.9608488114142,0,0,0,0,0
100.030524937483,61.6910621104487,-218.309574063712,65.0537287362362,-111.574510141455,77.622288032953,215.72234787501,-69.9302273542246,0,0,0,0,0
97.6170556848902,48.6804313832744,-224.569565474891,59.8960742367394,-111.05807225732,73.9815742748947,218.581767985342,-69.0091171113779,0,0,0,0,0
102.224022279412,40.188985036863,-236.857119471476,55.928966270949,-111.66342752484,70.9488408420408,221.814212105786,-68.12057866371,0,0,0,0,0
100.738410401079,26.3776573682909,-242.572109748612,49.2370424553446,-111.233640182408,66.4707498040491,222.149285576959,-66.9002271187625,0,0,0,0,0
100.017058824398,16.4278075708145,-252.574186058812,44.1192659515656,-112.912324056407,63.668873681221,226.070234273243,-65.8485384261544,0,0,0,0,0
111.193202720839,5.38258596846425,-272.421994581216,39.4502967711293,-113.223298996862,60.5304847384971,229.482024704405,-64.6225452026527,0,0,0,0,0
86.7009388014074,-6.61988869924699,-256.618325425105,33.3404464966598,-113.80081971355,56.9282895653144,233.235273584544,-63.1353239807424,0,0,0,0,0
90.056068234846,-12.9007964015087,-267.551851644089,31.750939231853,-115.230963357183,53.1349459903338,234.859511241211,-61.672641914903,0,0,0,0,0
86.8879675220449,-19.2505525399089,-265.33028907424,29.5862106630149,-115.388232046264,50.2942609954139,238.416173557966,-60.3243466483771,0,0,0,0,0
91.1025626941969,-25.1460463452764,-273.079361887947,28.6198518461135,-117.030960377559,46.7102602388429,237.44191096332,-59.0651847539218,0,0,0,0,0
94.0682871054907,-30.014716409229,-278.867091344504,28.0786306131238,-116.91553195343,43.3461498894803,238.002808190807,-57.7088786286457,0,0,0,0,0
96.1428591871178,-34.4079480385919,-280.212147758736,27.401909255958,-116.073026161797,39.888486640753,237.920183564832,-56.321922991606,0,0,0,0,0
97.6892705669034,-39.0250608388961,-280.851418568943,26.788237410665,-116.579767933932,36.5527126773887,235.983346944811,-55.1865844784841,0,0,0,0,0
99.8220931813063,-42.7130801218358,-284.545263875863,26.7591155042081,-114.78894287153,34.1629094162506,234.737904024563,-54.2486699484613,0,0,0,0,0
100.936804101459,-45.3975969514636,-284.582552604068,26.5271822634351,-112.883674592788,31.4099882680036,230.406755501019,-53.4603581648578,0,0,0,0,0
102.338632401215,-47.338119638568,-287.667207329313,26.7193919027769,-111.580410086875,29.2210780538499,226.523625028592,-52.8954257535295,0,0,0,0,0
102.69447901613,-47.8858178495367,-287.665314709108,26.6879797968615,-109.67922053007,28.5910001122663,224.789766241451,-52.6645802485549,0,0,0,0,0
102.158681870107,-47.1381115419214,-284.708335193245,26.4300668870856,-109.901024421801,29.0266580014716,224.95967912147,-52.8535157734107,0,0,0,0,0
102.508909176332,-46.3057506325613,-285.01701071273,26.5337004727271,-111.848548722457,29.3457962188449,223.888087465769,-53.321164884428,0,0,0,0,0
102.558727253434,-44.3109761242756,-285.458615445715,26.7492253104851,-112.407794873066,30.5831870044361,224.277277027941,-53.8468077049752,0,0,0,0,0
102.378727610609,-40.8648426633438,-283.017100011904,26.8698164259073,-112.244396314163,33.1072812510522,226.706911292007,-54.581554477956,0,0,0,0,0
102.346002395774,-36.6866549992178,-280.568217218613,27.1998686523811,-113.153592444411,35.9505098220305,227.177575471086,-55.7724682776649,0,0,0,0,0
103.890794491097,-32.6368112164388,-282.083030676384,28.0360828163078,-113.912337176643,40.0043207078106,227.296100932193,-57.4437946072471,0,0,0,0,0
105.915841529939,-29.0161340528989,-280.771173247137,28.7035130839849,-114.342923163406,45.9193741689701,226.800186606895,-59.8055479799547,0,0,0,0,0
106.810494852663,-26.2965142506768,-278.550395033397,29.1761684844276,-113.795625093187,50.9621048188223,225.659325352711,-61.745366628539,0,0,0,0,0
111.971922150468,-22.4614557602913,-279.831739549016,30.4871643391044,-114.039688832133,55.7853270697234,222.352626612427,-63.7260224628186,0,0,0,0,0
112.405481715765,-18.4177393811685,-274.166523552348,31.3436228721025,-113.535704188826,60.9012759038839,224.058171436939,-65.1772187270693,0,0,0,0,0
124.427192879722,-11.0986819016748,-282.496269745736,34.7410314115709,-115.42839915473,66.9742411556584,224.080734237077,-66.9544682328498,0,0,0,0,0
148.005327249839,0.165716573494279,-288.98414451892,37.7108785792447,-115.037694607866,71.7678385652379,223.063942208098,-68.2739204929634,0,0,0,0,0
76.6044241168472,8.02069324149072,-217.647239194153,40.0147810904404,-115.079781805145,75.8306065908732,219.701263339574,-69.4072705663917,0,0,0,0,0
98.1300102851321,25.1820702427129,-233.687157775876,49.0677110547374,-115.7913664304,80.5637462169674,219.070049849961,-70.3906939322449,0,0,0,0,0
101.00412687628,35.7441889204997,-226.905807167362,54.7053190346279,-115.305969352447,84.8644493834919,218.170624086522,-71.1835410337128,0,0,0,0,0
100.802700787236,46.3850247433179,-220.996706927976,59.618497929061,-114.428274145291,86.8186409375232,212.510504399327,-71.6049148253717,0,0,0,0,0
105.107263878279,56.4389318814824,-215.537176656099,64.0675990164067,-112.781715741568,88.5161404463754,206.973992289975,-71.8640801046359,0,0,0,0,0
107.624158418968,65.2157384125062,-211.284719617293,67.1522726020694,-112.660726938586,90.0978787628442,201.735210611326,-72.0401434835547,0,0,0,0,0
107.386221390136,72.8458515985894,-205.757063330992,69.2418918320492,-112.275463300722,92.0367725322806,199.004811986734,-72.1590519105369,0,0,0,0,0
107.830563640314,78.7161338116125,-200.638694857204,70.5230429566555,-111.923690584779,92.9959641724494,196.415822438381,-72.1754297523438,0,0,0,0,0
111.519075738325,84.536960722004,-200.946119000721,71.4736993041658,-113.197772084231,94.3316899758158,196.248653695004,-72.275096169087,0,0,0,0,0
111.33576589908,84.4498144257202,-198.420948062972,71.5090876008363,-112.931656639845,94.206329566693,196.270357171166,-72.2617376653453,0,0,0,0,0
106.969773522484,81.4203286399572,-197.904110023219,70.909474396021,-112.477816006384,92.5777737580411,196.457717452256,-72.1791127424248,0,0,0,0,0
108.078606379446,77.7521516528883,-203.24625619871,70.291395350085,-112.785904368302,90.7360898148576,199.162906766306,-72.094846697871,0,0,0,0,0
102.437728321013,68.8451739098383,-211.721089939901,67.6247755510442,-112.236872324205,87.953523637459,201.942985635295,-71.8372940634513,0,0,0,0,0
94.889616193111,54.7715223224182,-214.989485688528,62.47049664323,-112.638805398722,84.0801864550091,202.418089682332,-71.4312407764073,0,0,0,0,0
93.0029953196364,44.5017998468135,-221.018148576413,57.9989437966855,-113.283572911254,82.0967134372875,205.303050035825,-71.1151787640516,0,0,0,0,0
90.3900046969761,34.1186313832785,-226.920394502614,52.8587364988395,-113.447931046246,79.5492919951225,208.222099213819,-70.6290338810961,0,0,0,0,0
87.0618861193502,23.6718197106987,-229.467094306282,47.5396569407016,-113.272174858342,76.6527554947275,211.130979510974,-69.9853130382351,0,0,0,0,0
70.5041805989887,10.5711436157937,-218.194883954012,40.4035667130536,-113.408842875109,72.5297473673277,211.711427741975,-69.1259248290156,0,0,0,0,0
47.9195372957552,0.260901570728668,-194.678230673766,38.6641345820459,-112.213176727823,68.9016912552252,214.305950564252,-68.0947854767879,0,0,0,0,0
168.455887784978,1.60899304721214,-326.147199221559,40.8191248151182,-112.473748831781,65.7179948443878,217.448197130417,-67.063597628963,0,0,0,0,0
225.216196022368,11.2361834602524,-382.36239416331,38.8554273467962,-113.68031007224,62.1992011470976,221.219531142611,-65.8063630508595,0,0,0,0,0
240.605270291731,16.9792685853827,-401.952050373146,35.4308992772116,-114.013947975209,58.8087184522018,224.646783047197,-64.4832441071757,0,0,0,0,0
242.904273882332,21.1774014549625,-407.720976207233,33.6989341676188,-115.005074196406,55.2762723346477,228.62550203869,-62.9796611058507,0,0,0,0,0
246.205821836792,24.5727147439729,-414.026160938515,32.1877790186504,-115.861547376745,51.524478206273,229.866161335647,-61.5710084200657,0,0,0,0,0
250.254786523321,28.9573434356791,-417.930406928695,30.8137672990835,-116.497361359061,47.8918394759656,230.991598837155,-60.152499502997,0,0,0,0,0
252.996076633645,32.8317123156374,-420.626709306685,29.7902297885083,-116.151806783772,43.8136314235746,231.437927028771,-58.5591038167871,0,0,0,0,0
257.399453525788,37.0533471089656,-427.088056428271,28.3854510541418,-114.391622551539,39.6688224716632,230.628843653955,-56.949328970823,0,0,0,0,0
259.757019596957,39.8450233880922,-428.818978358735,27.8220152200458,-112.566043840754,36.199216351859,229.517633273316,-55.5564041966846,0,0,0,0,0
261.580101661957,42.9089237635768,-430.153748601521,27.3334708664477,-112.472872319143,32.9406959409128,226.934474360304,-54.5013164326418,0,0,0,0,0
263.594911387148,44.711072238888,-434.196529677234,26.6981417187055,-110.539624247638,31.0376373188915,225.3653902972,-53.7275720328595,0,0,0,0,0
264.578454353071,46.5002863729062,-434.754389694862,26.4905852585037,-109.180764725147,28.6349751268113,221.445591356801,-53.0764042661809,0,0,0,0,0
265.125917095187,47.5964140943763,-435.046789129704,26.3800965786067,-107.213739447287,27.519046658135,219.671397788705,-52.6160105794714,0,0,0,0,0
265.323874499242,47.5015889371195,-435.111430368231,26.3822309159808,-106.467635360964,27.2425707249829,218.982243686441,-52.5029781193988,0,0,0,0,0
265.668009032975,47.3599165305666,-435.227437393316,26.3843209467429,-107.311390447773,27.1034492995368,216.960725175321,-52.8311100082021,0,0,0,0,0
265.153259247805,46.0134516463968,-432.006544710345,26.8819277417631,-108.274048271622,28.182559120767,217.799757376002,-53.2914820922338,0,0,0,0,0
265.349223779788,44.0484282926228,-431.93147093091,27.0718526172042,-109.167381245869,29.3609446067553,218.549292832242,-53.7913397466304,0,0,0,0,0
265.035325725187,40.7113220994845,-428.591547362117,27.8609321152776,-111.309463286994,32.3315568580736,220.257051907534,-55.0267420850547,0,0,0,0,0
263.102578594371,35.857787216563,-424.166721210041,29.056627012261,-112.198428167839,36.9403422781063,223.374085385502,-56.5823001756629,0,0,0,0,0
264.221265390732,30.727561863505,-424.418970286709,29.9668037757997,-114.941120016547,42.9658231769034,224.888694993283,-58.9395104082869,0,0,0,0,0
264.962690339745,27.4436622686384,-421.762187895535,31.0931582263737,-115.544047499163,48.1229377294639,224.566835816284,-60.9124994598957,0,0,0,0,0
267.737418834884,23.5611019945007,-420.742944944481,32.4079217945346,-116.143310870882,52.8517648396121,221.455101648044,-62.9156907296903,0,0,0,0,0
263.062415999809,18.2439327436016,-411.110317141259,35.1274189094545,-115.916667499501,58.0834131067914,223.167339447769,-64.4232178043785,0,0,0,0,0
259.643216797688,10.9167049075646,-405.088215644526,38.2509159353441,-117.094641670282,64.1667071053755,222.731019596536,-66.2776774635385,0,0,0,0,0
187.112186996973,-0.16189773353596,-328.826354643352,35.5736591171552,-118.005456609629,68.6085042474032,222.286243640862,-67.499334222486,0,0,0,0,0
323.072895939267,-7.54844207408686,-452.078734845804,44.4161919542013,-117.775751507101,72.7416018217675,218.62067215618,-68.7611746403548,0,0,0,0,0
306.16152184781,-24.9205268273659,-426.55426012643,55.6316856658399,-117.534286106107,77.3539315574263,217.571625326112,-69.8099831229964,0,0,0,0,0
304.698745244367,-40.0710186124429,-417.88431121747,64.0209703691174,-117.306548477939,81.7554475104993,216.591414503942,-70.6804222248027,0,0,0,0,0
302.752874345282,-49.8685219213408,-407.292226849567,70.3640993930709,-116.039132461243,83.3393756988112,210.790074356624,-71.1559557280536,0,0,0,0,0
302.515684767076,-60.0424788539662,-400.264931137288,75.2496822828602,-114.922903295633,85.8623533170076,207.602813436687,-71.5805671562311,0,0,0,0,0
303.018459306655,-67.5794680484436,-394.024476114211,78.5432746857933,-113.649221831046,87.1917767625571,202.171742153026,-71.8035706483928,0,0,0,0,0
302.871166343994,-72.9476184807101,-387.975574907439,80.7324250995296,-112.514531390834,87.6264485776142,196.990545222846,-71.8699594636653,0,0,0,0,0
304.699411614943,-78.6033333246134,-384.612727848054,82.2637887667495,-113.13042413057,89.990985857222,196.764491333336,-72.0612004277611,0,0,0,0,0
307.762055570356,-83.9898750695923,-383.49737007385,83.2023392570913,-114.743172011188,91.9289750122374,196.558188799119,-72.2173122027472,0,0,0,0,0
308.384243165681,-85.8822165859022,-380.584271992163,83.7328444101131,-114.854072629359,92.5267518053796,196.471799747064,-72.2485245221886,0,0,0,0,0
306.957881323182,-86.2336299811643,-380.293970393098,83.7505818452997,-112.321885737227,91.8365597480778,196.535386913436,-72.1370015204397,0,0,0,0,0
301.585176908541,-86.0485285634285,-370.629577219462,84.1660703460508,-109.586046908497,90.5102019876112,191.644675925979,-71.914046462158,0,0,0,0,0
301.814451796417,-89.2481172980735,-368.418930616464,84.4375021128794,-109.387744445795,92.1303174896549,191.087886780883,-71.9560791486219,0,0,0,0,0
300.042772718475,-89.2244832810755,-366.11602829224,84.3542978055227,-107.047115359741,90.9199941670833,188.77994053744,-71.7310091953565,0,0,0,0,0
301.481630796796,-86.9906851423926,-368.115350743159,84.3314712626937,-107.162930480409,89.360180419671,191.619385738216,-71.688113618535,0,0,0,0,0
304.890747435576,-85.4434620725436,-377.991824174838,83.8078263989338,-108.70460700666,86.2200703091042,199.233913160412,-71.5270939080481,0,0,0,0,0
307.053790079732,-78.3246836743941,-387.587112493528,81.8927803946778,-108.968579038447,78.3336148941503,207.238455138116,-70.2885853919815,0,0,0,0,0
308.265633394594,-72.5439840682048,-396.918714164377,79.2438561746783,-108.155874017671,71.6718430745613,215.11254710791,-68.5374204835387,0,0,0,0,0
310.98813059944,-68.3383735896385,-404.2225155657,76.7349305063541,-108.436019686749,66.0277452464988,220.89415439476,-66.7603712871131,0,0,0,0,0
313.163281267553,-64.8207713808431,-408.937546682974,74.6818194036383,-107.366818065736,60.939629378905,226.169162517543,-64.8392936090116,0,0,0,0,0
316.322856769582,-63.3605336109176,-413.615290752016,72.9483301168185,-109.209382309397,56.8402202217746,230.372640635409,-63.2451179478212,0,0,0,0,0
319.137625457994,-64.2211728034622,-419.894329596378,71.1729712038882,-112.948403482072,53.9821946907137,236.027525048242,-61.8718932788937,0,0,0,0,0
324.861603854141,-66.4933008450756,-427.390721532878,68.7875224723849,-119.616571076786,53.9740339278819,246.695876894822,-60.895768734154,0,0,0,0,0
329.783573743165,-70.7166873558821,-436.182240978828,65.9405791757119,-125.560957179562,55.3195580044201,257.022903283402,-60.1197569233853,0,0,0,0,0
334.329098454344,-76.520561546334,-441.929075623621,63.879796998578,-132.28016348332,61.7933517836825,266.175983578451,-60.5389263523654,0,0,0,0,0
335.127506545934,-81.9431339615921,-450.395603713472,61.5365495557282,-134.464834188767,66.4160986983676,271.923080043926,-60.9605430981659,0,0,0,0,0
334.169511811919,-89.2046865659386,-453.231260496363,61.8551954580228,-134.940413105799,73.0778482314572,274.525118516946,-62.3701051984181,0,0,0,0,0
331.14211012343,-97.5007370142146,-445.59985138513,66.4578597285467,-131.799040012179,78.0137362696963,271.545072974061,-64.6011417653599,0,0,0,0,0
329.572749257455,-103.487481261977,-440.300086860888,69.3443116393037,-130.240477987119,82.4378054297934,265.088284804961,-66.4863243394624,0,0,0,0,0
328.765168639085,-105.859642600045,-431.375159287077,72.6610295520919,-127.568935923695,86.8841260027617,256.544597922019,-68.6204375757947,0,0,0,0,0
325.86694179433,-106.023953213869,-425.606026732699,75.2372457864774,-124.224534091136,90.078123024118,245.433093254094,-70.458595340064,0,0,0,0,0
323.773452679646,-105.08815473771,-417.877762983465,77.7446561400787,-119.805097179179,92.4864816356487,235.6020815193,-71.7756545514509,0,0,0,0,0
317.449404551899,-102.233094160446,-411.458458292318,80.121470080461,-110.076325408655,93.6060573369461,226.608057941802,-72.5013274932972,0,0,0,0,0
305.147274194079,-95.6810631613044,-402.921938501998,81.8939531642159,-94.0498168432002,91.9914553662167,207.591761117918,-70.6448775859092,0,0,0,0,0
283.925938512989,-85.0971364321286,-389.165201552978,80.3600859484986,-70.7091546164057,94.2212450533973,193.645636232368,-64.8622899500296,0,0,0,0,0
263.886835687311,-77.752888462707,-379.160308956041,75.3304566605941,-54.6849950797917,96.0021471577169,175.818976577485,-58.8104216156082,0,0,0,0,0
246.503571462705,-69.4567640005681,-367.0412529112,68.9893982928071,-38.7556523726136,98.409980386531,161.848456937996,-52.4896461267046,0,0,0,0,0
225.376857575316,-63.8304528078977,-355.937467163218,60.2423840634945,-20.40554066005,97.4627051833627,152.635113626306,-45.0280944998232,0,0,0,0,0
203.557993896478,-62.0287729851439,-341.675847751398,51.2382721224909,-3.96769282062189,98.3888180836943,145.283024410397,-38.3135409950279,0,0,0,0,0
186.288236448309,-62.3743849244863,-334.051372313139,44.1950533653137,8.37225594674945,99.1931062950353,141.606303482526,-33.5292248846268,0,0,0,0,0
172.830735089939,-57.8637825926503,-324.908625729817,39.5974400436306,17.7220911294568,94.5313336580709,133.102426783553,-31.1734609392857,0,0,0,0,0
162.812491303182,-58.9910598428173,-317.340120278842,36.6367844938633,24.0783464651875,94.2437668603204,131.604262651118,-29.1848944914547,0,0,0,0,0
155.123172979736,-58.8565960357018,-313.514403950531,34.5530538657962,29.5788553769009,93.2853274339673,125.457728074739,-28.5946678291106,0,0,0,0,0
151.038469354635,-59.6376876895115,-311.628431666816,33.532874351081,32.3476352691503,91.868550469319,125.612038695367,-27.6255587778597,0,0,0,0,0
148.520942089305,-61.0534537959308,-309.137617035784,32.9487253590497,34.3436001683481,90.1918118057161,122.67527734496,-27.5239180754642,0,0,0,0,0
147.902458639527,-62.152256538224,-309.12617030943,32.7963977185786,35.5178916914174,89.1391836433582,119.744964609823,-27.7298283037935,0,0,0,0,0
148.570015651707,-62.8916516044298,-308.747066952687,32.9556288136786,34.9110358453324,88.8764497586414,119.665769524505,-27.8925406866137,0,0,0,0,0
151.412027205708,-61.4511688996705,-308.702940055611,37.144022754736,32.6239320389981,89.176208800614,122.470776800937,-27.9718685794628,0,0,0,0,0
159.971417749308,-57.2696079435766,-315.64642398827,50.6266872061349,28.772728234888,88.7098382426234,125.236692884491,-28.539227753993,0,0,0,0,0
169.926356336062,-52.0961291205242,-320.646275176766,63.4793659005107,23.2622933554872,87.2334776011634,129.379851741838,-31.9541943697928,0,0,0,0,0
184.175584482787,-48.4850035190552,-331.986436214492,80.1454034627666,13.1256620755621,81.8673366087482,137.753965442312,-47.879544720149,0,0,0,0,0
202.671470812235,-46.5722952746801,-344.64375027214,100.699053211785,0.23472469329422,79.47543528385,148.188828365066,-68.0309450513915,0,0,0,0,0
223.1711271229,-44.693637062679,-359.85438686713,114.491904606396,-11.1994159783958,74.0886748112572,151.952638629801,-82.3873265809241,0,0,0,0,0
239.546705250707,-45.140686799882,-370.751608930711,125.077262801837,-20.0941606198626,71.828570862315,156.240219992472,-92.2961921157566,0,0,0,0,0
254.81286616195,-45.2875555495631,-384.136398554213,132.679947274806,-26.5649732663365,67.2332526477073,158.834394823788,-99.8346582562926,0,0,0,0,0
262.693705375553,-44.6428901270014,-393.711843037354,134.894472907697,-29.6772560158012,65.2246517471723,163.236394037842,-102.494471151836,0,0,0,0,0
268.877556318692,-40.9773052421199,-401.293334991316,135.159365846218,-28.463637353075,60.1748937820731,162.052292841458,-103.54572447459,0,0,0,0,0
276.164513991486,-36.9850706354049,-410.181469799286,133.178379135181,-26.6041019562828,56.1547284924783,160.353220577822,-102.915556209521,0,0,0,0,0
283.938573069122,-34.2776793271201,-418.025639811892,130.735321642701,-26.5318361230055,52.4083423279716,158.941133752855,-102.866533584964,0,0,0,0,0
295.736389556696,-31.7716828160331,-426.659896865235,127.882169192007,-27.9537587726387,49.3616210811973,157.910628003735,-104.29875391649,0,0,0,0,0
305.013938100169,-30.852710833636,-430.773228594565,124.959488632215,-29.7514084982892,44.3174216224334,154.520255426713,-104.160741687229,0,0,0,0,0
318.107358185452,-34.2857577262895,-438.338931303545,120.755566324737,-39.2751015452714,38.1971629492246,156.789908979617,-107.271295938596,0,0,0,0,0
327.155819628405,-38.0017225486614,-438.537213167991,114.304145638664,-54.6331619949706,34.4839711014145,162.967142920929,-106.479688666269,0,0,0,0,0
332.830897503414,-42.7620088180368,-436.030587908946,105.031640808861,-76.7312872685374,32.5288918599118,174.816306327647,-102.848273562761,0,0,0,0,0
336.445236564685,-46.2253766105529,-432.338886687158,97.9780771790698,-99.5878121543213,33.7923811095282,186.696160493519,-96.2026166192083,0,0,0,0,0
341.63215320435,-49.618368078897,-429.649886909279,89.9428219424886,-118.318870499273,38.1312883748963,198.056094877358,-87.2533460028326,0,0,0,0,0
343.538630320398,-54.8629785908879,-427.575712083784,74.9537216703247,-130.551613733932,46.3895783540249,209.85061448059,-72.8374991486814,0,0,0,0,0
345.372158664755,-62.5796801295222,-429.555855849723,63.6670002778103,-139.062212247112,58.1609818280648,225.856137976239,-63.128095580198,0,0,0,0,0
345.688956643037,-70.4469177769764,-435.180332486752,62.2901052270031,-144.059038253199,69.8784712240136,241.146912670539,-63.1040700546211,0,0,0,0,0
343.18957644518,-81.2015079504542,-441.500138332153,61.7995030706187,-145.218911630879,78.6419131260063,255.875426056883,-62.7767233006782,0,0,0,0,0
338.51238256145,-92.1336579832224,-441.312328831774,64.6617705003104,-142.828716901955,85.9482071324365,268.030332795686,-63.4023019311185,0,0,0,0,0
335.253724999861,-99.5594457020344,-442.196580577562,66.2686054450897,-140.454995439593,88.5632851814955,279.244442601455,-63.4573669448996,0,0,0,0,0
334.80446024504,-102.754025946399,-437.274016689671,68.3991029048184,-140.981635703155,89.7632564997069,281.467547655676,-63.2385656321419,0,0,0,0,0
334.739889608325,-103.069016327083,-430.922672797651,70.5962149344476,-140.57646299667,89.2868323324566,281.510226997372,-63.3044070125753,0,0,0,0,0
333.094018962324,-101.476775900483,-425.488120041735,72.7858811784055,-140.402538501435,88.689769873991,274.73376457909,-63.9513404659212,0,0,0,0,0
331.162914258743,-100.033678634399,-422.163145138087,74.2669372187654,-138.109400810432,87.9569810902857,268.339401043839,-65.1913056951152,0,0,0,0,0
328.782617941533,-97.742095316276,-417.14760468204,76.1297448256794,-134.217676807314,88.4938214906494,260.000684725655,-67.1356688679188,0,0,0,0,0
325.149600461232,-96.3611851667592,-414.057466940523,77.6174401608234,-128.270973692656,88.0970201454658,249.885522809007,-69.1432678160322,0,0,0,0,0
320.88168355873,-95.7171152794404,-408.703166849966,79.5657938035432,-120.355994430914,89.309329731421,239.397358531654,-71.0641668276251,0,0,0,0,0
305.734611781985,-88.2676788534606,-400.704838027729,81.2572133180618,-103.171076830205,86.1030937444648,223.838612414975,-71.1057221551048,0,0,0,0,0
280.841122993261,-78.0504386223947,-386.276725457183,78.9571643964542,-78.717583127427,86.0424668139489,206.606718733338,-67.0279501932654,0,0,0,0,0
261.287334613048,-73.6072522562634,-374.694354543141,74.2250278797021,-60.7722333723527,89.0608998838839,193.970715384963,-61.4604632015914,0,0,0,0,0
245.933744535171,-69.6578016685758,-364.186185026985,69.0167812136254,-46.5768854291045,90.330188634742,178.343701251159,-55.7177933977029,0,0,0,0,0
231.672845812803,-67.3684627065436,-355.477457615277,63.4694241243027,-34.5884478249909,92.6989550611162,167.742911110872,-50.6795870452662,0,0,0,0,0
216.772971601245,-66.5245040576526,-346.369068878991,57.2999324305785,-21.7024939100601,95.2498885026417,159.747158739626,-45.0735130754372,0,0,0,0,0
200.830607898917,-65.2678926462995,-336.744979777513,50.5154018439404,-7.37868915929806,95.8966516701579,148.610959652592,-39.4594617918726,0,0,0,0,0
187.323003007487,-66.0371557305164,-330.988503450894,44.8902604404621,5.2041221158294,95.5051648778364,143.847903307465,-34.4375156326713,0,0,0,0,0
177.343550322879,-66.556841426926,-323.830296601294,41.3074526123481,13.6710569612917,96.6679416206049,139.218535761828,-31.7169109352508,0,0,0,0,0
170.533755258676,-66.5234558638976,-320.004707842736,39.0101423608656,19.3810052561586,97.1746175877179,137.837105696976,-29.850982038027,0,0,0,0,0
165.778426657038,-67.2927607769011,-317.901149286421,37.4949513314366,23.1229836031935,97.1007469244124,131.685514000581,-29.6932303048581,0,0,0,0,0
161.302310197829,-65.5802090666694,-313.375977643064,36.2942136820656,25.4332071562855,94.816472678119,128.451925705097,-29.4053636219495,0,0,0,0,0
157.898439406053,-68.8093437974952,-310.740786827821,35.4018519315791,28.5521280772988,95.9580451040626,125.513970240077,-29.1363600118804,0,0,0,0,0
155.702714051458,-69.1416898986745,-308.376745926656,34.8742266114676,31.0681567524199,95.8400625228897,122.642581104311,-29.0072680708739,0,0,0,0,0
154.459254600101,-68.6318207334239,-308.805712194511,34.5000635229961,32.8489145398145,93.8630221311358,119.734017166931,-28.9473844799579,0,0,0,0,0
154.977524229259,-67.9160181944209,-308.785581303271,34.6364760789763,31.7700440697951,91.1208419184429,119.486868429808,-29.0514882941222,0,0,0,0,0
157.889165764304,-65.6852007854266,-309.238635211208,40.2402273931597,29.6997300364515,89.0057426253468,119.188909642348,-29.5848195067846,0,0,0,0,0
162.698302716213,-62.2431607349489,-310.147578607544,49.4841443391017,27.7110200482893,88.2429529982163,118.993699709782,-30.2311025698556,0,0,0,0,0
168.843601576413,-58.5187309209239,-314.438740547452,59.5273575177252,24.4206226343267,86.4101854306348,122.606805123869,-32.0256240737003,0,0,0,0,0
177.513368711226,-51.3951224118425,-321.375122171737,74.1672400565527,16.710009359574,79.5537188897626,128.619942529376,-48.3732344431948,0,0,0,0,0
186.785466960287,-45.5995155113177,-326.387152427814,86.5808066358987,8.84723361439046,75.5884622251963,135.026978988694,-61.1435117371656,0,0,0,0,0
195.661757473326,-42.5799130405165,-334.270084707123,95.7140958421274,3.10380150467844,70.4653988916681,140.220564150352,-68.7832677374678,0,0,0,0,0
207.450231046238,-40.1889377148792,-347.46079492174,106.004773200425,-3.68820859561413,66.1167268366587,146.14656016092,-78.7412330105282,0,0,0,0,0
227.513629448057,-36.3364942284882,-362.949313744061,117.821487258649,-13.8021626085121,61.5425872074712,153.513217360014,-90.3708370543394,0,0,0,0,0
253.702137841058,-33.7500369190469,-388.155530386053,129.053398132173,-24.8387873931318,55.5519807301729,160.315607097555,-103.461297281613,0,0,0,0,0
274.977455168939,-36.0880015037135,-410.995892634722,136.555949356407,-34.364099837514,51.1295020516984,167.71604572709,-113.42143708691,0,0,0,0,0
292.618956437893,-38.9640213512821,-429.314801954226,139.056358931794,-42.8588189113358,45.1400448586572,173.862223830382,-119.756529539815,0,0,0,0,0
301.255716549704,-42.0903400321907,-440.988953458426,138.984595454185,-49.8879224302392,42.2013188911505,181.338985066177,-122.400753506061,0,0,0,0,0
304.134894960878,-42.4364452189147,-445.352521162053,138.159941009186,-51.2908929254814,40.85299668683,183.766471830076,-123.457426848454,0,0,0,0,0
303.913346438981,-42.4697765411337,-444.577200535967,137.465537980302,-51.8680283312438,40.9663458099403,184.12339096816,-123.699704070202,0,0,0,0,0
306.29916819723,-41.5121413654408,-443.934991819818,136.532848992636,-52.8005549151189,39.7138756318974,182.252101732762,-123.611085593516,0,0,0,0,0
306.856541403721,-41.3886807956374,-439.532119983287,135.641519227082,-53.9396413118526,39.7975962616959,179.105767303683,-123.564196781303,0,0,0,0,0
309.996355817521,-41.9686868781478,-434.386248433465,132.219619329006,-60.1869614718076,40.6752208728974,178.414371332344,-121.595525424451,0,0,0,0,0
314.267209342204,-43.4107309362754,-428.934947364173,123.578778812376,-71.429373406522,40.2421282298049,180.036954919009,-116.536283495957,0,0,0,0,0
320.505263809489,-45.2998141346038,-425.165742945843,114.169792770722,-87.3073938611016,40.7113635515617,184.688741349672,-111.407844982191,0,0,0,0,0
324.038963623359,-46.9719118428566,-422.279384810309,106.842536973084,-99.7359606724788,43.8806801594328,189.258330749981,-104.894061802338,0,0,0,0,0
325.786900861112,-49.9123868769551,-419.428305406118,98.7315122307892,-111.371291743653,46.4732170283544,192.442300665051,-97.1153936301778,0,0,0,0,0
328.11161404335,-50.6236640697406,-415.259934460046,90.6510253811846,-118.243021782597,48.1784950392183,194.420916602664,-85.425336521776,0,0,0,0,0
329.433883931507,-53.3223817689048,-415.698445313731,78.8488520344262,-123.702442904265,51.876650082115,201.914861940599,-71.2040211604235,0,0,0,0,0
331.769527883833,-56.9409233478765,-416.309325415209,69.6257434318799,-131.813860696056,58.4701303377946,211.817245656469,-65.5397918392166,0,0,0,0,0
333.838960097501,-62.8072927594374,-422.31638454405,68.4435528804727,-136.627579762697,66.102479542636,225.700746226419,-65.2894955689474,0,0,0,0,0
336.301437977879,-68.2316190535577,-426.025983376115,67.6446717622413,-139.976137702138,73.6138221539921,238.463102924865,-64.9810116351489,0,0,0,0,0
337.907949222392,-75.2308233148276,-430.222113236653,66.8279497802942,-140.82028545089,78.9388381284204,249.837074031179,-64.6397749857167,0,0,0,0,0
337.655564032428,-80.3059101022208,-434.790461354978,65.9504766550781,-140.138235014977,81.9409117424985,259.977666772682,-64.3269618468941,0,0,0,0,0
333.39510943458,-88.1386128231924,-431.184579964806,69.4704484697903,-136.107485853674,85.258373269113,266.495174021812,-65.4471828679444,0,0,0,0,0
332.390880702051,-95.3281239088035,-429.363536078432,71.2003757598114,-135.878100690464,88.6963432300811,270.744699316741,-65.7761368109097,0,0,0,0,0
331.266711317226,-99.5937081794425,-426.349275175864,72.9198134680825,-134.901374882664,91.7682388155984,270.756709650628,-66.6069461508031,0,0,0,0,0
330.518612807636,-98.8987151486993,-420.576189278721,74.8151552362426,-133.487042069215,89.5048279232723,264.381978767955,-67.1524368275672,0,0,0,0,0
328.029484945356,-97.9675032353588,-415.160356297103,76.86832329825,-130.946920787754,89.7406804378706,258.126974870622,-68.3239765811458,0,0,0,0,0
325.087334617179,-96.3425666024461,-412.028593442138,78.1359066187577,-127.404338730491,89.3053706567267,249.895174954882,-69.5359768971884,0,0,0,0,0
321.488536903019,-95.1325794599239,-408.803812859007,79.3894149505137,-121.207208103493,89.44390533659,242.253901949858,-70.8914813463012,0,0,0,0,0
316.218286303888,-93.6300374379475,-404.425675762351,80.7890252063634,-112.608129273759,89.6438168499765,232.65502188182,-71.8258327342909,0,0,0,0,0
302.094714720976,-88.0459619407193,-395.560002746481,81.9389915841141,-98.0351497268869,88.5301838239345,218.255433648091,-71.0354746775925,0,0,0,0,0
283.770621617258,-80.6050865076184,-384.662405655291,80.0859946983287,-78.5777013426991,90.1912420301109,206.795621295401,-67.4599148922047,0,0,0,0,0
265.320132045661,-76.9717330370894,-376.685379345862,75.8109000340581,-62.083595210912,92.7138430861793,194.228665905227,-62.0731038377259,0,0,0,0,0
250.518835986887,-73.0371785059856,-366.5475791858,71.0291624105228,-49.5527080800884,93.9121960149774,182.15932370877,-56.9267128806544,0,0,0,0,0
238.077040342537,-69.2830246199775,-358.294121048706,66.2213883444289,-37.8614527695429,94.8309938352602,171.768118178496,-51.9349562271435,0,0,0,0,0
224.571548926448,-66.4154631933562,-349.503662777082,60.6675690712248,-25.6348922617998,95.9284365241474,160.223929314427,-46.8540640213418,0,0,0,0,0
211.543984126207,-64.2014489619018,-343.082686337585,54.9700042393464,-12.4411712991793,95.7861075919164,147.466064981405,-41.9927026173456,0,0,0,0,0
196.859259317661,-63.696540656779,-336.305542787749,48.6723371817676,0.102199467479727,95.7057786583696,142.647987229061,-36.8862634192441,0,0,0,0,0
186.258686575694,-64.0796025288866,-328.125883457651,44.6463103506482,8.72370569936615,96.1887115816337,137.699432694195,-33.9684047298911,0,0,0,0,0
177.616295204722,-63.9774620061091,-323.76880816133,41.4233769563949,16.2150506922451,95.6670252515213,129.821486120701,-32.4698668274897,0,0,0,0,0
170.919106930163,-63.8198131020344,-319.876399242784,39.1670404454369,21.1339143342151,96.5254481928991,125.629382160979,-31.6177484590467,0,0,0,0,0
165.780825326014,-65.9800068276562,-315.172972521518,37.6532950931369,24.2636119467669,96.5828467543314,123.883912303965,-30.9363929388974,0,0,0,0,0
162.299530538156,-68.9359530845274,-315.444571667157,36.5095534145967,27.0225607647241,96.3148630254584,125.47693444442,-29.6527520581217,0,0,0,0,0
160.481983234997,-70.0339588480344,-315.666952375724,35.9498697255226,29.0296941779369,96.3884362231149,122.573768687968,-29.6877780429788,0,0,0,0,0
161.503254096729,-66.8433579407631,-314.222030297857,42.2519330260413,29.651356363906,95.7464543740503,122.564208129687,-29.4361416714329,0,0,0,0,0
164.92434854666,-63.3976074664439,-315.657495017107,51.080704514219,28.1386067949098,94.5396302808616,125.433988546156,-29.1524940408116,0,0,0,0,0
169.506610819479,-60.1151640856725,-320.283032105354,60.3760505337053,25.597512192851,91.7230211521227,126.989175486566,-32.9739333830477,0,0,0,0,0
176.362934679322,-57.338353411184,-325.27531014316,72.2076195159039,18.8746155295159,88.5504144843975,134.123860254901,-45.2701167781163,0,0,0,0,0
184.82585073703,-54.1874875041147,-330.641295384925,82.6469822689024,12.0602930912302,84.3740826681432,139.233448057098,-54.0932642884504,0,0,0,0,0
196.670065071282,-48.7991219691562,-338.245930884546,95.4539894604893,2.68206638024192,79.9329513292326,144.892392275149,-66.8584344807756,0,0,0,0,0
211.313353179856,-44.3181871350471,-347.346288110233,108.416534927676,-7.13177045687568,75.3368217442277,148.556606629873,-80.0639556816927,0,0,0,0,0
228.070823006758,-43.7502721457106,-360.990762524247,121.915903243509,-17.3121369397613,71.6511495081232,153.449740594088,-93.2884223200657,0,0,0,0,0
250.213228791261,-42.397448408549,-379.744720836452,133.811591893452,-29.3666042604905,65.5472030163964,157.51917223433,-106.554791747631,0,0,0,0,0
279.248707185614,-43.6184569362356,-408.95709258084,142.698557671278,-45.9156739237927,59.5341078350345,166.157896810808,-119.687705412249,0,0,0,0,0
299.128550515476,-48.9245611939139,-428.598843124813,146.098018076108,-57.8969880179263,56.5431193393586,173.460772050054,-126.996142693309,0,0,0,0,0
305.937939685604,-53.7695855504551,-440.4034157201,147.258563156719,-62.5813700202218,54.2254066572756,179.918052423014,-130.99238889319,0,0,0,0,0
310.586859390358,-52.7648308310138,-446.023256399429,146.714642097693,-59.7530776756224,51.6131502897299,181.874942643642,-131.290960832305,0,0,0,0,0
308.850571209328,-53.2026423625394,-446.115539258688,146.124546516221,-55.1074902225951,50.7800373926411,180.878394221951,-130.999578402327,0,0,0,0,0
308.729560065101,-50.8074972702666,-445.442989826962,144.242776182273,-50.9805367378467,50.397906015446,178.623043305319,-129.11814147591,0,0,0,0,0
311.452352978488,-47.4339398360645,-445.798704751856,142.383856332942,-47.6601733841453,48.3501201858158,174.829429445811,-127.798784501887,0,0,0,0,0
313.51782836897,-44.3856501394291,-444.834870147586,139.932912913181,-45.9670593844185,46.6782106126345,171.448207973193,-126.24942175776,0,0,0,0,0
316.756194057923,-43.2936945906835,-443.453279740586,135.972411164309,-47.5273910259911,42.6894280626957,167.929065739028,-124.128859076489,0,0,0,0,0
320.402167065362,-42.1309108161025,-439.304066265472,130.653874678527,-53.7439489236326,42.2498135973934,167.45230298254,-122.166210754969,0,0,0,0,0
325.270082172628,-45.138282213247,-435.350507008884,120.166965881157,-66.2098380029214,37.8469896392277,170.483510476956,-117.324779049345,0,0,0,0,0
327.751706352232,-48.3624686046078,-429.817921150779,111.446717572172,-82.1016787510133,37.3798588140613,175.342042479714,-111.948772654448,0,0,0,0,0
331.600579336706,-50.7150230083716,-426.131924927461,102.83463491028,-101.092381933845,39.6321093709384,184.145409359626,-104.197098835543,0,0,0,0,0
335.837800354552,-53.2979093281921,-421.750392078286,92.652555715908,-118.930497079328,43.745554597807,192.726297575378,-93.1723874547602,0,0,0,0,0
338.364111564051,-55.7112775063241,-420.586448531393,80.6199350808274,-128.93335100902,47.6622031152286,201.061925569173,-78.6059260035523,0,0,0,0,0
338.513196974927,-59.2181912671774,-420.605451206204,68.3996380512368,-136.525932430552,57.2658969503163,213.088085567185,-64.7883363901999,0,0,0,0,0
340.041206153821,-66.5840541659202,-424.68886183676,67.1091621920006,-143.56538011188,68.0479411086317,226.941403361121,-64.5475786297465,0,0,0,0,0
340.652812209593,-75.1821552439877,-428.784445518034,66.6057685318249,-145.636873456063,77.0534776655788,241.742347256161,-64.0519571097928,0,0,0,0,0
333.761005744233,-84.3030756763745,-428.374330312543,69.8133414041186,-140.832306815381,82.7408247996387,253.531154432888,-64.9653171592896,0,0,0,0,0
333.202842479246,-93.3322462062418,-425.808601142149,71.8946763584559,-140.562998793884,87.9369477829344,261.578586717467,-65.1213886501409,0,0,0,0,0
332.279532830162,-97.5301812814041,-422.72125979496,73.5522373502824,-138.492059434103,89.9319377331022,266.003977446584,-65.6386450239767,0,0,0,0,0
330.399010391168,-98.5440965463432,-418.674174764049,75.3656402942032,-137.239538843997,88.1600415896823,259.710071594252,-66.2942480682861,0,0,0,0,0
328.280930596327,-97.8919817648193,-415.145475048174,76.8070341856627,-133.568524840405,88.23509491314,255.76339782107,-67.5993678151166,0,0,0,0,0
326.327660443012,-95.9151599869436,-409.946985762254,78.3632734145197,-129.436623589404,87.6346008767179,245.463518154312,-69.1219807182946,0,0,0,0,0
322.698904932897,-94.2325027460683,-406.870029331265,79.5407094863545,-123.111461997489,88.0172982285715,237.724263159941,-70.5745085672242,0,0,0,0,0
314.167391653302,-91.3024176984947,-400.488249769586,81.4147593510197,-111.547755890446,87.8860605298769,227.516990364717,-71.5816939199871,0,0,0,0,0
296.049143758947,-84.2468080817293,-390.934522204447,81.6176226859117,-91.8644624679646,87.518551846979,212.607244550541,-69.973047009497,0,0,0,0,0
273.914734709161,-77.5193101770623,-379.033221585533,78.0244948849753,-70.8786733884927,87.7526760386705,196.110251398651,-64.7143894534238,0,0,0,0,0
256.884359674601,-72.4412535711806,-369.510628572808,73.0072880693815,-55.5285220775773,89.9394627968857,184.840463522181,-59.3198358148935,0,0,0,0,0
242.529745272789,-67.5193360591536,-358.746587410167,67.8284721659769,-42.7747192861976,90.1039944514025,167.923342682708,-54.3754889417653,0,0,0,0,0
227.469516015477,-65.2889856491575,-349.762728333111,61.8709462497735,-29.9232007843731,91.865212961524,153.089352628103,-49.6952760078394,0,0,0,0,0
212.212151775287,-61.7356592853624,-341.218315466856,55.306708172889,-15.667147917138,92.4347435927634,140.971051024773,-44.6275687455334,0,0,0,0,0
196.393995674116,-61.5314612802449,-330.707355273727,48.9055474751784,-3.90333819225793,93.8678046584468,134.456322100208,-40.2023155403366,0,0,0,0,0
184.506895575661,-63.2565378050417,-322.192261354839,44.3978953122074,6.02652315688511,94.3861393806186,126.647723895181,-37.3659336662955,0,0,0,0,0
177.214956958366,-63.9999338079544,-318.23024884543,41.6912120697935,12.3575420947509,94.8864575046331,122.226007734121,-35.7346241216667,0,0,0,0,0
171.845648356639,-64.4275425210215,-314.79112051425,39.8600668954079,17.0795136097869,92.4470794652425,119.915568947524,-34.255308650362,0,0,0,0,0
168.720072808147,-63.8749308982605,-312.409463879755,41.0488107702412,20.0837691556197,91.8484302552372,117.64009084063,-33.6166103332733,0,0,0,0,0
167.887251886047,-65.5041167228908,-312.655429525593,42.2819432918518,20.6543440051517,90.4832405076058,118.929606611551,-32.9728139460162,0,0,0,0,0
170.942783929304,-62.7227619071916,-314.557575015537,52.5835663475675,20.8606406305842,89.508113510033,118.83330709099,-32.8545229441644,0,0,0,0,0
174.155326574513,-58.0235684152699,-317.253281765764,63.4186547891945,18.0575356413991,84.583352146412,123.60026661932,-43.3181999022453,0,0,0,0,0
180.176361774809,-56.278054610746,-321.445188268253,71.5310701832615,13.5333441378344,82.1653484252336,128.265724417547,-48.9293650866969,0,0,0,0,0
186.513168946421,-56.5114932485619,-326.188184517473,77.8621607150468,8.03750146698054,81.9354313792372,135.397138734979,-53.1102696203725,0,0,0,0,0
194.455964249191,-54.5524611878645,-332.280523926872,88.5807663532894,2.58738021895177,80.0529396790861,139.368430589464,-62.8197370727168,0,0,0,0,0
204.311162283254,-54.1620134151248,-338.786637959479,99.4932268942033,-4.37227694585149,77.6002263081726,144.388520532174,-74.8077403474833,0,0,0,0,0
220.916427624455,-56.4916203121154,-349.5074818728,114.809234388782,-17.6486169491985,75.0732871887297,152.562734967664,-91.0833586181737,0,0,0,0,0
240.387297192129,-59.0647984810611,-358.835571666781,123.476928157554,-33.3336482241603,69.2341066733127,158.554262154351,-103.017552348013,0,0,0,0,0
256.751194521719,-64.6435256415058,-366.756285419347,131.577609731441,-49.0645539891681,68.0030943321251,166.582392971888,-110.772475542734,0,0,0,0,0
271.022599468105,-71.187401831589,-373.716428666554,138.809446592177,-63.5199974852022,69.7702192500113,173.608525683159,-118.919617036984,0,0,0,0,0
291.006892251215,-77.2677866550912,-373.904779817377,102.530685425849,-93.0918763854184,71.9309890899673,186.057274288746,-86.8216525745247,0,0,0,0,0
300.196998422984,-84.8779931289339,-377.594093983501,83.4672175653439,-106.717743213058,83.3572211341612,199.07448694593,-71.0895079515964,0,0,0,0,0
304.540076883408,-90.1090163455292,-374.252367966286,84.3887985725477,-111.826846441688,90.9380675963082,199.106496294018,-72.0728646312179,0,0,0,0,0
304.52796908902,-90.8142933075355,-369.456868144473,84.6435305484179,-113.460708617049,91.4425767708268,194.106001556701,-72.1509471144289,0,0,0,0,0
303.25875246635,-88.1578835603877,-361.767326242226,84.6883581810356,-112.918890021482,90.6566807581761,189.216950426238,-72.0908259310779,0,0,0,0,0
301.203224043752,-86.6135025048688,-357.558474345206,84.5440721776892,-110.958193994623,87.8098629682263,182.010146128192,-71.9426473458903,0,0,0,0,0
300.949179597026,-85.3291557993075,-355.612859020541,84.5189648627194,-110.268874036739,86.5093079775286,179.101614464793,-71.9074610263507,0,0,0,0,0
300.436258757365,-85.1312068160575,-355.655230356345,84.4719397163182,-109.519984216928,85.1897928659025,176.702413331427,-71.8745231874588,0,0,0,0,0
300.174205790324,-83.5656287524486,-353.785154915417,84.4412381648763,-109.152043079196,84.9912363098983,176.708045249881,-71.8454806009295,0,0,0,0,0
299.775953459851,-83.1223148796938,-353.902281228479,84.4004136327039,-108.5306321575,83.3870817619692,174.314345308475,-71.8267652879531,0,0,0,0,0
300.035256290037,-82.4169588223576,-354.13868729069,84.4159004540257,-108.983063166778,84.0914879815972,176.788330448369,-71.8131676264513,0,0,0,0,0
301.273379687065,-82.5011286647753,-356.530525351117,84.5024856984476,-110.219798136831,83.2877655129226,177.351454392744,-71.8616768821194,0,0,0,0,0
302.897015290872,-81.5378767310852,-358.359513974741,84.5718830717489,-111.645918698647,82.9772933330857,179.986817365018,-71.8653428025028,0,0,0,0,0
304.40582596211,-81.4030344805646,-363.12090834786,84.5082457263254,-113.054110364315,83.1962158273658,185.076555684463,-71.8105637491631,0,0,0,0,0
305.238912425273,-79.8449330027261,-368.268451926271,84.1640378296868,-113.857367278851,83.0386548056091,192.674369221734,-71.6224672780712,0,0,0,0,0
304.007764150313,-75.7726779689187,-376.044657232373,82.9412392824898,-112.764362732128,78.2846792399781,198.035300449247,-70.8477541790619,0,0,0,0,0
304.068601343889,-70.2679890830902,-386.740503414853,80.5351149139103,-112.111900408405,73.1910199143942,208.582088770702,-69.4093890625965,0,0,0,0,0
304.418439350712,-62.3640807049904,-398.259281391712,76.4709342472,-111.69311783592,66.8838455855329,219.622261778205,-67.1968090395048,0,0,0,0,0
306.181013618732,-52.6783302087191,-408.76535039228,71.1337658995946,-110.426609609044,57.4384411788763,228.230295417366,-63.6478521951456,0,0,0,0,0
313.231731422769,-45.4369552365598,-420.234843105319,65.7431907786802,-113.35194812297,50.5639880020287,239.807562612319,-60.311300469764,0,0,0,0,0
319.813106555595,-34.7064173629674,-433.469420494543,58.2049767306979,-115.85980782168,39.107782610296,246.981175664882,-55.1761162121999,0,0,0,0,0
335.618629389733,-26.0394939245393,-452.68825775228,50.0968683980188,-124.433043107645,30.4281024745634,260.226284784414,-50.5651707577156,0,0,0,0,0
355.479993687499,-19.1500926120901,-477.273227315085,42.493780987046,-130.183839946376,21.7136209892446,274.552155285335,-46.2826113487717,0,0,0,0,0
380.354135503245,-16.0170048069604,-509.737728563429,35.7883898519599,-145.450867506653,17.2637279708003,295.605405790552,-43.8725739955736,0,0,0,0,0
395.519379348145,-16.4293019126141,-534.650797855013,31.9817527864446,-160.832941062937,16.2481355475319,316.438138413074,-42.7355222991147,0,0,0,0,0
405.156878887338,-18.1177981804894,-553.640330180131,29.680084704568,-174.130803379576,16.2534573386209,337.211435465368,-41.6803832185661,0,0,0,0,0
410.979714249999,-19.3904573981171,-567.487455131363,28.5380619067107,-184.456062700324,16.8967433654142,351.80507861383,-40.7012869360295,0,0,0,0,0
412.996464662367,-20.5648858542847,-574.562803532628,28.0198797742663,-190.697009559355,17.4429580637645,362.633664837089,-39.9016669143575,0,0,0,0,0
413.150505952126,-20.9634505222438,-579.029091041298,27.9148562031103,-192.924158659654,17.9879830258626,367.233822815735,-39.5394412573443,0,0,0,0,0
412.039058519314,-20.9068916567985,-581.765083135046,28.0426173642145,-193.247366470963,17.3574961530999,373.044882305297,-39.4078460960784,0,0,0,0,0
409.743079981211,-20.244823015519,-581.535737861849,28.3721338409579,-190.263518585374,17.2318205348916,370.574216846381,-39.7643316622859,0,0,0,0,0
403.121790775366,-19.9376476306701,-573.926103393779,28.8044795689715,-182.330701598359,16.3043492033471,366.855238188295,-40.7032928322843,0,0,0,0,0
392.631637661833,-19.4355705321264,-557.851147252825,29.8316091434764,-170.097959959971,16.7547189713342,351.093207790162,-41.9513855532034,0,0,0,0,0
377.165846536698,-20.2659717053476,-535.726714502841,32.023519024114,-156.576972624559,18.6767942126496,333.952734548805,-43.3422548133124,0,0,0,0,0
359.866247016215,-23.0632218365969,-508.294042432304,36.2051893064743,-143.338161553513,21.2325753820641,316.387935373529,-44.9239708017804,0,0,0,0,0
345.887433318725,-27.038401899133,-486.089374855975,41.3643042195053,-135.396208115506,25.6845431346068,299.677961807756,-46.8226377851577,0,0,0,0,0
331.49978400468,-33.029502364717,-465.005669024947,48.3354825905836,-127.003764733355,31.2921117092203,282.288029938229,-49.732966670476,0,0,0,0,0
320.164185441419,-41.1052503606588,-445.92905526084,56.4755522022858,-120.015747061999,39.2598309483382,266.609982293879,-53.9127784294377,0,0,0,0,0
310.725874289468,-48.3164593422459,-428.154955468455,64.2869223344341,-112.908443104225,46.584838599626,252.338125965943,-57.9228865027343,0,0,0,0,0
301.658741113466,-56.6330847499086,-412.756398834666,71.0722637555909,-105.821268283248,54.4752404760113,237.103929186,-61.8567760737369,0,0,0,0,0
290.638764271499,-63.1252322079682,-396.737607604108,75.5993236518196,-98.584037827565,60.9595749278531,221.62858619497,-64.5031419737993,0,0,0,0,0
286.057771080276,-70.5239256527125,-385.395819546974,78.5936824175792,-93.368078266534,69.1999635812774,212.298110530007,-66.6330515816345,0,0,0,0,0
278.888049109138,-78.2371432411776,-373.879027727431,79.7138614467064,-88.3210054556133,77.1786781170826,200.349942837562,-67.7387102822791,0,0,0,0,0
266.364992523679,-84.9506125645418,-359.568814230038,77.6292249089686,-77.240194512284,85.5880224531527,189.848956249249,-66.226438016208,0,0,0,0,0
250.895140880512,-90.7304692965549,-344.727484952875,72.3990445867407,-59.6355625439948,91.1301747422975,172.227499709365,-60.8621818055771,0,0,0,0,0
241.424211957841,-97.9373144289403,-337.844729278028,68.0086324042094,-48.4232693691566,97.408285436066,159.343898587663,-56.6938245183948,0,0,0,0,0
232.818525411692,-103.771439280113,-325.651360468304,63.5914311817333,-38.3817761676323,103.821609939402,146.004998394893,-53.0110297584561,0,0,0,0,0
222.638831192844,-110.443688536291,-316.343293862771,58.4972689068467,-24.4581435799347,111.144891079295,132.750975152958,-48.3713895032,0,0,0,0,0
214.792339602493,-117.18681362524,-307.598863460739,54.6798465025779,-11.6184531804528,120.220161945805,123.715447225704,-44.6118610579278,0,0,0,0,0
210.845947564331,-120.997044079343,-302.343337848969,52.9850393649428,-2.28974837136511,126.783706384206,123.328158982062,-41.5564900659728,0,0,0,0,0
209.680708990912,-121.550564824338,-303.06844718082,52.487144062893,3.70404431191449,129.189333863418,128.200855162711,-38.7986952067008,0,0,0,0,0
210.847479758564,-121.10896217959,-305.634466950228,52.7599345417032,5.05423377393949,129.447226404928,132.662199450436,-37.4555315406046,0,0,0,0,0
212.787400853451,-118.270329207518,-305.225080476778,53.9429998383173,3.74014972909309,126.491224176933,131.417762262076,-37.9825975624457,0,0,0,0,0
214.548821409719,-115.289116071158,-305.172327539819,55.1109685727173,-0.429015262113625,123.379873429761,131.569052475608,-39.1425722514786,0,0,0,0,0
217.591768507712,-111.676657596779,-308.221967171062,56.7111229165447,-6.42063273902837,117.941658942527,127.629177349224,-42.0940102471622,0,0,0,0,0
217.410741119162,-106.898878714177,-310.923035537499,57.410102416077,-11.7649636278051,112.199783389481,128.670319935557,-44.1464193410574,0,0,0,0,0
221.271521727696,-100.83686621621,-314.337276978386,59.7811864589037,-19.4567382947086,103.65007815606,126.878438974521,-48.3317632827928,0,0,0,0,0
225.006434014488,-93.6172927456297,-323.293823997335,61.9608240246351,-27.4819368283435,94.7044210340849,136.671776183806,-50.7132149554193,0,0,0,0,0
230.615167851935,-82.267111922765,-333.17793689933,64.9066627160033,-35.678692221912,83.1292467690993,149.298718556149,-53.1588608271652,0,0,0,0,0
244.245380322304,-73.1755893162312,-346.625692035828,69.9333814745402,-51.8743009139858,72.9482706113248,163.247523760055,-58.3314275506293,0,0,0,0,0
261.094866126108,-62.2853003281942,-363.740212764991,73.358118263965,-70.250458242653,63.8900083041583,182.920139901124,-61.9041870437834,0,0,0,0,0
274.446041637649,-55.170182620958,-379.761546976317,73.2817500881328,-82.0643876912772,59.099197796955,202.367040168923,-62.4493538564253,0,0,0,0,0
284.41464854037,-49.0044333801657,-393.996367063874,70.7485861456749,-90.2285333228822,53.4170477499574,216.187180321461,-61.2835332626832,0,0,0,0,0
297.438264739024,-41.6331683439083,-407.524240680772,66.7691076850904,-99.6371564080657,46.1047973146324,227.334923437956,-58.8733704237667,0,0,0,0,0
311.848912246605,-36.1334510524855,-421.498700007787,62.064899353555,-109.868067135807,40.5137932364712,238.537428836676,-56.3197273473963,0,0,0,0,0
329.236856291998,-31.8704457034429,-439.684576962307,55.5958693122701,-124.264983850591,34.3487549760835,252.813036397169,-52.7396752869167,0,0,0,0,0
344.698626615661,-29.1144686568697,-457.873950871105,49.047873764237,-136.009110580722,30.0508383713215,269.197543149015,-49.503402226395,0,0,0,0,0
360.095041936337,-26.100999068271,-477.419228283734,42.5559155509567,-148.441909737238,26.8592459155901,286.494746857639,-46.7519624407706,0,0,0,0,0
370.627267330952,-25.444687547884,-494.926026711086,37.7292946184193,-157.298449083688,25.0112959672002,304.426372929705,-44.7727203780445,0,0,0,0,0
380.68499526645,-25.6626188613055,-512.744716808008,33.6249082463393,-168.341517884292,25.4850060441222,320.705164795578,-43.2421705400863,0,0,0,0,0
392.127808443998,-25.108594685985,-533.219236643956,30.1965624746731,-178.052812770492,23.7006538144622,337.863951592024,-41.6148675000697,0,0,0,0,0
398.306323472399,-25.8646459097502,-547.907224795182,28.366714506902,-185.793111131773,24.1167401348199,350.027781048532,-40.4412701067649,0,0,0,0,0
401.60710609237,-26.0820837345498,-559.384287869211,27.5477842813802,-189.644298792881,24.080868647535,358.724942026271,-39.7335072289917,0,0,0,0,0
402.127877221125,-26.0905870336678,-563.799891653323,27.4128490862514,-190.197396656974,23.8493592639147,361.926850601418,-39.579402520264,0,0,0,0,0
398.991108418629,-25.6033724123866,-564.06485026522,27.8219005711337,-185.87756495794,22.4813973575153,364.00535805667,-40.1146297832265,0,0,0,0,0
393.09832630074,-24.6046319627535,-557.453471591807,28.7349626352997,-178.280274111473,22.0186236568074,355.073450502191,-41.1745869778111,0,0,0,0,0
381.212648089946,-24.1431962886685,-539.907351967146,30.8108257092672,-164.004375536028,22.3079655785855,340.516986744038,-43.0237590895004,0,0,0,0,0
363.123811850678,-25.8203550560162,-511.792773128339,35.3623993285803,-148.70544402401,24.7884150926115,318.456759906579,-45.1926911258017,0,0,0,0,0
346.370510260091,-30.6397215512257,-483.303978661859,42.299805517836,-137.125151805219,30.3102278078925,295.299149062251,-48.1687317846652,0,0,0,0,0
333.545732122974,-39.5797595241623,-461.588927911499,50.565368635353,-129.950663104481,39.398875038888,279.570035859229,-52.5528923140371,0,0,0,0,0
320.748379679168,-47.120147224133,-441.432229411767,59.6301751612964,-120.020657632587,47.0646914483397,261.243910130479,-57.2905802881659,0,0,0,0,0
310.02416856676,-57.3365994136409,-422.416529653633,68.8968258387716,-112.612686972233,57.6335501004051,243.967164720463,-62.6524707238103,0,0,0,0,0
304.028369822156,-70.0363962576639,-408.214532670003,76.1337520777829,-109.174585268288,70.4074211964025,231.728312409815,-67.4513307685852,0,0,0,0,0
300.104205504814,-80.9051398001026,-394.689908249635,80.8739954241907,-105.262098108825,82.2825633294797,221.676573614143,-70.4861586212594,0,0,0,0,0
293.873076276842,-87.986016134883,-376.061533290723,83.1672839172676,-100.650699994831,88.4774271660853,201.070343592944,-71.0269167234913,0,0,0,0,0
277.568801035984,-92.3249499214955,-348.173784432767,80.4164573769551,-84.2207335703005,92.4200401707414,170.324577028437,-68.0512103431887,0,0,0,0,0
258.606058240382,-99.1036120773123,-323.128668143663,73.2493388417774,-63.4940160415385,99.1195159114167,140.59872074616,-63.0053305977701,0,0,0,0,0
245.807049814927,-102.269464762368,-308.985080518226,68.2715703723541,-46.0203445229652,105.813114796012,124.61225164606,-58.3344573154793,0,0,0,0,0
239.199513707937,-107.219243264933,-300.608440195515,65.0046225948646,-35.8606382438134,112.679308179947,115.245800794183,-55.5087552444086,0,0,0,0,0
231.916360242795,-111.840346421397,-296.575840354586,61.7197269084396,-26.7873401769309,117.501882255898,112.927917694327,-52.3672783239581,0,0,0,0,0
227.831817047838,-114.446237903368,-294.794998859127,59.9117958940344,-19.5597655241152,120.244277506953,114.236840664759,-49.4360191254899,0,0,0,0,0
224.375869397601,-116.131629227382,-289.635545119707,58.7568320693175,-12.8950900451156,122.225413835987,112.235512515084,-47.776842535442,0,0,0,0,0
223.528436205885,-115.537881501568,-290.735939921808,58.6209075776258,-10.3858062276497,121.418846547661,114.275205573342,-46.5359699057705,0,0,0,0,0
224.362652415416,-114.162506726164,-290.757521366371,59.2071606266184,-11.7038193198372,119.916506280942,116.833598810113,-46.3690100655294,0,0,0,0,0
226.134405072264,-110.072491293914,-291.701259797714,60.7041625800614,-14.5373592114792,115.447578238299,115.692298903514,-48.0063348176078,0,0,0,0,0
230.160570372781,-105.096422181558,-295.082339902246,62.9774840128504,-18.7202890312373,111.417263984521,113.939259991583,-50.3670738799886,0,0,0,0,0
233.748864207614,-97.8302765080023,-300.586709479059,65.5499690495518,-26.4885094879174,103.235657180982,115.842176903661,-53.7973877386295,0,0,0,0,0
241.330448899316,-90.5968879366511,-309.451771049723,69.2220741288324,-35.9957222750679,94.5481214198489,123.739092553637,-56.8499525059167,0,0,0,0,0
252.182946160062,-82.4455168603121,-319.381182220558,73.7758958779641,-49.2137485665015,85.5213159105587,133.679107964692,-61.0860251412098,0,0,0,0,0
270.440464457763,-75.2869788958984,-338.374452024743,79.2271722789709,-69.7952282247877,77.1823261490312,154.006555447689,-65.7040977292783,0,0,0,0,0
286.645291208969,-69.7956454188404,-361.662140651677,81.3683684589824,-86.6962420107553,73.8040264435083,178.549095410384,-67.8615898041176,0,0,0,0,0
294.731270055898,-63.1511518726064,-384.618745445535,78.465655244845,-95.2144806005194,68.2102419245891,202.574585207315,-67.0962900582647,0,0,0,0,0
300.418487668033,-53.7907926144627,-400.396697518195,73.2024358351378,-99.948557369079,60.4272825157771,219.561475760459,-64.5794794764886,0,0,0,0,0
310.253846369686,-44.1889421284182,-413.454019373613,67.2617362755305,-106.333128916654,51.793301690699,231.820050491147,-61.2055945541126,0,0,0,0,0
321.882604016237,-31.2466310713393,-425.737903428133,59.8060928463377,-111.911517595585,40.4779172057265,237.247065813768,-56.4937971813154,0,0,0,0,0
348.393804289605,-20.41099441788,-450.10701458996,50.7799812524166,-122.22350712393,30.9362658322925,245.416515477696,-52.0724387429528,0,0,0,0,0
378.826132879823,-14.9777747090371,-482.323833200631,42.7585154177403,-134.123426444402,23.3928344897309,256.290266963893,-48.4270533897068,0,0,0,0,0
402.078403627098,-13.8817840362164,-509.14514720358,37.770411432901,-147.33648900001,23.7280287311799,270.531018116896,-47.3919397894106,0,0,0,0,0
411.719235901733,-16.5217196736882,-523.013329549892,34.5617103042613,-164.115543655289,25.6515706837392,287.4247770643,-46.0779621475069,0,0,0,0,0
415.778464861696,-18.777227162483,-531.596936638011,32.4143011017997,-174.118281313189,27.6280756647826,300.442568587924,-44.7310604605447,0,0,0,0,0
418.754912440395,-21.040080732593,-539.248119159966,30.565625395949,-182.039865497646,29.6486183691886,310.976812489092,-43.4313329994921,0,0,0,0,0
417.900879366598,-23.1667387462863,-542.428064143338,29.3530118557245,-187.393012841855,31.6621127684237,318.751947027774,-42.3429991001261,0,0,0,0,0
418.171641004932,-24.0916638425637,-546.782049561961,28.5393694038271,-189.809971668079,32.1193203362751,326.286098961122,-41.4431008454391,0,0,0,0,0
419.197985873652,-24.0783272347861,-551.806225780203,28.0589797730896,-191.888467002058,31.6107872388927,330.842879292524,-40.9353587829413,0,0,0,0,0
417.319455037709,-23.6649625631679,-549.308006763661,28.3877533598287,-190.721511248129,31.1906193548741,329.795317102116,-41.1247157612161,0,0,0,0,0
414.656975137327,-21.5289507225572,-548.973292451111,29.0443341645635,-186.694954046229,28.9047243639307,328.86424562419,-41.5481214360599,0,0,0,0,0
406.424579020276,-19.8885486644059,-538.047947915914,30.6555082142104,-179.898484692356,27.9284959183107,319.905667206234,-42.6764974074529,0,0,0,0,0
392.49986783619,-19.6743838665108,-516.710838725619,33.8596682229135,-168.520259652107,27.197170342502,309.236411405651,-44.1022974549565,0,0,0,0,0
373.832533278893,-19.6513235862291,-492.307990119071,38.9412476039784,-155.079665123355,26.5611946111955,293.161851793796,-45.9059431991875,0,0,0,0,0
352.669718931235,-22.4420033675995,-467.624098791351,45.3415587588365,-140.922599328153,29.1743913721537,275.704088282788,-48.5251629163882,0,0,0,0,0
334.910464142658,-30.7507355150713,-445.16043280771,53.5759322892818,-130.787317539307,37.2432502350467,261.68676838756,-52.8794981456405,0,0,0,0,0
319.849422024652,-39.4316704173357,-426.927051446992,61.8558693237617,-121.104313638752,44.4096815204691,247.355812988618,-57.2224999535673,0,0,0,0,0
310.993443263755,-51.0155430579962,-414.643491611581,69.1627144050626,-115.082947762557,53.6979091250562,234.653468698052,-61.8912791090139,0,0,0,0,0
