JMW9912/AVATAR/Dynamixel/dynamixel_control/data/csv/poppy/.data/waist_test/3DoF (3O+Pos)/Old/0423_1009_gymnast_2_3_dof_waist_with_position_adj_poppy_smpl_motor_degree.csv
theta1,theta2,theta3,theta4,theta5,theta6,theta7,theta8,theta9,theta10,theta11,theta12,theta13,theta14,theta15,frame
0.0,83.75795997991355,-3.5761498820259234,51.96071322194142,0.0,84.97868496237625,4.574304840633367,-54.88241738807552,-44.3627301938317,0.9703968042285218,-6.5127290308711805,1.1153197806657942,-0.29027295433279987,-0.005603876481501187,-0.03315183261093727,0
0.0,84.71889889429431,-2.2610892881094697,46.76905843918695,0.0,85.59810232117057,4.291618618061237,-50.10070514841473,-40.01409439650989,1.112591584674088,-5.2571939768748,1.2805977015818057,-0.37095755765354294,-0.008216943950023791,-0.034159674760380954,1
0.0,85.9489524060586,-0.35513579073851576,44.14432973381147,0.0,86.34066691065252,4.503586178789392,-47.30096219756753,-36.171418232095505,1.2118500107869792,-4.880018206968206,1.3423436615086277,-0.5195984903134512,-0.012018411968178674,-0.044417169015828234,2
0.0,85.64610125544031,-0.2054379448557608,43.23001480114225,0.0,86.93773974416698,2.228899014310421,-46.44955430918824,-35.07225193593768,1.2368776538969202,-4.437358959767453,1.3374723704588183,-0.45800652636531214,-0.010583227672795214,-0.03558433492316247,3
0.0,85.70822646320649,-0.3294476853979378,41.94761066975907,0.0,87.09985108028292,2.248237017692574,-45.16325936175774,-34.29902608178134,1.2602238401490806,-3.873384683597824,1.3432256788981212,-0.5360016843560131,-0.012426921375317465,-0.03634891742546091,4
0.0,85.6539588233627,-0.4035198242352717,41.72150804603688,0.0,87.16964603515098,2.190146312959948,-44.92553382689997,-34.711137878251826,1.239896799201964,-3.3370160025963536,1.3577078039211576,-0.6127677962833519,-0.01435638089523623,-0.03580602714349396,5
0.0,86.38836283020981,1.822231072961269,41.26808497708709,0.0,87.1818474814467,2.1407038102024902,-44.477273146816756,-33.482376253378234,1.2531993202561083,-3.003427803748539,1.3479326861870735,-0.6644536371667118,-0.01545362912896633,-0.03495215123108658,6
0.0,86.3362984903599,1.8591210418946953,41.28383867450821,0.0,86.97781405150182,2.589129046728412,-44.40789870451731,-32.02015571768486,1.2626094231576954,-2.578349269520156,1.3366578129717919,-0.6277206179365129,-0.014506426391857495,-0.02834652658062005,7
0.0,85.75482007761514,0.28770922805101923,41.777474018856296,0.0,86.84039843420122,2.63127871277012,-44.750679690652234,-29.90135141576531,1.295163883272888,-2.2763997765751425,1.3183453266700538,-0.587807321430387,-0.013418045680834278,-0.02343520063169818,8
0.0,85.79795249320999,0.19650628276239357,42.55566711710954,0.0,86.70317731034038,2.7073702462573386,-45.49231053398495,-28.547251580243348,1.3335208020830362,-1.7047712458167572,1.2656016061789983,-0.5466166716674205,-0.01200365638013386,-0.016326095043981734,9
0.0,84.98451421068634,-2.7596632798098804,44.855801485481365,0.0,86.03296223679646,4.208396181847132,-47.304264075826964,-25.971679456182848,1.3554271208126074,-1.2230017377130271,1.132660969757855,-0.5877752744032405,-0.011559101286805502,-0.012607581872125555,10
-98.65589336184884,83.6363823242699,-7.231824489452043,51.31186704086859,98.99313104015685,84.43050189325605,8.708466748123973,-53.63881948954292,-25.57271106861616,1.3438472667000578,-0.7335156355613476,1.0020799689055433,-0.4333472863148063,-0.007559402745335525,-0.005576738047726473,11
-86.61825296289614,81.09065459609818,-14.26200764553408,62.05015558767489,86.44923546213181,81.88213153622452,15.116726461329286,-63.76865283698792,-33.82262972568637,1.0777954506204455,0.02726081586721383,0.9711494773760723,-0.5959129616864384,-0.010102840412080722,0.00023099411401199263,12
-69.37624876964357,77.90701152615219,-20.928705104242415,58.18935383592942,68.0724458902478,78.73134548860835,21.76880051321828,-59.134125941576585,-45.63795260405487,0.8844775723515669,0.6506588365597379,0.8083409730710123,-0.5980479187790452,-0.008473790083463257,0.006747649874073401,13
-52.2433836699228,81.48094617794297,-27.652965515370724,48.398231453699,50.15985229707659,82.64647461005528,28.49229908039935,-48.015796701151814,-40.92480091120647,0.9540388607677668,1.5624251732671288,0.7025473804896825,-0.7561408308172755,-0.009411377528417048,0.020562910059853355,14
-31.899828064409473,81.83919445019318,-35.14043907847948,40.745163382432786,30.187527870109328,83.6808476276644,36.33215059527282,-39.231816984799146,-60.078975946801435,0.7101384647684688,3.15697388623128,0.6812319189118039,-0.6773395175437209,-0.008286678815318438,0.03731054357625707,15
-21.883632852900494,82.57093130745847,-42.61821680811112,37.38987601760588,20.344311569700984,85.08590127171229,45.20310691408124,-36.01519896639555,-90.0,0.6407642092313943,5.332040286439685,0.6375391830166734,-0.48458155403640985,-0.005606885064532468,0.04520336324253559,16
-10.031620356454031,86.86818919119584,-39.658675722201835,28.2988228620898,9.199823639002366,89.20955724614043,44.64092503597489,-28.29882286208962,-90.0,0.6637087484645546,4.617925283256517,0.5852033416262056,-0.39709275208350486,-0.004180272961349167,0.03206010025052494,17
-3.897479559617342,88.96955820098947,-33.60162639180954,28.298822862089672,3.263915405298297,91.03819098994781,37.777883173628915,-28.298822862089594,-90.0,0.618482827234248,3.720038420759518,0.5906198220270478,-0.5080847822964815,-0.0053951339426069325,0.03301120700280942,18
-2.377478701189977,90.62667758136308,-28.96461656510626,28.298822862089825,1.999751897029964,92.17615537737969,33.19296355498255,-28.2988228620898,-90.0,0.5918883127259513,4.189830037656224,0.5440150481651395,-0.4843626794120171,-0.004761355330827251,0.0354631276134429,19
-0.4180300087853241,92.36764256943408,-26.858846755784903,28.298822862089672,-0.014048663347146217,93.3457160347369,30.995803040390424,-28.298822862089697,-90.0,0.5906409082040055,4.876478887679498,0.5744961910764349,-0.5713337818868194,-0.0059926426371582275,0.04871506309439832,20
2.0588471203871443,93.88953944279871,-24.802051178367723,28.298822862089697,-1.9996560730582482,94.59587654959394,28.734210643365145,-28.29882286208962,-90.0,0.5496167835645805,4.993540926481506,0.6078199363680353,-0.26686095855692843,-0.002896172738775324,0.023310343528767655,21
3.9867511283995105,94.71292742249237,-22.557931438560637,28.29882286208972,-4.096300396559776,95.2828961031049,26.417559787352292,-28.298822862089672,-90.0,0.5758986382548882,5.058604397338699,0.5992306457705576,-0.08631175416642192,-0.0009120134051658125,0.007639586717076841,22
5.770849765266871,94.83716459492727,-22.57465716909695,28.29882286208957,-5.754943605735089,95.26623177278233,26.42382874848714,-28.298822862089747,-90.0,0.5837100879898699,5.339112937031406,0.5722627358040009,-0.006455892514814703,-6.479773026126549e-05,0.0006033367437892751,23
6.754005136391596,94.73399111084562,-22.514361888595165,28.29882286208962,-6.752450608790333,95.07251437184573,26.423337212959762,-28.29882286208972,-90.0,0.5935488123994365,5.459773662452452,0.5281453337724321,0.016708272686646455,0.00015448818908675072,-0.0015970074642063826,24
6.942596074353543,94.8331919847454,-22.473190701927575,28.29882286208972,-6.9902815358719534,95.05096843627216,26.481141760683787,-28.298822862089672,-90.0,0.587624487996508,5.522178728876647,0.47285783556702715,-0.007280625538525573,-6.0412720233703824e-05,0.0007038852086010554,25
6.349043377982227,95.30146975487912,-20.093775052692287,28.29882286208972,-6.438808763856338,95.46642596059061,24.165633760960716,-28.298822862089875,-90.0,0.5856707230460981,5.603067224252639,0.43258061312883017,0.006230836744908824,4.723604169285723e-05,-0.0006112781937022202,26
4.3853446025687495,95.00237933916867,-20.001114266334515,28.29882286208972,-4.3844814288025,95.07699625915701,24.11374542886144,-28.29882286208977,-90.0,0.5639953102950024,5.589318492309061,0.3883749689921497,0.043138767832019156,0.0002922247881543477,-0.004221782900606693,27
0.17487120703885647,95.00619415336982,-17.52988888368383,28.29882286208985,-0.5841840345846078,94.52386827368042,24.02111342876445,-28.2988228620899,-90.0,0.5385753703966667,5.099338954694876,0.3544550612636774,0.08346464160436748,0.0005129794047053977,-0.007448422147450631,28
-3.466309946792936,94.89428298780206,-17.41100537308076,28.29882286208962,2.9359799180767,94.2358611090661,24.055815848067752,-28.298822862089594,-90.0,0.5505274457276543,4.548564506098225,0.2782590056253521,-0.018809375947157883,-9.188336481815587e-05,0.00149635786778084,29
-5.187208162052351,94.15242141248952,-19.622927172650783,28.2988228620898,4.791353342002718,93.96052346951869,24.07933854987995,-28.2988228620898,-90.0,0.5810071022006126,4.192402376847055,0.19043443636350152,0.038700753852268795,0.000128017489282195,-0.0028368893391101453,30
-11.37609149474194,90.67451832609669,-27.420668748464227,28.298822862089825,11.02148862226253,90.53939742842815,30.658350347725378,-28.298822862089697,-90.0,0.8556234369213898,5.772687566922128,0.20527982631143576,0.2891149112514755,0.0009673802919074535,-0.029230464917816446,31
-17.042135587419292,90.45235718657872,-28.000845629197425,28.29882286208985,16.82494480878422,90.61727152724511,29.0282358906595,-28.298822862089647,-90.0,0.7187679236685907,5.424025438983216,0.10778983674887867,-0.008339385045070624,-1.5816989318448648e-05,0.000791831125041538,32
-25.66529536074457,89.39087200865917,-25.97658649337741,28.298822862089594,25.115710673619752,89.2147371699618,28.032338993740414,-28.298822862089672,-90.0,0.5996440975081277,5.08372725703451,0.1389540041568606,-0.17772397031102008,-0.00045724068356516783,0.01580987415827106,33
-40.47157049090159,86.35117135382994,-22.83400849942782,32.920976599826666,40.40242177816088,85.96811933927309,25.104678166768327,-33.4341757250878,-67.64233682401591,0.5666093100921392,5.076041227247486,0.17584347615388415,0.20186909352670268,0.0005903972060823676,-0.01793230422327627,34
-59.25505590817415,83.20601810369519,-17.012239813695334,40.06695228403341,59.09232565859501,82.89177914559802,19.215622667106807,-41.034602011499125,-36.072754566572705,0.967787386690661,3.734192890290773,0.16064700245050673,0.010016238053155997,2.8086402779299922e-05,-0.0006537262105664961,35
-79.08758388056631,82.07122714274617,-6.399149688185296,43.059486235967306,79.4671485353807,80.81527034035369,10.642141157583143,-44.9078765897569,-26.99224835920781,1.2647569943592263,1.424958001427789,0.18881036454526984,-0.10140382874547416,-0.00033649896603452886,0.0025221575563054766,36
-93.83306842997808,83.3327565076598,5.806491281672709,41.267629895755434,94.88836588699183,82.4587266054679,-1.640637575057568,-43.84371931513314,-22.964189039907307,1.441850243948925,-0.1009908513813755,0.23689735899323258,-0.164111184975423,-0.0006781302058874758,-0.00029023780055897474,37
-104.85002961247673,83.80289773145746,18.611021295812225,38.56135428853682,106.30832061332623,84.02014523255957,-15.317301160786101,-42.02667911563823,-26.897010413506397,1.2901172717629026,-1.1550286962290819,0.22501506941839924,-0.13153126677084562,-0.0005136198792354912,-0.00265249558540771,38
-111.71829224047057,83.2107213853359,31.050054765908087,37.98927956262033,113.76546273142205,84.06133453140423,-27.479194477507757,-41.8533807338276,-36.49973767936935,0.9862600758591398,-1.7328564533396131,0.3309741573941643,-0.0314020095249927,-0.0001812211542243408,-0.0009500632809934686,39
-118.12576941102171,80.42525324038155,38.095015763640625,41.69975966232155,120.42068371980382,82.01883588032551,-36.66089330350899,-45.246172241605834,-59.4029999381389,0.6721455166088888,-2.73027009500717,0.3541421046337047,0.14601891655827504,0.0009124446927316177,0.006962238181533765,40
-124.70153862955037,80.2227030842603,45.20010344433149,43.158859920507666,127.07583028597297,82.25269818655089,-43.75864652065247,-47.69307567275205,-85.75813599002457,0.5744745365672553,-4.189121528523131,0.2434144721696254,0.2568712308378683,0.0011363894702824911,0.01881190847506944,41
-130.14185320000925,80.29117076952181,49.25427663362537,45.10097284748752,132.70112706113127,82.29214283691802,-46.28291001750005,-48.82076024821066,-90.0,0.6371317585087463,-5.146593714121469,0.2626057988999479,0.1898674985141834,0.0009020887447315673,0.017099399800917757,42
-135.04386088124804,80.29571882516515,51.23174109704438,43.21027313446769,136.55716702903788,83.25355492425781,-50.54275804073799,-47.21926389543861,-90.0,0.8146216656697421,-5.985403694606832,0.30345039180439887,0.068813936048346,0.000370786784180088,0.007214692984674628,43
-136.85899282715974,81.3621555142321,53.08734830302595,42.035360061871515,138.55390641923466,84.40334650211253,-50.12932931228625,-45.653174968386374,-90.0,0.9263645292298135,-6.571063909964229,0.30587569678536597,-0.005976860194592174,-3.208308705413829e-05,-0.0006884892457174542,44
-138.02725021892715,82.39638592416318,52.67105659560109,40.78753759511049,139.30597209369057,85.85295270998344,-49.7438852092588,-44.79752619328465,-90.0,0.9997075144779766,-6.9631071704953085,0.3094067107845318,-0.08040512486060608,-0.0004305408592730254,-0.009820257775611258,45
-137.81439120138347,83.97879484064262,52.34864091002455,42.061107205640525,138.6246827722475,87.54825531592566,-49.51472967727245,-45.366457566886204,-90.0,0.9769354175346008,-7.033678823527954,0.3193494645761939,-0.2277548196402493,-0.0012232199718194051,-0.028103110017756262,46
-134.37270426790514,85.40850858665247,49.602146542651944,42.22706952800097,135.59604809265974,88.1014626751453,-44.70491454417111,-45.334480143031236,-90.0,0.8354439120684758,-6.29162490598698,0.28482812890809944,-0.29717990665672617,-0.0014013209816729024,-0.03276866127530853,47
-130.4095955610208,84.90063756717922,40.551966715681175,46.00955625427877,130.56303065934907,88.19780070427207,-40.18093665311253,-48.147925815745864,-90.0,0.66742432835922,-5.415285641589354,0.31183664415538737,-0.33866855389062533,-0.0017566144367761477,-0.0321100026981489,48
-123.6817647802409,84.25789901475463,33.39514280135275,46.95356719452345,124.18035616483486,86.90535199100782,-33.43647621359795,-48.236727549599706,-63.09269184774695,0.7171741506565164,-4.216678740922056,0.3099722105153138,-0.46825091810178715,-0.0023990526393707456,-0.03453318432783398,49
-116.12441395149234,84.94960581559936,28.937117973433345,42.03096813516412,116.53078331078792,86.75388391598841,-27.86678729756368,-45.127423516877215,-33.72510403920425,1.1737956749947407,-3.418205509478238,0.3711606452142018,-0.4553494617087093,-0.002846930539037251,-0.027209356807962447,50
-108.44786982527214,85.307928314626,21.579783508123114,42.065095676502274,109.48076168392407,85.93983318356622,-18.21465548068476,-44.94111938970657,-22.829635659668682,1.5998219974732002,-2.519031627579016,0.4253335739789204,-0.24652464431443225,-0.0018085331653620914,-0.010849442393729637,51
-101.00182448493254,84.91715924559327,12.466974372627941,44.84477478730003,101.36762644479491,85.07337530970896,-9.351113501976592,-47.45689832516344,-21.46005284273187,1.7340362877456714,-1.2655253042130197,0.444146597714064,-0.2721405242597055,-0.0020958551857758363,-0.006016890463631237,52
-89.12386603607986,78.77438345241751,-4.546216421344996,56.03464661911805,87.59692360331216,78.91171040176056,6.236916761951961,-58.812361388588776,-29.81664440932328,1.2977264760854863,-0.2485649665630422,0.402692793262203,-0.24114790033807754,-0.0016927006015151891,-0.0010497365926230952,53
-64.43315780507676,81.92392432096432,-16.701086054067954,69.18934049134339,63.28198568027945,81.70671162326303,18.615613581625738,-70.62224391089747,-52.61071983311953,0.7924189661055661,1.2761771340664048,0.3673821399638777,-0.05987238690992149,-0.00038470077295319307,0.0013335869761282619,54
-26.414710638363566,78.58365308539577,-28.666045149681594,55.7949345429354,25.332106216722902,77.88014383636458,30.022693899277108,-55.848969831420305,-90.0,0.750334655434258,2.730612100104916,0.4721364344480138,0.11802035944295805,0.0009678564689314776,-0.005629893379865569,55
-0.7689466666441169,85.3051703195158,-37.58739948051207,28.298822862089697,-0.16779100250829512,84.99265357501633,39.41887268854824,-28.298822862089647,-90.0,0.7488205645943781,3.9350327541850687,0.31599215049156765,-0.18592626510501994,-0.0010485858948341123,0.01278771432477243,56
5.672339016890669,89.43897063448914,-30.988369447243283,28.298822862089594,-6.979360511775458,88.92097559128668,35.219094911994006,-28.298822862089697,-90.0,0.641230976921583,4.431248275542269,0.24496505993500756,0.14255689274854128,0.0005975812574814639,-0.011048111744509799,57
15.726806925029805,89.53057810258319,-28.54872063583393,28.298822862089697,-16.828517867037156,88.7636955913245,32.75462345615422,-28.298822862089875,-90.0,1.0523025413661349,5.517514750801666,0.24955236652223034,0.09905472383350325,0.00042517334656692326,-0.009568813225157754,58
22.16497415319688,90.3695792640681,-26.258089255624025,28.29882286208972,-22.916782648400343,89.85915474392144,30.522918041917595,-28.29882286208972,-90.0,1.1730575408063326,6.1414571237230025,0.24489760732127783,0.10263823586300651,0.00043134615309826707,-0.011044367199012665,59
28.629856245211595,90.36228129657255,-26.170940810986487,28.29882286208985,-29.286985710260527,89.89563108195588,30.615688394748133,-28.298822862089594,-90.0,1.7560957097591956,6.511658856326811,0.2390560056200075,-0.009101011756965496,-3.8301566096263526e-05,0.0010388023177497607,60
33.64882152552111,91.62810728358255,-23.95816858811033,28.298822862089594,-33.961830576797595,91.10380379500528,28.424523957733825,-28.29882286208985,-90.0,1.9171710774042863,6.54766897664859,0.270930124625299,-0.045495964591163784,-0.00021862060611074898,0.0052218717862299365,61
35.49823997086034,93.05523994039241,-21.783456397489637,28.298822862089672,-35.70960814004938,92.57992659169574,26.29631990957665,-28.29882286208972,-90.0,2.057444720530994,6.559668800623432,0.26664401107120106,-0.05827193120010688,-0.0002763833298872904,0.00670059028576305,62
36.785812814913,93.8518872381194,-22.00348084830897,28.29882286208985,-37.04860316649678,93.4392801866096,26.41775050198012,-28.298822862089594,-90.0,2.202203561468126,6.827524576826785,0.29094483828042617,-0.004466877494579428,-2.286560641443221e-05,0.0005348185150089354,63
37.43074070206141,94.5420995821124,-22.13736632254139,28.298822862089697,-37.74432924147217,94.106526279192,26.564449549709348,-28.298822862089697,-90.0,2.2717766510644397,7.029749874400073,0.2800737498682239,-0.006589773262762202,-3.250316023858108e-05,0.0008125940125339584,64
37.90737346069185,94.73823693634671,-22.192837372830006,28.298822862089697,-38.17680812011196,94.21313871045737,26.57201403457217,-28.2988228620899,-90.0,2.311507733994836,7.181761960526727,0.23876721379611748,0.04829464975054835,0.00020028488376061917,-0.006085498944798106,65
38.92128579899649,93.97489515040283,-24.447147849703857,28.298822862089544,-39.14739929491475,93.34880565348178,28.863305491571417,-28.298822862089594,-90.0,2.3928037323376192,7.453715742752214,0.17361249575641383,0.06742066388547109,0.0002008438138049008,-0.008820814569584902,66
39.40761046549749,93.58631398798042,-24.34413167231856,28.29882286208957,-39.7316214807306,92.93226183120905,28.803873100954405,-28.298822862089747,-90.0,2.4206186727618957,7.447846772761562,0.12247316694131047,0.08112211140936403,0.0001673715610477605,-0.010604934879414891,67
39.63237024467622,93.33802563827524,-24.278344849525933,28.298822862089672,-40.267721113854094,92.15792751727211,31.102643355590686,-28.298822862089544,-90.0,2.4608301356876017,7.52261308339238,0.0501902823796291,0.12076465090543728,8.989988926759543e-05,-0.015947557948655506,68
39.71342900250052,93.07194473447645,-24.214193181371648,28.29882286208985,-40.30848989594077,91.92451577414873,31.067041183013473,-28.298822862089697,-90.0,2.4732246087297436,7.454184388347482,-0.0033084870828675402,0.1516817254627642,-3.5102811568468424e-05,-0.019845864686304025,69
40.194588922274164,92.22128490833212,-26.410936482853362,28.298822862089697,-40.40856449653018,91.52065147000778,31.063573146697088,-28.298822862089647,-90.0,2.5393357395857907,7.327899220285512,-0.050746750380500465,0.09646645932333042,-9.658691983939602e-05,-0.012405307910509027,70
39.46935670035558,92.04979335952288,-26.39983073376534,28.298822862089594,-39.77484901766865,91.47419855810188,31.03131006049058,-28.29882286208985,-90.0,2.5728877240703043,7.243287572872479,-0.10488723768160924,0.17126230658839034,-0.0003485712541867771,-0.021766432177138532,71
37.711698182953256,91.73806586023103,-26.32330001071039,28.29882286208972,-37.922420295853854,91.00133846043403,30.954546121545402,-28.298822862090002,-90.0,2.6472601715846333,7.162481169617404,-0.16962278650643745,0.21713193108009707,-0.000699572183813155,-0.027284428313642015,72
34.8319455128788,91.31305331174592,-26.22787229077952,28.29882286208985,-35.24535534511275,90.65209032994761,30.89606702088862,-28.29882286208972,-90.0,2.6673016556978366,7.001646995802351,-0.21997637110696078,0.2709275118646132,-0.0011266613672115608,-0.033271058447685284,73
26.675129490134616,92.44869737927846,-24.06970555762412,28.29882286208962,-27.234223228864284,91.33527277351655,28.527623211658607,-28.298822862089697,-90.0,2.3844802843235575,7.323705508589061,-0.17068320368167147,0.37716276522667447,-0.0012923465193148975,-0.04847026955898407,74
23.22278945840415,92.1241437437637,-21.529109264916134,28.298822862089697,-24.201683401047575,90.9631784500874,26.024253461383484,-28.298822862089875,-90.0,2.4047227130523177,6.707804990082076,-0.26801744312785963,0.5174889325162255,-0.002712229096357188,-0.060850774878382884,75
3.4619753924331578,91.77823374244944,-16.281512260827547,28.29882286208972,-4.670933065430436,89.8964098989515,23.610173933161136,-28.2988228620899,-90.0,1.6490143462425804,6.630435491146684,-0.3035646058866112,0.4431812836487427,-0.002563117729002092,-0.051506882493365644,76
-15.083977365007328,88.35642100268213,-22.717540591906168,28.298822862089697,14.306521333767368,87.34900697906556,25.78219322153736,-28.298822862089672,-90.0,1.8701360432051526,7.372817684199187,-0.35830379888155756,0.6591682426253849,-0.004647142475392992,-0.08526766884536495,77
-25.414255751951345,87.73281327201563,-22.464800457492995,28.29882286208962,24.36876715312266,87.02135196487373,25.83899566876171,-28.298822862089672,-90.0,1.5292744826905822,5.766446351052517,-0.3797926836240404,0.6283792444289747,-0.004534445793326941,-0.06343268627566703,78
-44.39194751547487,85.18596186017895,-14.402055702205436,35.56501291952879,43.51064720323857,83.68009237068672,20.16476537248097,-36.38116125303883,-90.0,1.1867723424762624,4.856680770978622,-0.2842619969100942,0.6257517940110792,-0.003406045700990335,-0.05315135760987757,79
-69.70368594127426,80.85181479146058,-5.232554665304156,44.278218807095335,68.75726828597918,79.08752868777735,10.620898412956034,-46.134689464021754,-90.0,0.7838402152495804,2.900413730432247,-0.21832932987450585,0.3945106652514808,-0.00157404668681755,-0.019982577806920122,80
-92.21094459537831,81.38065145144242,9.718160814301113,43.373425106305845,92.01895308502247,80.32504884280094,-4.671118964192081,-46.404755438189866,-81.86361517508588,0.6776882042118404,0.5230184784876007,-0.013979551087465687,0.28582988526439773,-7.625033132726289e-05,-0.002609055658776479,81
-104.2976286131611,84.09493132539231,28.86180609351078,39.47469434125453,105.9152477458935,82.79875718875039,-20.3721512104464,-43.495198998984044,-66.46193463361443,0.7048790452140395,-1.2710773849516743,0.08016261672629464,0.18981988060736038,0.00027261908072668444,0.004211299815836361,82
-111.95794672979692,81.29451171106703,42.87580524422356,39.19474027446566,114.18021523088169,81.94834105743315,-36.5639809074306,-43.56151099808455,-89.1942073692329,0.6253380272947314,-2.0194788524659533,0.09643715929245988,0.1857272568085577,0.0003234145243682223,0.006548440387172015,83
-119.03312868986086,76.12634648241107,52.66002883703893,48.38392896223194,121.53159821942253,78.20093844909978,-48.80646344801588,-51.218556284681284,-90.0,0.8318746438260253,-2.9717452805699316,0.14130525885619702,0.07712737409649424,0.00019316615963156934,0.004003807426732091,84
-128.23067817162928,74.60138120687029,59.371378469794976,52.810967633413526,129.6839911951357,77.79037702021839,-56.62482183841517,-55.40141025900544,-90.0,1.0298638274675125,-4.761569411452767,0.06784709316295685,0.1329374815214267,0.00017080981989240078,0.011073090141212586,85
-135.29228858768516,73.69810090987147,63.85763296033001,48.54509430396571,136.50311689262227,77.04208844315106,-60.80772337248029,-51.32507613233078,-90.0,1.243134880265249,-5.7716057503943805,0.17313940961290947,0.030808306373583103,9.441000463244185e-05,0.0031139440699690297,86
-140.44808742804136,69.97124237079741,74.69147960157913,45.8798016260885,140.72154771760677,74.32240267006526,-72.08935947484711,-49.10138426729888,-90.0,1.728188404348527,-6.003436176522191,0.03789994137208666,0.004274790219476133,2.8600475399909433e-06,0.00044955765562842433,87
-143.9634962982492,68.52411036128011,80.68592236767576,44.269000985077184,144.5318734568182,73.44348024475059,-76.20179832588863,-46.23742283198732,-90.0,2.0593645498000237,-6.477057283806945,0.004724678800394611,-0.04910029054489199,-1.6863731441001249e-06,-0.0055743571725296835,88
-145.16402456322746,69.56707925995495,79.48978410844231,45.82182460134392,145.63832154416122,74.41682403227104,-75.07204814707866,-47.283640235760984,-90.0,2.1465731255834943,-6.933050500353261,-0.06569701132595912,-0.060492171521113386,7.375609322296104e-05,-0.007355727200443518,89
-145.17577079498673,72.42552441320345,75.62570206244953,46.48133967423929,145.14333727678974,77.3361803652933,-71.3860494366279,-46.643139630427356,-90.0,2.0816681965783324,-7.4651642755877665,-0.10622556213065186,-0.12698712887939542,0.00025588462499171073,-0.016639360825523294,90
-143.75792634024162,76.24497431004924,65.98008299680104,46.215025412910926,142.47626654271366,81.21446984683395,-64.94595832495631,-46.97160704712137,-90.0,1.8629699440289544,-7.610089202900973,-0.12907684624242596,-0.165119886830222,0.0004070795289364234,-0.02206072990183163,91
-139.5676284117553,78.98774424139312,58.539181718033795,49.23384694285333,138.57031733074774,84.16463905855244,-57.80632709657431,-47.75464480901418,-90.0,1.5388727714434094,-6.987068092087879,-0.20678631832533284,-0.2060438424884423,0.0007946038861512951,-0.025250417433598557,92
-132.3548530183297,80.31819940633292,49.226914599227804,50.839071087505616,132.1796827751916,84.19404713913542,-46.757042412243344,-50.45448335375402,-90.0,1.0479178584517777,-5.929531853902869,-0.32222323804145675,-0.3928373749072701,0.0023610254637725175,-0.04079259771176826,93
-122.56747253299696,80.7416919591545,37.789674795458836,51.91864551903425,122.2948047033078,84.54624216852598,-37.73616747611858,-50.57601789934495,-90.0,0.7037961265372784,-4.5162865294214125,-0.1656006920100966,-0.6060730959939814,0.0020103440103298956,-0.04786221366952706,94
-113.22510251772756,83.27140573686063,31.658425826504153,45.053497106271955,113.5602161468711,85.90490079764788,-30.433638643424022,-45.795258704997224,-43.59267200496092,1.0765524020752282,-3.480067290126557,-0.0402200789224897,-0.6000458312373432,0.0006130650571330366,-0.036487981885599804,95
-104.66185634838266,85.8991826328099,23.229107178499508,42.627705586616244,104.91139588936495,87.18207024481947,-19.648667717854572,-44.562093109742754,-29.620860510338705,1.5856610577219237,-2.9760987841907776,0.08740769267999775,-0.290009826834442,-0.00040486281191196325,-0.015078516306313586,96
-97.24590996878445,87.03486010923064,10.294557174765272,44.775982346043286,97.28337028892392,88.0332603908754,-6.958032656843374,-46.810818829671675,-32.427876992370834,1.4674742672244507,-1.7544450044322293,0.22123253512733057,0.28635624111268576,0.0011281274646800868,0.008768412518311786,97
-80.64201225550002,81.94411623857161,-10.903239508120777,55.275442254913685,78.92811173174026,81.32791352310649,13.3853381879363,-56.7868586773196,-67.84084104288802,0.8689456753204055,-0.21698170422455842,0.31861233298090863,0.28335984706024075,0.0015783918822544984,0.0010692008833787343,98
-46.481642471812656,84.23336933006459,-25.374344427251774,51.62319775326811,42.510918338741,84.22262264732068,27.30046440884665,-50.508349085722465,-90.0,1.0865794813933047,1.6978143777240007,0.23101319787288793,-0.18605206126094426,-0.000759437151184172,0.0055135657198849535,99
-15.70257292441787,87.50676246579225,-34.97636429961694,31.701942961040125,13.154724203935919,88.1612985557916,38.278377886085266,-29.61885865059666,-90.0,1.4975267306121083,3.173261609560073,0.14574303556720425,0.10457179558781755,0.00026111712648480603,-0.005797758098588021,100
-2.7660020422461105,90.76506954145347,-26.25237668345497,28.298822862089594,1.7422956116250514,90.3808519203245,30.708390806811273,-28.298822862089825,-90.0,1.2021881867097064,3.0749805902401977,0.1739285572648836,0.03583443622932124,0.00010833513142815262,-0.0019250641481783847,101
16.98620110821731,90.13464478400783,-28.65843083429318,28.29882286208985,-17.809152490181557,89.94392884936795,32.98506122150049,-28.298822862089647,-90.0,2.1306887148876705,4.085606755521279,0.21936801233712355,0.1372088588245907,0.000514936089095321,-0.009801226729505777,102
22.8248741615383,90.80489624625979,-23.886979554752937,28.29882286208985,-24.03496384278357,90.13420308052909,30.58286988181128,-28.298822862089697,-90.0,1.9319839106047498,4.7009774210033655,0.22689895092148538,0.11841079618213719,0.0004604456485458117,-0.009737649222050497,103
30.4050153388923,88.40298230845893,-25.80599895052131,28.298822862089697,-31.599282798211576,87.52129580025876,32.58397414979369,-28.2988228620898,-90.0,2.7621583524140996,5.5354066573473615,0.2365370988324613,0.04534277296145226,0.00018633013208271668,-0.0043943673368860535,104
36.02764061264328,88.55329913270539,-23.423335316417507,28.29882286208962,-37.20137669214719,87.37879043796147,30.05250598775059,-28.298822862089747,-90.0,3.120731553178532,5.471529164408984,0.2115092470118503,0.14985126372305704,0.0005369439404705957,-0.014354590019751963,105
39.23770125425486,88.51893914806728,-20.95746025705757,28.298822862089875,-39.9613762807526,87.30587694582972,27.57237333702611,-28.29882286208972,-90.0,3.3833530714324027,5.761293974322161,0.1963738462551937,0.17358044497944425,0.000571417416905576,-0.017514065026074898,106
41.565248007323035,86.80910493674146,-20.65768414181217,28.298822862089697,-42.0212290918143,85.48466345040045,27.15277309997472,-28.298822862089672,-90.0,3.6224775850427053,6.291811615331534,0.1565019557437782,0.2759390707748795,0.0006850248256146704,-0.030425728964303362,107
42.68568116418691,83.83281508791754,-20.041644899941115,28.298822862089697,-43.45446819734111,81.9653963826387,28.92330134780206,-28.298822862089953,-90.0,3.855357170390992,7.023050046447925,0.09014061042206777,0.3332128323076586,0.0004088229367285157,-0.04105075494233863,108
43.89292317580355,78.72719190930171,-21.356239511880414,28.2988228620899,-44.65576056344732,76.98629220753566,30.53095462705477,-28.29882286208962,-90.0,4.147469613585473,7.602088617560412,-0.0026988757546190035,0.28256312230475966,-0.00010642016151409855,-0.037712271121711015,109
45.95316723276466,69.59471126790562,-26.963340395949672,28.29882286208962,-46.830322665602964,68.0502263201687,33.796803898391474,-28.298822862089594,-90.0,4.516067662453811,7.658159841234581,-0.06978101496692182,0.318932899105437,-0.0005112810966443553,-0.04288299679656857,110
49.08505369144435,56.15596237891279,-31.771193045435133,28.298822862089747,-50.50626881908073,54.1078285194485,40.20013716520964,-28.29882286208962,-90.0,4.824392107483861,7.354162539664885,-0.09411878874043011,0.17915108242141886,-0.00033287776369472137,-0.0231214439319232,111
53.00788911168223,42.955596159988076,-32.67200819682418,28.298822862089825,-54.451429775537854,40.69563986504397,41.32623954842901,-28.29882286208962,-90.0,5.122149303337602,6.790616732910587,-0.16455824126769042,0.24518533416744953,-0.0007716366498192376,-0.029194273449478166,112
57.83562893007305,26.472109555215564,-37.374888221808376,28.298822862089697,-60.871791054705454,24.17595604083426,48.12155660949832,-28.298822862089594,-90.0,5.3421560575801,5.661145306800531,-0.21810182598105265,0.030700889900567036,-0.00011825456722883363,-0.0030432993259417737,113
73.53242342630764,11.372445665017016,-52.904086812463476,28.298822862089594,-80.51157394502617,6.644659262602644,70.46912974978542,-33.4171481984126,-90.0,5.304169165581684,4.682101839930983,-0.20448021770410021,-0.19802768010271252,0.0006810717113513024,0.016219747270798075,114
73.53242342630764,7.515284273120764,-52.904086812463476,32.17544034774171,-80.51157394502617,11.964058332879075,70.46912974978542,-39.09840498413782,-90.0,5.10046682677015,3.6880848456790387,-0.19678458408440885,-0.26616589247070166,0.0008762039626138764,0.017158651397224344,115
73.53242342630764,24.78064719518059,-52.904086812463476,40.29837602992017,-80.51157394502617,30.003642296627806,70.46912974978542,-45.81376282174904,-90.0,4.682565690459928,3.258400351971794,-0.15552396356585682,-0.09808356294901502,0.0002618905549942495,0.005584240018923976,116
73.53242342630764,43.02215023992367,-52.904086812463476,46.69387180832221,-80.51157394502617,47.55818387454461,70.46912974978542,-50.524565888903226,-90.0,4.038029750032829,2.3947970399316247,-0.16495439907382528,0.3079026004462372,-0.0009218238319075628,-0.012874491594714196,117
73.53242342630764,60.36655242313317,-52.904086812463476,46.60814606210478,-80.51157394502617,63.477211281650796,70.46912974978542,-50.12184881852182,-90.0,3.2350953572302292,0.8856022475996017,-0.2122356816825039,0.3840611113859801,-0.0014427070861102393,-0.005931968634713664,118
73.53242342630764,72.34620626032269,-52.904086812463476,46.31576232852754,-80.51157394502617,74.36518224050326,70.46912974978542,-49.262119294944284,-90.0,2.2126368144483832,0.15803948187006103,-0.19272721727774336,0.3279896302227802,-0.0011058585840879934,-0.0009015363867310351,119
73.53242342630764,81.66075749562607,-52.904086812463476,42.35382261329451,-80.51157394502617,83.02519802569677,70.46912974978542,-45.696722860171725,-90.0,1.2903970598286645,-0.7564058589234856,-0.0034879293733667553,0.2160067812762051,-7.774961030144762e-06,0.0028518561440510222,120
73.53242342630764,88.3601134994332,44.18320113296356,39.72823126095362,-80.51157394502617,88.73569207826235,70.46912974978542,-42.96958518972837,-90.0,0.6428417587307063,-0.7302460502061356,0.119304147945347,0.12716530531149775,0.0002666103451950278,0.0016205395978376373,121
73.53242342630764,91.44979824979937,24.180792197321686,40.04341983590856,-80.51157394502617,90.68855246881552,-18.229789664177797,-42.54356642632519,-51.70017954397425,0.6878286841715803,-0.7961866749374776,0.0921940085285358,0.6470739005720623,0.0010920563735682801,0.008986298897699873,122
73.53242342630764,91.78202302188281,3.62609483151422,43.53682349794804,-80.51157394502617,91.1503234691565,-0.44936836377718054,-45.58243344756607,-89.00747144388535,0.5349916258795574,-0.39352140551988735,0.20967195094339217,0.554974650797252,0.0020493967410782766,0.0038018661893018993,123
73.53242342630764,90.82902661014404,-6.626429960829943,42.60080590731263,-80.51157394502617,89.88457179676486,8.949135274437333,-43.39394844413793,-90.0,0.826267403517758,-0.08258537766678545,0.2582663634348566,0.3615284729146036,0.0016312711491426853,0.0005159578874251732,124
73.53242342630764,95.03167195950557,-9.980730126681722,28.298822862089697,-80.51157394502617,93.33836928560896,14.13441712820266,-28.29882286208957,-90.0,0.8718656056353623,0.14042693207065488,0.29801684203673684,0.2408857007655811,0.0012517071550473388,-0.0005930230162786215,125
-23.42380786786336,95.20344881641228,-12.494437912991096,28.298822862089697,-80.51157394502617,93.20578527231574,19.012473891057528,-28.29882286208972,-90.0,1.2265850322363037,1.3140013455673563,0.3050668340471467,0.4969227279904046,0.0025970842286085127,-0.011409577956018845,126
-13.04437219302457,95.5792081550849,-21.691135857094917,28.29882286208972,12.373927249012215,94.12900489401211,26.88834113380526,-28.29882286208962,-90.0,1.803341248150153,2.0333845947696005,0.3111041997821608,0.596592886123041,0.0031311114718400195,-0.021198003199437442,127
-4.056030294503643,97.42202770187382,-17.920199315709493,28.298822862089697,3.353051771478675,95.8995067100389,23.16677136082672,-28.298822862089875,-90.0,1.9251005340348972,1.3077583441912919,0.2833142527225317,0.4859090912431947,0.0023562861697488773,-0.01110270301266293,128
-1.1004347294215089,97.9392058820012,-13.177136661037395,28.29882286208962,0.4838439894161108,96.24820861614515,19.591088312510976,-28.298822862089825,-90.0,1.9815155030599014,1.6738612855136588,0.20603704850487478,0.3631996394421281,0.0012729888702168398,-0.01061774268053156,129
2.2829773436002085,99.37247997902881,-11.067393447093696,28.298822862089672,-2.9416727115762025,97.96662717056321,17.495153084434236,-28.298822862089672,-90.0,2.2080373622593656,2.15828694949222,0.22201149737893147,0.3162153879211108,0.0011932651667212531,-0.011920540560975619,130
2.80600765880594,100.00473316850085,-8.743945082735404,28.298822862089697,-3.4856994108606467,98.5700056744031,15.187231519515862,-28.298822862089747,-90.0,2.216235751956852,2.1814509839213074,0.22498886444686475,0.2706244603453757,0.001039113820333819,-0.010311072136336471,131
2.9965856855493254,100.4716007486828,-6.44156578577976,28.29882286208985,-3.7018967584581115,98.59031697457229,15.136317683530276,-28.298822862089825,-90.0,2.2888228666001704,2.4682672085036708,0.26102350794988327,0.3361357473332938,0.0014902608190086762,-0.014493892096306773,132
2.859371863963336,100.28697627169899,-6.358696258659444,28.298822862089697,-3.49048190811409,98.91351448142719,12.795283958054638,-28.29882286208962,-90.0,2.3524879382174677,2.493540300318024,0.22167366918057402,0.33708342645156736,0.0012622077752588521,-0.014683052320880269,133
1.3228897194773384,100.8596796766217,-3.989557927018574,28.298822862089747,-2.1931222632742,99.05517954227246,12.856755079571558,-28.298822862089825,-90.0,2.275528619763254,2.6595025027707133,0.1888368864023881,0.373145784618485,0.0011747038553881206,-0.017336663889518503,134
-0.259203252127926,100.36478149834286,-6.257143731693416,28.29882286208972,-0.5522629389697183,99.01887041183593,12.936845043383174,-28.298822862089697,-90.0,2.1868529722762906,2.6834238600778715,0.12655232388150317,0.30517407065600427,0.0006367010367651964,-0.014304884974755534,135
-3.384917763867503,100.51835036796575,-3.7827379237830767,28.298822862089697,2.8135631331438153,98.89138614097749,10.489251655319578,-28.298822862089697,-90.0,1.9685638557278269,2.2404389379762,0.09212299573504637,0.3766777871606099,0.000557659081348916,-0.014738640261235714,136
-10.726180926915747,96.92852104208978,-11.261255054359916,28.29882286208962,9.763463129176072,95.80493157582286,17.005909219689656,-28.298822862089594,-90.0,2.1140935745461578,3.103083943969356,0.02592372259048196,0.21082749045774,7.450170449938267e-05,-0.011429539366300753,137
-18.610367865127223,95.36311784866018,-12.094525299675185,28.298822862089594,17.407690146885507,93.78472578272799,20.304962028437632,-28.298822862089697,-90.0,2.0212576187453215,3.1748224065031465,-0.000543167935663205,0.39649289779501373,-7.985987250683072e-05,-0.021992434538130934,138
-28.766524949832643,94.32711184602113,-9.50571022722,28.298822862089825,27.80883582465849,92.9158327554352,16.81714827969291,-28.298822862089747,-90.0,1.5121214193663866,3.1545665699905845,-0.0068329144903251015,0.3875955192477982,-0.00011854681241940658,-0.021361339254716144,139
-45.47232194862635,90.89570037174052,-6.274023800774736,32.694253304948454,44.93543788129568,89.0942856592199,13.686789248892158,-32.97494056982304,-90.0,1.004620048966204,3.1931257071718258,-0.016512939875457888,0.3436009529639665,-0.00015665850876473973,-0.01916851115746821,140
-65.5863158699876,87.13483016048392,2.4186175020711707,40.56940588645742,66.13055147165893,85.6548166566776,2.5769465724923646,-41.716352260058564,-90.0,0.610463093383438,2.0222663566113526,-0.025018424146806717,0.25088494282082546,-0.0001290129141981841,-0.008858446729426244,141
-85.15044909405799,84.50299958419855,21.249534225478442,44.730929903047134,87.32938526876929,83.44021579549617,-16.408702314192805,-46.585236595288336,-90.0,0.5890339990480585,0.6532855939839779,-0.03225776258560819,0.16613030758350955,-9.62842905703435e-05,-0.0018941590499298405,142
-96.5196026255275,78.08996333159553,44.33796561912783,47.69894436278677,100.08485646028758,77.75587670111469,-39.15222298366415,-50.23886898937019,-90.0,0.813416125585063,-0.4426432873682461,-0.1080043158574646,0.2840005639247086,-0.0005299264237542873,0.0021954312883061783,143
-104.72647304235942,66.46092579382132,63.801949932331816,49.46882325810967,107.9896721545992,68.05518756685318,-61.35116197900627,-52.69203996741184,-90.0,1.4403817631065075,-0.26916956737251385,-0.1344688779296028,0.3472399330581849,-0.0008100081937162696,0.0016337682803304143,144
-116.60600003300493,55.64624878010184,81.77813454024724,46.568534427413866,119.51105046730554,58.395932739777045,-79.5336074762211,-50.492247821240355,-90.0,1.991891346960298,-0.32885014714061417,-0.08214881727939184,0.377872863202245,-0.0005346352891059569,0.0021706026475371235,145
-123.3277561946713,43.058510868410515,93.46565914077709,44.334906650157464,124.51160987643621,46.16483117318189,-92.92057284841201,-48.820983416409426,-90.0,2.3373984297781747,0.34597303711822724,-0.11001280537513539,0.37448240453807263,-0.0007264370155620606,-0.0022589244336858635,146
-134.40730676663722,30.286170642748164,104.99999999999999,38.51560584881953,136.55935384646693,34.06528349499941,-105.00000000000001,-43.611608009384604,-90.0,2.6788059517387186,0.960042701197074,-0.16641280045574403,0.44232005807464986,-0.0013134791362893743,-0.007407135260009472,147
-155.0,21.549916918589695,104.99999999999999,30.536754797893003,155.00000000000003,25.282989156944232,-105.00000000000001,-36.88957109914377,-90.0,3.0888790630785223,1.266099290088156,-0.21590875267855988,0.26625369856922043,-0.0010172478040643422,-0.005882174068120394,148
-155.0,17.642293671285586,104.99999999999999,28.298822862089697,155.00000000000003,19.566018416868722,-105.00000000000001,-28.751087933876644,-90.0,3.686010276331907,2.02580230786939,-0.31706885937561047,0.19825903907219736,-0.0011099733500430468,-0.007010840504660581,149
-155.0,19.243232620273815,104.99999999999999,28.29882286208985,155.00000000000003,20.493780717379714,-105.00000000000001,-28.29882286208985,-90.0,4.163902838824408,2.643049350875621,-0.37351283247328965,0.21806192911287361,-0.001442239064817196,-0.010063592665393046,150
-155.0,26.902982063630777,104.99999999999999,28.298822862089594,155.00000000000003,25.948390699770968,-105.00000000000001,-28.298822862089594,-90.0,4.462330684151744,3.7996970882207406,-0.5019281647149573,0.1366147136388009,-0.0012102696678840121,-0.009071781599293638,151
-155.0,37.68549898368547,104.99999999999999,28.298822862089466,155.00000000000003,35.68201966122565,-105.00000000000001,-28.298822862089672,-90.0,4.79031199235875,4.419744127503562,-0.5643968965246206,0.31123061444091094,-0.0031403737695739646,-0.024047359026479056,152
-155.0,49.349488087534404,104.99999999999999,28.298822862089953,155.00000000000003,47.237285057326716,-105.00000000000001,-28.298822862089697,-90.0,5.063954035406395,5.14383241418422,-0.6700877018467901,0.21649794853952242,-0.002579168320036786,-0.019484072708924396,153
-155.0,59.96680953394889,104.99999999999999,28.298822862089747,155.00000000000003,58.26856165753533,-105.00000000000001,-28.298822862089647,-90.0,5.25502901521518,5.485933318312701,-0.744818299881547,-0.11976383434297302,0.001552101027321517,0.011503881838670897,154
-155.0,67.76121550590341,104.99999999999999,28.298822862089825,155.00000000000003,66.12166456289846,-105.00000000000001,-28.298822862089747,-90.0,5.3672258718921375,5.465115340959775,-0.7909724040299861,-0.1448124339242566,0.0019908884384669716,0.013857370017343728,155
-155.0,73.6875757496516,104.99999999999999,28.298822862089647,155.00000000000003,72.14705094779286,-105.00000000000001,-28.29882286208972,-90.0,5.404406292432525,5.285061169209849,-0.8050794986785148,0.051760419150476966,-0.0007326168431805859,-0.004787729745089268,156
-155.0,77.33061285787086,104.99999999999999,28.29882286208972,155.00000000000003,75.33128732110846,-105.00000000000001,-28.29882286208985,-90.0,5.477921528825726,5.285103211731054,-0.7981827492270718,0.030649722160710373,-0.0004295879212751376,-0.002835137656303549,157
-155.0,80.92357142478308,104.99999999999999,28.29882286208972,155.00000000000003,79.52421229534356,-105.00000000000001,-28.29882286208972,-90.0,5.479038166813124,5.185286028124519,-0.7776360451638952,0.18018204332034662,-0.002481397335514577,-0.016347340075625872,158
-155.0,86.74189763585237,104.99999999999999,28.29882286208957,155.00000000000003,85.11292109066176,-105.00000000000001,-28.298822862089594,-90.0,5.261350627474125,4.8077684387021105,-0.7858135174959004,0.22251893579523443,-0.0030991649896348946,-0.018709868201210535,159
-155.0,93.12271863115387,104.99999999999999,28.298822862089697,155.00000000000003,91.94757323942633,-105.00000000000001,-28.298822862089697,-90.0,4.586134287657253,4.74643603453239,-0.6810350180657077,0.20477757719181844,-0.00247292307218595,-0.016998508114435304,160
-155.0,96.91791840431067,104.99999999999999,28.2988228620899,155.00000000000003,95.11655543890396,-105.00000000000001,-28.298822862089697,-90.0,4.263164341776357,3.367853628715081,-0.613769009159621,0.24529808088406804,-0.002663247070088613,-0.014429623838810107,161
-155.0,99.25752408600027,104.99999999999999,28.298822862089825,155.00000000000003,97.31275019732541,-105.00000000000001,-28.298822862089875,-90.0,3.5368355756295213,2.4739351752852654,-0.5795752839296059,0.5581998916480669,-0.00576933154512898,-0.024089258878662423,162
-155.0,96.80862127079304,104.99999999999999,28.298822862089697,155.00000000000003,95.21348326019522,-105.00000000000001,-28.298822862089594,-90.0,3.4781624678897676,1.5115445599741375,-0.528162527242002,0.3735178205361025,-0.0034765539512589916,-0.009844931375891366,163
-155.0,94.47479801700993,104.99999999999999,28.29882286208972,155.00000000000003,93.05900025946129,-105.00000000000001,-28.298822862089697,-90.0,3.588207213275748,1.7953800735402679,-0.5170978304187979,0.5390398750314647,-0.004946804207897269,-0.01687338069046285,164
-155.0,95.08520708651164,104.99999999999999,28.298822862089594,155.00000000000003,93.17599641819888,-105.00000000000001,-28.298822862089825,-90.0,2.810408201746948,1.0981688253338038,-0.3856736443779521,0.7495857649937465,-0.005140521869832939,-0.014335407029949126,165
-155.0,92.91603588612878,104.99999999999999,33.39080043567851,155.00000000000003,91.03446677841616,-105.00000000000001,-33.956340425496414,-90.0,1.9801792665218052,0.228200952674361,-0.18767252047105112,0.47456237529272444,-0.0015622584721457873,-0.0018836655685623652,166
-79.36584495237774,90.77298471776946,16.64978561453947,39.30873617499482,81.27218901108004,89.4835233973815,-11.138953159205542,-40.95776868691226,-90.0,0.9033792426998555,-1.6935521518816343,-0.09740018409286422,0.44124330562464126,-0.0007001795350035738,0.013048854348604722,167
-94.46139838655917,91.43065014634402,36.157716205594404,37.014250805285705,97.5558542905208,90.45212155883978,-26.9628452338539,-39.38768333506926,-90.0,0.5650336804383459,-3.212641913319522,0.00727847504861369,0.5439503980701199,0.0002141374517990486,0.030531159447069668,168
-103.03835820693044,88.07051931388682,51.37174846499536,36.276783840647354,106.28809886864747,89.02381897118654,-44.38676354827716,-39.27467347407219,-90.0,0.5935745876589756,-3.8046559756161185,0.00239740030121507,0.5506239999749786,0.00019903875518408493,0.036616676626700206,169
-111.78428575979859,80.82845154099425,57.694779911956644,38.88930856410673,114.24224698206667,83.03430666245815,-55.53008412877367,-42.58248135470524,-90.0,0.8046295229638836,-4.252009484370281,-0.01769337769782618,0.5903623497804785,4.331773618325629e-05,0.04389248482242581,170
-118.98055353138085,74.97555380875161,63.33348832259,46.45915954458706,120.88314902749563,78.13139188670348,-63.62134674613891,-49.590310707086466,-90.0,1.341557453785809,-4.926732429523659,-0.051240479053913865,0.5041092566170574,-0.0002613361841351593,0.04345576768124206,171
-128.62590380746786,72.93455336800137,70.438356857916,43.6347511847017,130.07085672735218,76.07804005640862,-70.94639501259933,-48.589402047996565,-90.0,1.65934139869496,-6.4456613479330125,-0.026145595404514815,0.46409186967750377,-7.807058729990217e-07,0.05243107071061709,172
-134.57490670015312,69.53827898904153,78.76905203508869,41.263565279409164,135.18094307646638,73.328845651644,-78.53757012345385,-46.98238230390033,-90.0,2.081403280285413,-6.64802544499794,-0.11702540724548323,0.4163171575645681,-0.0006797817134349355,0.048525849299793214,173
-139.67782352428847,66.4000764467435,89.17852453138134,34.952930000217314,140.01563302758717,70.59648252986293,-89.0245206977388,-40.25100593038804,-90.0,2.4988593826733365,-7.085489782285964,-0.05508891782252518,0.3844814260909315,-0.00021216572234226006,0.047791692767826105,174
-141.81770640803472,65.1010538641632,94.12554564121628,30.18200350881477,142.84638114134836,69.3867749527106,-91.68044943251431,-36.69885745904454,-90.0,2.6600750007652962,-7.377935081919487,-0.04829361186670314,0.41495413002931525,-0.00015810819454566494,0.053731437197155126,175
-142.79452747493727,66.02191742658586,92.86784269945032,29.661046830093017,143.0826184022352,70.4596384576613,-92.63456982890982,-35.61272510697234,-90.0,2.744040504098582,-7.485522613278213,-0.05480081976641227,0.4016448976337369,-0.00020248015880852763,0.05277522131261543,176
-140.53647902679853,69.09104105950237,90.22438051607625,29.031065303799547,140.88884994392816,73.42300068689933,-90.21870193107928,-34.38062456366256,-90.0,2.628627134516451,-7.617388532808441,-0.08330964361808894,0.4096337076637214,-0.0004050819991253921,0.05478499431747992,177
-137.16976721360973,73.76243777497125,79.99177175821275,34.82788674314892,138.77864795524474,77.3633884406581,-77.5272506889043,-39.89685034186983,-90.0,2.3754354538418916,-7.280851281622734,-0.17536334124934463,0.39142791356280215,-0.0010369358406842684,0.05001378822414189,178
-131.98458906746941,76.49358265856554,69.33247188387482,39.30005068946766,133.38907100231262,79.91417904363546,-68.6974362368011,-42.65009435134721,-90.0,2.0058666018628424,-6.455727920919741,-0.19423371499305186,0.4183056501045264,-0.001254322013932269,0.04733724725599153,179
-125.05645823544387,79.27372402899736,60.33062995514284,41.2583321582588,127.00457063263471,81.58076670939697,-57.525809438735514,-45.46870999690223,-90.0,1.457789755522797,-5.524783210047261,-0.18653906162598743,0.39442826928510083,-0.0011588170197403117,0.03815542167672326,180
-117.28917092664673,81.24591587872969,49.27888425412322,42.25499238241965,118.79040513870082,82.91316114163024,-47.290014128605975,-46.11459395876592,-90.0,0.8986220965390369,-4.326586246273068,-0.10532554409736844,0.2945672040040594,-0.0004857537705535381,0.022287371570803002,181
-108.62956400058438,83.62532451415308,38.81173212961593,43.02091008460449,110.3059244052397,84.06697955104423,-34.62949410172126,-46.64146131798852,-89.4418208708485,0.6174481475807119,-3.2520717377147195,-0.08351419731799606,0.3182782471116597,-0.0004144376556809019,0.018085888011156237,182
-115.37380670214542,79.07475541594599,19.735801662867548,52.88077019683365,116.01404531646367,82.73269114459023,-21.8800095652982,-51.26197828978428,-90.0,0.75170568134204,-5.525551002486281,-0.6082927810547694,-0.008399702942537054,8.965647080749261e-05,-0.0008125736250766725,183
-118.64880399307708,74.1094299033653,19.80166500393967,57.04686317093339,117.94166778359273,81.07125950513266,-18.346907159660805,-52.65645697040178,-90.0,1.0703201808180478,-7.879832735906224,-1.5554681420171588,0.09486464484198213,-0.0025896987617142144,0.013131630800644674,184
-117.81256276924191,68.53964243187563,31.872117812075302,57.5062484585131,116.88020412456574,80.52105643840052,-21.350065557092368,-53.451593590792534,-90.0,1.605132493830517,-8.379391888606188,-2.8492905712564163,-0.02818248614181415,0.00141881614545426,-0.004150929046864461,185
-114.8950662119791,60.90816547552837,46.86047679457804,58.047715733527866,117.94960449087445,80.60063281354591,-24.76789415033938,-51.510879284945304,-90.0,1.8806825570999883,-7.710485249849122,-4.601507726679875,-0.6401853871900449,0.05248153605303756,-0.0863888021991833,186
-114.94952060810628,56.37473698343326,62.08353340638441,53.52912884533769,117.92666843813423,81.77729066077526,-32.106760881472056,-48.96423622924157,-90.0,2.0091791214998986,-7.335031416473939,-7.020737328395207,-1.0027375772526061,0.12564864958021368,-0.12799862969432182,187
-114.56787882655664,48.32636139768221,72.00886021534255,51.199824142699825,117.1440258530151,81.51598121564597,-35.10608647572691,-48.2994549507266,-90.0,2.1260589090052306,-6.967139983852719,-9.471050714510287,-1.2040312218349736,0.20392911831213223,-0.14502963484289116,188
-118.21499506458504,39.185982076619,86.7945342099211,47.109271942653905,117.86579871587693,80.86128148595671,-38.825387298639534,-47.802645698185394,-90.0,2.3576037387302033,-6.765756940280916,-12.233330653837989,-1.638945395214479,0.3607045493216527,-0.18936348502333097,189
-115.99891443147521,23.9662602870871,91.86179047072183,45.459131186328825,117.5005000231424,80.02146317419111,-39.67282511398365,-48.2894352042139,-90.0,2.553541154814009,-6.227667267634878,-15.615604209290133,-1.7132791736679893,0.484637201948999,-0.17980909057886102,190
-123.90094798573782,13.196312061971291,103.01215553875132,41.46543649213337,116.59729465403696,78.45680475764281,-39.109387391965534,-48.93034177380334,-90.0,2.758210589958851,-6.70809195979283,-19.251417085595627,-2.8276715999023865,1.0030846559176447,-0.30820618172484554,191
-155.0,4.270119455301264,104.99999999999999,35.95667716579964,116.08281207088461,78.12046010463263,-43.507583426424674,-48.39036141613099,-90.0,2.8812656812657935,-6.653441929344121,-23.28102682369706,-4.128921003276028,1.8071450363718033,-0.4174623814241927,192
-155.0,9.594035943067556,104.99999999999999,30.527739632899568,115.41647600717992,75.12552039020404,-45.226752342329476,-49.859543925762885,-90.0,3.1923827105133302,-7.070963443387779,-28.658203376031274,-4.491034854711877,2.4977892992650643,-0.4606472175701283,193
-155.0,15.290610609438001,104.99999999999999,28.298822862089875,113.9768109786393,70.79235154277146,-45.2085358738936,-51.44874226505719,-90.0,3.326804978636732,-8.89027458667178,-34.04753821096355,-5.8906541040883145,4.084935123255143,-0.7159616338496023,194
-155.0,19.518082787877596,104.99999999999999,28.298822862089647,114.15958743451715,67.72198583325643,-49.514899884598876,-51.81487679940512,-90.0,3.4081852458945248,-10.40919853315269,-39.16381220041262,-6.126835482172883,5.153219706545939,-0.8576747484948803,195
-155.0,22.304178082236184,104.99999999999999,28.298822862089953,114.61859647332113,64.43737838914726,-54.24614327050956,-51.90934830207289,-90.0,3.483960397955655,-12.152387230332442,-43.64770735737315,-6.562157064715794,6.521861186703223,-1.0532295387483106,196
-155.0,25.060589553881467,104.99999999999999,28.298822862089953,114.46713471853353,60.29677328276877,-56.004195806247026,-52.58121659267574,-90.0,3.5634058567781617,-14.201060324901752,-47.930736922095555,-6.956490406146719,8.129563496255464,-1.2907659500942443,197
-155.0,29.510408223319956,104.99999999999999,28.298822862089825,113.72857112391276,57.25212375240059,-56.564394259730825,-53.32656300687393,-90.0,3.5911434489646012,-15.371142786193166,-51.086035035279885,-7.150055638140564,9.413347265560594,-1.410545136994944,198
-155.0,33.18240128483976,104.99999999999999,28.29882286208985,113.61276556980133,54.712371855984706,-56.74087223704523,-54.10967680097377,-90.0,3.658713389307782,-16.26682159709597,-53.30666369999332,-6.76576611766013,9.70101123396693,-1.4371953563549846,199
-155.0,35.8930903685578,104.99999999999999,28.298822862089594,113.73679984555757,52.36391965786588,-54.60175356825199,-54.82283276366706,-90.0,3.7377549807853527,-16.997947922110978,-54.65136660615272,-6.5618793015707535,9.933027884949421,-1.4763965388003475,200
-155.0,36.58822114550221,104.99999999999999,28.298822862089825,113.460917239197,51.49818667082937,-54.4111963446847,-55.35702972802342,-90.0,3.8430049569736746,-17.396524898950457,-55.19201250541759,-6.405421975006156,9.919175775980015,-1.4930875658293052,201
-155.0,36.329495581801275,104.99999999999999,28.298822862089647,113.01375201703401,51.19248831752631,-53.9544303455328,-55.82235379784942,-90.0,3.931646319959302,-17.41005350083947,-54.99269155133347,-6.282569357012654,9.655458341294244,-1.4799847041162562,202
-155.0,34.79802469214696,104.99999999999999,28.298822862089697,112.97306366217771,51.21728491502296,-54.07369850299196,-56.03878980042022,-90.0,4.046313703204995,-17.101770191498353,-54.3488450163311,-6.413948698395556,9.606183523881842,-1.4739898086007697,203
-155.0,32.055890466314075,104.99999999999999,28.298822862089594,113.10008537403083,51.932823421914335,-53.970598727716556,-56.09906605359646,-90.0,4.139988310017774,-16.35503452556822,-53.032594488169124,-6.389309857369149,9.069402089105044,-1.4022745038005473,204
-155.0,29.34600209529369,104.99999999999999,28.29882286208952,113.00553723276346,52.87863127797247,-53.66294502749565,-56.096547844526455,-90.0,4.13223819607727,-15.541842743098364,-51.02308180732562,-6.401751826910184,8.406810745588572,-1.338565679066076,205
-155.0,24.444952681819217,104.99999999999999,28.298822862089594,113.60757404863097,54.14915108120614,-53.76836460234429,-55.65230591093369,-90.0,4.13271307377079,-14.631951261051594,-48.1139890859648,-6.360581187121796,7.493052473088653,-1.2669769462871774,206
-155.0,19.46291328551631,104.99999999999999,28.29882286208972,113.04800021588264,57.45987466673255,-54.54520371974861,-55.19747650626438,-90.0,4.062830352756156,-13.38229708757065,-43.741889228863315,-6.043257139647071,6.063629349589424,-1.1329317818153704,207
-155.0,15.715278300926954,104.99999999999999,28.298822862089594,113.541574237778,60.68746291573648,-53.22515400415179,-54.63576700928217,-90.0,3.9582541539407803,-12.17631219026834,-38.97958757973539,-5.529531997893601,4.658555563275599,-0.977523558269804,208
-155.0,9.842191900456108,104.99999999999999,31.316541830041057,112.64951917985047,64.48710893871662,-52.015302390399114,-53.924861946097934,-90.0,3.8587601843817643,-11.156602823566002,-33.97919945438604,-5.492956230604207,3.8392260007606445,-0.9058675305209868,209
-155.0,2.808856219544946,104.99999999999999,35.374818405371876,112.64389951009694,67.57762314069315,-50.321422368508685,-53.117836551014605,-90.0,3.754852794456195,-9.953421465058728,-29.405401142207598,-4.8135101351146625,2.7963156711829766,-0.7307809432043664,210
-76.24277739983003,4.1707335604982285,60.62684734873364,39.266498536100094,113.37051594024834,71.2162279678369,-49.749192611085185,-51.442874001370406,-90.0,3.5747592199880724,-9.23283438365672,-25.43511489612267,-3.9486540370346632,1.927723617055303,-0.5772336994126408,211
-98.92003786336994,15.538675789490034,78.78301504035969,43.97678658308094,112.95925848206315,74.25601598340349,-48.21305768204395,-50.38985630676436,-90.0,3.487515185798445,-8.83557356846714,-21.50345649820375,-3.9042585171952675,1.5791219686280695,-0.5544853702690724,212
-101.99887720898268,27.85068523039481,78.36600967942957,47.56612688284467,112.6252386684323,77.41111458958237,-46.57402290317797,-49.03666298028559,-90.0,3.2749951651081712,-8.074903419301968,-17.472727910843815,-3.7918954075126194,1.2241334559912465,-0.4983973165578003,213
-106.45010454532651,40.82497756275006,75.11421029537456,50.10710458220475,112.89014766490091,80.55859137606963,-46.01757378272869,-47.09448393197528,-90.0,2.996875932904525,-7.357615983891496,-13.519859069619187,-4.590004196268299,1.1366525016659368,-0.548145337499532,214
-100.82147618631664,51.21947722255121,60.064185020188546,52.79961871962939,111.84972251882672,83.57742437569937,-40.086619368296134,-45.64172682867061,-90.0,2.341229156597924,-7.193816266339227,-9.300651215242624,-2.8590405805896935,0.4809835935752306,-0.34912309197003516,215
-100.31624553572121,62.212187139856745,48.93691739028928,52.41219860145921,109.1678859696702,85.38513158917037,-31.94048861781134,-45.74757363327095,-90.0,1.9223935202500255,-6.97632381443857,-4.841894859601529,-2.5679533781063664,0.2261712566486114,-0.3092852260408541,216
-101.01387515980768,71.172987090638,41.08368998784962,50.50133982790463,108.38278801234515,86.84187184470733,-25.887029769732017,-45.320040929013466,-90.0,1.677649855829978,-6.383807854029413,-1.2449521849260874,-2.4430739166136353,0.05923779063338375,-0.27212907117794316,217
-100.64111220219627,78.93322189944983,35.885951765215886,47.74213798155358,107.06724564468834,88.0374139608245,-19.74762512616061,-45.273610544602136,-90.0,1.5642634630143786,-6.121165996543099,1.7916197412011248,-2.103027287824633,-0.06200249136239048,-0.2266844741317528,218
-103.85173191410559,83.7371684267545,32.22609909905842,44.19812806533832,106.963332789922,89.72447618751818,-17.088253958028865,-44.11709940526692,-90.0,1.681472660328561,-6.3093604754016335,4.147791405147365,-2.4629384104086123,-0.17376202555499837,-0.2760486201532839,219
-105.79772084275916,88.18410027694732,31.985901086784533,40.09059166353324,106.69921252065971,91.66820834226685,-16.334360312230082,-43.016458726453536,-90.0,1.8215612786039983,-6.227831694178875,5.704354624147233,-2.3946190978511117,-0.23503472114644242,-0.2662060911326308,220
-105.78154793988331,89.72743310297473,31.859376048164364,38.74216114566498,106.38400167130911,91.77516885321714,-13.57072109751453,-42.94802018196674,-90.0,1.8535781057993066,-6.549312739668934,7.144426884989018,-2.108416111885341,-0.26142986192819223,-0.24683504936418202,221
-104.94935489133115,88.61049002117083,29.52830205839343,40.99238307667679,105.87446117348006,90.7010266651298,-11.512848962493235,-44.48072059895934,-90.0,1.7457689851540672,-6.801970725955614,7.468802607247341,-2.1503481570201632,-0.2789435621072164,-0.26167727781827,222
-105.33657588138533,86.0235613147709,31.43058773990573,42.928073622998056,105.83186087947442,89.63371977656,-12.296040104079417,-45.40644228363398,-90.0,1.7400856104196611,-6.978585582179392,7.031024810849897,-2.482894591208518,-0.3017308192386773,-0.31040469637705387,223
-104.80248630683654,82.27022589864957,35.54643534368794,45.84541665934442,105.59175391476828,87.96736030619508,-12.8625146339716,-46.98520168143813,-90.0,1.7125584906721685,-6.7878254744919255,5.870034154283668,-2.5799277154905926,-0.2600434866277172,-0.3129040247737861,224
-102.64027826004829,76.5330884914467,39.75609599808205,49.345647865132904,105.77279561680778,85.8507052605157,-13.414939051343433,-47.96985410934897,-90.0,1.5862833838290973,-6.716623231465116,4.057886331012197,-2.509775295737946,-0.17271824089134288,-0.29934599472970985,225
-100.08232892177232,69.23950449234772,46.0429911103491,52.12617023677722,105.79716433888497,84.01497011850479,-13.867057591004507,-48.7115697289916,-90.0,1.5091858700440832,-6.626800296941967,1.969553258786715,-2.5079256536889565,-0.08041439501710898,-0.29314796145044275,226
-97.52044067522432,61.20977890236264,51.67232898556732,53.70775306486414,107.24093887738938,82.22611232678273,-14.159364510249837,-48.741768076308695,-90.0,1.4364376831551007,-6.333026387934335,-0.6457565436804525,-2.1621326971997745,0.02904126857692499,-0.23945008390364175,227
-97.1130224205946,53.47233835160306,58.135302378095325,53.563780915452504,108.9366777372332,81.71576931954391,-16.76171094484302,-48.450109983453245,-90.0,1.547558501528557,-6.1011925908771465,-3.783855402266501,-1.9047928780020182,0.1300710565844523,-0.20148442799391367,228
-96.26355034087412,44.93025739093859,63.57752172833874,52.833531541503596,110.24405525037035,80.79177457048658,-19.91645077659468,-48.41865412152209,-90.0,1.737148565920536,-5.850272588727159,-7.4639822151996515,-2.0386583660602025,0.2722125843752725,-0.20411489473814265,229
-96.6219107802988,37.22416869498653,70.07023378165047,50.576040311326764,111.14022432510855,79.37633925175786,-23.40171390077708,-48.5428546337189,-90.0,1.9328456551992614,-5.970363142190483,-11.598014717900758,-2.277711295311238,0.4748194236379428,-0.22889706635853396,230
-98.71305560016701,30.071560351959032,78.04302948539684,48.07395133324935,112.4643340650875,77.71983010391355,-27.972848958419803,-48.75442567366378,-90.0,2.2457048914178497,-6.206238450855107,-15.991701711242692,-3.2339376780409497,0.9424588948564555,-0.3254527339699233,231
-98.39819583272798,20.262461923951488,80.97019445781979,45.03576702638741,112.5124195898304,76.13440723979656,-31.862646362405716,-49.51719049499759,-90.0,2.526893504253943,-6.476578628572828,-20.111903938190544,-3.768657942882409,1.4036198757210756,-0.382327558777166,232
-101.99191529591567,12.41462365584913,85.41980372184896,41.93963893149234,112.83682871646954,73.67214026294843,-34.09345457639137,-50.290938834421645,-90.0,2.7810249254573267,-7.1191459883997,-24.448994917344358,-4.754318622946808,2.2046876765701353,-0.5038089200887338,233
-97.89510947596264,3.7955643872405314,86.6438078345253,37.69808789277212,113.66340096430949,71.49968419877622,-38.80422253629109,-50.23117286339748,-90.0,2.8721491670732124,-7.806599155808794,-29.111737677592156,-5.472413328544164,3.1155627511184125,-0.6041512179701956,234
-97.89510947596264,4.857167607202338,86.6438078345253,32.40172790284019,113.08599900768628,68.11664947566584,-41.19529962510486,-51.45027513288469,-90.0,3.0711862966821863,-8.842991571969788,-34.051991883200984,-6.725166645186518,4.669842701292029,-0.7778725344415647,235
-97.89510947596264,12.034756286816586,86.6438078345253,28.29882286208972,112.78522964438913,64.8575915234907,-45.385119038961506,-51.9502592654849,-90.0,3.192177543581056,-10.264408072510106,-39.10054833596628,-7.240834579287933,6.082921559797879,-0.9367338960222776,236
-97.89510947596264,16.051147602421917,86.6438078345253,28.298822862089594,113.27449417389572,61.88775932336255,-49.70598273934658,-52.14711614251532,-90.0,3.270697663242348,-11.901525736899657,-43.67204688425082,-7.503792224636418,7.464348898815019,-1.1087990870218503,237
-97.89510947596264,19.72048704642797,86.6438078345253,28.29882286208985,115.24443714100597,58.4232685496845,-52.32240760476276,-52.142270319841444,-90.0,3.4018208763971227,-13.05243821550385,-47.94075193517675,-7.423443073884995,8.619491767738442,-1.1838223022694858,238
-97.89510947596264,23.38999906353264,86.6438078345253,28.29882286208972,114.74078754959565,55.159942506668116,-55.18437468811957,-52.65022931868165,-90.0,3.3780601714467635,-14.758817962401677,-51.88491670472108,-7.046057237692495,9.50019634546496,-1.3007613381167806,239
-97.89510947596264,27.496669185615826,86.6438078345253,28.298822862089924,113.31553532563252,51.66485195720123,-54.778139902994404,-53.530102113058156,-90.0,3.3484257111399685,-17.011912324223672,-54.80862232745319,-6.889604964855603,10.498139027464093,-1.519377931931286,240
-97.89510947596264,31.771280000985293,86.6438078345253,28.29882286208985,112.02468118004373,48.740085677466084,-54.19319365879299,-54.30626387003405,-90.0,3.3709159290611654,-18.636413000024174,-57.2018670882692,-6.736147961526457,11.374945004783596,-1.6582934414129424,241
-97.89510947596264,36.673648161012586,86.6438078345253,28.298822862089875,111.22362000371245,46.239134110264395,-53.43132987909936,-55.00131876061974,-90.0,3.4717704839299333,-19.32697386638519,-58.80579600571454,-6.203850404753626,11.199750490555822,-1.6248615411827128,242
-97.89510947596264,40.296917534603445,86.6438078345253,28.298822862089697,110.67961787929718,43.52193067481766,-50.59521308359186,-55.93915512538367,-90.0,3.617867127318817,-20.42308717425579,-60.12952804763928,-5.875586180685064,11.281557004323401,-1.6701995571950858,243
-97.89510947596264,42.18575546524366,86.6438078345253,28.29882286208962,108.4364407078445,41.76142223734655,-48.85756015028216,-56.76773046641836,-90.0,3.7648723304059666,-22.02153050102545,-61.17637240592787,-5.819145261182771,11.8389330903959,-1.8283126778152399,244
-97.89510947596264,42.54793030730248,86.6438078345253,28.29882286208972,107.50084493949241,40.72295273819631,-47.834263755274655,-57.2510217713487,-90.0,3.9635822786239676,-23.203014663243017,-61.71905965359485,-6.0078029166279645,12.664000430672361,-2.0056146830378707,245
-97.89510947596264,41.682301355069505,86.6438078345253,28.298822862089672,107.94345832921289,39.743618915742836,-46.07351795140408,-57.53415378241927,-90.0,4.126124602682711,-23.54618697449149,-61.62114008316516,-6.102128201639274,12.861789409561847,-2.074900410602775,246
-97.89510947596264,39.915916213296335,86.6438078345253,28.29882286208972,107.93906328686379,39.827835541902324,-46.191529860055944,-57.76362280398997,-90.0,4.257851682565905,-23.36556761472962,-61.050646243619525,-6.138202827688991,12.611107505524338,-2.074290344901171,247
-97.89510947596264,37.836765190626004,86.6438078345253,28.298822862089647,108.40819812992552,40.15126610669795,-46.607834714758766,-57.79856647122197,-90.0,4.37049615403552,-22.444988413216553,-60.05525295334721,-6.075998379748973,11.867764258064724,-1.9643212585126775,248
-97.89510947596264,34.55427042557977,86.6438078345253,28.298822862089697,109.93073921110714,40.86381939170306,-47.98518175210403,-57.71636374705224,-90.0,4.480779166468199,-21.055168497435844,-58.47190232676512,-5.997377882175076,10.846849259034062,-1.8068988267204724,249
-97.89510947596264,30.721721493406097,86.6438078345253,28.298822862089953,111.01103602920756,42.33013032022157,-48.70088460889497,-57.50713820007059,-90.0,4.513137451458375,-19.276149231615943,-56.13367029765343,-5.874592892182768,9.554609295873437,-1.6119295675700038,250
-97.89510947596264,26.336658174979036,86.6438078345253,28.298822862089697,112.10177667899478,44.65357080751489,-49.21823374830101,-57.43812219942818,-90.0,4.493667339939411,-17.30369316265727,-52.42623234297693,-5.652475914174003,7.889759856333821,-1.4023259637252659,251
-97.89510947596264,21.485696744605498,86.6438078345253,28.29882286208972,111.834179617066,48.657245854230986,-50.94682168000271,-57.00413510263172,-90.0,4.39585647147635,-15.249392772201457,-47.72367935681022,-5.814923024301189,6.776351390100333,-1.2623891508558756,252
-97.89510947596264,17.60529477153808,86.6438078345253,28.29882286208972,112.84538378362673,52.449095945208235,-50.6806939254622,-56.323990849206886,-90.0,4.178536633621866,-13.806951548431426,-42.81808414281445,-5.38482160128974,5.236987927677421,-1.0900791759542292,253
-97.89510947596264,14.415080360990544,86.6438078345253,28.29882286208962,113.14274201391214,56.30029835312087,-49.6259360239091,-55.43963495386699,-90.0,3.9328208072525026,-12.538945496191934,-38.1523068418525,-5.074558825763873,4.154743261421822,-0.9528362109483144,254
-97.89510947596264,9.874730091013554,86.6438078345253,32.2890231665424,113.43706701962203,60.13990847726133,-48.23957966911654,-54.423744618039805,-90.0,3.74122039217795,-11.196868645868596,-33.703015838364955,-4.670049948574867,3.224042066156816,-0.7978739395875946,255
-97.89510947596264,4.107720417397947,86.6438078345253,34.98468571190688,113.52190632783638,63.76468069006015,-47.27301901934405,-53.43611458733338,-90.0,3.633302370731083,-10.319099858227307,-29.16705748148876,-4.792027746281389,2.761818008831046,-0.7607618785622635,256
-100.75671150064007,1.4354062536581818,83.16213983356394,38.22557687452524,114.55281054228591,68.09433171178125,-45.81883201342638,-51.24588784204739,-90.0,3.4932433038101816,-9.318176870829353,-25.053928848745397,-4.348794524549061,2.0904674526439337,-0.6364196007427091,257
-106.19948891331522,11.063650751450169,86.77882548301491,41.64439323322913,113.0679541158474,71.49931397376247,-43.90712953152925,-50.56589512456552,-90.0,3.348100225922599,-9.106958946243898,-21.027162098957174,-4.615651165880172,1.8288468926546855,-0.6682746384205824,258
-103.9576286674476,21.360078740357633,78.9388796534813,45.63355824889083,112.5684577182693,74.35190794807271,-39.444923367826,-49.329377371646586,-90.0,3.1076051506565454,-8.713832686922618,-16.974417932092436,-4.227153474504211,1.3302078316334975,-0.6001519041648279,259
-107.99482419247619,33.36653979065848,76.71165151074935,48.08324104398298,112.08225205591054,77.20638125239563,-36.477989066730665,-47.8046012001576,-90.0,2.793188477252652,-8.147339955108295,-13.024232973716735,-5.25914031256307,1.263510789146362,-0.6965088881880784,260
-105.14445273485595,43.91186288690177,68.09523991182189,50.313627164568146,110.91791861914345,80.84654168014451,-34.17733347347803,-45.91653628943509,-90.0,2.279546271774247,-7.8562888238547774,-9.1822559118034,-4.898685216896748,0.8280325577496043,-0.6415651814494139,261
-103.5329092034643,53.85749928125621,55.99871037552226,51.83891037568584,109.15974926678572,83.1846827678768,-29.600571934203906,-45.1093056564447,-90.0,1.8262717706004632,-7.810956523719891,-6.087279857976031,-4.43359612590475,0.5005777192798316,-0.5894652197287581,262
-100.58226845065816,64.02736913402978,45.666207616853285,51.54149996818736,107.51039188771517,84.76038918911075,-22.546778595423582,-44.25101980507709,-90.0,1.4624556641659203,-7.781957851891524,-3.356649282022838,-3.627161302815445,0.2303202249449376,-0.4886998647716387,263
-102.81273962893998,71.59344905216282,38.434287632697114,49.022611399225234,106.83158778629526,86.4087394195517,-19.49161695403375,-43.19176117321433,-90.0,1.3579601869175515,-7.116459224545566,-1.1250838415903954,-3.8887845187517898,0.09338476339542795,-0.4825705947168873,264
-102.96359880757761,77.99870838677093,33.3744349060833,46.32668619672109,105.61001170204172,87.55081643104965,-16.14362268618995,-43.06542798872868,-90.0,1.2499372534606965,-6.777915530849726,0.3874216123992466,-3.7144397618134732,-0.010970550511032358,-0.441971309494031,265
-104.49600335974819,82.28114618057924,28.97848726447264,42.966302852469674,105.37833147939936,88.88262677534378,-16.29856138895274,-41.68797210861775,-90.0,1.2352387960808262,-6.925963468682739,1.3942611707072334,-4.248119332169149,-0.08493148512799722,-0.5193684713791068,266
-105.63954326488583,85.78116486927738,27.94073987585106,39.39275703757367,106.32565479835853,89.61295300095414,-15.88624095022712,-40.36937231618743,-90.0,1.1684305938571697,-6.93291760926971,2.391892640609924,-3.9288009983787076,-0.14879148315299207,-0.482939074239427,267
-105.70698291649587,87.45339513486037,26.387093035564522,37.50915350086626,105.99622578333482,89.6607878561922,-15.00741631851186,-40.89885742433041,-90.0,1.0631869857836498,-7.046967579490332,3.3387215618784207,-3.0319040039544083,-0.168192404799159,-0.3792625154192519,268
-106.57870326660021,87.22669652577554,26.83356472143082,37.231338257399976,106.33606617645043,88.76060676683105,-15.361914673696438,-42.08987077309897,-90.0,1.0113159761811068,-7.275952892685447,4.767807758358318,-2.7442630095137455,-0.22221390304650313,-0.35567803448605445,269
-107.25237266608696,85.75368136169872,29.957874173185182,38.018315079839354,105.73212934860786,86.44157131165665,-16.504967623300566,-44.80527472247389,-90.0,1.0532051129993696,-7.465443853865185,6.6857327884572255,-2.6721510408266873,-0.3075194982678516,-0.35726495904071776,270
-107.54037787747376,83.50634437372987,33.027500370697254,39.70238975777614,104.90797165972752,83.23694933447531,-23.434855877838082,-47.98477823054689,-90.0,1.1162549374754933,-7.6135458787338575,8.899080989575552,-2.8834135376699277,-0.4453699161311498,-0.39650620724094987,271
-107.80306002066926,80.44814049367939,36.41647743808379,41.837997499407834,103.37412350116277,76.72146032861001,-33.83080893550438,-52.18443510926128,-90.0,1.1449472402502705,-8.049160290522495,12.062513404046955,-3.0772977810005813,-0.6515978687902301,-0.4524200304100202,272
-108.03740171011071,77.21050979375102,40.70607994706565,43.50040560637068,103.2871275195199,68.07863586141733,-44.44968571853673,-54.963742874663076,-90.0,1.1848624927877294,-8.57732234314508,16.598965304988212,-2.5003965478615977,-0.7445433915721363,-0.3930591111073448,273
-108.48606757430045,74.03445353210766,42.70087276678095,44.661943757116504,102.24801886868917,58.28460371882459,-53.742143153948916,-56.32668796482506,-90.0,1.2811999631751905,-8.941006308878638,21.701824466466523,-1.803224644126789,-0.7211483187065058,-0.2947798514507965,274
-109.3582929846278,71.395272760998,45.97495787482711,44.9694329509591,106.18378467581485,50.70916054709351,-65.54406175094525,-55.149596378029216,-90.0,1.48267882814101,-9.25644761665152,26.13442510104553,0.08887254144514826,0.04419372200220945,0.014450715194397811,275
-109.47453572673409,67.9937599523504,46.567727027401396,45.90325624551103,106.78207448691944,39.01116337241614,-72.93509050281052,-54.14770892921715,-90.0,1.806994174977871,-10.220572713255619,27.0,1.8957886349979667,1.149611538326379,0.3234029204649386,276
-110.37465734135891,65.6992760790473,52.10734023164334,45.28839148089318,108.05549918668129,29.590684476796927,-82.95314681682999,-51.282067348211754,-90.0,2.1330911716432928,-11.279309973559139,27.0,3.4859069414593065,2.537517030842957,0.6209670001971881,277
-111.22252031284805,62.986015249467386,55.13120144180014,45.76845714006678,117.61467732891221,17.347362656552022,-98.2320972975647,-46.408885209465815,-90.0,2.498602902005146,-12.003204219443504,27.0,4.9062619279862405,4.201534883333546,0.870474808251144,278
-112.47041206001265,59.72425872775075,58.04494039008541,45.966114337371934,143.15229587972314,8.872053318486557,-105.00000000000001,-41.192112589702404,-90.0,2.816230191320981,-13.02439287260878,27.0,5.782385563262838,5.799658784126996,1.0579101030139837,279
-112.55259998096454,57.124916403775345,62.43027391118848,45.906978331935896,143.15229587972314,7.232713525983465,-105.00000000000001,-35.54703071587804,-90.0,3.023739912031934,-14.881348096274197,27.0,6.5396632668193435,7.646704634585087,1.325646774135487,280
-113.71191326996974,54.421436734590934,64.53154583951589,46.079760312129615,143.15229587972314,13.515861816748751,-105.00000000000001,-29.17998448982929,-90.0,3.291674508491233,-16.15230073795779,27.0,6.783255667986767,9.108316281003967,1.4595496334058198,281
-114.29171602172411,52.03838244736372,65.42524437659826,46.633958468592574,143.15229587972314,19.30763544978802,-105.00000000000001,-28.298822862089825,-90.0,3.5214283494746996,-16.9280581219546,27.0,6.451969855324642,9.847815570896115,1.4472310309258094,282
-114.54686929648916,49.44516528516906,65.99921547973507,47.19379991949749,143.15229587972314,24.09627827126912,-105.00000000000001,-28.298822862089825,-90.0,3.7176721689616787,-18.08894813171362,27.0,6.119584649893638,10.429633562198878,1.4859489534915082,283
-114.37786579501746,46.88633141668562,66.01210452500514,47.97002760416041,143.15229587972314,28.395129914364908,-105.00000000000001,-28.2988228620899,-90.0,3.856406927297869,-19.31187929023968,27.0,5.701899023111161,10.688198150165459,1.5155321439536342,284
-115.3320564681893,44.30337457463674,64.19313472844325,48.58845093399829,143.15229587972314,33.11061196381664,-105.00000000000001,-28.298822862089594,-90.0,3.9902334262863968,-19.59923329731583,27.0,5.115775727466668,10.12204589916337,1.4139330849923275,285
-114.7433491083214,42.60401485571703,63.143391145796976,49.38244840781916,143.15229587972314,37.03374218107025,-105.00000000000001,-28.298822862089494,-90.0,4.079057152027829,-19.494885897619234,27.0,4.374680279636723,8.900866284809888,1.2430186981735314,286
-114.14911869094824,40.73592866551238,59.80653678438742,50.37757407149754,143.15229587972314,39.901800227230666,-105.00000000000001,-28.29882286208957,-90.0,4.150599338637065,-19.728289619677515,27.0,3.821175046394376,7.891351686541701,1.1351985871225572,287
-112.6384552959561,39.69046574673267,58.26871734257025,51.06987681748718,143.15229587972314,42.04620118007575,-105.00000000000001,-28.298822862089672,-90.0,4.212276770791433,-19.95140604397363,27.0,3.4914890066304096,7.240121672216392,1.0714531461375865,288
-111.55174649316848,39.436112659820175,57.269293199067896,51.502364725734324,143.15229587972314,42.64051225274971,-105.00000000000001,-28.2988228620898,-90.0,4.310565525216833,-20.053808873751976,27.0,3.4283745966159516,7.028570869820247,1.0650850096940663,289
-112.93886045521391,39.28895961644086,56.018637502958214,51.5846958754883,143.15229587972314,41.79086504685876,-105.00000000000001,-28.298822862089875,-90.0,4.432654448661729,-19.545835366606354,27.0,3.363737178717187,6.652626458338738,1.019996200092229,290
-113.21261132570342,39.97026399876466,55.9536795817751,51.65900900124349,143.15229587972314,40.91239031140667,-105.00000000000001,-28.298822862089825,-90.0,4.570231317335053,-18.431988845734296,27.0,3.1829425436699057,5.919760673332032,0.9121520547159012,291
-113.31686728976152,40.98856002423789,56.08440138155333,51.561169856609595,143.15229587972314,38.786196575148914,-105.00000000000001,-28.298822862089697,-90.0,4.62268381746814,-17.932933983842428,27.0,3.3713933698659972,5.841077839676463,0.9347498284828095,292
-113.9082308271972,42.45608408005972,56.38812533089686,51.23114248791969,143.15229587972314,35.119443927472204,-105.00000000000001,-28.29882286208962,-90.0,4.627633380217701,-17.177031616935313,27.0,3.4372991629613896,5.369789392985802,0.9148337759359013,293
-114.24802912267725,44.67873657287429,56.14162825561237,51.02305230676632,143.15229587972314,30.72064933894069,-105.00000000000001,-28.298822862089544,-90.0,4.6258027083733,-16.13366460902864,27.0,3.67529480602649,4.969819382881985,0.9154449048330946,294
-113.31343211317579,48.36840945744344,57.03556706142228,50.629201100289634,143.15229587972314,26.700883094197316,-105.00000000000001,-28.298822862089747,-90.0,4.5910104820403825,-15.116405568606522,27.0,3.374911565572898,3.855602322710251,0.8056034965064358,295
-113.13585541749842,52.99170799269052,55.756896916700725,49.94673683155818,143.15229587972314,23.069850133174793,-105.00000000000001,-28.298822862089697,-90.0,4.49855062362262,-13.62281017398177,27.0,3.547611701398642,3.387448974885737,0.7605312245707897,296
-113.18547651867829,56.4569665454654,52.36330398161236,49.412452011230975,143.15229587972314,20.391820341439796,-105.00000000000001,-28.298822862089697,-90.0,4.428061620694199,-12.332749669722428,27.0,3.788384009757576,3.03354940228951,0.7324534037699514,297
-112.48336628319667,60.63881788714532,49.641845102054084,48.86641623959303,143.15229587972314,14.965708351702517,-105.00000000000001,-32.62292873262707,-90.0,4.328419075618927,-10.933921596003318,27.0,3.0985857860882504,2.094898787877312,0.5439928647420569,298
-111.74809347655295,64.31944246132547,50.40996440089847,47.826267075606516,143.15229587972314,9.29819170935428,-105.00000000000001,-36.4824881077985,-90.0,4.2223547928511005,-10.049689973880426,27.0,2.924607829069382,1.6742299780272842,0.47690560348688954,299
-112.23753953528845,68.60632899401911,50.3484086069631,45.43698938951551,143.15229587972314,1.2489576438868548,-105.00000000000001,-41.422648402749374,-90.0,4.118352199309658,-8.703457412214007,25.068273605218753,2.3442410681620682,1.1178729879902187,0.3365431187090881,300
-111.67197844442703,71.87959649855529,48.00198331532113,44.04095514823272,98.45252997159578,10.908435399068754,-73.6961032248207,-46.16445694278477,-90.0,3.8845724917956845,-8.371322274091728,20.77272595440232,1.6427723560022527,0.6337157978364617,0.23286355894254618,301
-111.13860855146147,74.93061061029393,43.976960648487164,42.686148194064316,101.72815568492943,23.685976463491567,-69.588917362003,-51.130255714860695,-90.0,3.5525766916324706,-8.152873384583348,16.731501551323692,1.5546348333070394,0.4753513014392934,0.21641380985209574,302
-110.96525696394468,78.06115576456972,42.66832951851677,40.33311290893362,105.57816386553995,37.925832202722134,-66.32574724159191,-53.764773245255554,-90.0,3.176100657053163,-7.168545821436142,12.722424180797068,1.6873663956413478,0.3871876286043925,0.20662403429070159,303
-110.08510314816374,81.00451023558203,40.73485197008348,38.70518314982939,105.08874999881044,47.376097780469564,-58.96347978268198,-54.801846389037024,-90.0,2.645576876529753,-7.0150661667608105,8.71750254549542,1.2277352187990844,0.19131624836727695,0.1490611209396685,304
-108.80705973109623,83.0547936527108,34.62435522856863,38.295532155008,105.1375121406254,55.30423721291514,-49.282944780175946,-54.5942847583517,-90.0,2.058139258693666,-6.858955280928671,4.564694274633754,0.6679799406910126,0.05418477881555641,0.0800385621392929,305
-107.06330438467809,85.21363856197345,29.167236402228344,38.44688566344358,106.4631010041951,63.770070885120965,-43.78334703585511,-53.18259550588591,-90.0,1.415742978451971,-6.371737737738903,0.6655959425393865,1.5156937755795055,0.01995472894989754,0.16900436673196978,306
-106.49370343047566,86.84270989901013,23.05133684787474,37.746798573135116,107.38896890363333,69.83849173137541,-36.91558162166603,-50.13472800278681,-90.0,1.019158868977147,-6.434975023551839,-2.4505857694506767,1.1033761138051301,-0.046317180676842304,0.12488960983554573,307
-105.76383615145136,88.01480847722559,17.98554136965679,36.59093130717052,106.0412754243958,75.86816389381148,-30.407679172486848,-47.8356547192505,-90.0,0.6945007626645863,-6.341100463523466,-4.467256245048956,1.6020913180252407,-0.12341629161726116,0.17975139134081336,308
-104.91041274017354,89.2185438104659,15.862399646877648,35.72131344427455,105.80964552573977,79.90613454285605,-22.434421262241166,-45.88158069511026,-90.0,0.4281688205497313,-6.426946504720027,-5.550806965579066,2.4379381617250124,-0.2324592459211638,0.2795429790649097,309
-104.86339541581235,90.81816372233953,18.5078804866506,33.64626084678372,107.16198642337484,84.18209590813989,-22.704928639382615,-41.947037757884196,-90.0,0.18247749101747893,-6.64599640321837,-5.8954122237794415,3.0142648031171873,-0.30387808766198754,0.35917884757450047,310
-105.03998044083501,90.19707842755122,16.265097069844785,34.160859931201195,107.09624869404098,84.39184976451182,-20.04761616782689,-42.320698063335605,-90.0,0.17412006695433552,-6.7570583568943485,-5.643597240178141,3.097257080514881,-0.298048169913626,0.37500175121188306,311
-105.07743710472162,89.43933278077579,18.16322810346592,35.443114646473646,104.52271518651982,82.9201355135615,-21.29450284711045,-45.33152487573782,-90.0,0.29387843949828024,-7.042289652356459,-4.38662780240334,2.262823225370114,-0.1693069190312428,0.28286311892753524,312
-105.93012243308007,87.69889876534258,21.01117637744562,36.583679508180055,106.15122930954625,79.54951151049522,-26.60073726726808,-46.60238002075548,-90.0,0.3315526136979331,-7.412919506497697,-2.2361805156467636,1.9083062532844157,-0.07099066936848704,0.24946805782771847,313
-106.33238266634875,85.19506063726938,23.53988722718712,38.23513991915634,103.1938868518425,72.99537985322202,-37.04265214102794,-50.55511714317139,-90.0,0.5431145223497874,-7.549591352508992,0.6817294603974277,1.0845997853212148,0.014378446645072705,0.14361591762878817,314
-107.24066974039546,82.15291393015822,24.15871587690766,39.50155778870009,99.07257192870314,62.77240817813912,-43.64392048882249,-54.31747484074715,-90.0,0.7596477330839185,-7.922205919558339,4.5451842188782035,0.6187986219342295,0.05013262153960389,0.08584518747937588,315
-108.13880251848518,80.3520613205953,27.38819251109514,40.06685119058822,97.96379629005881,54.99246450726831,-52.80834342530887,-54.8126000387304,-90.0,0.9354691770221063,-8.124666564875652,8.973766250400523,0.2775914296293,0.044378601006931195,0.03952380196573805,316
-108.66430164339025,78.35336627213934,31.256167083746902,40.948097236081104,97.87891507145422,46.0261523869723,-59.747884426109906,-54.41840240854862,-90.0,1.2361525748039637,-8.730536874545109,13.948825614110309,0.7287183542477377,0.1838718933152716,0.11076654973329907,317
-108.76391001131212,76.28378463867043,35.69351197709335,41.850696574849685,98.29106707628706,36.911556164406015,-65.11354935693517,-53.225203815453696,-90.0,1.5351847282062085,-9.698867623092754,19.063886597142687,1.7540853324356087,0.6200001291209398,0.2905957855333126,318
-108.97164670195333,73.510068971689,37.987217029804484,42.80810259306064,96.59889715303744,25.666313776714464,-68.59598476899973,-50.87862500737153,-90.0,1.8313193142889916,-10.484241352358245,24.00620000494306,2.9054411376816938,1.3316219283381796,0.5050916577871265,319
-109.08679424964276,70.054225387225,38.854141347393735,44.035865794584716,101.9260215505163,16.906759518207878,-77.13087236341602,-48.00484783525396,-90.0,2.1657628325374674,-11.250808524675675,27.0,4.954700679147945,2.864961809912142,0.8665547746336438,320
-109.79074921647259,67.21417555030143,41.80463192782939,44.45908976468821,113.75375415824224,6.54147949237556,-94.59322417216211,-43.01923471206731,-90.0,2.488437534638444,-12.115149113698406,27.0,6.461275546895902,4.48305985128369,1.144841610281257,321
-110.83266384132834,64.4027957589093,46.7064273253988,44.65241691922634,113.75375415824224,3.683962615477678,-94.59322417216211,-37.72544981733921,-90.0,2.759589166882493,-13.066404518171803,27.0,7.137814930675205,5.912655671574862,1.305245690855124,322
-111.4243308084701,61.63671048160219,50.57702772859178,45.11492799819399,113.75375415824224,10.32746492806618,-94.59322417216211,-31.968347611732746,-90.0,2.8782227430340264,-14.142864233112762,27.0,7.0821109158272755,6.926238255997311,1.3786382326027415,323
-112.5704553652949,58.681874187047754,54.853743478700615,45.472647446377444,113.75375415824224,15.82076253157574,-94.59322417216211,-28.298822862089825,-90.0,3.0842981824677698,-15.777040010540752,27.0,6.9541977221849445,7.87089413816489,1.5176573241319609,324
-113.4095678522465,55.76852349732998,56.64727594111837,45.905502889880644,113.75375415824224,19.05217487433841,-94.59322417216211,-28.298822862089647,-90.0,3.2934241768519708,-17.07305583026973,27.0,7.142097342792256,9.13346005805335,1.6659116739039281,325
-114.18495974165471,52.85039865208471,57.98527435690464,46.26493277426546,113.75375415824224,23.21870628653353,-94.59322417216211,-28.298822862089697,-90.0,3.4816747335263805,-18.208954529850818,27.0,6.975704490641585,10.067073470848845,1.7324396160443025,326
-114.29578006710996,49.71630998757118,58.77340946727343,46.912306777988626,113.75375415824224,26.969138250107473,-94.59322417216211,-28.29882286208962,-90.0,3.6592735987135185,-19.771116944616804,27.0,6.801845667295768,11.033815101875403,1.854298354662059,327
-113.3739846409364,46.662061893009664,58.59246079616909,47.680685497742786,113.75375415824224,31.239447631011785,-94.59322417216211,-28.298822862089697,-90.0,3.7812662275006614,-21.40805355928039,27.0,6.665524961556566,11.958943073664432,1.999175417738324,328
-112.58984921185615,44.035223171719394,57.976858320020845,48.2853642743225,113.75375415824224,34.101568637665444,-94.59322417216211,-28.29882286208962,-90.0,3.8332236380062286,-22.541475804431744,27.0,6.211169642358448,11.989235029799833,2.015317315649705,329
-111.93493851693647,42.0029037983616,57.509989928112184,48.797315765489955,113.75375415824224,37.309342640722626,-94.59322417216211,-28.29882286208962,-90.0,3.951111466046423,-22.99662577303586,27.0,5.9436978573942625,12.029748841590123,1.9866192781479477,330
-112.19929410799283,40.19732800582055,55.271228073517264,49.401058309382414,113.75375415824224,39.169208437288084,-94.59322417216211,-28.298822862089647,-90.0,4.041581699442187,-23.05183753043729,27.0,5.659043140027875,11.660355232638533,1.9148520623181682,331
-110.72569470308522,38.96294510150866,53.82819082892107,49.94810123738652,113.75375415824224,41.08266839012402,-94.59322417216211,-28.298822862089594,-90.0,4.0789741581796095,-23.31249708036936,27.0,5.336434754264288,11.123684346767055,1.859102841293071,332
-109.77743125729991,38.24254588344835,52.869333911993984,50.34780119063818,113.75375415824224,42.255084612701665,-94.59322417216211,-28.298822862089825,-90.0,4.143876598311448,-23.152298629047344,27.0,5.109511442743708,10.603704918485459,1.782474026665773,333
-109.48405542766743,38.11477678083223,52.48412628235394,50.61160812148594,113.75375415824224,42.15583953236962,-94.59322417216211,-28.2988228620898,-90.0,4.243352753038776,-22.494765875692362,27.0,4.9658328531797515,10.061326423837752,1.6814433955860972,334
-109.20644674715547,38.5960535219485,51.89539431120011,50.89732697760048,113.75375415824224,42.00866991651781,-94.59322417216211,-28.298822862089672,-90.0,4.306780459825693,-21.460755532602935,27.0,4.735330766662852,9.147921423776866,1.5316472034304962,335
-109.89345140024268,39.36690308043474,52.02388052193772,50.92363895187017,113.75375415824224,40.62874354248778,-94.59322417216211,-28.29882286208957,-90.0,4.364397256301758,-20.29798797303082,27.0,4.38820432147551,7.94330909646314,1.3537469887830735,336
-110.927699819525,39.964746424755795,51.52213745258085,50.833970454541685,113.75375415824224,38.54738988775927,-94.59322417216211,-28.29882286208972,-90.0,4.349523143610523,-19.126881760737092,27.0,4.153818146977406,6.98587368081927,1.2131843186526192,337
-112.2002422122156,42.25392226324668,51.97524275012948,50.79925306152533,113.75375415824224,35.10538295391536,-94.59322417216211,-28.298822862089697,-90.0,4.370713569156777,-17.106299754048756,27.0,3.749070234888984,5.540001596874026,0.9874499570420879,338
-113.34550671312675,45.318843880451894,52.27011281118774,50.4784044925283,113.75375415824224,30.120170856093946,-94.59322417216211,-28.29882286208985,-90.0,4.363915199394284,-15.501069789058448,27.0,3.375848865465684,4.223379279348265,0.8204080871558086,339
-114.06795058821896,50.216151715967186,53.39578627667947,49.588461006500154,113.75375415824224,25.030004300572404,-94.59322417216211,-28.29882286208985,-90.0,4.340570188539184,-13.67209248096482,27.0,2.599067914773674,2.702541847995501,0.5743239900377278,340
-114.32573983372642,53.999014861959346,51.75833292718803,48.79722254893974,113.75375415824224,21.928690115966962,-94.59322417216211,-28.298822862089697,-90.0,4.284985336044715,-12.172264397462088,27.0,2.109682833465154,1.8515828690617155,0.42248753793574856,341
-113.88133204618741,58.14264159678145,49.28957019768284,48.24293095250306,113.75375415824224,16.237871305687907,-94.59322417216211,-33.59363422186098,-90.0,4.257694646375585,-10.675686203115044,27.0,1.470942873590125,1.0730146617601444,0.2639970868779831,342
-113.43949702919473,61.83852585785658,49.84218265081699,47.114159712413105,113.75375415824224,9.630241367758707,-94.59322417216211,-37.987961945361235,-90.0,4.221962201384977,-9.700300392833029,27.0,1.2466624260960413,0.769760693314022,0.2049713698733956,343
-113.88068910781146,65.87614473253008,47.86672217523491,44.95318705370711,113.75375415824224,4.219017033930842,-94.59322417216211,-42.82457193916306,-90.0,4.115554545300579,-8.86704865705895,26.800490946098193,0.7765867719959002,0.3980538539555603,0.11852108873294329,344
-114.05419149480215,68.91579924713163,46.796613869361835,43.20302990132167,89.46358003234826,11.3065323540102,-63.960474116596444,-47.189832652735404,-90.0,3.927313460146795,-8.236434176965954,22.5194048081686,1.0792247086168651,0.4538164393106269,0.15203673547795346,345
-112.79377347315068,72.55031923564783,44.19318054653767,41.88296612984804,96.18006447368624,23.851802766834627,-63.21063444946143,-51.784880410628816,-90.0,3.632594529501497,-7.605094891045422,18.417067612185942,0.539947728342886,0.181765814924159,0.07125241709566077,346
-111.9530743962112,75.93154498244333,42.84527677186373,40.21373997347526,103.23223812261759,38.11732197947297,-61.841498902865446,-54.26467462113784,-90.0,3.215465426553842,-7.2488809986963645,14.51792112903626,0.9075655593710316,0.23787460080858686,0.11358726850105583,347
-111.63620049643889,78.57684823083005,39.250820609114506,38.55971590538694,106.04590439666693,50.69879550084337,-59.21392679877965,-54.15601548940391,-90.0,2.762473832873472,-6.928177389844423,10.449181931718156,1.1261157756878615,0.21058517906434804,0.13480184679720758,348
-110.18652387199583,80.56850985819518,33.3172666488163,38.71812384636931,105.590313517297,58.986650465253504,-51.210871096733264,-53.335972518818686,-90.0,2.20518091172609,-6.595320560047096,6.398610093059731,0.6615138133266724,0.07512414549816554,0.07605793223798296,349
-109.05570498211738,82.97355134985165,29.82359794895643,38.720576722208754,107.41195551904454,65.93273825104231,-41.95322408268003,-52.05567317085251,-90.0,1.6822234526254833,-6.630268326494076,2.9785108639389324,0.892570351511677,0.04756316671674216,0.10338835833139802,350
-107.43644398233297,84.67856508478654,24.384404080210455,38.15537380565605,107.36635159204543,71.5603803052501,-35.854273275549374,-49.54017647430315,-90.0,1.1637262857596624,-6.205885341120529,-0.00569087606236819,1.6279918964207833,0.002352193559130624,0.17700446214607038,351
-106.32741364444234,85.69731180593199,18.970519600950063,38.26629837917174,106.6700430178031,76.04855850230886,-30.48446769003525,-47.89272453909054,-90.0,0.8151092153786632,-6.027324261145509,-1.9732692701051504,1.8893939985876356,-0.06215398741875821,0.20052564334736217,352
-106.3085213802921,86.98082352927948,16.96665497557308,36.665756885438505,107.85451059944818,79.68173259632786,-25.54847476495028,-45.6997804130893,-90.0,0.6059040916174552,-5.844712508852362,-3.3873817316625527,2.830540710282031,-0.16116727463573044,0.2937455428568505,353
-106.57358406120719,88.3347649192173,16.883844773811298,34.147851050912806,108.90507790551399,83.75924502264964,-26.268497635614647,-42.032700117531896,-90.0,0.41323748359326384,-6.153039959521777,-4.32087558538026,3.0930969828046164,-0.22589679833809684,0.3395598736605259,354
-106.28399295245612,89.26318254686952,18.69415197884925,33.627420962767765,108.84697345941643,85.16880715952861,-22.896268984975652,-40.563500151745,-90.0,0.39439304067155184,-6.374027918260161,-5.063431331949627,2.6314129733791427,-0.22772165055615784,0.29916727410699157,355
-105.15614014492964,88.29277705704538,16.279646474172925,35.53035643566501,107.80620846476762,85.66093049797723,-22.935322102646854,-41.06417541724751,-90.0,0.4425902377735965,-6.460990182097698,-6.115688388748206,2.3989495159399574,-0.2528541426986873,0.2769355559497379,356
-103.19422875258269,88.11191340107555,11.530411756558916,36.78472502485849,103.39532966122064,86.24459887319813,-10.926466909287738,-41.542189327580914,-81.37640704821109,0.5806575325659603,-6.026894081679509,-4.047486733610622,0.7925539298931439,-0.05580917174622728,0.08405991816134388,357
-102.56412937475667,89.34271527312305,10.551918818583335,35.72858976214272,102.91420472246324,88.57785758865465,-8.025526391471375,-39.8876476446895,-60.01615350007405,0.5093469962075646,-6.1467830943488915,-2.3562883983444083,0.4793510892520887,-0.01962194303891724,0.05170518308798982,358
-101.2757941580212,88.71737671938492,7.955421399679874,37.35739605211799,101.92529937510116,88.8938718836053,-5.490481762053379,-41.08959352261509,-48.53686208825443,0.4336603339587429,-6.160260940697426,-0.8649157008997939,0.46867119813164443,-0.006909503643241915,0.050613322837041196,359
-102.08654490682176,87.36258198353241,11.577306400937035,38.878781942166924,103.75632989767173,88.04396414738926,-10.375427397180976,-42.89684726168599,-52.342222897648185,0.3110119828290632,-5.777890153274263,-0.2774629208833225,1.1245205531300015,-0.004356549932939842,0.11383216225228765,360
-104.1762248183527,84.49560130337323,20.95122489208503,40.462488588555324,107.26402407084441,85.37254997751123,-19.268593212338953,-43.848443486255206,-84.25636811425045,0.2896746374541388,-5.603976496044045,-0.09137326031072038,1.5595127609616601,-0.00041631183177516707,0.15303580765782376,361
-105.57467219423853,78.67639085227367,32.374847387723,43.67535064883994,110.3547184862841,79.80605624167112,-29.65344500009297,-47.22165683944588,-90.0,0.3691301112177862,-5.807250032400144,-0.6724911705535161,2.589437702830683,-0.02458987511667118,0.2639508968345192,362
