JMW9912/AVATAR/Dynamixel/dynamixel_control/data/csv/poppy/.data/waist_test/3DoF (3O+Pos)/Old/0423_1043_13_29_3_dof_waist_with_position_adj_poppy_bvh_motor_degree.csv
theta1,theta2,theta3,theta4,theta5,theta6,theta7,theta8,theta9,theta10,theta11,theta12,theta13,theta14,theta15,frame
-94.43494790221065,24.91759421241139,94.45756007044649,28.298822862089825,0.0,3.9747615163935133,-66.61159636734803,-28.298822862089825,9.061519176957306,4.529334041110131,1.2498088126880578,-1.3807756505068154,0.16477843651807952,-0.003977889875868406,-0.0035892133048849675,0
-102.8700794380315,73.52466460573702,44.85910833298985,28.298822862089594,96.10316590893922,61.52899870123317,-22.010781875197573,-28.298822862089825,-90.0,5.19149795823965,1.2498088126880578,-1.3807756505068154,0.16477843651807952,-0.003977889875868406,-0.0035892133048849675,1
-86.7155201690261,71.67244032446722,41.6871793164389,28.29882286208972,89.90909151040874,60.844777775711655,-31.27225175546253,-28.298822862089825,-11.139855543028142,6.000000000000009,-12.947784092704238,-0.3676462414608488,-5.517375923424959,0.09731829210435508,-1.2649789309290809,2
-86.50281413396095,70.20122130471263,41.833004735790524,28.29882286208985,89.59899576519881,59.29755708354112,-31.14831779151656,-28.29882286208962,-11.312974808309995,6.000000000000009,-12.775947742487817,-0.4128864117127396,-5.483742853967332,0.09993856132052681,-1.2398158885928887,3
-86.29511286124287,68.71392297554975,41.966121809876384,28.298822862089697,89.3272121946211,57.698368377218856,-31.004042716341022,-28.29882286208985,-11.503747566968201,6.000000000000009,-12.58370630141168,-0.46681000796194955,-5.439033800567455,0.10294338653103163,-1.2103646542276965,4
-85.71627942523246,67.52272799442306,44.34235300940781,28.298822862089697,88.97171000435095,56.07222932304691,-30.811816575746374,-28.298822862089825,-11.89991548070544,6.000000000000009,-12.441454117849538,-0.4699613746371235,-5.379837020931473,0.10082500277044018,-1.1832384949167833,5
-85.38891297560971,65.88984191833492,44.36255260157396,28.29882286208962,88.60050044192843,54.426106044444964,-30.62902729020289,-28.29882286208962,-12.290184549394985,6.000000000000009,-12.295781893168767,-0.4479951013751254,-5.376915217002972,0.09793501947715352,-1.1683817364787985,6
-85.00354742800809,64.29315785350268,44.33264440752077,28.29882286208972,88.35739059923122,52.77296885537487,-30.492543150346567,-28.469717240746625,-12.508169488661283,6.000000000000009,-12.152919639284136,-0.4747156634207958,-5.371836868664448,0.09967029896505313,-1.1531620686123392,7
-84.2288681673901,63.07317485246735,46.45049343033218,28.298822862089953,89.12014875849897,51.5563557458149,-30.95587012488556,-30.58723184072925,-12.46918757175682,6.000000000000009,-11.995418034457103,-0.5107718539517717,-5.371593849529932,0.10236505440591372,-1.1375318125744593,8
-83.8612114072638,61.43198970554484,46.381330232291184,28.29882286208962,89.74939181524702,50.305777028701215,-31.327206340226613,-32.66782708422011,-12.470813694971474,6.000000000000009,-11.838775280976453,-0.5259927207688765,-5.350602109122604,0.10246691516232007,-1.117780568731783,9
-83.56025553193507,59.75644137558442,46.333436167219794,28.29882286208972,90.35045727252772,49.052508360953084,-31.683421479879907,-34.63016731587675,-12.583089295342447,6.000000000000009,-11.678330294794442,-0.5229009433986844,-5.3247666079966045,0.10067647766528963,-1.0968830690887197,10
-82.8619868384435,58.416188234834976,48.40332820678264,28.29882286208972,90.36281164692271,48.365294588027986,-33.921407374145815,-36.27254082410027,-12.94389766327707,6.000000000000009,-11.468000276164666,-0.49784823923504756,-5.2769449582568315,0.09600064091110996,-1.0670216903892253,11
-82.61042678875144,56.72602804714651,48.37927000344895,28.298822862089697,90.58089364385297,47.089904120971916,-33.874919991912606,-37.590393642282514,-13.353562734721894,6.000000000000009,-11.247002967103924,-0.48121501721264376,-5.135458355474125,0.08966820247055358,-1.0180215884386703,12
-82.35574976352062,55.10461162722881,48.33150104957686,28.298822862089697,90.3523480305984,46.41528245539414,-35.82054648610609,-39.119754064391174,-13.305169242796566,6.000000000000009,-11.030424108186871,-0.49923446871591964,-4.989210846180595,0.08656585909893774,-0.9695172685410655,13
-82.1293100308635,53.51476555774392,48.22297324574368,28.29882286208985,90.70286774078444,45.149994612671385,-35.83752208829742,-40.735685196335766,-13.38535543966503,6.000000000000009,-10.775571603079003,-0.5047138341003422,-4.877014549297774,0.08317183104791055,-0.9253120544779712,14
-81.43186955840612,52.27880829084399,50.16546970227518,28.298822862089594,90.93306121315936,43.88914574993128,-35.727383959890815,-42.27770982383113,-13.620928906933155,6.000000000000009,-10.50341050951479,-0.4994963503100446,-4.741696460571339,0.07836102631998329,-0.8764652007140816,15
-81.23489252953628,50.71552774557458,50.065952747874675,28.29882286208962,90.3068230413516,43.27398678526179,-37.26070790903232,-43.68102026161359,-13.8521014774757,6.000000000000009,-10.261851841426875,-0.4952361815011127,-4.57851675280137,0.07328591390270195,-0.8265018234750522,16
-81.04208801895767,49.186224484857675,49.959702715629625,28.298822862089594,90.22146236904842,41.97338021207838,-36.89978405649421,-44.88981970119621,-14.092557942912531,6.000000000000009,-10.040988084984013,-0.5004749600405947,-4.421091834091171,0.06937535359210344,-0.7806015968830304,17
-80.27223271290818,48.039505811389084,51.72037752839148,28.298822862089875,89.53509739100701,41.427812296029124,-38.28104865051919,-46.28935353597485,-14.56366972370671,6.000000000000009,-9.736185623553046,-0.5220669790961208,-4.282125544725376,0.06700240841919819,-0.7326416146478566,18
-80.01296473403221,46.53935357931314,51.44117246568258,28.298822862089697,89.63265200735789,40.34884078163241,-37.960799194097376,-47.71119520639472,-14.88392301889123,6.000000000000009,-9.435690818355578,-0.5106142877587553,-4.125993552803436,0.06192759342769666,-0.6838137264918648,19
-79.68072206756624,45.047357406591885,51.137647247220755,28.298822862089825,89.69720898760148,39.23247083607994,-37.718728289792196,-49.03016485194271,-15.022575887737096,6.000000000000009,-9.233339516238154,-0.4880962140203623,-4.009177520213872,0.057372210176917494,-0.6500432738004185,20
-78.80011107202928,43.944279078211736,52.77302945384568,28.29882286208962,88.75799070232425,38.79682435614263,-38.88269404664537,-50.36876476313468,-15.367566637842282,6.000000000000009,-9.012616771330297,-0.5038305911472808,-3.8841290789243996,0.05543439770506365,-0.6144600036081378,21
-78.74333926933572,42.85985557982852,52.57763889824947,29.196044309465805,88.76726079698969,37.69198062369139,-38.54126569711775,-51.71897217210968,-15.951319075096533,6.000000000000009,-8.781819494650378,-0.5063047038249557,-3.7917044255862953,0.05325839138359303,-0.5842427918514979,22
-79.07568630116052,42.17110670202317,52.621723865422624,31.139747488186607,87.78791874329374,37.295131006256995,-39.61270514483555,-52.99853106098856,-16.497442302596756,6.000000000000009,-8.527412725514623,-0.5054969095238296,-3.723634162257438,0.051336444094399726,-0.5568831837452051,23
-79.2191112703784,41.35615193607261,52.530940760255355,32.653655554060464,87.84072191588557,36.13941548820694,-39.2697747683171,-54.434125492929844,-16.627424346511333,6.000000000000009,-8.286673172221507,-0.5498708289922515,-3.657567147060502,0.052450216787792846,-0.5312504247935335,24
-78.48537014451844,40.80076325513987,54.15968641098784,34.16446872747984,86.66940547985386,35.7873230117671,-40.17754183290304,-55.71333715586828,-17.053707349205805,6.000000000000009,-8.117872294536856,-0.5336715905889845,-3.5705466193816795,0.049440224393065314,-0.5079522260771981,25
-78.60818222643289,39.90668476248906,54.10815073735563,35.82387203236856,86.43215405471408,34.67951649876372,-39.7661679653428,-56.903789806864886,-17.319085964706876,6.000000000000009,-7.950010847410555,-0.5293708764811478,-3.455719753863398,0.0467713238661914,-0.48135558507813214,26
-78.72751148432022,39.00454970137375,54.06878689685381,37.19759795374285,86.16131770032509,33.521495155172225,-39.497469734022204,-58.31350388605518,-17.195692018651904,6.000000000000009,-7.775333851059405,-0.6214185503028492,-3.3209434626478713,0.0494742843155115,-0.45217334324896186,27
-78.87414663594976,37.98486810678231,54.00362123996577,38.50653620215416,85.80599796872575,32.36527106599193,-39.138756635743924,-59.626265553921584,-17.61942955198906,6.000000000000009,-7.55733672172736,-0.6724476904402457,-3.20242833908971,0.04976973180423362,-0.42361025419267706,28
-77.92018023593874,37.26920458021442,55.27968764025129,39.70977598758434,84.27233973424251,32.098701714568165,-39.96406814253405,-60.909794145331375,-18.522027300190285,6.000000000000009,-7.299240942311053,-0.6916727805692399,-3.1536932425244997,0.04948204238425951,-0.40271544308098434,29
-77.74535138734785,36.07757578850357,54.758592591278536,41.0227031980097,84.22330620907994,31.065174220541167,-39.91898815666744,-62.21547705840761,-19.88032340388695,6.000000000000009,-7.004077958577769,-0.6787976077999386,-3.158219659541485,0.04837379336786591,-0.3867920994759323,30
-77.7248837668587,34.8931294757635,54.45960582480069,42.283353340214056,83.78768507699365,29.825949519815445,-39.540240910513845,-63.531933558370575,-20.96569020048667,6.000000000000009,-6.746093484685501,-0.7616736694900466,-3.053702843572585,0.0504874272988845,-0.35997579793753903,31
-76.69637960089027,34.08189154347465,55.66180348014725,43.38014945744183,81.11377638456896,29.2408783815529,-39.267191540933894,-64.63130442916392,-21.64236302531435,6.000000000000009,-6.489794350987774,-0.896494681882807,-2.8686664552697034,0.053329983697681535,-0.3250748521723694,32
-76.53503043361862,32.678096893313466,55.15926002148442,44.40947459143828,79.91135834480188,27.797396494874015,-38.161874855267385,-65.6409780843781,-22.591014198024652,6.000000000000009,-6.176596848333801,-0.9686689252666032,-2.741122396769353,0.05369735483207899,-0.29543457056488787,33
-76.39538133335422,31.210152698714083,54.68509783903596,45.473009244992056,78.72702073802365,26.37002215259991,-37.13482316165639,-66.7491137328871,-23.488520102820427,6.000000000000009,-5.881116466162476,-1.046020907354287,-2.6042900305546803,0.0538838763239389,-0.26709357065935996,34
-75.2789943883675,29.92506453553706,54.38567266888654,46.508305735183534,77.61058408389859,24.895282739420594,-36.26131049688098,-67.92992979865004,-24.52638076850505,6.000000000000009,-5.5981830207180305,-1.1154599479514125,-2.561786301891108,0.05571797364451024,-0.24991084971514152,35
-74.48792086137394,28.389807541007126,53.57749103237499,47.617052031958636,75.82250445490843,23.364951736093843,-34.75561683645364,-68.89636891243087,-26.065957668937646,6.000000000000009,-5.30777639509836,-1.1428229821116929,-2.5314996495614195,0.05589831594119856,-0.23400013566595,36
-71.90541517999338,27.375378934697665,53.40607564524601,48.65330931593097,71.99615060923794,22.824617500411495,-33.473597062712706,-69.79519539710925,-27.20201731237184,6.000000000000009,-5.012150232775303,-1.1834037662684431,-2.4913391354290866,0.0563974347152103,-0.21731352223697495,37
-70.55168233641642,25.786381556815297,52.068151030085666,49.70539932633118,69.93053483556821,21.299855035742347,-31.781413912028224,-70.69236826789474,-28.72235705181391,6.000000000000009,-4.7260750796807445,-1.2134554000925568,-2.442527117972008,0.05620408653622553,-0.20077177008265046,38
-69.32486459177849,24.200783584221725,50.92736971598885,50.86568517727649,66.70683351845132,19.805948560525763,-28.954392095591004,-71.47784653081256,-30.44497591329235,5.976909961191692,-4.46577709495772,-1.2693318632658446,-2.326006381516532,0.05537057364413913,-0.18057034243299835,39
-68.07385372492972,22.668040328433314,49.811483220616495,52.1203526342549,60.34234873076016,19.555741006910083,-25.171704209905396,-72.22352824517658,-31.095918434537346,5.874888455549683,-4.236926980218377,-1.3541909720068688,-2.1773256679932738,0.05466594403070966,-0.1602898732982704,40
-64.33343716399754,21.818622614122884,48.55793829536335,53.36598424072635,55.59793689130204,18.308333787040347,-20.894167911786262,-73.12718959280728,-31.622142840252714,5.806171541579858,-4.014720633814517,-1.4302366930122599,-2.0756441598613193,0.05458008387238718,-0.1447110330986264,41
-61.749404873369336,20.3853327199619,46.085945090798454,54.599022890700205,51.04947521763504,17.148962313946008,-16.85268177369912,-74.08044553050888,-33.42435969305968,5.706484978921976,-3.788963662273965,-1.4653732098549415,-2.037905554437968,0.05463683548001938,-0.1340099009191526,42
-58.86386367345478,18.964973793580743,43.36258791396977,55.86573134867324,44.724353342898425,17.421821258696557,-13.141997733071653,-74.9413774374023,-35.31498198278093,5.619895754373143,-3.5842491659655553,-1.5004853785414938,-1.9987205217923918,0.05463235310797146,-0.12426057379790846,43
-55.374849382009735,17.696807118878056,40.11275730141352,57.227121579393035,39.33322883309438,16.512810597143144,-8.380806420491027,-75.91643227753099,-35.56006241352098,5.649359069019884,-3.4563367991656384,-1.5467201572647782,-2.0176859927035906,0.05671657952511616,-0.12088108654056756,44
-51.308421352550525,16.565568311448178,36.271046400433335,58.607155226495536,33.2003699464426,15.784444816178702,-2.877835317733024,-76.89282108914443,-35.50967686643462,5.68183412489807,-3.303358589407156,-1.6058961103357907,-2.0226636690546353,0.0588511852818212,-0.11572163578842196,45
-44.593281711862,16.432440614246506,32.04930944663184,60.098327456418254,26.866442148617814,16.69479921330316,0.8303545365517883,-77.86087080676307,-35.50508260337109,5.674344117300108,-3.155455151854947,-1.6434573585226373,-2.0180359520442037,0.059937360101817425,-0.11021095842861144,46
-40.05451825244193,15.253169671079155,26.972948736329684,61.62696256105944,20.68973809197894,16.431678383522062,6.319965902364001,-78.84203761962918,-34.92319105696306,5.7466650507738075,-3.0892147611356986,-1.6957632115363872,-2.0483910343918454,0.0626963048200556,-0.10944430330457282,47
-33.213421292175255,15.31916925411432,21.891675944628705,63.09858636900195,14.242325082309891,16.31590723494852,12.054159778433961,-79.92352832201688,-34.69695384835532,5.742216319188644,-3.0130894382575266,-1.7865523512245012,-2.084095137300278,0.06707828935792774,-0.10849553993561543,48
-27.88349816794592,14.475885713143185,16.08465718158518,64.58928472711278,8.950315006789443,17.850975668395854,14.727626525369901,-80.97654686603273,-34.715273091241606,5.654737426515368,-2.9041471179772396,-1.8900160401017532,-2.085474369949718,0.07081918632541966,-0.10452284555380707,49
-21.39722476488537,13.837718944482317,9.061795168570384,66.14897307649788,3.356059773091329,18.233489826629537,19.642829847156328,-82.04356782049904,-34.6889718783683,5.6867745087253905,-2.7895213505006815,-1.934399746835736,-2.14138845122818,0.07434509850371306,-0.10296471759075135,50
-14.228099347550707,14.577018511575298,3.457251814002371,67.76561079038417,-1.8742671364188632,18.76317195940971,24.172703765129526,-83.17855411270224,-33.66206580024317,5.769878391951227,-2.677217403198255,-1.984239437640683,-2.194013382475676,0.0780433266520416,-0.1011140143762056,51
-7.906902032172717,14.300974304282938,-3.4240504934276657,69.40157196949198,-6.357873819426427,19.83480622429461,27.489620148452257,-84.2475396234781,-32.70028146157509,5.795975259321497,-2.5516780484780024,-2.079092773431024,-2.23180184955329,0.0830203616368305,-0.0978580606729963,52
-2.6711893544051177,15.425965983386854,-7.191643889536738,71.15204795794783,-11.006865327438534,21.12470954698727,31.08434323749624,-85.10684992498624,-32.54913845203668,5.706773639183316,-2.407427031115195,-2.2179390771320207,-2.266636306065787,0.08972832048763861,-0.09353495994440249,53
3.767044439775612,15.609548420828085,-14.24686234143701,72.75907993072333,-14.918852014479848,22.374129362338635,33.83260518792534,-86.06660743715366,-32.992758099909516,5.698695644058819,-2.306218139668681,-2.268114821477591,-2.36607330372371,0.09573217236213372,-0.09332823387557328,54
8.999619680304765,17.21769849429535,-18.101279496092424,74.21809029730018,-18.161713802528975,23.70608707365475,35.86311338622712,-87.07352942384381,-33.1999187163915,5.77822751450203,-2.2308460449781577,-2.2765361155874415,-2.442605604254573,0.09917867768274567,-0.09305556534113973,55
14.958110186873483,17.694036588693063,-24.66069816934673,75.6228326656975,-20.883790549091366,25.187435413957203,37.41727677774977,-88.06467697054275,-32.77129311578598,5.867029689858442,-2.1506953842132384,-2.299690364404043,-2.482512530302693,0.10175631748308621,-0.09104196731791023,56
20.191698288391795,18.298585232945005,-30.446705763749357,77.11704112835545,-23.39427964073426,26.77139793039913,38.78300431867374,-89.01529183902989,-32.09949541308454,5.8898665949474545,-2.097965978514355,-2.369444653968041,-2.543445159829619,0.10735046803276664,-0.09080877088018138,57
22.808517432796314,20.225564610271658,-31.73753993388019,78.6927386135735,-25.428020688564445,28.426398280376755,39.70577370193682,-89.92404442383734,-32.281903882579954,5.921522276606633,-2.087617037254513,-2.3809118137807346,-2.6348511857004357,0.11179963072751141,-0.09349451763234166,58
26.9789192791983,21.19805938070737,-36.518581511919415,80.23138335308182,-27.996043799825273,29.417860936629502,41.976066096394625,-90.96339391603051,-33.27376067631572,5.9958741487778795,-2.1052089396766416,-2.3265821063162018,-2.7596436754616183,0.11460008060768676,-0.09870560224025572,59
30.86077270147425,22.13864900200545,-40.8832669395021,81.8169779481471,-29.823612847438298,30.601426493001032,43.16398789317553,-92.10593513176362,-33.585014424443116,6.000000000000009,-2.2224303981555034,-2.281988507229094,-2.822103326863134,0.11519897119986472,-0.10670937302085534,60
31.839597106833956,24.034767986634577,-40.47800969039407,83.4869855691472,-31.57085536346378,31.79440958910787,44.32947678594906,-93.22055759752173,-32.42187820834085,6.000000000000009,-2.403415781996105,-2.3209026050700583,-2.849003355684995,0.11850026136194382,-0.11666164354111493,61
34.41380476945684,24.989971245015948,-43.49258673243298,85.1495002909436,-33.31875984443673,32.82684032328722,45.530819850308035,-94.43427865327513,-30.554977529039313,6.000000000000009,-2.583189913287276,-2.3970829885682425,-3.0037175963573177,0.12936785622916971,-0.13216084808562728,62
36.687886339219254,25.899848613994173,-46.1967463526319,86.89519774835155,-34.791697669696774,33.816835512396835,46.57709266355887,-95.61206245946215,-29.908011393700477,6.000000000000009,-2.7745392728483,-2.443692968213509,-3.133959699068377,0.13799674480133522,-0.14815168286934705,63
38.76484594968931,26.839626142585647,-48.712613112659625,88.62786265129391,-35.98126219749591,34.6832990492273,47.43211348168443,-96.7564493343243,-30.17457306020464,6.000000000000009,-2.9645764363313876,-2.4246050810495325,-3.269221008711004,0.14337555226134027,-0.16527092743049776,64
40.582222983911365,27.845272316012515,-51.017332312996416,90.18092059664576,-36.95369133132592,35.397533775815,48.129945311911676,-97.94115676179312,-30.15607695542541,6.000000000000009,-3.1240211400647384,-2.377447769930216,-3.416902713844207,0.14755948383644363,-0.1821562884571906,65
39.5459661227767,29.74544687457632,-48.975810946293365,91.6425478949302,-37.58132713155852,36.00477523442273,48.698748557845,-99.20545539993552,-29.946035135945294,6.000000000000009,-3.2423628553917885,-2.3635159364675706,-3.5327416519178687,0.15213255994072128,-0.19551756368631862,66
40.38469494628272,30.470191899527048,-50.49666123881021,93.06463112685974,-37.99363040289463,36.66732260410105,49.32164051982849,-100.29134560923328,-29.55344447533611,6.000000000000009,-3.2780519476395527,-2.457680341476983,-3.5901481350955926,0.1606967546425191,-0.20067377945673162,67
42.54148921689519,30.46807517059163,-54.506513861946246,94.3095517822437,-38.177935014700644,37.257827185271104,49.908205171145596,-101.24621965583752,-29.593611502931793,6.000000000000009,-3.216605357017557,-2.598295102309658,-3.634203227559585,0.1715584405722587,-0.1988824056509154,68
42.212442568410474,31.163017805823085,-54.808003884601995,95.37097062999204,-38.2548799873378,37.796244904993955,50.5176932081887,-101.95480808530469,-30.43846997903668,6.000000000000009,-3.049811032051726,-2.7796595888904676,-3.6876630756877824,0.18551072950166012,-0.1905892571297312,69
41.773557470279755,31.819293335663257,-55.042474152330755,96.21833455853171,-38.09108394503018,38.12039365460408,50.98785844666663,-102.54282009990789,-32.004264938259674,5.783593229994871,-2.809209407070828,-2.916426453505915,-3.775769221950588,0.19856821397217195,-0.17881125529296665,70
41.02236172717082,32.36378560776487,-55.06966872975959,96.85155243720776,-37.80876439099708,38.26608325324456,51.4247087328715,-103.00679339840976,-33.55363253715387,5.507295097465584,-2.502679281774937,-3.082762501987624,-3.9070780792983113,0.21629568050671427,-0.16347172811318753,71
39.84592286838567,32.71921598083515,-54.75219853617576,97.314153781728,-37.61598133054987,38.283909621918944,51.93932089962598,-103.22539882355805,-33.81994096378939,5.210277408152499,-2.2095836681291936,-3.3003566978696557,-4.110261479523311,0.24269915866339087,-0.14995998752460293,72
38.65825064970342,32.965787741971745,-54.45155195832491,97.45824968853061,-39.38077165062517,37.17192033603445,55.77735728952619,-103.33220498081738,-35.101336722643644,4.805179488939548,-1.8807077998219042,-3.4931658577003413,-4.273236823822501,0.26599797117026763,-0.13046845763653794,73
39.74829150579051,32.036406237808194,-57.84410219123047,97.45488195777293,-38.71212674785272,36.9005157604867,56.013322739595274,-103.36721879159076,-37.54432624674953,4.291289815876493,-1.515932452561078,-3.716181640477951,-4.401463864373458,0.2901859043186406,-0.10539396300149718,74
38.1348603194358,31.759905185204733,-57.12201058075938,97.34808278128163,-37.89510843223298,36.463765817847424,56.160671104529975,-103.1889773902217,-40.24968787295936,3.8355045680827633,-1.1080973834077645,-3.956157672311046,-4.51775036749842,0.3156298738297909,-0.07498310744517192,75
36.33722041463434,31.402340817380797,-56.21424278641596,96.92640220327597,-37.10031568385954,35.77712454433218,56.23745930351373,-102.95745623548592,-43.001696593041096,3.4625655373943083,-0.6822258536142648,-4.198379933514677,-4.688128357781401,0.3460726824830862,-0.041690908453832005,76
34.32373583482358,30.775900851164895,-55.064279149529106,96.38091770440477,-36.26263569573249,35.01470418544902,56.255587837374954,-102.54894264887646,-46.32191332184097,3.1087139206149215,-0.2775519571361201,-4.463815875100434,-4.823976153704531,0.377133324220771,-0.007496725600037028,77
32.32918005079882,29.9316107832136,-53.77566164762885,95.78258220618963,-35.14190838749137,34.061721114873876,56.05233796455189,-101.96218466089987,-50.001206717442535,2.774628973023822,0.09153380743652688,-4.664225843639385,-4.926800123665861,0.4011182375836373,0.02513216864841458,78
30.26900592737981,28.97918359303534,-52.26981864036321,94.93773658525733,-36.53028940963714,31.92149307793781,59.62059095155006,-101.38778265250221,-54.27095683406677,2.4954479887319696,0.4171764091469901,-4.82772965887112,-5.067270578063609,0.4257841980889351,0.055759184859380195,79
28.049990958722432,27.83411366848204,-50.4940704454562,93.92173316343641,-35.428583863916316,30.58945573752899,59.207340965537874,-100.75557381784296,-55.202348795703685,2.3479244082635726,0.6666129560312495,-5.040347243825739,-5.1451585410575404,0.45049920100997304,0.08014221125953766,80
25.497098842534093,26.445594293981102,-48.36826158350895,92.7434464481648,-34.29226765492281,29.3226679692678,58.74479574464863,-99.87267185204573,-55.01410747971443,2.1996543519198477,0.894893264447351,-5.300978096301598,-5.12185965011849,0.4710395627393134,0.10111882595609492,81
24.564456926372667,24.265897745244015,-48.825488100608155,91.38135399831631,-32.65369521010707,27.910965260664796,57.92613104644638,-98.9091622846136,-58.63874251561257,2.0741866607225883,1.1623938485670282,-5.469393444222584,-5.022709175950669,0.4758920619503467,0.12284011957254705,82
20.55588794433576,23.283456443927577,-44.3001514900387,89.86761170893806,-30.579524946777422,26.153800665729804,56.59387292579457,-98.07989043800987,-63.342979274939694,2.040633582161563,1.3965042526782077,-5.504695201773807,-4.945201954448892,0.47087057813532873,0.14095011081551947,83
19.043950114714956,21.237507492852867,-43.87753095771211,88.17986232213241,-28.26268061933652,24.286465193504498,54.96807919808235,-97.24434181165748,-67.52504464963086,2.0070847571395642,1.5926292725228675,-5.537595558134339,-4.850458612294518,0.4641110366405679,0.15458106185024975,84
14.123904798686164,20.306280271008788,-38.364229057264296,86.37012287820835,-25.717615295105183,22.47565855112128,53.25275668508843,-96.20402180925622,-71.28314672800853,1.9587770654764547,1.7872974687439553,-5.605495969941198,-4.73355857573076,0.4581204901459369,0.16670571942860804,85
8.78024970076508,19.52788169178474,-32.34072710587896,84.44271166363652,-22.861566770796117,20.54305439347411,51.23780846825261,-95.16611735827087,-73.17221246306687,1.9302844659568437,1.9409220086314791,-5.65903034498348,-4.673428000456251,0.4563208044580267,0.1770597471815935,86
5.126505789512914,17.446580079512948,-29.75557496037061,82.55351195685768,-20.58406094730039,18.364709951695517,50.446307966328995,-94.00914115835991,-72.8959277999697,1.9082411809025965,2.0576758465138565,-5.692648698842126,-4.528116894200383,0.44470430598823796,0.1803304911017092,87
-1.5135780948075088,16.706628785863717,-22.386900446128962,80.60776018905591,-16.117636471179818,16.67532456840852,46.90045757588638,-92.69567519285907,-70.88846471703825,1.9318565229627975,2.179749582600818,-5.721857753043561,-4.356747055697233,0.4300638889430174,0.18223991447647872,88
-7.9347467122965725,16.232797720237397,-15.235058144581828,78.4140322144548,-9.574915613551271,15.316512393797108,40.87839134345548,-91.35377323271803,-69.56870158843338,1.9438855205269832,2.288666601923411,-5.718928046107418,-4.2322937536184115,0.4174913313162968,0.1846244701199278,89
-13.73371769956588,14.651065896350477,-10.677831768120083,76.24764318098187,0.06939455130484656,15.010943058479354,30.49360564310059,-89.84437682659369,-68.01850742170926,1.9585640829387407,2.359825230914021,-5.696005041995516,-4.15502700894082,0.40814977861267,0.18608220823607227,90
-21.272749127536432,14.585205471179028,-2.3619549274788505,74.21692199864509,7.556248304080326,13.564949719533372,23.85077033003721,-88.31763302813937,-64.48960755417619,2.096429057309828,2.344617261770992,-5.657301977586247,-4.141733989936454,0.4040776536815564,0.18423807480128077,91
-29.256412130598637,14.774865439033867,6.428455344535753,72.27591313984836,16.647470413597883,12.435569504757183,15.526532054946527,-86.80400491122658,-58.95218840054221,2.2068216687461395,2.2728127693797253,-5.659887361851416,-4.1234300359041605,0.40267731758619696,0.17819616176820743,92
-38.120408207968566,13.961797793413133,13.941622116608498,70.40753828517808,27.453746695204092,11.874508357235106,5.475844222813167,-85.23129289992877,-53.236177848116505,2.277511507181851,2.1962169430105094,-5.626907358776329,-4.057305058993241,0.3941405445875338,0.16960130288090386,93
-46.12579953102203,14.69630460953648,22.592486175089157,68.73441057209632,38.66387714171251,11.815443023074822,-4.9953699423611555,-83.56904631054456,-50.533754853720716,2.38896176675809,2.1501034982080074,-5.598109962020656,-3.9977867088765358,0.38652221790159697,0.1636232672389474,94
-53.031501004237306,15.784081802138196,30.118454879454823,67.12877790504432,50.07836598825265,12.18690946745711,-15.748820168481593,-81.88959339879911,-47.798847983728386,2.629762138835883,2.064489385337114,-5.567157226946789,-4.0453107722895725,0.3890342322988067,0.1596047236269535,95
-61.20749643179005,16.18101625201841,36.769367578914455,65.56751311066499,60.82084799427702,13.018034265537098,-26.014487604061166,-80.22838463296776,-43.10608087860048,2.9815791433622576,1.8462534951856524,-5.525613794517718,-4.147927003135231,0.3962411567136104,0.14809686942369932,96
-66.36059811874034,17.761532392144954,42.5735758545162,64.14218677342797,69.48360671071785,14.305287852052142,-34.29563583306469,-78.50673129771363,-39.54466399200475,3.3172744088803103,1.5878257931578241,-5.463266831402138,-4.193736991038685,0.3965964898026233,0.1308101132467423,97
-71.32454327983199,19.560945456577226,48.19535758004007,62.97700450143196,75.62597258825593,15.953200331026592,-40.094389072113024,-76.70631172687109,-36.58329129627429,3.634911433574239,1.29917913081192,-5.402803639836749,-4.142111179867922,0.38807895417537036,0.10800484008480754,98
-77.52720023920709,20.970109742340895,52.891146896218146,61.91466663883969,80.64799671043784,17.787754271566076,-44.82114819187184,-74.9523107317609,-33.45702002130674,3.926402901625989,1.003620226790141,-5.367257833456126,-4.131620489194415,0.3852572912433412,0.08630172000541855,99
-81.18630033443566,23.01018640442711,56.41647862531417,60.87588411955643,84.63911963506551,19.76395813058606,-48.59132234806545,-73.19279947797699,-30.605166139645842,4.293503070687264,0.6806664470550977,-5.349303579570969,-4.122984023776927,0.38396781190417645,0.06282257193236518,100
-84.33912558965038,25.22199772727687,59.5928596016074,59.89495220126843,87.02538906078502,21.828091698485327,-50.85913555528208,-71.33176393421678,-27.779676225646607,4.754619382449568,0.25386396102217124,-5.325784162106481,-4.020678943134245,0.3738727434746509,0.03094517546218878,101
-86.70776927950305,27.464385753181794,62.05337795509141,58.87992581507101,88.58437210764623,23.935183329384397,-52.37165683132922,-69.35681559672592,-25.514788425011155,5.1809945203635746,-0.1995868616660827,-5.230581875229477,-3.9378110462873046,0.36067705337488104,-0.0013234451442143671,102
-88.29724460846343,29.66392072992032,63.70251847294058,57.78456270629081,89.75341616867625,26.082800305602714,-53.48408154992809,-67.29057591301864,-24.33652769424745,5.646013272989772,-0.595913116156972,-5.085448401550147,-3.909062169622179,0.3490159826680185,-0.028764286383195614,103
-91.3470769992225,31.443822880866527,64.43363849664544,56.7767231571667,88.57830150628452,29.00478896645368,-54.6612063616726,-65.16113651446467,-23.553649029466147,6.000000000000009,-1.0197425208032955,-4.9045792346670645,-3.8700512983288147,0.3342312475620023,-0.057622937823195906,104
-92.00722937691896,33.656325537126776,65.32556164441533,55.77317649370191,89.57307175126623,31.35330563626411,-55.80833435399906,-63.099172630734195,-23.114124238926586,6.000000000000009,-1.4864254002854478,-4.669877257450163,-3.8778127989252735,0.3200503387144427,-0.08983489705610972,105
-92.36701811972013,35.93354801535242,66.0097643094978,54.67269387318261,91.90090264856435,32.992677844224104,-55.862144073233736,-60.963231560523404,-22.71993060657706,6.000000000000009,-1.9078189053162715,-4.479594638117305,-3.8602578986902665,0.3067189180361742,-0.11830807945205675,106
-92.59584362148807,38.23140257485211,66.52845473918771,53.53707944309646,92.1102846168429,35.273627225427624,-56.37919985981758,-58.84384835587837,-21.921659872173873,6.000000000000009,-2.3344301926116873,-4.321114847506135,-3.86657487155061,0.29752843889077396,-0.1476572843108653,107
-94.00888600469725,40.034004685911256,65.64118177874305,52.264584304777046,91.97950818435005,37.65659762682835,-57.00283157080506,-56.74521423663254,-21.085472153904313,6.000000000000009,-2.7508363864014203,-4.14140926742602,-3.931880213962899,0.2913146406203136,-0.1790156029374582,108
-93.79242657261734,42.16070489141539,65.61724544643376,50.93226750588597,91.87791923838672,40.06020082043085,-57.63862092893394,-54.66281453338613,-20.45384653488797,6.000000000000009,-3.173963016988897,-3.918771168159194,-4.0209680259925005,0.28349981278581393,-0.21314266029818307,109
-93.56175127605259,44.26170535303886,65.5883244835793,49.65215464738367,92.95567926591488,41.97987158579864,-56.871984140142246,-52.704944807294176,-19.67466922133685,6.000000000000009,-3.6100271167766698,-3.6775686375876573,-4.05913890689909,0.2703029845394363,-0.24665718262731992,110
-93.2773206038476,46.365406157116034,65.36906708207964,48.47452627069853,92.87686824058689,44.406525113124374,-57.35243755878278,-50.73043222882216,-19.359989865790595,6.000000000000009,-3.9565522034525897,-3.432548410478534,-4.149929961932602,0.2597228660197274,-0.27778779434723183,111
-92.96721676840829,48.48536064321168,65.10692573969138,47.09718081987732,92.69965013951045,46.61992815092477,-57.69469065889678,-48.786802817840446,-18.73081720765404,6.000000000000009,-4.298324707668583,-3.2832407908568415,-4.233587706229014,0.2551197473795088,-0.3089666661348524,112
-93.52156941656774,50.15147663692004,63.146824819015684,45.540199335376606,93.4802291149796,48.33766318196627,-56.4439370255241,-46.995840566858014,-17.61092174323184,6.000000000000009,-4.709116894594414,-3.143939893943452,-4.339331924505148,0.2524999757731268,-0.34812003933562446,113
-92.97348290291683,52.15344750446241,62.652592960775635,44.06290065240105,93.31734301417632,50.65257024045847,-56.75112162220905,-45.38759733060598,-16.56423658299287,6.000000000000009,-5.093403334680568,-2.9577778440240836,-4.459429194805803,0.2465997069940217,-0.38814817649529587,114
-92.32819294983695,54.117842142958004,62.03220482447649,42.584724172009025,93.3217772665931,53.06661366308756,-57.13684126879652,-43.975592762080915,-15.732788996810793,6.000000000000009,-5.443929115868071,-2.7566529142049734,-4.596089787603427,0.23967031459624935,-0.4287145069092763,115
-91.85727271672351,56.08870049391965,61.54173592924521,41.18290326847076,94.2155607041178,55.013527697400804,-55.66659776444378,-42.53303073478316,-15.16233469265091,6.000000000000009,-5.75064589094029,-2.5769481775280134,-4.691054029807276,0.2313336315324536,-0.46329801350734184,116
-91.46289765731753,58.14420186095238,61.14289484116751,39.79075127082172,94.12260910799873,57.28927594071185,-55.77288427417567,-41.15412571941667,-14.299646115548077,6.000000000000009,-6.0616246589473075,-2.47546479415929,-4.727188799326022,0.2260241105947964,-0.49304447033688525,117
-91.60127392549302,59.85285548055943,58.685743062131905,38.34584806913437,94.49550179605362,59.040741995032356,-53.758240472411885,-39.78612611005121,-13.291329379462846,6.000000000000009,-6.408513210974901,-2.4063357599076554,-4.7619497672820295,0.2234002156503301,-0.5259853368366889,118
-90.86857012965979,61.92193873912956,58.058944645371135,36.96352540082781,94.05773288852794,61.16774310112858,-53.660058044986776,-38.29606769037609,-12.520296356431466,6.000000000000009,-6.816561154928531,-2.318789194136787,-4.853362038340431,0.22229501468340215,-0.5712054663390305,119
-90.17480658467522,64.02388257840903,57.54774344666976,35.44416603919651,94.15927725469923,62.79583409166407,-51.46972310303468,-36.86316534233569,-11.772925622515025,6.000000000000009,-7.291087454906062,-2.287184241488596,-4.905343904846467,0.22418080871304935,-0.6185435248079614,120
-89.40354813102277,66.08681816334428,56.94919289943713,33.70298711387973,93.68552643637999,64.84994021697953,-51.298154763558095,-35.59961674202853,-11.018159105155956,6.000000000000009,-7.719022878588236,-2.296057778901243,-4.993059314822578,0.23130522714262625,-0.6672949184381868,121
-88.45928821524444,68.094507318932,56.20861161039586,31.861987813605936,93.3344936406304,66.93231071154008,-51.238902252881836,-34.46275974421482,-10.346033778809428,6.000000000000009,-8.137164620933797,-2.301535471430286,-5.157960129124168,0.24237471465140925,-0.727291780691554,122
-87.4539110887946,70.05082000050874,55.58684627501961,29.744449070205647,93.39081761220582,68.55797424651522,-48.937298123018806,-33.43996593502272,-9.568112126953933,6.000000000000009,-8.635393028783383,-2.3448931152461427,-5.254419471173143,0.2539734117725164,-0.7871351153898586,123
-87.13212184801333,72.02207850038015,52.92052687631544,28.29882286208972,92.8687279373396,70.53002119847226,-48.69239842647375,-32.49732904876016,-9.15297009995499,6.000000000000009,-9.169881002431676,-2.418945655908086,-5.30299757559131,0.2662790787939448,-0.8446192762526677,124
-86.79982955486686,74.82092450940895,52.554770842162455,28.298822862089594,92.34959956574666,72.38967518286123,-48.447122212773394,-31.386879822915986,-8.862022920309084,6.000000000000009,-9.650847041568756,-2.493619892216891,-5.376403117105603,0.2801297387580045,-0.9021340696329121,125
-86.45766393348813,77.62538445890252,52.10201499502273,28.29882286208972,91.8676956327588,74.09175008356114,-48.27004312377402,-30.25717726439036,-8.012908324245547,6.000000000000009,-10.09491364737783,-2.6268659573360535,-5.519366635359053,0.3042446199970955,-0.9691735495239511,126
-86.52590755800037,79.99679763728824,49.34689156912482,28.298822862089825,91.73646263892142,75.29146329399191,-45.822079294446134,-29.0988242991314,-7.085046367811578,6.000000000000009,-10.50342526802691,-2.784351214125738,-5.674976122554848,0.33248217360146537,-1.037056940847233,127
-86.18750801630412,82.58218837644623,48.884293563202306,28.29882286208985,91.26601639202133,76.903632976373,-45.61424368798489,-28.298822862089825,-6.307254183158166,6.000000000000009,-10.891802099507556,-2.942424989252566,-5.818043595024293,0.36101676953833495,-1.1027673847830295,128
-86.28744519178994,84.66345592629189,46.14000301944282,28.298822862089697,91.08398690370583,78.6594466001871,-45.48274213670624,-28.29882286208962,-5.762069259089879,6.000000000000009,-11.289931670616156,-3.0605929063932393,-5.950716305302531,0.3857598075501872,-1.1697470812150776,129
-86.04747596558919,86.95878532928134,45.73493271333841,28.29882286208985,90.88808424854804,80.24933347342254,-45.304747777020474,-28.298822862089594,-5.5171416576449,6.000000000000009,-11.59967450154668,-3.1784522599418406,-6.056278801111594,0.40861901808555995,-1.2235313511829482,130
-86.39460529073976,88.72929105555232,43.047794236191045,28.29882286208985,90.73411389315355,81.66388310230849,-45.08492115625957,-28.2988228620898,-5.13315759435374,6.000000000000009,-11.77070821040716,-3.322825355162844,-6.127695857999709,0.43126437422951835,-1.255942785753523,131
-86.85897996617946,90.18451801643094,40.401290552244056,28.298822862089697,90.64379746832043,82.97477532173005,-44.86876775667703,-28.298822862089953,-5.739918224731155,6.000000000000009,-11.880737209852807,-3.4002211408422394,-6.172268627119899,0.44425669852813354,-1.276827383802668,132
-87.14344576840465,91.22754576002464,37.77390449599227,28.298822862089594,90.14494201547697,84.58386045558217,-46.97109839869242,-28.298822862089747,-5.554670477024786,6.000000000000009,-11.977071940446397,-3.366577277186125,-6.194684650423909,0.44311575495228533,-1.2924394434328283,133
-86.91358065018592,92.38677865939192,37.5928815239645,28.298822862089825,89.98384400290385,85.68829768393353,-46.72015110662456,-28.298822862089594,-5.951502079695308,6.000000000000009,-12.078326673156417,-3.3398994413541523,-6.16494761711172,0.4384662362966268,-1.2978806324426468,134
-86.5409051097114,93.31133532064791,37.50232910889604,28.29882286208985,89.23889505091887,85.82686282877629,-43.97938424320337,-28.298822862089924,-6.451351227008074,6.000000000000009,-12.208400925896859,-3.3737840950863407,-6.09661413511337,0.43749408123079403,-1.298034996184542,135
-85.90273944242257,94.40258411633673,39.87208753299247,28.298822862089697,88.79860951889354,86.32982970722563,-43.6869380369377,-28.298822862089875,-6.455123785468851,6.000000000000009,-12.251473611825695,-3.3689577855856756,-5.9843688537071635,0.42797994263434647,-1.279291049781856,136
-85.76204741197127,94.78109496172753,39.89251487687603,28.298822862089825,88.43510997401049,86.71810762887878,-43.41656945898271,-28.298822862089647,-6.655226827251989,6.000000000000009,-12.102688252674769,-3.289515631460344,-5.866454940715396,0.40889276410820735,-1.2389953131674083,137
-85.54378157916007,94.80997063156254,39.93063700215256,28.29882286208972,88.08403449308443,86.93823373867095,-43.20341616282438,-28.298822862089594,-6.447295809056546,6.000000000000009,-11.91892857279923,-3.1537703742245258,-5.763492110891656,0.38541842770468404,-1.1989799690481537,138
-85.27775594408612,94.5682492091808,40.034878955099074,28.298822862089697,87.67593339773673,86.94869089468438,-42.99237336659808,-28.298822862089697,-6.688922554709808,6.000000000000009,-11.776731842264725,-3.0079109507639963,-5.631046276557265,0.35964096890222413,-1.1579775417538989,139
-85.0893648840728,94.13605985517255,40.17015827908987,28.29882286208985,86.92770152449488,87.00280910240818,-45.1492992121866,-28.29882286208962,-6.516201589043427,6.000000000000009,-11.574025984555616,-2.8947206360257844,-5.492824751468011,0.33715769273578566,-1.1102431426877755,140
-84.93761592382877,93.43334460225786,40.362775205016966,28.298822862089875,86.41945481904942,86.5411843319748,-44.90250631271065,-28.298822862089697,-6.354724504690533,6.000000000000009,-11.304729128454442,-2.7691322005723262,-5.316139405652499,0.3112758095803065,-1.0495783328394206,141
-84.39302866303193,92.82857941325906,42.88245134650795,28.298822862089697,86.06351921506675,85.8986209608018,-44.7450927328586,-28.298822862089697,-6.635389443138446,6.000000000000009,-10.984633981391802,-2.57311312926124,-5.183916701574865,0.28260800360335453,-0.9945532744694293,142
-84.24376702722029,91.60225757485095,42.99769230245226,28.298822862089697,85.7494323569993,85.0634659288988,-44.62004602648125,-28.298822862089697,-7.206203686899543,6.000000000000009,-10.623562227516718,-2.3626407566377883,-5.0783441846869035,0.25519495356313016,-0.9422275693950303,143
-84.20488375500624,90.23261851143157,43.12015920809393,28.298822862089697,85.35999390285549,83.93238387629162,-44.46329887876008,-28.29882286208985,-7.276834085925463,6.000000000000009,-10.218133061484012,-2.225066626270855,-4.981026829170205,0.2354945996049671,-0.888490091233961,144
-84.04920262356441,88.7145009869131,43.10118520237548,28.298822862089825,84.91628255836608,82.6139322773819,-44.402164137357666,-28.29882286208985,-6.979357452833382,6.000000000000009,-9.85524301822195,-2.0873899555057016,-5.007932412554312,0.2230979375655814,-0.8610667018398354,145
-83.36945936042365,87.37405475510745,45.349663259869274,28.29882286208985,84.56981473779649,81.19375981372717,-44.40357055223903,-28.29882286208985,-7.091417767162101,6.000000000000009,-9.567449790626384,-1.8932319979093737,-5.076658962806374,0.20790092335400878,-0.8472736844419366,146
-83.11000790903553,85.54072449002585,45.29451751249301,28.298822862089647,84.33446091796286,79.63034151357631,-44.33571548916625,-28.402631917149822,-7.327001402973455,6.000000000000009,-9.254258675114055,-1.7383527156798309,-5.087308436290737,0.19305442302502213,-0.8210889775074538,147
-82.91933387167373,83.61301850098806,45.20616167276334,28.29882286208972,84.44029630187849,78.23753159827842,-44.288028540612146,-29.580587680632313,-7.453680297159979,6.000000000000009,-8.869837125435275,-1.6193655743008855,-5.109469227048502,0.18157749018712876,-0.7899759876540877,148
-82.28251445763127,81.98406958679175,47.254739987882395,28.298822862089697,84.6311351105848,76.74583127537643,-44.37188462796485,-30.89631856174624,-7.475458996216948,6.000000000000009,-8.503333414164914,-1.5178314391056804,-5.264285375754293,0.17701404518506006,-0.7796503467345985,149
-82.0142575087626,79.92531815341879,46.96144722258273,28.29882286208985,84.90009264174029,75.22781554984105,-44.479626899821085,-32.47144897855372,-7.894315605236103,6.000000000000009,-8.18570233753764,-1.411975183103807,-5.428733954839075,0.1719901309726929,-0.7734956521488765,150
-81.2814598715213,78.0883599472259,48.91109045985121,28.298822862089697,85.02693987357021,73.50163418096568,-44.528951548806674,-33.598511163502685,-8.540153896528187,6.000000000000009,-7.889513101167441,-1.2492384904787452,-5.575913440174729,0.16015984715153592,-0.7656296568656554,151
-80.8620614131192,75.90196318991948,48.44402227415518,28.298822862089647,85.23130055376626,71.59810868202835,-44.6466918838996,-34.78611089841445,-8.788123688438182,6.000000000000009,-7.597034978595596,-1.1728209193211216,-5.802108127511017,0.1588088361164884,-0.7666053289660059,152
-80.46131921848587,73.68542956312562,47.95383749583998,28.298822862089697,85.55795864598042,69.59965290241175,-44.78017032079535,-36.18145573705822,-8.945575312313307,6.000000000000009,-7.29899981467266,-1.1626534188111515,-6.032066830303959,0.1638549707472342,-0.7648284367971618,153
-79.67112712112272,71.72817008443411,49.694286336989144,28.298822862089697,85.37905926702436,68.02957179857962,-46.99286132251167,-37.54574143707995,-9.343495440141474,6.000000000000009,-6.993884342951081,-1.1244275044785972,-6.229995238842634,0.16449193894003322,-0.7561965628253334,154
-79.24258384196523,69.31515693299322,49.22087910505116,28.298822862089697,85.56107299419884,65.89820308604715,-46.94012531990445,-38.69435141632951,-9.776812255757733,6.000000000000009,-6.74440728263079,-1.0509634071048692,-6.359876198018896,0.1589680412093844,-0.7441644222579015,155
-78.72958783896412,66.83889055439639,48.7033220829034,28.298822862089594,85.7912723585769,63.69583971329101,-46.89404122300007,-39.94040002334836,-10.091710414886032,6.000000000000009,-6.533378790955222,-1.0146666051727042,-6.480673163679352,0.1572387077560449,-0.7341997261502952,156
-77.8476378829112,64.64075104363246,50.39391057902605,28.298822862089953,86.03705422651926,61.392015703228125,-46.77490218042471,-41.25559562496624,-10.276471049882993,6.000000000000009,-6.30278151132459,-1.0083111778027027,-6.554489026582759,0.1571956087767333,-0.7158328847538148,157
-77.3984254526037,62.01569484588967,49.79310983997646,28.298822862089594,85.68538452595675,59.49686460253215,-48.62810172988445,-42.359387037636935,-10.494332809547284,6.000000000000009,-6.009805182985301,-0.9762130420383102,-6.665864851501712,0.15475277806937338,-0.6936345236460909,158
-76.95338482653501,59.37009864782744,49.209700906857336,28.29882286208972,86.08647613414195,57.0668073248253,-48.482350750868825,-43.732539206737165,-10.445643867506732,6.000000000000009,-5.714861213258111,-1.0105411060309046,-6.7261243863848055,0.1584475938386236,-0.6646660879463183,159
-76.54344296264345,56.59118031914874,48.740408398742126,28.298822862089697,86.31123315879329,54.58011281261732,-48.130555188299105,-45.037398299370615,-10.909194877417333,6.000000000000009,-5.458229932923084,-1.0191512938671607,-6.657581952377987,0.15564419982800903,-0.6278930989392711,160
-76.82664323408868,54.29728461601134,48.71396632293366,30.061129343575374,85.52892990742318,52.49300513978924,-49.308540099407715,-46.13583743105776,-11.481597599171595,6.000000000000009,-5.1915445203959,-1.0351762499079067,-6.496001800705676,0.15104896654096284,-0.5823417730084057,161
-76.7472201027792,52.594005454027766,50.818077275782386,32.534711292628806,85.51802216552653,49.76458773394831,-48.667304334480875,-47.228022986567076,-11.521248094625873,6.000000000000009,-4.95199717304419,-1.0616182919287087,-6.354899239460648,0.14848131751628993,-0.5429963833261562,162
-76.96187483696,50.412881281762274,50.74978560186017,34.79990816698219,84.67417340435125,47.573211373193935,-49.81329398396413,-48.33532840441246,-11.447880918654839,6.000000000000009,-4.79708757635039,-1.070340560084235,-6.282959040356671,0.14645847274409143,-0.5198161285254548,163
-77.08181586313673,48.08471889950086,50.6400922971971,36.75029000472076,84.74053587335484,44.78030668115711,-49.28522229033271,-49.497425752484936,-11.498040881845968,6.000000000000009,-4.646542203793031,-1.0903588706655205,-6.219798030910931,0.1459628368365091,-0.49813363404018274,164
-76.49369651841451,46.04913293624745,52.35538731363236,38.49873432551955,83.49328830209816,42.46705833459333,-49.89983999351475,-50.434075716184125,-12.069842489981648,6.000000000000009,-4.439999815958555,-1.065920380379515,-6.123637209709751,0.13945999235630635,-0.4685239507258414,165
-76.53809508604773,43.41311315356259,52.19047996469902,40.25883216132799,82.91440305732841,39.54100729366496,-48.72945460253825,-51.078906502807506,-13.039175626281672,6.000000000000009,-4.27403625202847,-0.9317327163977512,-6.055335683095802,0.12247126203920053,-0.4465209084621674,166
-76.49518838257231,40.74364967381177,52.04082945222166,42.095161223510274,81.34167571972742,37.35400818110062,-49.09883891026906,-51.81383430797182,-13.655971835708135,6.000000000000009,-4.19763649112302,-0.7745606198289321,-5.990790157724346,0.10403472016227498,-0.43467171909844765,167
-76.34169815039675,38.06161796965319,51.85869562225205,43.64126629775717,80.53832779680819,34.85438993353994,-48.975928318138834,-52.82547660244458,-13.701366171452884,6.000000000000009,-4.153727960805927,-0.7032792750081321,-5.925614652895281,0.09503841816820198,-0.4258276742071235,168
-74.91420847640089,35.83367561397327,52.908716055316034,45.079040918841706,79.51881539115038,32.26200147525881,-48.670047051557006,-53.666178892911844,-14.031160929425454,6.000000000000009,-4.116768132361879,-0.62640757852117,-5.885554965327727,0.08614439389626695,-0.41957851599892726,169
-74.42524383146147,33.083580458029985,52.450935073461146,46.363826726222136,78.2167039978695,29.614228351925846,-48.09717073102016,-54.500729498886415,-14.337054560962855,6.000000000000009,-4.102843455434204,-0.5760882635519734,-5.833247409061247,0.07998760085684849,-0.4147288352570349,170
-73.1966660887207,30.6549846060985,52.6987193237465,47.65349447185486,76.70537537159349,27.018530704261916,-47.2573612320674,-55.31729797095675,-14.54330236105849,6.000000000000009,-4.044296414363801,-0.5302984940387141,-5.747468287190487,0.07360839754609177,-0.4030303089598165,171
-72.15237018594684,28.098671185904816,52.221493640451286,48.88361809837852,75.0384270374696,24.43389042419393,-46.29697718799811,-56.21060866716867,-14.392353986086336,6.000000000000009,-4.008827948308101,-0.4958416584506811,-5.6976186801899615,0.06918843286277103,-0.39620007827140274,172
-70.69621555184825,25.5065987943103,51.398957604303135,49.99031615220478,73.06739846921779,21.848645594722964,-45.12238710310482,-57.107282913150634,-14.282113531877199,6.000000000000009,-4.044136126749629,-0.45091772867119434,-5.703520690346061,0.06498192387024426,-0.4003550274886992,173
-69.01359680795318,22.826276761554137,50.348529799795344,51.00757910540394,68.43428685316377,20.08179566875869,-43.561247786244806,-57.980377347458266,-14.281480253113607,6.000000000000009,-4.056236890284866,-0.39836139085755884,-5.682454367918486,0.05951159016471624,-0.4003512253151135,174
-66.88974774033129,20.167437375725754,48.77312458185185,52.046977707781146,65.3911083026709,17.728212937685758,-41.179670074887866,-58.88554600744283,-14.729757225253783,6.000000000000009,-3.9981471438862903,-0.340910052806815,-5.671896456327329,0.053383122808660984,-0.3941242144901679,175
-63.90722091837603,17.702246323244932,46.319330651091974,52.978945124381255,61.43056859561093,15.373342727732737,-37.886322768153185,-59.90424898423088,-14.394363206768976,6.000000000000009,-3.953682145440163,-0.36730681755019334,-5.712794518427772,0.05631977317586742,-0.3923661273421506,176
-59.862626062952,15.409612193133077,43.123664263139425,53.90714541031114,53.31370468464924,14.055147602710951,-32.72754765773351,-60.9692444021823,-13.284409850940655,6.000000000000009,-3.9802100253109534,-0.4188922939900376,-5.7217504544487205,0.061728697587149516,-0.3953775155243179,177
-52.60878774913495,13.797114164582123,38.300627332178244,54.75627328759415,45.997947311897086,11.996591687580452,-26.150728893703988,-62.15323521150174,-11.411770143231298,6.000000000000009,-4.023616965822503,-0.4953675892979758,-5.771013098160093,0.07036445698241198,-0.4027516379774517,178
-45.791273624387024,11.562386743918802,31.62020736818149,55.58519847035686,34.809270555289544,11.306549794084356,-17.853744909999318,-63.38819726489603,-10.216894940765387,6.000000000000009,-4.04837894380398,-0.536581354097447,-5.861005641340935,0.07613350373767235,-0.41129707950843586,179
-33.62938625502467,10.500795512681595,21.831831645423733,56.37942324282669,23.2678984227055,10.059510578973093,-7.010294436654066,-64.57206122603033,-10.095493123384095,6.000000000000009,-4.076223090475511,-0.5564249056104519,-5.929494370921373,0.07947829825177462,-0.4188383454525728,180
-19.5179457734495,9.059580292454333,7.824549748645138,57.14430055261767,9.831820011275596,9.552290134957971,5.169654111023332,-65.74716030129963,-10.91206223810675,6.000000000000009,-4.095316718895688,-0.5207971006026132,-6.043484392406268,0.07777627931624088,-0.4290206204512758,181
-1.7907865372685017,8.43351698597678,-9.856839767910214,57.82914097854281,-3.924117523021434,9.827189961604276,17.37902925816895,-66.93614684835453,-11.126037178666614,6.000000000000009,-4.065300314989253,-0.5000694703936942,-6.201290349156161,0.07798771040467316,-0.4369644632325771,182
13.519067782591966,9.576387401697318,-22.94584598665771,58.49719174909827,-16.063345915958312,10.726538058588993,28.011413982681276,-68.15454037928166,-11.22057467034581,6.000000000000009,-4.055501313487198,-0.49425198349761706,-6.329534520982136,0.07939427484085525,-0.4448525768232575,183
28.61533950486277,10.271336750848187,-37.952782176690334,59.277112983547305,-25.227046604885604,12.094189019994403,35.70649990083206,-69.43579276382096,-11.766654944083163,6.000000000000009,-4.040267058300448,-0.4426541111180809,-6.3902800598865594,0.07453928319908693,-0.447690847671356,184
37.35296573804347,12.32195127423104,-44.52029551667195,60.09705412785309,-28.63525903642601,14.635358570588199,35.704793758939495,-70.8399212344972,-12.588523082355062,6.000000000000009,-4.014081392543534,-0.35003683213144077,-6.45993923012465,0.06501014446230491,-0.4501460696388195,185
46.661665417458025,13.918991795876284,-53.76927105324193,60.990356112718814,-33.20234088577009,16.239765277325535,38.87344286072743,-72.40624348209967,-13.710313640956578,6.000000000000009,-4.004237629301741,-0.22440364930440324,-6.5287497487829675,0.051589398778449876,-0.4545845331125212,186
50.3699955606534,16.22239756479422,-55.413132956722585,62.00441752544351,-39.48162392536291,17.10320453002944,45.733256101848234,-73.9704186529935,-14.454072800307541,6.000000000000009,-3.98281732649717,-0.12704892521612932,-6.533098274762812,0.040396246842173016,-0.4530666195135386,187
56.15188245067303,17.972585115692773,-61.128715887302235,63.095480439901635,-41.78509285783858,18.9892055987155,46.689200698526534,-75.51964453300853,-15.554877811678086,6.000000000000009,-3.9960783536531204,-0.029083216003285506,-6.531708478896206,0.02929735305723533,-0.4551210838677586,188
60.45349359415591,19.74622722420665,-65.29796942516413,64.30358188507515,-43.63182950192467,20.860754269554125,47.15427219028454,-77.07541932399445,-16.285159020535872,6.000000000000009,-4.084021287926223,0.047538301213929574,-6.588689250776639,0.021550761246802254,-0.4697185494689635,189
61.08762464989387,22.01080119840429,-63.84606872061148,65.6036550820366,-44.77117275692282,22.758688740012495,46.94309214572716,-78.65479442927953,-16.75650441738627,6.000000000000009,-4.230907266092345,0.14621275363258412,-6.636665869390641,0.011458564640120695,-0.4908516967129465,190
64.14671918135463,23.71441785885967,-66.70262191988654,67.02466401649586,-48.0606809475191,23.769051181817563,50.66312094823243,-80.26663704058869,-17.247785889262087,6.000000000000009,-4.439293749758472,0.25222251427400527,-6.677841210679488,0.0007593736092994127,-0.5189790211640233,191
63.81247933587859,25.75912992331532,-64.30622848262395,68.57039777756081,-48.80571063852994,25.694401680688983,50.02121038446458,-81.81968947986284,-18.014050893958995,6.000000000000009,-4.7012363980461025,0.31260024800330033,-6.772302003615405,-0.004111772142568931,-0.5578182558774447,192
65.84354885319613,27.257520458563594,-66.17301639460997,70.20752673293613,-48.929276691724894,27.501913390717583,48.7855562676776,-83.47412047443744,-19.076567893991147,6.000000000000009,-4.967248062046393,0.4335393516479244,-6.831647615820276,-0.01640944353353892,-0.595427986141714,193
67.75855684125274,28.627518555555152,-67.86986230716668,71.96287348391981,-50.88660677284864,28.375371472754704,51.08774973620193,-85.2713322823417,-18.980520590008222,6.000000000000009,-5.3050933747213875,0.5487580389349676,-6.824127999307321,-0.027795071849882252,-0.6360535705238043,194
67.0648711240483,30.29485494950364,-65.17804673460155,73.78532738072686,-50.19699495998158,30.24009855407724,49.16662643348094,-87.12035080355038,-18.237346420726546,6.000000000000009,-5.723731889790141,0.5887020304430698,-6.7866678849410835,-0.02967895233837144,-0.682769102280599,195
68.48578242983398,31.222155740408134,-66.37757097358494,75.77463435402787,-51.64220529000174,31.156088411090455,51.03375229737902,-88.93705360411735,-17.731831353712085,6.000000000000009,-6.129248955758645,0.5924523837531225,-6.738138477981446,-0.027416569358761956,-0.7259992303099814,196
69.66798163095876,32.05544250444705,-67.4784692504442,77.83380228196931,-52.573917164827776,31.94300209328367,52.464217657582225,-90.77510521364859,-18.178888453738917,6.000000000000009,-6.427829334130295,0.6746386402754553,-6.649609057861948,-0.03519475616484186,-0.7519935799414977,197
70.40184353945747,32.93891269129474,-68.418998630534,79.67230876923155,-51.36013650035203,33.19390003363279,50.95175138823577,-92.53245220747552,-19.33652956448241,6.000000000000009,-6.548843229915993,0.8219278672951624,-6.55881478359737,-0.05145457735499312,-0.7566685072149213,198
70.78286696384345,33.79274223270158,-69.21195037739876,81.29673194635288,-50.779968175397535,33.82546604114233,50.97364219614927,-94.18054323101785,-20.321244830826725,6.000000000000009,-6.536244411154536,0.9574307258419226,-6.472278924233904,-0.06679533257535622,-0.7460766579577437,199
68.38269216267334,34.971264204332776,-65.81548599223761,82.80956792804365,-50.1973025341677,34.39070251623257,51.090695749719586,-95.60399464382903,-21.60198834679924,6.000000000000009,-6.444589820117026,1.0376106107834175,-6.4327696579241875,-0.07625027104109569,-0.7316046185463733,200
67.89536648195046,35.51129615314838,-66.02076562727837,84.12455129116371,-51.82028322487983,33.87069499045201,54.94801228848859,-96.74152651558539,-23.88386361354271,6.000000000000009,-6.261929155383364,1.1279415295130502,-6.465343735150953,-0.08779582411586767,-0.7150756903091378,201
67.16638360747574,36.15386568823746,-66.06865977979469,85.02041970820079,-50.8431467769997,33.980327001524316,54.980899395513994,-97.78841145704878,-26.62337243785528,6.000000000000009,-6.011613212473596,1.2672163536257044,-6.587804652018764,-0.106359803991628,-0.7005656390533078,202
66.1023725787997,36.54960001845532,-65.81160741942804,85.70389771552865,-49.87277531440868,34.17033154523445,55.21579079427592,-98.43225904353578,-27.770673943652195,6.000000000000009,-5.717753292870178,1.311047555657597,-6.754596481320406,-0.11516884496663501,-0.6838161543572888,203
64.76839431163467,36.95190582272293,-65.25172703896601,86.01144002048927,-51.44442925998041,33.233297679552635,59.338285036791724,-98.85549991142447,-28.296634975873708,5.869141803546,-5.389017933589006,1.4225315153061884,-7.061112694699185,-0.13467271846569256,-0.6751768905706207,204
63.274035456026695,37.57426776582047,-64.5604587594397,85.70036833347703,-50.4018945816787,32.67165003478294,59.41705346862842,-99.3449724622977,-30.968710616514134,5.69401615133413,-5.037734173447951,1.624283908019523,-7.476747629490274,-0.16926919417996203,-0.6709945557222342,205
61.67355507748062,37.83121936394196,-63.74773634901357,85.1321207707638,-51.949260619051664,31.35093225942126,63.512016947107405,-99.63530682399113,-33.678857262664025,5.41053860881049,-4.6740486403605805,1.6366559245638928,-7.777350489010948,-0.17916438677406563,-0.6489351708351213,206
59.998063429941716,37.564503127559455,-62.765004704984456,84.58400840267451,-50.76785896129418,31.05125654331574,63.540379204646264,-99.5128481900672,-34.23316802160697,5.073843862243967,-4.345926902799029,1.463525316392654,-7.914393443339968,-0.16065031362036575,-0.6134666095520609,207
58.212130282506095,37.2946079686123,-61.694116687293004,83.7513546054371,-49.42379089591671,30.569858566233826,63.42649290385761,-99.13452174080331,-35.4417725981907,4.773011412529296,-3.9816309509364003,1.311998287111299,-8.034365258953223,-0.14469181342491652,-0.5702539784312104,208
58.42809936215823,36.20393483770622,-64.03748935952655,82.74552289752927,-51.0578384982471,29.16735978282548,67.61306649423426,-98.61589213850563,-37.87617777526311,4.47251576492925,-3.59894452565114,1.1729515554551158,-8.17347674033039,-0.13049698150278236,-0.5242365642883373,209
56.34302843330383,35.50515663011316,-62.40293301860462,81.71904943818765,-49.814580207077924,28.255436777421625,67.41236483578719,-97.91872615531521,-40.31891762186623,4.064034640495902,-3.2778339457364902,1.0233926190600746,-8.311043413365185,-0.11371821630342992,-0.4850539235255526,210
54.153908218082464,34.638532759586184,-60.55797266881479,80.6679034733648,-48.348701097749206,27.150047287436827,66.99846523125719,-97.20587405323485,-42.218015828101365,3.931206909423552,-3.0050992872790987,0.8812047609387752,-8.401130309938923,-0.09665337220399532,-0.4489027759767514,211
54.18662929653499,32.84352957133467,-62.42967416041987,79.65397632288048,-46.51947218365653,25.950752126111677,66.28023001690477,-96.42294913460776,-46.306469790090574,3.837252063307302,-2.728244133659234,0.7494597090151297,-8.389395136240344,-0.08025764888876999,-0.4063655164924153,212
51.80636557460037,31.75270643501652,-60.2772307556486,78.4558772731855,-44.549827252194554,24.481175983534545,65.3782152056339,-95.59746261307441,-52.04483508326512,3.778004010252927,-2.4279854399763305,0.6712937860223175,-8.41910178765777,-0.07219619953423737,-0.3629310948944593,213
51.4735475750905,29.876713424608557,-61.888913773561704,77.23589920256792,-45.91493527418991,22.270565573428726,69.46048056725373,-94.66595826077472,-56.94328080334497,3.7114348125968566,-2.0943531481041657,0.5928134965680102,-8.383512211722001,-0.0641012087817906,-0.31182111524913475,214
48.714078229375765,28.513197300906377,-59.357216649844474,75.98437156261458,-39.17843322481829,21.224041035202507,62.461711148389014,-93.69461744145633,-61.47687058905922,3.696748729716991,-1.7709176320868012,0.5088615395085788,-8.259679768147947,-0.054763635161554365,-0.2597674187226486,215
48.298156126289555,26.360331153199354,-60.79918068974211,74.74163568964212,-35.780648431134246,19.511698094651557,60.404541724329675,-92.6396428229603,-65.63762837299252,3.691358776966559,-1.4908580030515943,0.43524674463505386,-8.105686676188464,-0.04649350265893039,-0.21460493913535586,216
47.64333870654163,24.13743715101316,-62.00186584267878,73.47519260468582,-32.06092162892145,17.808737123717425,58.126485137796706,-91.41157211604072,-69.53285903374811,3.669094359272893,-1.2262661465628792,0.34997925419145376,-7.978997313269538,-0.03671885584955326,-0.17363173209714622,217
43.876084096044615,22.61944087433216,-58.34212351909269,72.08281263184026,-27.415039306584582,15.976017008928885,55.07823933566049,-90.12956416454415,-73.57817572951578,3.739517709837003,-0.9340271619059201,0.3296717474577046,-7.874263214448218,-0.036363579334236916,-0.13108082746100672,218
42.86067731786068,20.46054201520611,-59.242144845018224,70.54503420372689,-18.609531710459294,14.91341610598024,46.7866193637549,-88.73467951567136,-76.26851631749655,3.8463987014577437,-0.6743564474270048,0.3382126507055938,-7.70513980219227,-0.039260465655670464,-0.09347207222679185,219
38.20932372015199,18.81962848004896,-54.56983045879904,69.02297030352071,-11.1024189078293,13.825214457933807,40.46569739930109,-87.1709652701424,-77.32917973619699,3.8547539427186517,-0.4947118775866851,0.2706753774813649,-7.463766022022415,-0.030970310071860192,-0.0665575724126648,220
36.05283812756388,16.513747021330374,-54.20635781530131,67.55315857653751,-0.4711898432885182,13.80744852624915,29.644713231131135,-85.5126551301341,-77.96004863149972,3.896463364321186,-0.42534886960385315,0.2148552202619341,-7.240673930577602,-0.02368863367488731,-0.055324223613329664,221
29.922015609206216,15.039077925007811,-47.89143344271648,66.08730587341392,8.65041799134815,12.994833707198554,21.783631800454906,-83.8202424806244,-78.06620157299824,4.021510756108858,-0.3603432063963309,0.21961326316406424,-7.058932697436834,-0.02425760773146971,-0.045947809321299334,222
26.327559978664546,12.946330700326845,-46.11498132678877,64.54046112294301,19.235616640855756,12.521510125369936,12.434561148910197,-82.0731519558663,-77.27694356538021,4.101544109700229,-0.29877994010788267,0.24572357922492843,-6.905666082664744,-0.027377592883822174,-0.037706732916573824,223
17.18644354494047,11.874218626525163,-36.786095052384354,62.89981472615884,29.790409025572366,13.784948964760762,1.0390021094961004,-80.26626977859021,-75.63786899253326,4.115091288561296,-0.2516263515028953,0.20175087552491155,-6.812651057969409,-0.022155987695451417,-0.0312734041052923,224
7.266749474536444,11.136847531442923,-26.620734567343654,61.17881767347476,38.86676691698454,14.063903095943115,-7.077636980271057,-78.40254904302579,-73.55082912821915,4.223920216084922,-0.2572507477065246,0.19249384364510477,-6.707181597580947,-0.020722023474838206,-0.03136327564205225,225
-2.359620713012351,9.674752577922659,-18.834861296423178,59.501853800785035,45.30251369285284,16.039082114204767,-14.704979409146956,-76.37992791683341,-71.72980779230491,4.312300433097654,-0.31848552392658436,0.14057857614751848,-6.560066572459621,-0.013975374562288607,-0.03730608933031221,226
-15.705583362502503,9.719419281234389,-5.230246160899158,57.777420010584834,52.064282563667575,16.799029599372147,-20.70622706584415,-74.38565583356247,-69.0849135688478,4.336358924927932,-0.3801516757163618,0.0636518353483421,-6.472487184138484,-0.0047522983253538865,-0.04325934946836513,227
-28.271599717756114,9.153513285310476,5.382140103174201,56.024962648543195,57.95128876021864,17.84437562969271,-25.884216018518636,-72.32385657452514,-65.53605744604114,4.477241143987433,-0.43911246200449605,0.025596766238917896,-6.344194821025924,-0.0001393806194875589,-0.048680056365529335,228
-39.60529878759049,10.081384650106,16.908934717019157,54.18878958173369,62.67318742091326,18.99778259600088,-29.94831152270318,-70.18834532561907,-63.03933811951967,4.58331905338878,-0.5203775094946654,-0.10628015007535435,-6.126610941930537,0.014315566075084447,-0.054932284679727245,229
-55.79398167164224,10.601693987580985,31.123711232382867,52.684696607351924,64.99639704969604,20.01149124356537,-31.651738962359683,-67.98417978658323,-58.528568225476704,4.211312891681166,-0.5998324862671028,-0.4525895365979761,-5.705219327130153,0.047967072206656,-0.057389935191548794,230
-59.51257413416431,12.136290994731219,35.02412504320678,50.991823876990516,70.66458316177737,21.584356475173678,-36.945960366416635,-66.05137283904222,-57.154840707238584,4.433055780129351,-0.7476478598920289,-0.23842744581638978,-5.9271260993325114,0.028620294398438256,-0.07593457705925578,231
-66.33278463505857,13.813458628415663,41.58968453489702,49.45440279003668,73.61332887089702,22.94727906664845,-39.56396263313473,-64.08971460775717,-51.47158499140297,4.504506288538502,-0.9900008843131181,-0.41644678404867896,-5.764415862451777,0.04684120563293557,-0.09733843955907119,232
-72.01598544587316,15.817331261942483,47.17589362160479,48.0231724870225,75.6994410736741,24.25258818306677,-41.41902328292133,-62.18577399075892,-43.95800543743388,4.640901039737613,-1.297661723284453,-0.6687379877657611,-5.56350301938751,0.07096783255596492,-0.12267891835623042,233
-77.35292145629111,17.24910720186459,50.05537861663015,46.53294328121375,78.02108598173466,25.813231797266283,-43.557681049770395,-60.357169566754884,-39.12266900198126,4.939472676822466,-1.5836440648809595,-0.7726350010266726,-5.509475139810974,0.08153312772545353,-0.1485168388026996,234
-79.6434272426923,19.24184198235019,52.313917927717114,44.93276693853105,79.88905948629545,27.424015552092232,-45.322438052127765,-58.570024432469395,-34.42869271216524,5.331958701596757,-1.904575288648118,-0.8574260967335403,-5.446362660713909,0.09003636760996994,-0.17696831206341496,235
-81.29242827844885,21.287723039845968,53.96080363942762,43.47037893695684,81.58044968835898,29.130776468900002,-46.978335049319654,-56.8448716479985,-30.612326201816387,5.855448099196139,-2.2387348956731485,-0.8963794450097027,-5.440154786348779,0.09514593596417398,-0.20831908128322904,236
-82.33781730583001,23.457389816522376,54.95700552161843,42.20791021803753,83.2356708988478,30.917226873751535,-48.62248782215239,-55.27089379292958,-27.41993015545951,6.000000000000009,-2.542645623769438,-0.9235558127496609,-5.519345141132349,0.10072436485209543,-0.24043942170945598,237
-82.82046009005279,25.715446783449302,55.59202342509181,40.941473126479586,84.85608111844677,32.74440707791969,-50.31961270743301,-53.82431128535187,-24.61840115234008,6.000000000000009,-2.86034420557954,-0.9566004637804254,-5.646737009414878,0.10814699729168846,-0.2770408411354028,238
-84.41182534130647,27.510885189586766,54.87966866561178,39.61581899345489,86.14564699956968,34.608887976696955,-51.69514769470555,-52.412381066328834,-22.419841376417157,6.000000000000009,-3.156884414217683,-0.9723151106050198,-5.746709981350237,0.11340391025280526,-0.3115434721136242,239
-84.44746975405658,29.651140032644722,54.98194132417628,38.269855195442084,87.98829535264807,36.30001853315888,-52.44099766178411,-51.059811450375065,-20.946652557877194,6.000000000000009,-3.4012111497281197,-0.9454889247403075,-5.871226969442689,0.11476570979134036,-0.3433794701684793,240
-84.35225716823425,31.769308279270124,54.9308849641261,36.91234996149994,90.15419273959827,37.85790451774516,-52.74098224572321,-49.72365162572914,-19.911736795707178,6.000000000000009,-3.649520822964694,-0.9120920170738502,-6.052486838150394,0.11675248405077912,-0.38025269740015455,241
-84.35773457163491,33.9188891123613,54.92296944030485,35.58170406184362,90.72440959859159,39.87523078604122,-53.819856395204965,-48.24732279688879,-18.66673425744557,6.000000000000009,-3.8443527345198656,-0.9078075661822939,-6.186218728774162,0.12048236787375838,-0.40961926721360925,242
-84.27831461931513,36.02024443288158,54.78100059175903,33.98636554507853,92.2992458862292,41.34886937327018,-53.24075895797711,-46.93287320831449,-17.054160376954833,6.000000000000009,-3.9658177032563198,-0.9432692935876823,-6.277311083987096,0.12721997604863391,-0.42867994407200244,243
-84.12980328019302,38.02867093241302,54.6172545082537,32.33361349268289,92.8114412723337,43.449494005161384,-54.075299760778435,-45.74754564772084,-16.210647483496523,6.000000000000009,-4.118134342657897,-0.936940895183099,-6.349355420377735,0.12920847536508204,-0.4504834842939002,244
-84.89240065233375,39.74330147195378,52.89137988244912,30.907905508038827,92.84154632485034,45.403606994498624,-54.45680777338097,-44.26741449566283,-15.750128664899165,6.000000000000009,-4.311029038505534,-0.9318874062083823,-6.350479066623535,0.1298914733470363,-0.47204686894236786,245
-84.71802471383883,41.763198042205325,52.72006775948599,29.065419882559144,92.73075356203326,47.23565320226241,-54.61340539773171,-42.89671225468676,-14.80466202439822,6.000000000000009,-4.443729875058646,-1.0156414541135195,-6.338556879299254,0.13971249420427828,-0.4854021744460272,246
-84.8506801354403,44.0923804391013,52.745088476474514,28.29882286208962,93.55415696895626,48.766041758843265,-53.1017417275014,-41.77872524260444,-14.080008034651224,6.000000000000009,-4.574944846383491,-1.0570184489891086,-6.365644507607228,0.14586387505277212,-0.5018273181795019,247
-85.26035616604058,46.61697138287577,52.96936883779694,28.29882286208962,93.52144036388347,50.84954854000962,-53.27174866389253,-40.623013116196475,-13.455447085888425,6.000000000000009,-4.712824183214233,-1.0250456645172967,-6.378578214527788,0.14353351813463872,-0.5184478674898875,248
-85.6251482567436,49.142550287570494,53.12276040384986,28.29882286208972,93.56695214520005,52.93007653250802,-53.46651732535359,-39.518270436421886,-13.098282374446729,6.000000000000009,-4.837645070774624,-0.9892022369281076,-6.394356469624173,0.14075490935574325,-0.5339318384655494,249
-86.70470918157693,51.339608470294515,51.405608549114056,28.298822862089697,93.41195784973401,54.96678025125245,-53.36613327009173,-38.42455004185959,-13.07091022195614,6.000000000000009,-4.913608905940638,-0.9697635091614065,-6.297282818471378,0.13650772721214555,-0.5344615980528243,250
-87.1383610489025,53.8228641517985,51.58756005358748,28.298822862089672,93.18778733792969,56.98299172355834,-53.209653923957035,-37.10313128513436,-12.991295753492347,6.000000000000009,-4.986134053055953,-0.92189579343339,-6.205887527635286,0.12935146905970163,-0.5349981346769337,251
-87.57196341414557,56.437729608446475,51.787006990096394,28.298822862089594,93.73907826604682,58.608750317851516,-51.11818183635452,-36.23665258415095,-12.591181873712868,6.000000000000009,-5.092108016572525,-0.9947850628779671,-6.086670676140981,0.13470411379308828,-0.5357769892565554,252
-87.93427629975584,59.025450166644795,51.888350030660874,28.298822862089697,93.77082521886273,60.694047129085725,-51.03457793315005,-35.5855333265921,-12.215110078959999,6.000000000000009,-5.1722427134843345,-1.0831731007153538,-5.986363406813177,0.1417394064682446,-0.5350158912211415,253
-88.2385541606803,61.56393054166587,51.95794365942385,28.298822862089697,93.63346495439076,62.72512635378809,-50.79301409878681,-34.75125687164542,-11.997832754310876,6.000000000000009,-5.242249816560869,-1.1231124798946817,-5.850675987979583,0.14238100001322243,-0.5300512664840876,254
-88.86538601565724,63.79157160808051,49.833329141153236,28.298822862089697,93.96476412734917,64.3424809761846,-48.456374028665294,-33.99968506108746,-11.483430108243155,6.000000000000009,-5.418083632237501,-1.1516881453564505,-5.721329395064929,0.14243005148099938,-0.5360402779834385,255
-88.94388677914107,66.30992808510733,49.801890522973515,28.298822862089697,93.79988759878756,66.41746083939955,-48.22748243799334,-33.3591922219248,-10.889147043564943,6.000000000000009,-5.629839660327125,-1.1620323793334324,-5.599962243214025,0.14093118334768853,-0.5456349992276683,256
-89.04406711074057,68.7569971299651,49.827517652415615,28.29882286208985,93.57808347997293,68.50105192072922,-47.86190357923798,-32.78133834673338,-10.534806939998562,6.000000000000009,-5.8122215185784984,-1.1607938349065041,-5.403895743266904,0.1358360210543199,-0.5441315104926296,257
-88.88716400015808,71.12909016959401,49.69783366190678,28.298822862089594,93.62613633100787,70.0501454268369,-45.321073263415805,-31.894261331882337,-10.46163548723608,6.000000000000009,-6.071864575907383,-1.116034487753606,-5.28219493413802,0.1292334345638041,-0.556379780848462,258
-88.58502875698206,73.51348673661259,49.53675499045313,28.298822862089697,93.04547923587576,71.8885145756617,-44.953485438455054,-30.90958172116847,-10.33130745196305,6.000000000000009,-6.4499786363893445,-1.0849060049337715,-5.184782247851249,0.12519499289886454,-0.5809451786469585,259
-88.13183089428337,75.85352086708275,49.321799019582855,28.298822862089647,92.54484976672798,73.74634662175875,-44.70040247458611,-30.099239999846933,-10.01602137145327,6.000000000000009,-6.933220382813888,-1.0580145493614546,-5.135038303776517,0.12338324200444697,-0.6193897049288152,260
-87.61982765971014,78.11140563205409,49.15950381578975,28.29882286208962,91.87280319177442,75.56499592530662,-44.34952202185507,-29.10915098825945,-9.756011467144434,6.000000000000009,-7.464957729074964,-0.9818843166732086,-5.0339693755769055,0.11587442503107218,-0.6550134215492778,261
-87.1185213754799,80.33616620431359,49.0688989620757,28.298822862089697,91.52846294173902,76.99339506974326,-41.673433732411205,-28.298822862089825,-9.516995806765525,6.000000000000009,-8.040916116641899,-0.885120606666442,-4.8837983708670585,0.10550922673235019,-0.68592958491957,262
-86.6609709454214,82.56471731642525,48.96008682676396,28.29882286208985,91.20902242348173,78.96131917701636,-41.34984555370953,-28.298822862089697,-9.569840747505202,6.000000000000009,-8.548161739226995,-0.8193395777936159,-4.7483258516465705,0.09816089781104212,-0.7101443688756085,263
-86.68960742991901,84.32827988565028,46.53557201682829,28.29882286208972,90.8718655047942,80.77331468936761,-40.97714163597811,-28.29882286208972,-9.108024421105252,6.000000000000009,-8.918246621359488,-0.7877327931912709,-4.61515742653783,0.09332666426878464,-0.720933948786362,264
-86.38915426274534,86.2736169138197,46.43483452756628,28.298822862089825,90.66561838558326,82.52541276030796,-40.63044170036718,-28.298822862089697,-8.576994869216229,6.000000000000009,-9.230378342114994,-0.7294759079334197,-4.486237427992111,0.0863492128066244,-0.7261227514401793,265
-86.11323887544663,88.0271632458706,46.388409207696746,28.29882286208985,90.44222512266305,84.18206105174222,-40.25100019893797,-28.298822862089697,-8.57526557769718,6.000000000000009,-9.530888940742038,-0.6166765741431448,-4.32217383801741,0.07449428195327656,-0.7232820100788789,266
-86.20175752735233,89.25933155183634,43.94755000382134,28.29882286208985,90.22993580130513,85.67366820121585,-39.90543004313764,-28.298822862089594,-8.789425913627465,6.000000000000009,-9.726026226848806,-0.5168568653375365,-4.198533053359295,0.06475443273132424,-0.7176401390490544,267
-85.91510349437398,90.7442662587469,43.85993949776114,28.29882286208985,89.94650043285127,86.88974723367112,-39.57414669663329,-28.29882286208985,-8.641504804878002,6.000000000000009,-9.852041545148397,-0.49904337734698845,-4.08994643839691,0.06147265535211146,-0.7084464900900622,268
-85.72167505416584,92.07537959126256,43.844238286734395,28.298822862089697,89.38238613118888,88.126756783755,-41.61795310343528,-28.298822862089697,-8.244073924907637,6.000000000000009,-9.939276687214084,-0.5765094472768016,-3.960173385174337,0.06440285789096113,-0.6920682139655995,269
-86.01871939644302,92.76970981284325,41.46475439621997,28.298822862089647,89.05829491153169,88.72136574176032,-41.340820252281375,-28.298822862089697,-7.991611768809016,6.000000000000009,-9.893053238522194,-0.684114723118461,-3.8550330801460264,0.06930797778920181,-0.6703136602546795,270
-85.92951075750774,93.57987823890154,41.422571989356676,28.29882286208962,88.8261165007485,89.16363529055431,-41.143320688587046,-28.298822862089672,-7.859813455399827,6.000000000000009,-9.732487701517204,-0.7443942536755201,-3.7942074963614725,0.07152813683009021,-0.6487014501264886,271
-85.88283975731538,94.18141132424819,41.40367214672867,28.29882286208972,88.76631040127988,89.40145495772062,-40.982391397764914,-28.29882286208972,-7.84313569480049,6.000000000000009,-9.432715254588489,-0.8090085083820705,-3.729853193974983,0.07352282123031607,-0.617546297505399,272
-85.5447103852224,94.86940143782701,43.82937287446306,28.29882286208972,88.73876067740376,89.38332737898287,-40.81489406800692,-28.29882286208972,-7.749243615353629,6.000000000000009,-8.99859659851609,-0.8352841888797611,-3.630180699685952,0.07176243381034716,-0.5728432714362309,273
-85.22475456577448,95.3107323008031,46.34871552776056,28.29882286208985,88.31647633079581,89.50812465347609,-42.959867615954494,-28.29882286208985,-8.256065875570453,6.000000000000009,-8.555980139716459,-0.8854404601305458,-3.470996806630556,0.07003453230849913,-0.5202935240425212,274
-85.34040411088823,95.15674718404692,46.4630342725429,28.29882286208962,88.25262503206058,89.04306687462085,-42.801036842824914,-28.298822862089825,-8.631095559763072,6.000000000000009,-8.11543842870916,-0.9285890153513023,-3.343752728863109,0.06862884670407783,-0.47497582391564097,275
-85.52547515989393,94.72466786078574,46.53130255037162,28.29882286208962,88.28622345543829,88.33022481440817,-42.71041799896791,-28.298822862089825,-8.82778847870688,6.000000000000009,-7.558109688799691,-0.986408223868262,-3.2718488914372705,0.06919413879710558,-0.4322977783038646,276
-85.34782442086855,94.41739096755042,49.01554379943801,28.29882286208972,88.31381579415545,87.3902130907387,-42.57886825649184,-28.29882286208985,-9.00631943564696,6.000000000000009,-6.910420434893332,-1.0515638031976953,-3.1696088166704235,0.06920293180190983,-0.3823596463925158,277
-85.52620719364141,93.54321845038811,49.087139184123544,28.298822862089594,87.95739466640926,86.70273603552896,-44.783877050925796,-28.298822862089647,-9.48976632413894,6.000000000000009,-6.26604974906044,-1.0758918838359395,-3.0770308629645315,0.06718063583846727,-0.3361595157903819,278
-85.69336396203987,92.40269454206053,49.13412927347286,28.298822862089697,87.99257587465065,85.57289219977503,-44.629153663702255,-28.298822862089594,-10.768894907604656,6.000000000000009,-5.566762216343523,-0.9794908266485618,-2.9808112392385433,0.058739836000373295,-0.2890764383838083,279
-85.3784811984766,91.38278589565317,51.5504816166183,28.298822862089697,87.92853361740617,84.26058304275489,-44.437045273277896,-28.29882286208972,-12.269073820272965,6.000000000000009,-4.959390991070382,-0.8753166530448702,-2.8707940687622786,0.05024883258378378,-0.24791384049200801,280
-85.35717958453696,89.89771332164882,51.53268061847042,28.298822862089697,87.39603457254233,83.13643689762975,-46.5870071244436,-28.298822862089697,-13.411966664918028,6.000000000000009,-4.500301709939416,-0.8312806790439686,-2.811172507319801,0.046327051870447576,-0.22017337295551476,281
-84.97228056078868,88.57154673840337,53.84117323382587,28.298822862089697,87.2481499746704,81.55738251064761,-46.364797235762076,-28.298822862089594,-14.351754242794321,6.000000000000009,-3.983767882357308,-0.7851531052636341,-2.7469928517510382,0.042308723463230974,-0.19033338099221506,282
-85.0310993973998,86.71739835126411,53.72967720074388,28.29882286208962,87.19666409531274,79.90789470575871,-46.13314580253157,-28.298822862089594,-15.55600945109122,6.000000000000009,-3.3933456061030265,-0.664362521409759,-2.699044466970459,0.0351104586345095,-0.1592434748872448,283
-84.62040953899574,85.0686172420253,55.920701107985565,28.298822862089825,87.0876175997058,78.08540213465112,-45.8654373900321,-28.298822862089697,-16.448235174134517,6.000000000000009,-2.8834538963790983,-0.5803034488658724,-2.6512543540455153,0.029967292651024224,-0.13287121805114038,284
-84.6565591909874,83.10014202794376,55.72664714517328,28.298822862089825,86.88534905925637,76.81859863726226,-47.933627941129956,-29.31387321997956,-17.478668289693733,6.000000000000009,-2.4049715656317687,-0.5501006502297289,-2.643593351743417,0.027956702161141177,-0.11040490956020672,285
-84.68607827583197,81.01884965880386,55.46068391941896,28.298822862089697,87.4067424202723,75.36713315577937,-47.79527936790495,-31.1542917928006,-18.326412925857525,6.000000000000009,-1.8773133896315575,-0.5338148129931948,-2.659617810380931,0.026807435873969988,-0.08656837646562858,286
-84.15439120625659,79.09270382441794,57.44334679400216,28.298822862089647,87.88920207999831,73.872400218586,-47.628933596505696,-33.0857171370222,-19.10140639185415,6.000000000000009,-1.4238146045589741,-0.48326170823865405,-2.6461594020294816,0.023837187471618084,-0.06523274424355886,287
-83.99249570427948,76.78494260228841,57.08407020158617,28.298822862089594,88.29358972977137,72.25201630244395,-47.468098608000545,-34.81708921616695,-19.817090105691545,6.000000000000009,-1.0364065591967264,-0.40291195821337744,-2.6433388095266666,0.019688029833334907,-0.047374190772361914,288
-83.90929557523161,74.43274857318183,56.698033487233005,28.29882286208972,88.20842921289044,70.9233725468686,-49.45438908966411,-36.579698229527544,-19.769306547838376,6.000000000000009,-0.6184695313942922,-0.37195092469139307,-2.6552642551101417,0.017896511745828445,-0.028253324797492114,289
-83.37229329045526,72.26732294384159,58.46022075431702,28.298822862089594,88.5276757237781,69.02697105846657,-49.22027945402968,-38.20621089098022,-20.22011643217216,6.000000000000009,-0.183460803354558,-0.3324202556739835,-2.699514944875645,0.015860181834591095,-0.008271767369509346,290
-83.0820334928569,69.71724362517539,57.808893759764835,28.298822862089672,88.73921469589934,66.95883471580991,-49.00337629827198,-39.600740143131326,-21.312910260256498,6.000000000000009,0.19374141616796908,-0.28086133266436936,-2.811037331883967,0.013541106224858315,0.009839495577770365,291
-82.78636606563724,67.14045403687216,57.154330963535735,28.298822862089594,89.10143116930467,64.82094597121625,-48.83394287612056,-41.20301666169303,-21.669821399084405,6.000000000000009,0.5442470777318316,-0.2941007399929518,-2.898037286960632,0.01417407972863348,0.027893382640638554,292
-82.57695891491981,64.51351128535211,56.57827933561099,28.29882286208962,88.89788413782229,63.102141219635456,-50.60051569593102,-42.99105273335302,-21.645732903064047,6.000000000000009,0.9128289571487785,-0.35097575198787273,-2.8968577017661215,0.01657353059474734,0.04658505857920665,293
-81.85871321560393,62.02804718683382,58.159117517087545,28.29882286208962,89.0813153578193,60.70862991750574,-50.12252915635349,-44.41940729238631,-22.09370936114184,6.000000000000009,1.2674482242262126,-0.3647776131586658,-2.8050407264796386,0.016337055257169053,0.0624730184223109,294
-81.57444492929841,59.19484655161781,57.55924693012854,28.29882286208985,88.30198656919687,58.72830620971237,-51.3811073952097,-45.837460540170376,-22.241638716158377,6.000000000000009,1.5621377596153674,-0.39200113827089983,-2.710527897524498,0.016796695658173055,0.07433022351968106,295
-81.05305374791432,56.28951162195359,56.6441752067281,28.29882286208962,88.39820073218155,56.20442183538853,-50.92316933025717,-47.23048984754667,-22.82201085931836,6.000000000000009,1.8504186267487939,-0.3645229321702437,-2.7709874789537148,0.015467498858489045,0.08991379662160424,296
-79.8687527586173,53.62280873284553,57.66756145606032,28.29882286208985,87.60503176721184,54.114077916942875,-52.244763438787125,-48.35021099975521,-23.94588866859301,6.000000000000009,2.0798961276598,-0.31401986521432496,-2.8565141216224594,0.01307410271656476,0.10408700217646287,297
-80.07713839763248,51.73292397054297,57.24460258709786,31.166530705470656,87.44630185495754,51.37409701252284,-51.62401584780035,-49.3563263007582,-24.26608204837099,6.000000000000009,2.2238238504536474,-0.31109176259339727,-2.8790689495115513,0.012829038303333396,0.11214698861067209,298
-80.23313722564828,49.859122264094935,56.86420345130537,34.17244083148265,86.30677677915666,49.12184736691494,-52.64803060569596,-50.261751135175714,-24.508548530997025,6.000000000000009,2.282863116868905,-0.331668601524348,-2.893601821560671,0.013844328464159636,0.11572579757750397,299
-80.20609851263075,47.80386046761291,56.46045719813695,36.530478148048125,86.04366618034929,46.132389458395906,-51.9559407817881,-51.21130097545202,-24.201786218271756,6.000000000000009,2.292527029489622,-0.4270779374667042,-2.866459912420472,0.018504887295101715,0.11524060111867761,300
-80.06148524381682,45.54812620553361,55.981684232841864,38.63754729266951,84.66857333822797,43.74120174287744,-52.684917598824256,-52.1420372319433,-23.85287907214109,6.000000000000009,2.2943990313678513,-0.4693658761932534,-2.848088465481325,0.020505372353246974,0.11464457894347845,301
-78.89588751026646,43.588006125964355,57.09389239187098,40.771717520979465,83.89511411449115,40.96349085115496,-52.18855384016979,-52.96647887488345,-23.71911313153632,6.000000000000009,2.243516658006432,-0.4688204294112289,-2.8226731067250515,0.020381764468661915,0.11110695226103848,302
-78.50532902123477,41.16886165267128,56.46872411796829,42.57139339412857,82.69053696172541,38.22965987787196,-51.75340540573144,-53.77460684876151,-23.424640121544105,6.000000000000009,2.208220982987217,-0.5385977875104447,-2.7516459985590576,0.023328838909186907,0.10668280085993156,303
-78.25453676885537,38.75860214645274,55.98587190996902,44.33990128825759,81.29678660948358,35.53362416624674,-51.07583346869594,-54.528664136867285,-23.0795958963348,6.000000000000009,2.1945149673628848,-0.6057858611168221,-2.6532799450712665,0.025710625432828794,0.1022870400043336,304
-77.91672958440165,36.33996836116639,55.43200393554379,46.22106612215121,79.82019085050943,32.8277523447873,-50.38309915791473,-55.171129391117454,-22.93186974478737,6.000000000000009,2.149597118565204,-0.6472508476217682,-2.6170611863528177,0.027332545686833548,0.09887231674801761,305
-77.11630812412042,33.92630412582474,54.65740531505634,47.822881695808036,78.39641269342552,30.053538371395057,-49.721139971126256,-55.864996881664766,-22.77003496471072,6.000000000000009,2.142084091260384,-0.752716515006539,-2.6442184356917946,0.03246989203797353,0.09966980420305577,306
-76.00238915504819,31.571700041062893,54.13341524688965,49.20154907582441,76.65173528668826,27.295803272943704,-48.68169621509734,-56.58993995187086,-22.90880588520331,6.000000000000009,2.149135889732573,-0.8958089306788318,-2.6321529584243017,0.03890206494164117,0.09968687707820552,307
-74.700574702757,29.088912092133974,53.43534543946261,50.40604328356545,74.27987770606299,24.592315861771358,-46.983614675597366,-57.16895099156574,-23.125810719727983,6.000000000000009,2.16183990540485,-1.0069934282647475,-2.591849850589962,0.0433610493326217,0.0988362680414461,308
-72.96057161617833,26.512916892759698,52.30927713908491,51.47478641530945,71.59165378866598,21.95974065814648,-44.998193514725685,-57.69067953518383,-22.93379610820623,6.000000000000009,2.1560432285594127,-1.0760152020238234,-2.5832019267301796,0.04634351723919584,0.09831177427042234,309
-71.04509755613753,24.005039975130263,51.001663965360905,52.60894408834058,68.44164574933683,19.407395972593793,-42.53953683701385,-58.26060484334177,-23.10053667200975,6.000000000000009,2.144339659883268,-1.1606530224283464,-2.5548510744110002,0.04964708558170439,0.09678332131316633,310
-68.80198003445919,21.551091670369605,49.3938313087949,53.701460082171984,64.45572288135469,16.927717498678298,-39.26375945142763,-58.90458559598342,-23.654601510794286,6.000000000000009,2.097547236893022,-1.2711238440739572,-2.495591094624192,0.05340293975606281,0.09257824798658634,311
-63.63929120503655,19.7145101934684,47.21392297499052,54.65197628638369,59.069073701109275,14.62921944946881,-34.585222450934815,-59.497911682443394,-24.288018861045988,6.000000000000009,2.0318509803087963,-1.3600471320194556,-2.4599052397573673,0.05654712811961932,0.08849685957966134,312
-59.379253379849544,17.250661934787704,43.601925336631986,55.509328570378436,52.49133937354212,12.551522990427522,-28.735699659584153,-60.19520358203078,-25.015666451815942,6.000000000000009,1.9378182047094858,-1.4081033036556916,-2.469743178556875,0.05892291724261577,0.08484339542644015,313
-54.94574882048067,14.489561607905328,38.718569734623934,56.27035844290318,44.56640125683406,10.73743411458022,-21.53223988503876,-61.122570608859995,-25.086076099531894,6.000000000000009,1.822843379544352,-1.4653396143814656,-2.4718568868018336,0.061546164394986204,0.08000637085859771,314
-44.862227510156735,12.94315564090812,30.929961832151278,56.82961232309303,34.26646984806449,9.108980088986048,-11.688992610183481,-62.0623504601878,-24.61686687542276,6.000000000000009,1.7338740773089483,-1.5286371050238354,-2.5199421089034346,0.06557812993310533,0.07773457798970074,315
-33.813809898698146,10.888105605873706,19.92057322852434,57.31054854799082,20.49396066620927,8.799114818365798,0.08848188818515462,-62.941779459185625,-24.700008404466328,6.000000000000009,1.6432715898060624,-1.53565685759309,-2.5610957450040677,0.06702199258963977,0.07498279619418247,316
-18.12909553753962,10.307577759460614,6.544248821461733,57.81700942962161,6.960880566611866,9.064001244706752,11.612881403348055,-63.93535848815034,-25.305089664285763,6.000000000000009,1.5251917341011787,-1.5165890208268629,-2.5477364680932233,0.06594566652799776,0.06931232766170801,317
-1.3827287399059351,9.485433850765125,-10.03706615306146,58.30567214236562,-8.121860720503856,8.660080046169448,26.73875707621254,-65.10094635002264,-25.776950602256324,6.000000000000009,1.3820424257716175,-1.533179335342604,-2.544691007790241,0.06674306469937001,0.06288446966566576,318
14.248927010328595,10.547110015025986,-23.320477199472588,58.735539299842344,-18.73264076046458,9.694776424368955,35.252434174673645,-66.3441654285043,-26.11266478670649,6.000000000000009,1.2131948222967495,-1.5263204429709492,-2.564997276641167,0.06712188681699979,0.05583106939825284,319
29.58495333412158,11.27987017943998,-38.42285043978102,59.237969890358535,-31.48072078041761,10.315327538544715,47.99994986745985,-67.50740609973245,-26.114398610899357,6.000000000000009,1.0488188638704508,-1.4920248368637536,-2.546589850102159,0.06528275251006907,0.04807960892600668,320
38.82133454268579,13.536517951481855,-45.34875159506087,59.70615430018259,-36.81929503736224,11.879018966608337,51.327067299189885,-68.80747393091455,-26.39762648113845,6.000000000000009,0.8913500583444923,-1.3815766111481755,-2.594805890760402,0.06165248822312222,0.04177347949491307,321
44.97495254891828,15.970495857806027,-49.14084895908125,60.23571871787214,-45.30329826397046,12.812249298067824,59.66406080803857,-70.20194461281935,-26.182171917197223,6.000000000000009,0.6279040851069805,-1.3234698142960888,-2.6347453558077856,0.060188597633478044,0.030264357992877827,322
52.3035230675152,17.566950898166073,-56.078595726523815,61.04744248450858,-47.7831831680731,14.716415786071416,60.023143042772475,-71.49318827650258,-25.589032726825675,6.000000000000009,0.3145968878609344,-1.3223598611907597,-2.561638940590354,0.05879856389942092,0.015382396816875109,323
55.161618342103935,19.881487003887287,-56.588441361199884,61.99208376928222,-53.73072946671406,16.03385143943773,65.80238301886594,-72.81909220531232,-25.14815797570749,6.000000000000009,0.033148396722674535,-1.284549029712558,-2.530022857300684,0.056680859153921744,0.0027156169429775716,324
59.907793127875486,21.73520093365297,-60.99383985789917,62.954673286725765,-54.42344906577412,17.75057677357744,64.41727617997759,-74.31864668880645,-24.869121420956528,6.000000000000009,-0.2659321882327368,-1.185905939649303,-2.511923776411735,0.0522386619436217,-0.010515507322313267,325
61.38348904775461,24.013846257002353,-60.12555285998951,64.08766425342117,-54.61302210604906,19.542627322175417,62.56408191228772,-75.87448663201955,-24.16332632048724,6.000000000000009,-0.633233281808693,-1.142097272815006,-2.448108427136331,0.0493718042118548,-0.026006921838770052,326
64.437192513601,25.613721779860114,-62.78639568880192,65.41338299118856,-58.188508962594106,20.63047869687838,65.9223161393299,-77.61250343004795,-23.448189631204492,6.000000000000009,-0.9971118970573979,-1.1367665638412954,-2.4615282255400897,0.049756792922636975,-0.04177993940762196,327
64.53111212222126,27.501669325465297,-60.70344068652497,67.00260425050396,-57.82046995655875,22.318273818819353,63.639502023777396,-79.35980825346235,-22.437355129469925,6.000000000000009,-1.3077617449252399,-1.1846012771098493,-2.438721291223985,0.051611287427521024,-0.05458328154753649,328
66.50915215945713,28.73545471782713,-62.409414944028335,68.66388416072859,-60.297794433515705,23.33617630651384,66.02033166498241,-81.0840652308425,-21.750790226775422,6.000000000000009,-1.5978140371731626,-1.22867525101093,-2.4395414127446955,0.05377630467903881,-0.06691554831565363,329
67.84086909000501,29.92902169912642,-63.57650125186807,70.24136017992411,-62.60215409320307,24.1984561801358,68.26499488261408,-82.85675663276935,-20.781359789471722,6.000000000000009,-1.8096965276955554,-1.3032599739080377,-2.533696411402386,0.05942252799525786,-0.0787540765447093,330
66.85612096981518,31.64736851001799,-60.76974812317739,71.66769467563496,-61.224010215382364,25.53665961317271,65.19336042358756,-84.58394062755231,-20.03357856031295,6.000000000000009,-1.9887558611207954,-1.3885015493855728,-2.5527248112637535,0.06386698942869565,-0.08723489624438042,331
67.92463083496999,32.60036438870615,-61.76793014918347,72.97795990446134,-62.48543058715281,26.291051952403617,66.46181784570824,-86.13583545339276,-18.954825367746228,6.000000000000009,-2.197368543860185,-1.501772575249997,-2.522805830480529,0.0682996900057788,-0.09531428299607554,332
68.73827351961421,33.434653622061724,-62.52266692515312,74.09165583511532,-63.399623928138155,26.884446875213616,67.4619223277846,-87.60515670258668,-18.662422239011832,6.000000000000009,-2.3583989338691804,-1.6063332165686048,-2.535065394441626,0.0734395524223811,-0.10280167514499396,333
69.24209000946725,34.155471574156955,-63.02202430658787,75.04916426067359,-64.08685804698598,27.341528588923683,68.29103006684318,-88.95545482862308,-18.20132261530866,6.000000000000009,-2.4760095747583355,-1.7063253983091253,-2.5871162467398627,0.07964309364658104,-0.11009452333114757,334
69.49710811440197,34.81444475604669,-63.30089045574757,75.74132118243843,-64.45612239082945,27.565168906072238,68.83393113586794,-90.19177550141421,-17.827366742461333,6.000000000000009,-2.590818118578859,-1.760521650849618,-2.6823149056692057,0.0853427190072326,-0.11940059007358964,335
69.71896360185914,35.45416489578176,-63.54590787846136,76.0721213075453,-64.39607187940528,27.582787238496785,68.99072765062616,-91.28022087451336,-18.813209874279057,6.000000000000009,-2.6983451981860673,-1.7414339983300455,-2.768332069241974,0.0873809880280816,-0.1283896593060686,336
69.72918523257437,36.123064875999866,-63.73665338132548,76.00339394892858,-60.67671239264239,27.941235314680355,64.09749854484664,-92.29519665755312,-19.558033607962,6.000000000000009,-2.719289591234324,-1.6569293096602216,-2.8351832185475785,0.08540611733254212,-0.13257909586798539,337
71.46945546755497,36.01971730770294,-67.38284315406867,75.71840832976112,-62.70864224260934,26.994741627391935,68.09913667031822,-93.08438411462045,-19.975524477947793,6.000000000000009,-2.6549206681694026,-1.6213003628019809,-2.9004637653927965,0.08555596651377667,-0.13236262884923966,338
70.9043812415375,36.18031020163958,-67.06118265298268,75.36707965970166,-61.38901543803423,26.54169635576521,67.29471178182335,-93.61246040907919,-20.012103165441893,6.000000000000009,-2.5872254671671597,-1.600167145310766,-3.0131668352693732,0.0878035152576793,-0.13388056894702632,339
70.06568069246542,36.26070580977619,-66.49114307104682,74.85083182006824,-59.620188636179925,25.728386268144302,66.02568348896766,-94.04007658027737,-20.230874542968273,6.000000000000009,-2.507481262786344,-1.5126445647290652,-3.1960846636492892,0.08834093388697965,-0.13753850517951158,340
68.88482340720026,36.182252375606424,-65.70104242360223,74.15329482490068,-57.45036726238069,24.812187409767404,64.39706481742571,-94.25954692249735,-19.996341352531804,6.000000000000009,-2.3484031896606252,-1.4714882064628736,-3.389575363704078,0.09120714481038353,-0.13635390509667764,341
69.56420938622705,35.28786990414489,-68.45915840205112,73.4133846033521,-54.65162393655116,23.865254371789593,62.18174343611842,-94.26205067169766,-19.73357426493377,6.000000000000009,-2.1347968001437967,-1.4829692356696305,-3.53385937355938,0.09555572087727345,-0.12882782593153877,342
68.02840265841729,34.66205424554107,-67.3459817316611,72.74975053839461,-54.66031541944087,21.975614903271822,64.33376321657619,-94.19146389492869,-19.291244975667265,6.000000000000009,-1.8649951944364083,-1.4481671781537226,-3.6806309610647197,0.09688482779781538,-0.11677943290652339,343
68.45442858089912,33.34242693770944,-69.88013022577469,72.11451201732295,-49.984166897612965,20.623829690132954,60.2163955818472,-94.0478231733144,-19.711597131381257,6.000000000000009,-1.5899563370178658,-1.3876467468361664,-3.797957963071709,0.095463629554152,-0.10229609628812637,344
66.52332967494596,32.150417894709754,-68.33310038808835,71.56863853603774,-48.52594086927563,18.567605632717754,60.79527346074955,-93.68484413878748,-19.21493433311969,6.000000000000009,-1.379101410178884,-1.3923288228508526,-3.8613331611560775,0.0969409174257624,-0.08972890556934848,345
