JMW9912/AVATAR/Dynamixel/dynamixel_control/data/csv/poppy/.data/waist_test/3DoF (3O+Pos)/Old/0429_2055_Anysong_2_3DoF_Pos_smpl_motor_degree.csv
theta1,theta2,theta3,theta4,theta5,theta6,theta7,theta8,theta9,theta10,theta11,theta12,theta13,theta14,theta15,frame
-89.50976918793263,76.0781043716683,-23.83625539572738,56.230949957411895,93.8353779493926,74.5564848756501,12.106690621547509,-76.54360966842047,23.419364179220363,2.5427413406069426,0.0,0.0,3.3312863198742537,0.2618981548332264,8.875406044567576,0
-92.2969951946905,73.97382436835849,-21.496076022603965,54.159224800851355,91.58425694293629,70.94247554350788,16.62666152037749,-78.63042311408829,20.028585024739936,2.771913568665175,0.0,0.0,2.8154411081405564,2.1836381627652295,9.601625803075429,1
-96.65373503188161,71.30769031395299,-16.183388632346457,55.48583851620266,88.14061206031552,65.85863764488859,18.544946561449525,-88.60016410144641,13.161013231614461,2.519777077107973,0.0,0.0,1.9833143276203413,4.2200122628448185,9.534815961709997,2
-100.49728815783654,66.14165487515461,-12.84100102252309,60.57431242932435,83.7757229478045,61.581024067198065,16.71988089916557,-99.60016410144641,7.944423222225582,2.2070848032297334,0.0,0.0,0.718474581522151,5.421991939964557,8.771952739191633,3
-105.3013174954361,61.2430821434303,-10.858403717524746,66.94530108286698,74.9950068797539,58.992553514918534,17.861800193117038,-110.60016410144641,6.862691617971022,2.036610141870352,0.0,0.0,-0.660292829575496,5.706769169927862,8.184322784045602,4
-112.12571543495896,56.605168692968974,-10.042850450131038,73.97800085475693,63.9950068797539,55.47958877372698,20.56765952749006,-121.60016410144641,8.441533094979775,1.7910334420717364,0.0,0.0,-2.0750027438069223,5.3968183161781855,7.525192077354937,5
-118.04025724542954,51.04357497875867,-11.322175613453664,81.64677079541592,52.9950068797539,53.20783961533838,22.62630160085755,-128.05323566640442,6.647548261355763,1.474726815617672,0.0,0.0,-3.620407482521315,5.433234870497582,6.9879216352032705,6
-126.51983800758057,46.459556862583185,-10.638629137572677,88.6020636597873,41.9950068797539,50.06537629208624,19.72652584383826,-130.37799231641532,4.57172702740458,1.1156916543997784,0.0,0.0,-4.762611381582095,5.888171933042149,6.968685393719566,7
-134.8623265395597,44.03096910366214,-7.315322959332672,93.84753439123305,30.995006879753902,44.014604285001056,17.359983627020306,-130.2411749743642,1.4680168706917316,0.7308024097549267,0.0,0.0,-5.345641401058151,6.317638545146945,6.761463020009554,8
-139.60901790925135,44.43177193483898,-5.780928072734911,97.16357796778372,19.995006879753902,44.222233434114514,16.634462253152567,-129.08751843329122,-9.53198312930827,0.5592710510018316,0.0,0.0,-6.200218189399322,6.5081352463975275,6.571576679067889,9
-141.17228226372328,44.65726686957084,-5.460404059831817,99.60693213689706,8.995006879753902,44.65722962391619,14.408826712729818,-127.8709942973431,-20.53198312930827,0.49481462738407656,0.0,0.0,-6.444532214271521,6.60925274615883,6.46062900230229,10
-139.2589603032401,45.81116287351741,-8.595893909857352,100.89842049945915,7.77584551055519,46.12736142041412,12.643189757016088,-127.84502411254935,-30.34877557512618,0.6086491906779825,0.0,0.0,-6.580838703009364,6.5633642659929485,6.274790524537943,11
-133.04056512757202,46.04818561861066,-14.595893909857352,102.82551943959403,12.265175223981434,50.615870985537754,8.5207274044099,-129.86413696463399,-22.41314599502943,0.7812833216816686,0.0,0.0,-6.036986875934544,6.412921753233177,6.249845540923264,12
-126.5845871612054,48.80773046482923,-19.865594182181326,104.01797899011432,19.81098697931866,53.446543989650635,5.574315612678635,-132.2450683306709,-12.933399964808988,0.9282914069936533,0.0,0.0,-4.860242913583877,5.902572709862993,6.189891249887874,13
-117.52844541728103,51.13944565708211,-25.478708139083086,104.79019159406973,30.81098697931866,56.37155197472099,2.940019752725678,-134.67214046690324,-1.933399964808988,0.9614337609200326,0.0,0.0,-2.969236761006662,4.886704429540585,6.8548724345809,14
-110.32531711484853,57.29479664601756,-24.60482486666638,104.9502703589983,41.810986979318656,61.577060819826585,0.6459891815282947,-136.34233669889574,9.066600035191012,1.057243933784061,0.0,0.0,-0.8074177988482213,3.5730783040586886,8.1801182556244,15
-105.67622969435125,62.15238443492264,-23.512718605592088,108.25490011548861,52.810986979318656,67.14299149972287,-2.8998054962273088,-137.65701295137313,20.066600035191012,1.1414939800803483,0.0,0.0,0.5784389133806269,2.5636391364826325,9.426330438875082,16
-98.83272982436031,65.67359211994344,-22.66133910143358,112.9457232605722,63.810986979318656,71.44869715574657,-1.8912838716605298,-136.5606608581186,31.066600035191012,1.2431145017076894,0.0,0.0,1.3862944802131458,2.2901228645918033,10.022133204196956,17
-92.30459798596218,70.68179094743145,-20.689903295994768,117.75699803291036,74.81098697931866,75.07760068375856,1.0642076388092525,-133.88624103654462,42.066600035191016,1.212302193456749,0.0,0.0,2.0381250546590897,2.4491025049826325,10.309684346863143,18
-83.5474941921645,74.47507157081867,-18.585185163636417,124.91184215490533,85.81098697931866,79.6615184088945,0.7211327359663707,-131.1709765519382,53.066600035191016,1.2205293357496119,0.0,0.0,2.521231678703271,2.7506384482509505,10.696943971394031,19
-77.07595533496779,77.4783987198437,-18.823918002815297,129.90355736067136,96.81098697931866,83.3476105855311,-0.28359424710836295,-127.6448045747018,64.06660003519102,1.2842847111970028,0.0,0.0,3.2507883736060204,2.8179954334573667,10.754303774934147,20
-66.07595533496779,82.82925072237894,-22.50187215780406,132.88952790255124,107.81098697931866,83.91836889463752,2.388837216246363,-122.91283721236262,75.06660003519102,1.554917505760643,0.0,0.0,4.106267149289152,2.650199817822563,10.338655078598809,21
-55.07595533496779,86.21971216933235,-24.111621272855103,136.75229870936099,118.81098697931866,84.39776592676978,1.309306669503666,-119.67678825786142,86.06660003519102,2.078411866662882,0.0,0.0,4.855103429493074,1.9996031443623217,9.419454336181808,22
-44.07595533496779,89.54519617853805,-24.601012619420942,139.66158537061156,124.47797681494444,85.44373784399494,-0.5022555924834169,-114.38319461087718,97.06660003519102,2.4922744600270397,0.0,0.0,6.167680345191056,2.176164465769971,8.644447381092736,23
-33.07595533496779,91.00608673496981,-23.803726121743868,140.96283585236424,125.72506917131153,83.44068480220933,1.6680734458341484,-110.91530869841546,108.06660003519102,2.8130063408507135,0.0,0.0,6.76283122477296,2.322995649846982,8.153613442380141,24
-22.075955334967787,92.84428757025314,-20.941469446641175,141.1537759517812,127.03509798887451,84.1208325382231,0.3615678762689415,-107.71525010545692,119.06660003519102,3.1032156504757977,0.0,0.0,7.685077245320622,2.0706516315109917,6.925856441486919,25
-15.12907305921827,91.65922117338708,-18.886536540201323,142.2216913152946,127.96518168092554,84.53845299295634,0.034204545564995886,-105.07750905192036,130.06660003519102,3.304533976837051,0.0,0.0,7.144818225697014,1.9897848610901578,6.393042996681191,26
-14.860335180632694,93.30059505435892,-18.09909495136927,141.0843315863558,126.00353358752479,84.39943840306076,1.344698783918143,-102.65928010794545,141.05656347871698,3.4126407286705205,0.0,0.0,8.06158967288979,1.8211333502981661,6.447105321753685,27
-19.338306953881364,96.48254740122294,-17.536707640670336,140.65922002759686,121.83863866139336,84.93729489344732,1.4947992102660421,-103.39840141533757,142.45274715212827,3.279349713173558,0.0,0.0,7.642829622572508,1.7621434868637569,7.103479553128104,28
-30.065616625693696,97.9293330808181,-20.89844982294168,140.0153041078065,117.73254459766743,84.48625190369782,1.2992258995262986,-105.89179387309836,148.88443788880474,3.0634833699166966,0.0,0.0,6.625147545771327,1.0777642790424509,7.859675850200484,29
-41.06561662569369,95.31421700133369,-26.331701263911256,135.9368931022593,111.62627462616823,83.80257106118961,2.353159464326209,-110.92729697595608,154.41455554270922,2.9102239576101954,0.0,0.0,5.3908599770709715,-0.060054261540681685,8.136679652317367,30
-52.06561662569369,92.03411096288565,-31.89224305344781,128.2979167260284,101.22346545891862,81.54879590056552,4.920096069668081,-117.44071763406859,159.80993456105867,2.4728219537654343,0.0,0.0,3.558851499690432,-1.187628635246652,8.178523797346072,31
-63.06561662569369,88.1967559629226,-33.69280827453805,121.26803250849875,90.22346545891862,81.62900999879642,4.116381978275443,-124.24777837689057,161.9731411396672,2.062889844431693,0.0,0.0,2.2848656974879544,-2.059514487482915,8.90194234558241,32
-74.06561662569369,83.69596365101253,-33.823511776545196,112.98173368368865,80.60236508411914,76.95801487876629,2.8077075815894954,-130.31933318990824,162.95058370796488,1.7045699038117827,0.0,0.0,2.1328498431067384,-2.925755689106335,10.11115724419624,33
-85.06561662569369,78.73638761690742,-34.30566880300927,102.2728478850423,69.60236508411914,71.27579017847144,-0.24129615738163776,-133.46840251785906,157.0146345962728,1.2440043187103618,0.0,0.0,2.3202271156881373,-3.624119004959012,12.007040568877088,34
-96.06561662569369,74.79623662860982,-34.711928150679945,96.54936742642214,58.60236508411914,62.857102941716136,-0.8644142017912445,-137.33632097123316,146.61046270923768,1.0068139751776393,0.0,0.0,1.961619827311519,-3.9684528979475493,13.670815240153932,35
-103.59179089928764,69.5748987340579,-34.72112194709774,92.92791974978553,47.60236508411914,51.857102941716136,2.447287592597755,-135.07509384062703,135.61046270923768,0.9092326820462482,0.0,0.0,1.7490917250063416,-3.8170895937348237,14.717092766725516,36
-108.85861134530221,66.66128887114694,-33.907909293040156,93.98132803740313,36.60236508411914,44.02085496523072,8.447287592597755,-132.02111762457832,124.61046270923768,0.7922217449974346,0.0,0.0,0.413080060145752,-3.8253122510136026,15.166978537982866,37
-113.00157754536444,61.983734008916706,-33.91349946347042,95.82218439881717,25.602365084119143,41.02286968434648,14.447287592597755,-125.69916175210102,113.61046270923768,0.7445967773527643,0.0,0.0,-1.2454603446134878,-3.604797876074325,16.22598705966865,38
-117.11626848636266,57.7233692039292,-32.380170646968516,98.32026887524303,14.602365084119143,38.76440307259951,20.447287592597753,-119.79999867661708,102.61046270923768,0.8706133763856994,0.0,0.0,-2.3385330784578513,-3.188372410390462,16.773063557483717,39
-121.2389395585486,55.809516374080815,-32.179960060561505,101.57191954863944,3.6023650841191426,38.75172416125563,26.447287592597753,-116.69335657860297,91.61046270923768,1.0131330978211244,0.0,0.0,-3.1738164143562146,-2.8155551730542183,17.225929026243737,40
-124.23445475871436,54.7208456907561,-28.0953268693905,106.05290217299512,-7.397634915880857,37.30147616270604,32.44728759259775,-115.03746018721671,80.61046270923768,1.3692379234179997,0.0,0.0,-3.666846200759885,-2.3102163196198284,17.24862596514772,41
-126.63972514919818,54.33778185122473,-27.760913138751494,109.7710098449159,-18.397634915880857,34.3795951788102,38.44728759259775,-115.66265966896377,69.61046270923768,1.7190962155173448,0.0,0.0,-3.7432783494468542,-1.728360961894387,16.644115342529417,42
-126.82654537800275,55.00122622632932,-27.81423745539618,112.76426978747865,-29.397634915880857,31.277344340506694,44.44728759259775,-117.69792593915332,58.61046270923768,2.0288358811277907,0.0,0.0,-3.4302493161966208,-1.2790528965316,15.741014234195987,43
-124.62207709755886,57.19042995795759,-28.65157926464226,116.32269168532152,-32.14579169018185,29.071741646915623,50.44728759259775,-121.98577744522515,49.992117228159145,2.2753333748625715,0.0,0.0,-2.643508993070698,-1.0654555334671623,15.010233287356678,44
-119.92459710490022,59.6547650756487,-28.82436964313756,119.23928012512492,-21.145791690181852,26.5151520665216,44.44728759259775,-128.7888630268967,52.88803450444984,2.6269756548723793,0.0,0.0,-1.131036191002741,-0.47229147626355716,14.514153285496954,45
-114.0393295862062,61.86348643949833,-29.679020479175527,122.02006948252046,-10.145791690181852,30.157964193605807,38.44728759259775,-134.31586857288778,52.41307703516851,2.8235786565851875,0.0,0.0,0.0183690492375563,0.3303504883916665,14.645951671730627,46
-107.00929375158698,64.21335201345924,-31.245081557994077,125.30544163551578,0.8542083098181479,37.60284560880356,32.44728759259775,-137.81115913199037,52.61344770535935,2.8938841793823045,0.0,0.0,0.9491847132751065,0.8729457429784264,13.962440201657245,47
-101.28615544173172,67.60028267695361,-30.70472508582689,128.77284030146058,11.854208309818148,44.96067584496013,26.447287592597753,-140.6051677754196,54.92421061626397,2.8339707427544263,0.0,0.0,1.812373472877976,1.3632241623816335,12.939350793655905,48
-94.34131294829744,71.00170257534039,-27.744593459472824,132.46638125014707,22.854208309818148,54.75677524108223,20.447287592597753,-141.706093715657,58.187437896861724,2.867573544618333,0.0,0.0,2.2497260772155707,1.8251526380968406,12.333650125991747,49
-87.08002618956475,74.19555949166937,-26.08996537473702,136.47354464152508,33.85420830981815,65.75677524108224,14.447287592597753,-141.50779426705378,61.692903040859115,2.7910718715940552,0.0,0.0,1.8889944852981373,2.570168228097978,11.875879176513031,50
-80.08306554239354,77.97046360958161,-24.90259308133938,140.36962530718895,44.85420830981815,74.91351852569068,8.447287592597753,-140.04691135965686,69.30489454451002,2.854314887449726,0.0,0.0,1.4333532559419901,3.02368751938911,11.628524653421257,51
-69.39461925794022,84.10453554878404,-22.82842928969767,142.96260649213832,55.85420830981815,81.29917728371854,10.899096751113962,-135.43363792103486,79.57432329333768,2.9016190766875627,0.0,0.0,1.708860761464769,3.5581563479459075,11.205524782528695,52
-58.39461925794022,88.71707080489699,-21.313040780284165,144.3675783272565,66.85420830981815,87.55712430303666,12.491058698370304,-131.82440786024685,90.57432329333768,3.0894357311164873,0.0,0.0,2.901747282340282,3.648721457167391,10.438120231513789,53
-47.39461925794022,92.96832148413368,-18.896751196557208,145.00348699419214,77.85420830981815,91.14483193485653,14.990138574995136,-129.20520320243628,101.26476660197302,3.3342424397100068,0.0,0.0,3.6301054142819282,2.965437438767382,9.078465927951806,54
-36.39461925794022,93.1099066862612,-15.637703227827911,144.52729847917118,88.85420830981815,90.96392403262756,14.314957902980925,-128.58852016139411,106.09979418156475,3.8205470216592636,0.0,0.0,5.242882810003274,2.0753710815581896,7.491448099637775,55
-25.39461925794022,92.97801618287984,-14.105167211786405,144.16004272318645,98.1997711006447,92.0519743248504,13.122802843397332,-127.785684263358,110.31288415531428,3.8963472460445754,0.0,0.0,5.809033450531722,1.8965322541499299,6.796403889403085,56
-21.818634628437632,95.40051891080817,-13.168377540357731,144.20935784109716,100.66144134062522,91.10792395971187,13.457045274317492,-128.55103998231127,115.2110164103573,3.9636609748897556,0.0,0.0,6.139028512910426,1.2158429865717753,6.017661331206603,57
-20.53551479674332,96.73445696495388,-14.553285115803638,144.31676326092114,101.52760574724488,92.24204153902913,12.30758364190092,-129.75005301733256,119.386828251018,3.993587453159341,0.0,0.0,6.4213681353844105,0.475629056615364,5.593398445830639,58
-22.94583765242856,98.34230949956404,-16.202474463488617,144.60950940024696,101.55276797250835,91.87077470745413,12.089035020828407,-130.8158186439671,124.08249093152594,3.9527700444603324,0.0,0.0,6.378271975750226,0.22473092989562965,5.07970585984986,59
-27.207846718551085,100.91999639294859,-18.09985830477774,144.2411920621786,97.68619091652485,90.14597438789072,13.275614693487507,-132.30772793166096,128.29851406246064,3.8039824679129888,0.0,0.0,5.812266367430752,-0.27805925317341695,4.712584529366036,60
-30.75092805258901,99.87969871232532,-21.62074200078258,143.0861220938585,94.13668533531325,90.08373695783344,12.4157760497786,-132.76317481124855,131.0472749357494,3.6662016687951984,0.0,0.0,5.330282361821863,-0.39510800687795755,4.4580957014823825,61
-37.14321208170989,98.02286045075076,-23.196922260338194,141.88716110856325,90.29500905261743,87.29842404575378,11.87862173712944,-133.62511914048994,129.89534712815245,3.286880752667429,0.0,0.0,4.446470734713402,-0.7232518469375894,4.427829813433757,62
-44.9392825625611,97.46818386069609,-26.87278079853154,139.93198499248038,84.54113225105597,86.49833592425964,10.324461350510866,-135.86239748233146,126.77430307938491,2.784609254756207,0.0,0.0,3.7762656902426133,-1.1356909051704926,4.375920614573887,63
-52.04528526233857,95.52425441331971,-29.988510479110797,135.88720713879945,74.74622738673341,83.23393712525966,9.670872652810104,-137.20541574076128,117.82866256896561,2.3583799053358914,0.0,0.0,3.468183368370499,-1.5526323713719006,5.153397529911665,64
-59.707204334774765,92.02309030374549,-31.16415532106154,131.36106462772867,63.74622738673341,75.74422640253358,8.249763755900464,-138.5490482573232,106.82866256896561,2.156196252385375,0.0,0.0,3.384618127156744,-2.4465821507971293,6.482935721117271,65
-66.14560982151083,87.86461539807839,-31.758715343188356,124.02883139808074,52.91311007973559,70.30343037439796,8.898167599083777,-138.24923968084872,99.586100565884,2.3296564816959697,0.0,0.0,3.294638147286135,-3.402853084244129,7.595788395702506,66
-67.96903165519083,83.71654490717343,-29.146862466207462,115.24101733775866,41.91311007973559,69.3943737806833,9.991586550165783,-135.42495798132921,89.06220227855086,2.599355752019672,0.0,0.0,3.063251496826849,-4.077117659786681,9.316547121398184,67
-72.91258920199459,80.17896227625012,-25.182180873113992,114.55903870435503,30.91311007973559,61.1895951612738,11.15757456800555,-136.2222472378883,86.05452003954778,2.7613631593917947,0.0,0.0,3.054426258208164,-4.634233463910871,9.968951487941117,68
-75.37353771180989,77.25937112233011,-22.720897525224963,114.5575556103206,19.91311007973559,56.358766917203305,14.153586466201977,-135.48877623597858,81.59564431044171,2.917949421673872,0.0,0.0,2.7088991207701945,-4.609069511597349,10.625675274600036,69
-75.66024767699479,74.30109431229752,-17.249986069841917,113.4305514824315,8.913110079735588,57.66354157311204,19.210714599467597,-134.66823798932464,77.38140769009519,3.050346434029237,0.0,0.0,2.042482502985761,-4.228364671093321,11.578550441021694,70
-75.4925760282709,72.07555287117044,-11.249986069841917,114.75805164479586,-2.0868899202644116,55.4755880180201,23.83320497355657,-134.05661720833055,73.49480649199097,3.301446305866861,0.0,0.0,1.5556829361954345,-3.4473693341805043,11.83617037727639,71
-68.37217733463838,61.075552871170444,-5.249986069841917,103.896525302678,-9.652811419901925,56.21371968164255,29.83320497355657,-132.56936026943836,69.27680904206188,3.9906232982121925,0.0,0.0,3.2720219600719354,-3.46325734243875,11.704220942333759,72
-66.90875980410314,59.28931568034183,0.750013930158083,98.73429380226825,-14.320805023101643,60.693929790677274,33.94509214822987,-132.61633950098977,66.32511229440416,4.3807951859390135,0.0,0.0,3.6865946351178893,-3.1325130025875176,11.476067282887083,73
-64.92174136438038,60.93774135637114,6.750013930158083,105.33572022962922,-13.13078451038518,65.30757768902137,34.1958869123573,-133.66263826760593,63.447699733241826,4.316248420140673,0.0,0.0,3.0852233929695254,-1.2456079102141484,11.112057135845902,74
-63.38241756802376,61.11989756152683,12.750013930158083,109.53578341570662,-12.948995526908886,65.17514976811144,36.078494579234146,-134.55903090435814,61.15673425460546,4.15689609971259,0.0,0.0,3.216140213921795,0.4145553490657321,10.97554408147124,75
-65.24760617670071,62.74696092564541,18.750013930158083,117.43277206276552,-10.245401058391048,65.18995320661456,35.30798485421243,-136.390998853405,60.76221973583189,3.803432085433618,0.0,0.0,3.0776942249518573,1.6081065292416334,10.32395782174147,76
-65.22176406647823,61.23172538444881,22.077764390633348,119.0960929312589,-4.061401566194985,63.41767515652666,36.08143466283615,-137.2855094490878,62.75414664255293,3.7832256802169835,0.0,0.0,3.5226699404507626,2.310105730300129,9.704009677568752,77
-64.31996965483926,62.70124014992463,20.921131210833465,120.08218203074242,5.656822062732632,67.29087752719104,38.97074273918239,-136.8686930049685,63.045951371639255,3.435900431981549,0.0,0.0,3.4846585341235508,3.178288948642651,8.918787667630616,78
-59.65835432359413,61.44955659611771,15.47499295594675,120.8977281545371,14.61041742830665,75.24252158192272,44.97074273918239,-134.12504459127499,62.65538044631388,2.974135069530877,0.0,0.0,2.617161412785113,4.558388708006913,8.74428240458409,79
-58.585518416617326,64.60673124797833,9.47499295594675,124.77655003190226,20.368678130059568,83.27244033681731,50.97074273918239,-130.54563118771236,63.969505366316284,2.172245143124975,0.0,0.0,1.2294943447322733,5.018177325416657,8.08976532343582,80
-53.87601826394857,63.26534549929298,5.706367584026821,127.00910388292246,22.88114443536834,84.83431402854288,56.97074273918239,-129.69554681301932,74.96950536631628,2.0999469257913908,0.0,0.0,1.6865536016127174,5.235324530309315,7.414788507640059,81
-49.1526163244286,62.16900043643963,4.2449116861364,126.61038822907476,24.39173722018141,86.13124031668188,58.52427987798377,-128.77174718697344,85.96950536631628,2.1918807590785283,0.0,0.0,2.1852501797147874,5.160195218214109,7.03880845652483,82
-46.48152215701844,61.81964419779777,3.0550907920289663,123.80918588958215,26.329126966672597,87.00974225535275,56.51329798139523,-128.190934101817,96.96950536631628,2.4809144772235276,0.0,0.0,2.6712181810280953,4.941314433740222,6.220976447209056,83
-45.74932935881405,62.60562581055421,1.1674618579821965,116.66786357556299,30.686709139978515,89.84757417652219,54.166715266878796,-124.26788494399602,107.96950536631628,2.8034668564517182,0.0,0.0,3.1231404522698147,5.041796995597627,5.400358783778524,84
-45.53698738266209,68.99131793284134,-4.832538142017803,120.71355711578221,33.3013293261281,91.8054977854495,53.86241625013799,-123.43725170637937,118.24074943187644,2.921619122824789,0.0,0.0,2.805786840050979,5.120521018996243,4.7567982563988735,85
-44.042787780868466,75.38934090646826,-10.832538142017803,121.90568446425,37.6780839714745,96.31138129414342,53.78495347024967,-121.17566143883552,127.75103324409982,3.005811484288143,0.0,0.0,2.373888232741738,5.127149415568817,3.9807524276859807,86
-43.033616717796974,78.36346798148729,-16.832538142017803,120.34940642218238,40.22760772121069,96.54287120060262,51.84243815316213,-117.96942388042736,133.07030079629703,3.2045989350630184,0.0,0.0,2.6417654542065607,5.146347385829062,3.2887424183377716,87
-43.8062948514947,80.31844675435401,-18.862302838503055,117.78536664698571,43.03106708760188,97.92096710992757,47.50320233310525,-117.80236425637094,138.12897926936145,3.5499371760476843,0.0,0.0,3.232931455211733,4.6714140823906485,2.238838421415333,88
-44.36481087661201,82.34943038661869,-20.22143750387408,115.64161523959103,44.692775765148866,98.44661504793841,45.74912127261477,-118.90909019507374,141.8532406000543,3.9084440687896893,0.0,0.0,3.6281968254718304,4.184103289633405,1.6119481829154991,89
-45.07916195948706,84.42452990348335,-21.748708019605655,113.534902270981,46.3182259368481,99.97453906635333,44.676398235978574,-118.72088312813844,145.74794062419687,4.190675400503757,0.0,0.0,3.684733806967512,3.815521798221738,0.8325406679438813,90
-45.01143652987915,84.70118081374162,-24.899271764062128,111.29854506184626,47.33606850343301,101.5015145927098,43.603754601599256,-117.70694741160521,149.0889973695023,4.412764044170672,0.0,0.0,3.397953038927133,3.382889211780495,0.5882074762196243,91
-45.83628914066698,86.27444574905883,-26.226271469803432,110.2376015789667,47.66961430286497,101.29312281127199,43.601741649702134,-117.27555417243337,150.75882740338363,4.571857373778033,0.0,0.0,3.296596512406649,3.127554949085169,0.08851901897101425,92
-46.50364348940642,87.35994905706225,-27.429280838869595,110.65584379554686,47.131639686226386,101.39319689586526,43.23148118888377,-117.7951875089011,152.23283086463974,4.661231876639847,0.0,0.0,3.0530386156212868,3.006420510600468,-0.002250581758317771,93
-46.72660488374577,87.90873651642279,-28.16272886205375,110.52911686012493,46.51634997076829,101.33616439224824,42.977736455345244,-116.97803882314376,153.43582721582789,4.621382491540056,0.0,0.0,2.6027195784149986,2.9168311815424457,0.30688375848631944,94
-47.205284199776266,88.15860898715462,-28.85001685355864,111.80978523068158,46.46928880117032,100.42389628255387,42.78670678160555,-116.23036386601487,154.55989802057795,4.641564180448101,0.0,0.0,1.775643799729094,2.801240796865428,0.8654473236825653,95
-47.08179856738228,88.39167278279238,-29.766523157887566,114.03313856311156,45.02253138055429,98.65345932339076,44.478843110121595,-116.49173158607962,154.75477464719066,4.568761948447928,0.0,0.0,0.9374980004721082,2.8872306404584105,1.8542937691177814,96
-46.88347973579846,88.30374360275505,-30.192468287750934,115.88510453109998,44.32341351167545,99.14340476497904,45.53096834159964,-117.3046571565459,156.1566056954496,4.333486087364039,0.0,0.0,0.05673512562300585,2.8730929769105504,2.980667858616157,97
-46.302615828719375,86.61782032025621,-28.320255722878183,115.29055569365455,41.15796519065584,98.12687696057357,46.68709691187095,-119.33459451445269,155.75487642646726,4.062605232956494,0.0,0.0,-0.18669316196177616,2.7577424891258473,4.162497527979149,98
-46.35056711034683,85.04828281182687,-26.8002329312221,116.17735263447442,38.58808650333558,96.90041741501248,48.19852045291948,-121.29632292820638,155.001488916056,3.7799177265909454,0.0,0.0,-0.6600240891036053,2.6936110793050716,5.278185601350762,99
-46.9425912334913,83.01846593724174,-24.45406348534172,121.16017913447588,34.95697472968241,94.87532349362358,47.760347530275745,-124.63086281501903,154.51679056150726,3.4208334011443573,0.0,0.0,-1.3014102342187406,2.5439709070090637,6.080468416442476,100
-49.24060438431835,81.97928445611775,-19.34085890676973,125.14696235535641,31.33945353942272,93.46676552544233,44.45932459306889,-126.39621839404874,153.02972965117314,3.011321160543381,0.0,0.0,-1.9114986323337435,2.375174262802013,7.0860584296060445,101
-49.513088106790704,78.0828391342737,-13.88740741708171,128.7102690257042,26.1546422743442,89.80717297327232,42.09428106284112,-129.34983165316194,149.15932098562672,2.6228572914455373,0.0,0.0,-2.4043672762486983,2.243780300742079,8.157517556408834,102
-49.28012420375575,73.08445247254767,-7.887407417081709,128.83612820532656,19.99366995211648,84.76623156909213,38.46971694496309,-130.30113559024895,139.94431494471527,2.2343290507239253,0.0,0.0,-1.801961278956495,2.2603054171463586,9.302186352386009,103
-48.727350897940404,66.19315981555636,-1.8874074170817092,126.01665425169017,14.373949587715222,81.17851775010425,34.334948344479486,-130.72987429657982,128.94431494471527,2.088759734170975,0.0,0.0,-1.0087170176595583,1.6168467466920904,10.017720824613733,104
-47.07223172673865,64.0900098423682,4.112592582918291,123.26016954237141,10.211633375808866,77.44258485720225,33.25869428186115,-130.87553024326246,117.94431494471527,2.0816355084153804,0.0,0.0,-0.368341081369449,1.6341964206637005,11.015650525316316,105
-45.700011360843845,62.066935306747155,6.347827643817848,122.1737856931559,8.579820348446686,77.3562768181179,32.527454786741416,-131.06828390170233,106.94431494471527,2.202344899862501,0.0,0.0,0.002247105722361749,1.991446214532544,11.400469856742433,106
-44.311222310825336,61.26674809986799,6.322389793001791,122.40281940895692,7.5954058884356455,78.11428668510983,33.01229344391459,-132.09422995236804,95.94431494471527,2.4037738513955187,0.0,0.0,0.22363250360706882,2.145655916643214,11.577009161640074,107
-42.555889650625986,62.07245278887147,3.854146623151801,125.82288482455711,8.931622956446105,80.97598086073226,32.3664623591207,-133.69489470240794,84.94431494471527,2.5464655765802,0.0,0.0,0.17020903277984534,2.4781797039041655,11.544208654684207,108
-40.24059955079407,64.41690035697718,-0.7067945348302705,129.07876017883956,13.479357488564371,83.56095900942606,36.9807439011948,-133.83947926395416,87.77064743181874,2.489564861436192,0.0,0.0,-0.5835064571936743,3.0590564748713636,11.42672120736823,109
-37.62119484162898,64.87222255478169,-3.256416310753909,128.6661413005427,19.924265322668013,87.0619345486356,42.64844851002466,-132.91771829604895,92.44333885224293,2.4249670612286787,0.0,0.0,-0.830631504511617,3.839210619416201,11.43212557557841,110
-34.845183386067724,67.85816475703635,-4.741681724840184,127.86299988992634,25.59537383645719,89.08744459203933,48.47118367049022,-129.58322850067538,93.20803016218686,2.1491006128161185,0.0,0.0,-0.8538659381724517,4.598861057419756,11.754606369999129,111
-36.63424950688325,71.4610126987265,-8.210516857358618,129.79409526470755,28.88413344771591,91.98690840143894,45.86568869100186,-130.69328899212007,99.93992216184101,2.100143267967459,0.0,0.0,-0.28701500713488803,4.309084606748987,11.163774771775584,112
-36.246956064815215,79.433304334945,-14.210516857358618,128.92009140613152,30.090387407504714,95.62771398501282,50.42123661342202,-126.82686146774527,102.61391118553534,1.8355534557460427,0.0,0.0,-0.1979043087311207,4.341537963793924,11.256268869436623,113
-34.58420400623444,83.68850271059995,-20.21051685735862,127.45431331817856,32.488775180581136,98.43490281942019,47.18001187017296,-125.89023503520336,105.74192910304829,2.0087294423061923,0.0,0.0,0.3996553366917209,4.086063687249274,10.837309527693177,114
-33.0238737762502,85.34068744820995,-21.855951048139307,124.90386785795116,33.32179629192428,98.35163090023774,43.95451230814878,-125.69573106715669,109.63032728006748,2.248113678117928,0.0,0.0,1.1701088336697287,3.683838627503717,10.514992790898592,115
-31.754584249287106,86.06987385456901,-21.858042566674193,122.96105750135095,36.157393834461,99.27496286621988,39.40817485694904,-126.41411047988979,116.20988102204309,2.476334261016679,0.0,0.0,2.1656107648893506,3.4417061794042807,10.07250723746957,116
-31.84723175584624,87.2761730181545,-22.69227392752503,119.33750401359777,39.1436099986641,99.27862186875169,37.59231126118494,-125.40959289404577,120.2056287708819,2.6064042178947076,0.0,0.0,2.879310562507214,3.3240688254656674,9.351729935067269,117
-31.64092090391503,84.76670416075284,-23.93304591302885,115.0524723617428,44.243952569877536,97.73557767616056,35.44410408693539,-124.13999092245963,124.19879023406425,2.7460118624357572,0.0,0.0,3.442992366193626,3.511211256184306,8.701229335180676,118
-34.045710562056996,84.09706651728652,-24.350320004792415,114.23727448414888,48.793792728815504,96.84134268619181,33.28567459876583,-125.03558251339315,130.8361127768024,2.854880701515872,0.0,0.0,3.709775744355587,3.748486127956795,8.329773527401473,119
-36.97251750191345,80.80984416312812,-25.630544124041325,106.7652817879235,53.56956970657129,96.70830372412982,31.755742850605543,-120.69145886071371,135.8052103185383,2.777561488716073,0.0,0.0,3.529582377683647,3.9748571360579605,7.592826168458161,120
-41.674556239210816,80.06409394451721,-26.60509486446236,104.1750459354907,60.30245912487478,94.94624898246663,29.35420931040929,-115.80511805426009,140.06871920553613,2.661686682034291,0.0,0.0,2.6098928355708724,4.403516379128011,7.340678283898093,121
-47.72742532980005,81.07895646125455,-30.3143274775049,105.26647555291106,59.97336263176365,94.40900176755984,27.155631006295884,-117.73985550915175,144.12251266386141,2.2337572824028338,0.0,0.0,1.3553613384446486,4.500369969418242,7.10406853176426,122
-54.512156535768085,81.46160492201312,-35.257773985844395,104.77549146535154,62.098047051402695,94.14095449368031,21.762199943578544,-121.47903235838446,140.02123304302748,1.9139508489674757,0.0,0.0,0.24483001965735499,4.563666136443519,7.056429353176898,123
-65.51215653576809,78.7915066286803,-39.797543101025866,103.80998236019965,66.42047509523906,90.57060110535107,20.41453195177322,-124.47308612350095,133.3556279900609,1.6275876278816719,0.0,0.0,-1.301038817588608,5.017525211815263,8.055275857506672,124
-76.51215653576809,74.49818246875165,-40.70889073802751,95.42011267237193,68.11003586584383,86.00535702850489,19.9617235268605,-119.096493505843,122.3556279900609,1.1462886908528969,0.0,0.0,-3.6368021269710367,5.5150527494970385,10.000421660645657,125
-87.51215653576809,69.4654414635599,-42.46521900027664,88.18626050004386,75.41953781286237,84.08225167331517,21.221578084633705,-119.47233436854992,111.3556279900609,1.6707481081693965,0.0,0.0,-3.837914970066538,5.428895616514814,11.360537502811699,126
-95.10093024904985,66.19562509925073,-40.01335227846375,77.18626050004386,77.51084500616888,80.30770244441926,26.270036634614602,-117.6191648856469,100.3556279900609,1.67751470318918,0.0,0.0,-3.6759630062130713,6.435395976105594,13.0377903041522,127
-96.36381412640223,66.54939410446023,-36.37088734947965,66.18626050004386,72.2082618060011,79.58756768012688,31.873284238014048,-117.92928435982435,89.3556279900609,1.8210599390690014,0.0,0.0,-2.8391995676823414,7.011366999160964,14.32420113602013,128
-101.57822127942089,67.57629360124582,-30.370887349479652,55.827358856360505,61.92590839108336,75.70613105246736,35.913485997035835,-122.7014128357261,78.3556279900609,1.0818296417726692,0.0,0.0,-2.887659769596724,8.77128292630203,15.305082462337678,129
-102.89704093432013,68.19797763825974,-24.370887349479652,52.998990001978854,50.92590839108336,72.12305027695115,35.62505339541705,-123.13509551876686,67.3556279900609,0.7816655237366427,0.0,0.0,-2.682179532116689,9.216878072868845,15.561005816908661,130
-102.58546532347846,68.26168206784378,-18.370887349479652,52.74576622116613,39.92590839108336,68.64876767830211,34.92696728363725,-117.83203969536896,56.355627990060896,1.0508869144307709,0.0,0.0,-2.7884921776290548,8.498907074116323,14.625840875562545,131
-102.1224969752051,68.17690886028656,-12.370887349479652,54.06124557258239,28.92590839108336,68.31077770856758,37.8647752814208,-112.72141691832333,45.355627990060896,1.0548189507081018,0.0,0.0,-3.4631193575825288,6.998729980045226,13.868177935035916,132
-103.81796352575871,68.19024323815758,-12.601816841863089,55.83744886256343,17.92590839108336,70.03812699406743,38.705645194644845,-104.7450966838905,34.355627990060896,1.4116093883240883,0.0,0.0,-5.076090014133312,5.8785767595299525,13.972291214326985,133
-105.8042831725237,67.17595801581854,-16.35235616085872,59.026846608214456,6.925908391083361,73.33565536208373,38.00482660364462,-94.58691314934863,23.355627990060896,1.8151584307023976,0.0,0.0,-7.264572062821371,4.902366785776407,14.296432101056507,134
-110.78841582693053,66.34529884168722,-16.647112717477782,61.52048419340818,-3.8683641537905133,75.92503430781326,41.03380223578857,-89.53511071905459,12.355627990060896,2.1838485343800715,0.0,0.0,-9.151074911412636,4.511198333960344,13.889377844078053,135
-113.22389839867851,64.23910390080997,-20.51560342302811,64.66913053484372,-10.531103453336332,78.68322958570435,42.3591455946284,-78.53511071905459,1.3556279900608956,2.901436109311086,0.0,0.0,-11.360414991177478,3.9016336377750847,13.889789627736278,136
-113.67354727094838,64.6371366809044,-24.63277533144591,67.94431736917001,-14.366721719621928,79.84749929393958,42.99364678482424,-73.93203145223525,-9.644372009939104,3.255048382811854,0.0,0.0,-12.501423854023686,3.0304162734844278,14.016853915440183,137
-116.4118129924073,65.01337613007266,-26.23303763838915,70.31176319146898,-17.044708950022166,81.57953515420905,42.13419431293016,-75.52193967890638,-20.644372009939104,3.620107719565505,0.0,0.0,-13.916015104048872,2.285173589506569,14.109493252064047,138
-118.8968442689573,66.30126056195793,-25.517130884612854,72.08394620462015,-18.19776565571209,84.79917903089239,39.76277609955137,-81.65202916349628,-31.644372009939104,3.81933762224549,0.0,0.0,-15.30095028624743,1.4944613378197042,14.119060013394671,139
-119.67675295042596,66.760627976865,-26.680780011845812,75.10409710326485,-16.46792142661339,86.64520511987821,35.85156408189358,-89.65034259755484,-42.644372009939104,3.8007875994937956,0.0,0.0,-16.169809265365576,1.042681356924393,14.289126906095166,140
-121.93669760148921,66.90832162248385,-24.897457222291333,74.0637849818906,-14.87509572008965,86.78813505379746,32.62176299778673,-96.34932581759986,-53.644372009939104,3.8086304352796656,0.0,0.0,-17.08344844016153,1.0861278624709998,14.765798118706481,141
-123.58116080304364,68.55218871367612,-20.8061373476362,73.69616156599196,-11.267915893228693,87.1295381289861,28.237547836563476,-101.56637534951852,-64.6443720099391,3.851153081466747,0.0,0.0,-17.776225336002383,1.020061188282183,15.23571058664457,142
-123.1002945719882,68.24252737618835,-20.729317501414602,74.6212103296156,-6.63399352572272,86.86487105789196,25.04939844593954,-107.96862325214856,-74.58687582703355,3.7013555509845486,0.0,0.0,-17.890472663263257,1.187789924660984,15.038008678693785,143
-123.05742641635968,69.03858330208526,-17.608980540560268,77.23527020181675,-2.2997621471060836,86.25217776134802,23.053286095438736,-111.79803959636547,-73.49242305904005,3.661599529041037,0.0,0.0,-17.45800936082003,1.5349312229308922,14.47147998599296,144
-122.10929073862411,69.60888585058568,-17.03147180967238,81.53657030157042,3.3306618882778958,84.48285813757974,22.892036516865502,-116.74471315621673,-73.45120672580084,3.512763033897736,0.0,0.0,-16.84010008712587,1.5059683254360405,13.979760564536178,145
-120.63068495647916,71.5665327399582,-15.086519838566554,87.91426901880259,10.16067941249389,85.31331140520169,21.37549235522079,-119.59457206682205,-73.01208701719231,3.508394920996472,0.0,0.0,-16.82334718419307,1.9167978878788885,13.272621268095406,146
-118.31484010923083,74.60064976323686,-12.53927368117251,95.31201125654202,18.455643093783408,86.79307147935073,20.855915203894686,-122.5292548989312,-73.54016238570529,3.359633136434314,0.0,0.0,-16.470306042181896,2.101387484215072,12.40887285235619,147
-114.81931408025231,75.82575937833293,-13.109136204640645,103.91798849117934,27.191187368437134,88.09331914063301,23.36298560019533,-126.03382409474494,-75.13767918215532,3.1577562177953915,0.0,0.0,-15.538092877561269,2.4319706949618642,11.360515608413706,148
-110.85098737263793,77.667125716093,-9.820545875093023,112.73641701019093,38.04534729381862,86.9568529106421,24.82321593839213,-127.00122232153892,-76.52720459450258,2.9963622620165964,0.0,0.0,-14.57678918425348,2.952332622834288,9.807511430837451,149
-100.83572381503608,77.0720518703271,-11.830070504270022,121.08542184974847,49.04534729381862,87.37579162423168,26.304986607665697,-128.5274229766195,-75.53329692066487,2.6641934101414084,0.0,0.0,-12.464138701347352,2.4841446472719326,8.432115847405504,150
-91.58161196633849,78.78542611406354,-12.90496686445782,126.53973619465793,60.04534729381862,86.85738791633447,28.10717756686389,-130.21868163159186,-76.60935185952324,2.4594306450080268,0.0,0.0,-11.05448900019349,1.2965176014835778,6.514025135071759,151
-84.3340118147156,82.44992503374222,-13.178183581329836,130.17318466678284,71.04534729381862,85.28606628475632,26.250730034661597,-131.08238371157591,-80.67532117571895,2.2326767166251105,0.0,0.0,-9.778694897355566,0.27744379918143436,5.454319706441873,152
-75.15992494938641,82.38595446579373,-13.309375674293198,132.8910413008989,82.04534729381862,81.41850189514881,24.573251458174266,-130.3794782059106,-84.84644036799729,1.9330623435236736,0.0,0.0,-8.366897515184105,-0.10052699279439357,4.780072489726825,153
-66.2599861782923,83.75394027232129,-15.441326886028296,133.86309370550106,93.04534729381862,78.46075364674378,22.257733098573148,-129.31101257940813,-90.4826615429338,1.8005062441883637,0.0,0.0,-6.794879427366932,-0.6810302520365139,4.735818511458137,154
-58.656331232453994,82.43605440165004,-15.218571664389724,135.22935349618083,104.04534729381862,75.31189468822633,19.57051883795385,-128.2517827835321,-99.59977761248804,1.7414631535743827,0.0,0.0,-5.47169675241464,-1.1508315200161823,4.121029926121536,155
-52.26959151108782,82.5479263965465,-13.78313842591912,135.8005006288391,115.04534729381862,75.21624301529758,16.27531066559938,-125.39624299362828,-110.59977761248804,1.7548771542741177,0.0,0.0,-4.550776697161973,-1.4784380026346227,2.8956334236130794,156
-47.70614816123217,81.7004343025703,-14.50017653329383,135.5164896515322,121.51691426134576,74.16978036382348,16.0452215726299,-122.91041572091636,-118.79002975798402,1.8752379202513674,0.0,0.0,-3.7088568916321774,-1.8275347920855494,2.408869093848232,157
-45.917013812753396,82.09529946639094,-14.830574147888692,135.28377744157257,122.31459118190533,74.18067038188929,16.826056009444162,-121.1751992920903,-121.81442458731725,2.049014669252259,0.0,0.0,-3.0805491548262216,-1.745121365863048,2.5531538672453964,158
-46.55112417091079,84.66697492060307,-14.92827203358485,134.7453851960309,119.32423367904687,75.2763238277926,18.40124377902175,-120.76944692856955,-119.40816375237114,2.137673694360586,0.0,0.0,-2.812621565678003,-1.3538956329765244,3.1811337103956867,159
-50.21403760497598,83.29270884082548,-15.328974198565923,134.5063541514046,115.2326558671131,76.67236879351806,19.292218437433423,-120.28736208640981,-111.54461879096968,2.4149275472252913,0.0,0.0,-3.1082416632104453,-0.6040121615493793,3.696437629445097,160
-56.814131685639815,81.74843109157474,-15.873279028995814,132.74476623495724,108.61087726060406,77.31454410999542,22.247885572349443,-120.1869436277387,-104.35914326703237,2.506513979264594,0.0,0.0,-3.8643948594054085,0.14875144260497275,4.037747270034199,161
-65.25771246478423,82.04308765435968,-17.064335035793224,127.65616769577419,98.77770277045236,79.85910897214183,24.746020821075284,-120.1527138877796,-95.84378353227194,2.595953785625727,0.0,0.0,-4.350088005329534,0.053257484281751824,4.709630066028195,162
-72.5902425196154,81.67620684843655,-17.894506335441257,124.19952393102243,87.77770277045236,83.03303209949684,28.002426219589367,-121.6234397323262,-85.06055483348523,3.0302529041137802,0.0,0.0,-5.244349971637777,0.035028599275107285,6.067942802159105,163
-80.29656295098188,80.33955504486387,-17.25421209129185,119.11997530217906,76.77770277045236,87.15759988008473,30.244536826778916,-121.76917595990288,-77.09697277403538,3.3992210278927937,0.0,0.0,-5.848814469396683,-0.3321048053547812,6.9147793950437855,164
-89.9485829003057,78.0401971665307,-16.551829348718172,115.97938747638698,65.77770277045236,91.17635903765199,31.04859548285801,-123.31732980298139,-70.86264984750682,3.8323184951543467,0.0,0.0,-6.6460437765343645,-0.5366009788176199,8.353103282013475,165
-97.8991542750401,76.34346374626118,-13.683589040995448,114.07501492243613,54.777702770452365,95.20020608384236,29.93852129149937,-123.62935172167941,-67.32704025694947,4.270254499593973,0.0,0.0,-7.464469433545643,0.10594893439652335,9.484718815621077,166
-103.90447160924465,75.50030833645789,-11.770094779458327,113.21170237528695,43.777702770452365,100.35590703659376,29.694993227121078,-123.32527855563758,-63.6620606472492,4.849381039185374,0.0,0.0,-8.751182696578946,0.47950020210214206,10.585765397831848,167
-110.6242684358473,74.05577161530626,-9.714022115101406,112.44609967229054,34.33756490356557,103.12567568334731,30.42448355636296,-122.66316667702407,-61.6849348202079,5.27974190408592,0.0,0.0,-10.361008791499032,0.8342351126181127,11.169039523245466,168
-117.60924561996853,71.65771074299477,-10.063791691287035,110.89718986901077,26.005761111496472,105.49617942650201,27.942563970938817,-122.11818801446096,-60.11015348867797,5.598287094952918,0.0,0.0,-11.896199130896392,0.5918638961944231,12.290640983183284,169
-123.65826860954009,71.322107808064,-8.115621042860713,109.21228078880199,20.093081216509713,108.01983199762464,25.939287001482874,-121.87827953803746,-59.86340284043741,5.76169757894178,0.0,0.0,-13.90966027440309,0.9068891274324686,12.531508897196698,170
-127.287033138849,73.39462529691065,-4.714589580721821,108.80957966242416,14.683443082111774,108.44963044345572,24.88120392087449,-120.93616988755682,-60.397776172091895,6.033060678914606,0.0,0.0,-15.232464480609758,1.8373387946436064,12.467089260988635,171
-129.82003745484593,72.64874361078164,-4.543956437085657,108.81622204620747,13.108670804231043,110.10307526648829,23.753882854967653,-121.03156235353056,-61.03088444248584,6.10111009569718,0.0,0.0,-16.553761580763016,2.6242729600221097,11.87622911657068,172
-131.2193924412695,72.77926349927004,-2.706814124857134,109.65780313291145,11.877027329575945,109.44400119367971,24.31685391343078,-120.71499305569034,-61.62779602343567,6.132127530770928,0.0,0.0,-17.639655680432206,3.2693206079766743,11.175952211870458,173
-131.82494795105538,74.40090144114157,0.16834352178399223,110.26541210325385,12.064453602679706,109.25951991938926,23.91582790259663,-120.9236317590179,-61.8244911545663,6.140144274521317,0.0,0.0,-18.826263351618977,3.5050576072651447,10.609995424816601,174
-130.63272361912178,74.89491378672015,1.7663349874776508,111.41018363723336,13.801272749421807,108.26579992823957,24.614902316992964,-121.32345013179378,-61.955711880493844,6.065275078384233,0.0,0.0,-19.73640884341478,3.383287671481046,10.350143460209594,175
-129.39350021973092,74.29676310449712,2.5436186724086736,113.57391827290624,19.537317566857112,105.46203714592697,26.605320946609613,-123.36272513697875,-63.0723885290626,5.740003018966295,0.0,0.0,-19.494761313951376,3.142156774563137,9.905806728991498,176
-125.70047578839143,72.82919728705433,1.31300892931979,116.54572856979689,28.216887053718352,104.29482881544934,28.590862292641116,-124.59327273862644,-63.50167064202886,5.282355726802673,0.0,0.0,-18.220897019774423,2.493336280099958,9.52008379502661,177
-120.03837686801346,72.14723711282917,-1.2113017885784891,118.51019179182906,34.490809623629104,101.99128037493588,32.070553953029645,-124.8120155574686,-63.925908019854134,4.962971990350622,0.0,0.0,-16.941788816808945,1.2973918778698819,9.457283211695534,178
-113.7534758827431,71.14618691575697,-3.882286584582382,120.43477649534891,43.13080024357972,100.022014277778,33.77321994059574,-124.87767904142481,-65.11580947193876,4.604392615392962,0.0,0.0,-15.809639677103435,0.4013796652482475,9.047946922495964,179
-104.67015362999838,71.56285773785969,-6.012892124084702,123.74527621801097,50.822043009836776,97.11007434300801,37.213077587935025,-125.83415648789226,-67.06920512929106,4.334899648510894,0.0,0.0,-14.513974227946358,-0.12187452007064858,8.396579826202426,180
-93.67015362999838,72.71505223613798,-7.9632320280410624,126.33514193167484,58.73230746636407,93.31784213000279,36.886780727300035,-127.78112809933552,-67.62615684122719,3.8294879725243094,0.0,0.0,-12.649950664954265,-1.382078219975814,8.334271880407986,181
-82.67015362999838,74.40040607339353,-8.024852539865174,127.88124276869212,67.03343804621551,89.45391881744463,35.21747276573235,-129.04069273968818,-69.64277984226122,3.370257282282388,0.0,0.0,-11.337435414191535,-2.432552830223983,7.958071650768724,182
-73.6951895011201,76.49686198772177,-9.200360034944817,129.58363097444087,75.27584750583333,85.35689900812888,32.6428258612527,-129.94406325703378,-69.04535563086888,3.0037039013137306,0.0,0.0,-9.745204719662219,-3.4091296400265887,8.466214359957064,183
-67.51714436721738,78.62910968787557,-8.281406553533463,131.17126721989126,85.25131405683284,81.16664345251219,29.035109046129783,-131.00322657819697,-68.04794179915926,2.617909949019088,0.0,0.0,-8.21251223413986,-4.016910507473644,8.581088793574093,184
-65.46890794918362,77.78792638970926,-5.443890732204327,132.68174652178405,93.94831598633691,77.78776743259937,25.16014893917307,-132.3524879098394,-70.16493336443371,2.2665307060844424,0.0,0.0,-7.308115689414425,-4.377133310379842,8.203876287782201,185
-63.486764040732076,77.57250028374177,-3.397794039160182,133.72868955772142,101.53590972181185,74.34731607524213,21.33011994377135,-132.8255750120512,-78.5509168601993,1.850016454001407,0.0,0.0,-6.55709330756356,-4.889016155376487,7.566645613074914,186
-62.511895654746965,77.11612209174419,-2.7692690228506476,135.5619900070398,109.02818756700697,72.99332941015392,18.88341526799946,-133.30017089380416,-89.5509168601993,1.675758438949667,0.0,0.0,-5.987421710322436,-4.591610797090449,6.670711090459463,187
-60.88598750193943,76.60076912721333,-2.5246952307133763,137.1691887813454,114.36941692670716,72.38294774349266,17.469494854564942,-133.22307322553976,-100.5509168601993,1.7951855314060168,0.0,0.0,-5.537566831662325,-4.021945201594024,5.968619794305567,188
-59.562381397823486,76.31920794939475,-2.276443815639322,138.0981960260817,116.84765005241583,72.19791188495658,17.106592232628202,-133.50550804842084,-111.5509168601993,2.0888505065864136,0.0,0.0,-5.108231108300358,-3.398710301407611,5.738676919038887,189
-58.53563299817146,75.9846137345888,-3.1012764639318555,138.67888287253186,118.37029213809281,73.68823092472455,15.505468721927688,-133.43701733873755,-122.5509168601993,2.3386325876890446,0.0,0.0,-4.507124173675687,-2.9064363844914043,5.66899016258556,190
-59.210488107457635,77.27821778463978,-1.0445948543651111,139.05471185506707,117.92733254549636,72.94219402094451,15.332264772086544,-133.77832362130957,-133.5509168601993,2.4065150231263104,0.0,0.0,-3.902446021780782,-2.5485065022028315,5.804999941544822,191
-58.14609066322635,76.683775086632,-0.7747724042729693,138.6674197250184,116.73005163264524,74.21488473015563,14.378992573574134,-134.35452535885705,-144.5509168601993,2.27302199967215,0.0,0.0,-2.992522411303253,-2.322366815407811,5.991682235107616,192
-58.08092796480334,73.74851683962638,-0.4554829565912285,137.49643724374425,113.00204797870117,72.98232758626607,14.484634463421395,-136.50060384551676,-145.38831186699684,2.051078535957318,0.0,0.0,-2.0811423137602096,-2.2605091918315443,6.421293643231809,193
-60.292764729923675,72.24636127088684,3.751239302208275,137.440518984272,109.17967332947028,74.68927272059216,10.150770053898603,-139.67897490196012,-141.2697750135132,1.944956336762865,0.0,0.0,-1.3245270546405075,-2.2751048590569574,7.145977535143628,194
-58.66371274853093,68.1290613587174,6.6548436966685784,136.4670876486637,103.9703705711725,74.52680289627918,4.287189046693465,-142.6873181006901,-135.75321923256317,1.6434759208427916,0.0,0.0,0.11542285701896934,-2.5771825281020164,8.576973573380636,195
-55.22945705508269,64.78433695927538,11.082394597285548,136.3785612984542,98.04432548954863,71.64843841996853,-1.7128109533065352,-144.77403861772893,-124.75321923256317,1.5103120719017766,0.0,0.0,1.269090816925716,-2.9304140925255204,9.88896583658545,196
-50.39819722920457,58.40153540637361,13.06622162366995,135.52792562735422,88.53602991023855,69.050104246507,-7.712810953306535,-145.99846562181793,-113.75321923256317,1.4378314800322232,0.0,0.0,1.6747285589771788,-3.3503198173651088,10.540856522434693,197
-44.12999593916657,52.354907122765134,13.561799242869913,136.61457154115507,82.87843199773616,66.2055174615443,-13.712810953306535,-147.07997574207846,-102.75321923256317,1.5799967729996567,0.0,0.0,1.8669610143440476,-4.117486860863033,12.130150253520812,198
-36.12558942328427,47.53851233930695,10.920075520258365,137.62775451543035,81.69518957859098,67.19753341221389,-19.712810953306537,-149.32784602120978,-91.75321923256317,1.4430476485298567,0.0,0.0,2.34418111612192,-5.177631480696343,13.011699602444146,199
-25.87363233153474,43.442935214511635,4.920075520258365,137.85120130814826,79.32509467374173,67.59644645341301,-25.712810953306537,-150.9911738702988,-80.75321923256317,1.3951637264100876,0.0,0.0,2.5947040251667155,-6.2807571486040965,13.938469891241306,200
-15.982659393701292,40.67506416733406,-1.079924479741635,136.8506588461771,76.44937226845295,68.07161117499453,-29.995223626468984,-151.6894953401305,-69.75321923256317,1.3473110831380413,0.0,0.0,2.4539785166935575,-6.804839437577147,14.218876967386258,201
-9.651484148498973,39.45917306310516,-6.477452308393203,135.96288344531854,73.74636029121032,68.38786738867984,-29.026333185214856,-152.418369098233,-58.75321923256317,1.4341870613082741,0.0,0.0,1.919904434185942,-7.141402815078113,14.151705833258614,202
-4.75493990018366,38.73858230041674,-10.34455704847048,135.55169710213158,70.52639395896706,68.66032587352585,-26.90597736435013,-152.85865911298478,-47.75321923256317,1.6013831805991465,0.0,0.0,1.111865656989997,-7.297978816920405,13.859186640952327,203
0.6017401186559003,38.46153585542911,-14.80911187695039,135.094396462834,64.86194310273183,69.99380895474637,-25.722398827444284,-152.58278711275497,-39.41759439940194,1.8157030182307055,0.0,0.0,0.07467654998047704,-7.300688730187967,13.370906062023716,204
5.532675861581928,38.28142932836859,-19.789164437012683,135.3294953583058,62.8514365191744,69.41802932960944,-22.532664790542597,-152.7068528935387,-39.936693616692544,1.8859004721678267,0.0,0.0,-0.7224902764929582,-7.054920357893158,12.528825182837751,205
7.873235356607734,40.13021374752265,-21.63687114210367,135.56786732038378,58.79874947230944,69.96613648251675,-21.01974610456865,-152.26002046249386,-43.07651871828547,1.9820185270431452,0.0,0.0,-1.8353706239590923,-6.817372801864919,11.674586896329423,206
8.04845378829174,44.254620412517426,-22.035216012839943,136.52092106777738,56.279114120867916,70.04661805847907,-17.04884572241925,-152.01831952219663,-43.96624826605761,1.8493133501698777,0.0,0.0,-2.586546558792978,-6.781911640469451,10.915975126839543,207
7.092084710199962,48.669633463059235,-21.885901008912743,137.20630460521525,51.45281399443458,72.07843608672451,-13.03228540267821,-151.15589840834963,-49.90973374928081,1.701419528227701,0.0,0.0,-3.6196027542618205,-6.999103292957227,10.107831484958073,208
5.595919271867791,53.56025395534652,-22.363074950981908,137.38477526549323,49.2038601692687,74.4724187202291,-7.032285402678211,-149.46373513721392,-58.69672438240047,1.4973515898464018,0.0,0.0,-4.649739567585618,-7.168399274974198,8.761514643542082,209
3.520531626598858,58.43860471699801,-23.0645489604144,137.19865951842144,48.34049361933482,77.14616716787859,-1.20089780460353,-147.61869810518093,-69.69672438240048,1.3465588301192968,0.0,0.0,-5.317305340191778,-7.478106902935732,7.242397919586016,210
-0.22138805855855279,62.840294242940146,-23.372267048902025,137.55262019603236,48.53373937144358,80.10785368066188,3.5330806630511944,-145.74852559142343,-80.69672438240048,1.3221883417812301,0.0,0.0,-5.73303513947774,-7.764884393809334,5.302854097015669,211
-3.083752597241849,70.28964393634332,-23.88569294521704,136.73611336626055,47.57572603086447,84.1816627243742,8.626296984604602,-142.740380555353,-91.69672438240048,1.5163457681630963,0.0,0.0,-6.00651765255944,-7.792340344557684,3.8815484514796226,212
-5.624614949125527,74.25681783904118,-24.045460535925034,136.94003555378606,46.75055045566848,83.55772085933772,14.207275426462417,-139.86112608793914,-102.69672438240048,1.9808448509356071,0.0,0.0,-7.030181052585908,-7.361346189712051,2.3581040637901345,213
-7.117168605828028,78.04072218939875,-24.230754365223294,136.3037932851476,45.887168243419524,84.38858284445698,17.331379614090682,-136.50369916833628,-113.69672438240048,2.4252970416858313,0.0,0.0,-7.995013892119763,-6.880178047593854,1.1560117176530014,214
-8.68142378141844,79.91942680383436,-25.86183222758038,135.67780450180717,46.32473906814334,86.05949549239743,18.340339724863878,-133.03836517076877,-124.69672438240048,2.9317816289699703,0.0,0.0,-8.731467561726731,-6.696281650453971,0.06077547813778443,215
-11.581522909453584,83.01076447319956,-25.675680638373606,135.6811167747496,46.88934101577626,87.4227717054333,22.18581732918346,-129.50221277983036,-135.69672438240048,3.5173029261362556,0.0,0.0,-9.686918080163712,-6.209275283976185,-0.761890630747112,216
-14.208597598682891,84.84874728502531,-24.498913122199408,136.15770139048297,46.21673675047561,87.98672054120138,24.653075514082683,-126.37032182182668,-146.69672438240048,4.006896670080147,0.0,0.0,-10.517716881673698,-5.641830687787688,-1.4987872365917707,217
-17.077366636683188,86.5276118591168,-23.853580854215565,136.13901478917225,46.1359060971847,87.03151496300379,25.599310585852145,-121.12233959881803,-154.28342618425623,4.3665006946192095,0.0,0.0,-11.199347192213523,-4.745562469842217,-2.150718295290222,218
-18.55662486939075,86.38594156909595,-24.52520627496417,136.45603547275923,46.48006580862988,86.43193602413305,27.47610139466993,-116.84123613898826,-155.36474948853913,4.674680962182925,0.0,0.0,-11.956233651176152,-3.9168746550049995,-2.3159623386771777,219
-19.206389126903296,87.96341303007367,-23.516871663069654,136.3111219997952,47.07582205491028,87.30200051853247,27.790145281500937,-112.73707338647719,-156.280175952477,4.806240595092797,0.0,0.0,-12.183043838940714,-3.2460547081216293,-2.2067309051957733,220
-18.768508570393983,87.33667707687343,-23.365181111036854,136.3306000857295,47.400983927322876,88.18497411612876,28.506291071649784,-110.96259987539989,-157.18066064139498,4.790323672221389,0.0,0.0,-12.170635489279718,-2.745056729288504,-1.7617285226698762,221
-17.901683497705342,86.49289524287379,-22.773586391152186,136.09685346936962,47.20474298593074,88.33920418545678,28.846009230908194,-110.63605109921323,-158.18889726300813,4.671381914360063,0.0,0.0,-12.01141009889611,-2.377299105305238,-0.8134133230109263,222
-16.411922121356827,85.72663252532705,-21.99403706277821,136.18833876749866,46.902441161472936,88.6209330854389,29.688545673622055,-112.11806166825556,-159.45774987546446,4.449066400946244,0.0,0.0,-11.65608285933851,-2.2324261660719387,0.2637396628571928,223
-15.37959965531151,84.50686201351328,-20.720888054056285,136.00518715935414,47.41625265891153,89.74317563688828,28.351520288451706,-113.80845484768642,-159.88706595279663,4.157570026789843,0.0,0.0,-11.263922167152069,-2.1615976239579067,1.51753088593881,224
-14.560266945200697,83.49060054412818,-19.943160258024772,135.12020744878964,47.48898543367004,90.81572867016057,27.033042751600714,-116.27216221620677,-159.63086281073774,3.72702038785187,0.0,0.0,-10.32324164151701,-2.3173728891405094,2.824564104425938,225
-13.438491768863384,81.98958221584198,-19.155276209074373,134.36332682501092,48.10153525807481,89.57706593068649,26.797347769623357,-118.72499926450634,-158.0421254716975,3.215915190097156,0.0,0.0,-9.136599370428842,-2.1988472279849574,4.147739638177574,226
-11.35627168911575,78.65665276758808,-19.880401248756645,133.19826788210483,48.95122019573846,90.14514012192032,24.782194533605473,-120.76377444438286,-153.42002165439615,2.5754940442845795,0.0,0.0,-7.967750868598094,-2.108540477976848,5.5698881370932165,227
-8.797763302716158,75.12841995680145,-20.548284883004346,132.35494589995622,49.32736826262294,89.01130454313737,24.272630689840557,-122.80008558524335,-143.80244728927653,2.0066841535046573,0.0,0.0,-6.818617311349247,-1.9293026847937738,7.202476736513782,228
-7.017582333988232,73.62493917806974,-19.887044904915186,132.18570952610787,50.43911984100229,89.37769169385487,21.750828827846377,-125.22943097940289,-132.80244728927653,1.6376884069669508,0.0,0.0,-5.54864938427803,-1.9334074868989721,8.647615855881414,229
-4.703363535335051,70.67768336330467,-21.149364205611295,131.5435993713697,49.44392759379715,88.38772295895993,20.53176366630032,-127.02813159627317,-121.80244728927653,1.4450745404171796,0.0,0.0,-4.388646874189215,-2.0916143552786117,10.001074801324497,230
-2.7117993314299995,67.63089446097023,-21.195656388935863,131.3094409035464,47.40901108334874,87.12794265348482,18.7978674873876,-128.22294141232146,-110.80244728927653,1.5202835071664726,0.0,0.0,-4.041301341234241,-2.5395727549871134,10.958671015711902,231
-0.3864738887589858,64.80965836734953,-21.647386019143806,131.2418348300851,46.61354060689752,85.99781175960985,17.35633570265545,-129.73030056027213,-99.80244728927653,1.6946347721731314,0.0,0.0,-3.7343048105769125,-2.894591013844213,11.20236721578129,232
1.199916346483409,62.495560451266776,-22.387412630158494,130.96849965853045,46.74532164122882,86.57170781179826,14.419989548364306,-130.89829051752574,-88.80244728927653,1.8824515793433094,0.0,0.0,-3.7401953706170565,-3.2740359214655452,11.223139463649222,233
2.342343853155286,60.34633197337051,-22.597615930200774,131.68613028063245,45.734761400530765,85.4851948437405,13.306147554895194,-132.77387805849466,-77.80244728927653,2.0533577514687043,0.0,0.0,-4.302042970154499,-3.705730064336028,10.939591402018953,234
2.829310801048744,58.146618695984834,-23.0883317271675,132.47041944216855,44.77032040457313,84.69334698579287,12.128793320196776,-133.56687850788325,-66.80244728927653,2.2054872131642935,0.0,0.0,-4.833536984283394,-3.852079554697608,10.328461579159741,235
2.1823126352619506,58.52943672777534,-22.508744809853894,133.3498224260163,43.88514384510668,84.2972984408033,11.975027441243558,-134.36745799710488,-60.04267626605449,2.2863736195681787,0.0,0.0,-5.338364782427512,-4.198882532863147,9.844252188464889,236
1.5808549120454307,59.30076067063613,-22.431083787957956,133.9379751822781,42.7690030844846,84.19320278814087,12.18005948360442,-134.46627605958525,-60.007225818134,2.3356924880742533,0.0,0.0,-5.87503965931245,-4.5202760089030685,9.48601627895918,237
0.09005365374360122,62.463963885407075,-21.718627445344385,134.9451463527862,43.63051753352318,85.72158424513208,14.448521124898969,-135.4216395787956,-63.5641582910052,2.257051741850543,0.0,0.0,-6.14448048406152,-4.764066707433226,8.672748416340948,238
-0.6022648552593775,63.876706939940924,-22.51148506937835,135.43720893409798,43.541074422409835,87.0112292456482,16.15371879874556,-134.9351111435449,-67.18592189999232,2.3252835918988164,0.0,0.0,-6.769639259994747,-4.955547053540666,8.046170953000773,239
-1.4677976860085544,65.58948136927131,-23.59204784388531,136.13326777922393,43.75624352363706,86.70976384238514,19.745890774124923,-134.35741020708005,-72.97626591018631,2.345022044317052,0.0,0.0,-7.451453201393604,-5.158841150300541,7.254544108849948,240
-2.3581427532034964,67.24329117720433,-24.531552021965247,136.42597170710025,43.76752530402483,88.87692309654363,21.614061498772795,-132.87585665996485,-78.72737571740822,2.403911134754603,0.0,0.0,-8.414120270357639,-5.138431093501033,6.113122380577269,241
-3.966930631219389,70.89523509446542,-24.045242385071482,136.17634700188464,42.00077530296106,89.15418032022616,24.624147443512282,-130.79775471191329,-83.25228725840066,2.499220253120772,0.0,0.0,-9.107085113276437,-5.344725226466032,5.371335715510424,242
-4.4102598783797395,72.23157739616833,-25.03101037867429,135.5067705700249,41.33607987953272,89.93821007331154,24.618882624275813,-128.9308794182874,-88.89530741526488,2.537892430536477,0.0,0.0,-9.613422909189403,-5.380935089071705,4.580807007944499,243
-4.400133594393964,72.73870484722335,-25.174986853395474,135.39580791827134,40.41655933097049,91.02812455596276,24.402489277403394,-128.1640555783567,-95.03767963494116,2.5719689297051027,0.0,0.0,-10.280076510017764,-5.1491636005028925,3.81923031172848,244
-3.5328105093685873,73.50798382620852,-25.99900864998259,135.05833277967662,38.52610161881699,90.59989792711632,25.792096029509402,-127.1246188631513,-100.55627550203917,2.624757966213476,0.0,0.0,-10.606701069498918,-4.796487279450451,3.413682727349212,245
-3.435565732768042,75.41474296476456,-25.037996943143654,134.55743384101132,36.72645348047225,89.93266380520994,26.907705441535732,-126.66234955295738,-108.13114230856009,2.673384651734542,0.0,0.0,-10.425775715195,-4.378814030337084,3.02304968473336,246
-1.7453654849294185,75.55922392420354,-25.670514769723777,134.0368199639745,34.295063045013094,88.91523793427761,27.656953575175443,-126.55224776587944,-115.37578632962061,2.75353929569676,0.0,0.0,-10.171722480911814,-4.002515243347306,2.8621251982766083,247
-0.23729183687710276,75.51902473733732,-26.163379661272383,133.46256852525588,31.897972002282515,87.89076912965439,28.445747271441757,-126.09271946676874,-121.64873854428141,2.859530381473031,0.0,0.0,-9.874051248805849,-3.6269600126330035,2.7174005203655267,248
1.4160761453576152,74.86803165636024,-26.365751663546305,132.43897543884222,31.2177660569711,88.05341872806231,27.744728269961374,-125.46304522380089,-127.3147620776081,2.894057710692765,0.0,0.0,-9.233528093885994,-3.232282147407367,2.5882092364667586,249
3.666094688387129,72.57146539178271,-28.06461097442175,132.09135767212024,31.246668139921425,86.89848521964355,29.58597589931892,-124.85980301612203,-131.78264111762095,2.824134855567747,0.0,0.0,-8.834369131523225,-2.9333465338540496,2.4026276309619754,250
3.551182036036306,71.13272826480373,-27.609646272730515,132.06223874660756,31.44224148480878,84.85431846774839,30.351922974169007,-124.88286443629248,-137.06053298182633,2.776594284537534,0.0,0.0,-8.545216411488664,-2.196701435871024,2.070852689116721,251
2.5566516077835337,68.96948033585814,-27.211612766926336,131.48764980369975,34.113985317594434,83.29698784032718,29.66149553882922,-125.8486790647663,-141.5946176561353,2.6919295877421594,0.0,0.0,-7.363634841701521,-1.6999998152179112,1.9028139009047575,252
-1.0788666637614779,66.39823598804647,-26.920134337895032,131.48706610054336,38.33433673143333,81.222030684949,29.50866038743431,-126.2032806153482,-143.16535427044548,2.64927543970733,0.0,0.0,-5.590713884477311,-1.4825278534186601,2.116444672124277,253
-10.63989126752401,63.1557569908314,-25.489437318079364,132.35668744194217,44.061627509855256,78.9629030125313,30.16313378272692,-126.33003463917021,-142.39037954855974,2.6785744497175785,0.0,0.0,-3.926600983374221,-1.5739205399733487,2.952519490298279,254
-21.63989126752401,60.22093542698648,-19.87821704625619,131.57140908122454,52.159064118419046,75.74471335619208,29.847744528459412,-124.02954803212661,-137.86217262013622,2.659561385656562,0.0,0.0,-2.5009601194772113,-1.5438581383916403,4.213549208292105,255
-32.63989126752401,60.88199527999031,-13.87821704625619,132.7419999759877,60.555012837500726,75.5021413948322,29.732687185224542,-124.78044325261794,-135.9032689442919,2.5170345923774424,0.0,0.0,-1.5681994659034741,-0.8420176779636488,6.5457907784475236,256
-43.63989126752401,63.27355038047668,-10.609424048615734,132.81325704715098,66.08976985389027,75.93026391899055,32.681952794973455,-124.06996679549091,-135.93160133741048,2.3752102330849354,0.0,0.0,-1.2532611660043764,-0.37364835566634114,8.640887929790665,257
-54.63989126752401,65.10431696205279,-13.50887508367798,131.57817973828344,70.35835905285929,77.51599618078868,34.19250490425015,-122.52641483071463,-137.6167165655228,2.201607465606447,0.0,0.0,-0.49554019160966745,-0.2308241163407969,10.75156999457616,258
-65.639891267524,69.40696125889345,-14.0667270982025,128.73462459491702,75.36441105910362,77.66860522676676,35.34227870868174,-122.21415299544337,-146.74431196235255,1.8677487266905504,0.0,0.0,0.6954069074160797,-0.4066263718000915,12.121188705656216,259
-76.639891267524,72.66334343563179,-13.321148702478524,127.1555703615389,84.05785881262683,79.16190885666767,30.942477422042,-121.44597261384223,-152.6224125390351,1.3874363488202908,0.0,0.0,1.021565169419797,-0.7378918408242457,13.686018876899047,260
-87.639891267524,75.70947077558044,-12.000193396847722,122.33627435844464,92.71672963743329,79.88821386132419,25.750684522801418,-118.43573762922448,-163.6224125390351,0.7346441305932668,0.0,0.0,1.757954094588689,-0.9419049660298754,15.107561301267493,261
-98.639891267524,78.56522840545144,-11.757499570245455,116.7977395038258,97.13821384247768,80.27568868010476,22.359910146447643,-115.04469348276722,-152.6224125390351,0.4000089667717636,0.0,0.0,1.3593151929057894,-1.2650462516568741,15.248554726571642,262
-108.58128349115255,81.1158659067757,-11.036941149884344,108.35547472517912,96.93998157782839,79.45118474142059,21.32187184936165,-110.82319633767945,-141.6224125390351,0.3283278721713794,0.0,0.0,0.8735602872974043,-1.988801901077268,15.91717207795133,263
-110.4808882334356,81.85105859720716,-12.217383680402284,98.93777707663511,98.29328759595431,78.34088601708176,19.717200235645063,-105.59506466584452,-130.6224125390351,0.6497618166250544,0.0,0.0,0.3224652916905565,-2.5363108548002877,15.220708177326319,264
-108.5940095794119,82.54979662505069,-15.595295590907156,94.40882703088165,99.3460667854335,77.36283558482425,19.166753890417397,-104.11499264344995,-119.62241253903511,1.1818374046996447,0.0,0.0,0.3345783993599551,-3.1549317264163124,16.981160066833795,265
-102.51394093382278,83.61763189816544,-18.26715189511413,92.35527500769615,97.7887524038178,78.20819922072158,17.67386297285209,-103.14336607114201,-108.62241253903511,1.6398527570312231,0.0,0.0,0.8671959938721179,-3.6327362852382836,17.801314855708096,266
-98.40205901119732,85.22105223784807,-18.763383828367804,94.16479134799691,95.98467714859173,79.43649596980431,16.306164791759617,-104.99546717124568,-97.62241253903511,1.9699997342737448,0.0,0.0,1.3322819694857089,-3.72916267738496,18.48324706745025,267
-94.95464929209672,84.61556550715589,-20.974316670232575,97.73141195289769,96.5144677836257,80.2680270788612,14.234870161098206,-107.02078362356946,-86.62241253903511,2.249437928395032,0.0,0.0,1.7258063133608017,-3.6988780315803025,19.298093954775528,268
-94.23082129177511,85.13868852034429,-20.933841087688318,100.38567433939396,98.6530340012878,80.86352534159275,12.058657489347974,-109.51788474051419,-75.62241253903511,2.536432747886628,0.0,0.0,2.382706662509429,-3.5799042166631208,19.448922533359063,269
-93.61691683777849,85.18566907333351,-21.01835748795572,102.76895400059179,98.15968251486261,80.0127665115144,11.375095835598223,-112.13132902722633,-64.62241253903511,2.742365581785251,0.0,0.0,2.5893740686575417,-3.4371553054637918,19.13917349664645,270
-91.64508762314195,85.00246286184294,-23.72000006331426,106.64308859131542,97.34555655590863,78.64916693946526,10.60434258393554,-116.04219350167146,-53.62241253903511,2.8921473000619144,0.0,0.0,2.987704490494417,-3.6139506746277967,18.473359597667816,271
-91.73285832327889,85.28993728843938,-23.695980259065017,110.55185423120878,99.76361745788174,78.21631125271523,7.081492995246646,-120.59671608339771,-42.62241253903511,3.2125219951238297,0.0,0.0,3.442430252671233,-3.8135244467840756,18.01012811594902,272
-91.7570777027125,84.11193755391288,-22.865798072233886,114.38223246235627,101.58297264130012,76.58418039852606,5.061775459191293,-124.99279104791935,-31.62241253903511,3.535160458560828,0.0,0.0,3.4840806693836974,-3.8537404776492714,18.137208527094856,273
-91.6672684186627,83.12998090607984,-22.50873810913162,120.79610800355309,105.64346767504209,76.83507919543747,1.1343372123086435,-130.519416747284,-20.62241253903511,3.895388795737016,0.0,0.0,3.777267313622923,-3.4598636694674045,18.050444898103933,274
-90.74111314772014,84.59781348450319,-21.67744493884778,126.34601561092323,107.22672439823543,76.35610644928934,-0.34837570148641955,-135.3296782392519,-9.62241253903511,4.277161041707234,0.0,0.0,3.650842409105623,-3.0209941478649687,17.87990349067882,275
-85.54650869097757,83.51355399468603,-21.296234123757994,130.8492889855099,102.48662419376556,73.51247640334594,-0.7711476101190126,-139.8444562047922,1.3775874609648895,4.662876725943045,0.0,0.0,3.4965507672307226,-2.8348478539699196,17.610695879560236,276
-82.82208203129447,83.65236163756677,-21.291165620571867,134.28571823975614,102.67464708890944,71.93520925067577,-2.411171067005311,-144.43174001937555,12.37758746096489,5.364883786437225,0.0,0.0,4.082286578386812,-2.8138145998509545,17.740317078790383,277
-78.6450901403486,83.72393154504536,-21.82260164501175,135.98857672744228,99.33187211882374,69.5642804269751,-1.6598396592411513,-146.61240922738094,23.37758746096489,5.849841983581904,0.0,0.0,4.407922363373137,-2.5283875437464367,17.414584700409108,278
-71.48908265349968,79.26866858472334,-21.257623245735854,135.77805509925494,95.82561203811886,66.80792795303726,-1.8291645804743744,-148.25790877288512,34.37758746096489,6.416974707249056,0.0,0.0,4.819016994524121,-2.0432242881837372,16.96385900333142,279
-69.29980982018844,77.16151762336193,-19.279243065642277,135.44358529652763,94.82096297596047,65.50181348804976,-3.803610659188038,-149.30462585729634,45.37758746096489,6.770890720500944,0.0,0.0,5.42321004086628,-1.6592111461249446,16.491484543472005,280
-68.39805754720815,77.33203777653871,-16.908531526794647,134.414197014345,90.98390733612804,64.97103347289006,-1.6951317548568974,-149.2749732710842,56.37758746096489,6.964815333222648,0.0,0.0,5.3721570022644896,-0.9792474543712961,15.929993197071658,281
-67.27928604265823,76.45691267239818,-16.621437623894902,134.27999157830521,90.29778750830053,63.58010454460212,0.11427307500958092,-149.61103355686473,67.37758746096489,7.138807737242961,0.0,0.0,5.686056197144638,-0.4712446782437738,15.86932733034264,282
-66.11229821461995,76.90405152101071,-17.569429771395686,133.53352023622588,89.94655092063297,65.27430518008302,2.952054230131998,-148.9760955488137,78.37758746096489,7.150084039378946,0.0,0.0,6.299058855946939,-0.09451671502832351,15.665250827837948,283
-66.95530029644107,78.04529127880404,-18.528009840852917,133.3879424265383,89.802506593205,68.65884247474455,4.229451068787874,-148.0218186941569,88.7446163658843,7.04626404074202,0.0,0.0,6.796872392382921,-0.08529756185698013,14.499751720973364,284
-68.40360342586308,79.06951653835684,-18.994004661820654,132.44566867585863,90.61303243246138,69.97379089037264,6.936297098231187,-146.4245510580432,87.1104454457301,7.0508316160085815,0.0,0.0,7.099751875350257,-0.2540930992457212,14.16416427633209,285
-70.72810003189639,80.38556544666656,-19.717871940024335,130.6739416980677,91.35929420396441,74.15940363768709,8.873185168149353,-144.0755553484619,85.39963453500162,6.880775253990334,0.0,0.0,6.876041663106971,-0.5028726191603884,13.785521371916158,286
-72.42826084013866,80.55582540699166,-20.318627139633932,128.99554591668908,93.40897613403784,76.1437208237071,10.790166561260262,-140.4185004659949,82.68876848329857,6.76221239626226,0.0,0.0,6.173740546747688,-0.21541194340680023,13.83999343609665,287
-73.89398428282394,82.48527924814466,-19.8053396159762,126.25550886659607,93.39212699498606,78.67673214738457,12.640155580365668,-136.2949586733573,79.89247078928102,6.491154359196566,0.0,0.0,5.45265266770707,0.3930833506174434,14.793153697372142,288
-74.2662102479686,82.27563581790179,-21.029336677468613,123.51513733429658,91.24696744968755,79.70337686316304,15.449862560605625,-131.28686636353862,76.53410133299825,6.086799391168067,0.0,0.0,4.192703590268249,1.0994151786377342,16.499162278045354,289
-75.60907717965299,83.36780955439485,-20.308861126438153,122.02829603721509,91.47464030947845,81.7753699041783,15.846496898253758,-127.04174435503383,72.50853432175008,5.807078048077334,0.0,0.0,3.2252201563179503,1.9913998963247488,18.35941688766226,290
-78.69296266882994,84.00507263064104,-21.01985645301038,119.2998119885247,91.36744890389451,82.90335885308897,16.159911486444564,-122.39601785242557,68.87147875784947,5.443434100414598,0.0,0.0,2.334699948366555,1.9340268968471328,18.3820527113864,291
-79.82814053664941,85.41896825958226,-22.26754687629442,117.41807634670425,89.71814676650428,83.78374638978376,16.613752719675038,-119.06516871381382,66.36139647248535,5.367438056112611,0.0,0.0,1.5535988942133723,1.4712205011423043,18.485429333220917,292
-80.93191706098126,84.95719928290893,-24.70854658766314,117.64018608763246,88.90971957516439,83.83207814541325,16.81878794947628,-118.320538553573,65.85809185053404,5.312973957061422,0.0,0.0,0.9287833791131802,0.7038858708439124,18.05965002596175,293
-83.8751299155912,85.82871934275029,-24.520834442661755,119.38672581920738,91.75134733358828,84.11536025165111,14.874837497852528,-120.03489472075631,67.52535782680398,5.231924611474212,0.0,0.0,0.9894583416178007,-0.30862897316848936,16.825735687937264,294
-85.61370345099938,84.06657943209507,-25.2325297642473,121.73700164331981,94.19167741848474,84.26846139992867,12.560761442604196,-123.04777510158524,70.23359313153634,5.122500020896651,0.0,0.0,0.868092205357147,-1.3583360359375096,15.755556046405173,295
-87.38648049159879,83.7660969375125,-24.452974226118773,125.43474222906528,97.1740226576706,84.41506504467375,9.810183008785222,-126.44478850760383,74.3396538031992,5.012120834937185,0.0,0.0,0.5537223297703269,-2.372202480446318,14.986151338379225,296
-87.71302858969712,83.4345797435555,-23.201145776762296,128.34534184269137,97.8372488766609,83.2231025736713,9.551270216092064,-130.5391575538125,78.54131495623378,4.960614499592351,0.0,0.0,0.6321463090841342,-3.2997886147474937,13.913549058386403,297
-86.00538654431465,83.29160449373462,-21.909706164415358,130.32464215353951,96.55593787622897,83.55151353511613,7.361409747273058,-133.86932592099316,83.10380727787731,4.964017759091386,0.0,0.0,0.6131138169599832,-4.311927451272604,13.125431990788453,298
-82.24123180627687,80.74046778090012,-22.120231598847628,132.79590905413284,93.54205547566238,80.07470065802494,7.4409633946281595,-137.00210040978857,89.27809986547716,4.968931376515202,0.0,0.0,0.5225980152139904,-4.719399197190448,12.410015833334844,299
-75.22657298811784,76.47171242809591,-20.730244423734288,132.86758621019013,87.91864934888324,76.65751525162027,7.094488223461454,-138.0769397283602,94.95324685131074,5.033095191652736,0.0,0.0,0.43170987931242033,-4.618625302587643,11.962762163745692,300
-71.73779710267407,74.10072632058042,-17.966912229871312,134.20728295368355,84.35603180109734,73.0591470971212,6.239821696534361,-140.36178097569586,100.55288192901908,5.0464372408393094,0.0,0.0,0.20339118791337732,-4.572800450916535,11.833712075197578,301
-64.39550441590772,70.61427575606692,-18.033259587246455,132.58716576246027,78.18263337863635,70.74103567603568,6.808134225245691,-139.5581462823617,105.40096162023328,5.040501603290475,0.0,0.0,0.09782825303747796,-4.141583471961565,11.50847746603702,302
-58.277440982360794,69.50410232492223,-16.981659419843123,132.29469537736264,73.00488075601835,67.6975786577043,6.508700423795284,-139.55361651266833,109.87297928261893,5.051304622744472,0.0,0.0,0.18722134841546473,-3.8376983775008084,11.544465176836521,303
-53.65438369863642,68.69931836272943,-16.028559718053828,130.4551596208097,69.5146291349969,66.60721044208609,4.9688758656752565,-139.5924682109625,113.21804668612889,5.076775668602323,0.0,0.0,0.34073024696055676,-3.7725210465871375,11.741293997601318,304
-50.91186567846245,69.73211761128871,-17.479660798019808,130.565942856529,66.98322635034262,66.91084467605185,5.274374907610017,-139.77647518350327,117.2240405340948,4.959871820782842,0.0,0.0,0.2735712584292974,-3.681326841172061,11.929680828040663,305
-49.905823848767135,71.22733276355426,-19.287590756573817,130.5076215086536,65.7731672503261,66.92682348129341,5.313738774172256,-140.19316605568017,120.64653571551564,4.890341034787458,0.0,0.0,0.2923218839505439,-3.6802854605128377,11.9027978897497,306
-48.638944326895974,73.00086262785175,-21.172537724575534,129.28128896670935,65.2866099236192,67.09109755691719,5.7904495102355735,-140.27577744522736,123.35584864016788,4.755026496609122,0.0,0.0,0.4684360125910041,-3.7709241975888137,12.086817330837919,307
-48.333468757663425,75.68796331569176,-23.880966920127186,128.1607873839583,64.8629721746996,68.03488366795928,7.412892714707396,-139.72693312068859,127.41631137924762,4.580055910546276,0.0,0.0,0.40551838881417235,-3.90962861878226,12.430750441852828,308
-47.34627903754484,78.44548165575094,-26.669358937767033,125.82848358847045,63.110226347502746,69.89351587394744,9.987678470749293,-137.8526882982687,130.50168563514063,4.324439024088739,0.0,0.0,0.2562635540614894,-3.8794351333533736,13.002130616166134,309
-48.65800319683049,82.9146104643636,-27.532383451333278,123.13524460165164,62.55628251360043,71.70217429268757,12.496638377476039,-136.31582294046643,133.15033887984757,4.025025438930593,0.0,0.0,0.20122416315114905,-3.91462195074708,13.53647459473344,310
-50.74805842460723,85.9233638533208,-29.873108965312493,120.64788359930164,62.818262992240605,73.79089407086488,15.521274192087619,-135.1385888025042,133.83344327329536,3.702879223133858,0.0,0.0,-0.10197031771907077,-4.176466250455605,14.166270417052099,311
-52.90179800294351,87.57921199432539,-34.260675580229716,119.11803092123252,64.14633455552091,76.69298901177415,19.057432747598817,-133.50501463524006,132.96512293671785,3.2128749590524937,0.0,0.0,-0.647589631375511,-4.319082854422105,14.632188517952915,312
-54.89343056560179,90.85031345074226,-36.89093879592133,115.1974910295133,64.89874207062674,80.53467963820312,22.927238642558923,-128.9219526376836,131.57633191694325,2.548957876885508,0.0,0.0,-1.2490410082121806,-4.251005864585275,15.242861550762658,313
-57.27975093163248,91.56883044589269,-39.70038285550021,109.99265430393476,66.43482022973078,80.87485212867873,28.927238642558923,-125.04700212714337,128.05103031552778,2.003814240134927,0.0,0.0,-1.4632527275967793,-4.229821332681601,15.578515471013041,314
-61.16975178610214,92.10463188593698,-39.685530183806755,104.82313361323622,71.24991988940116,83.68234175869188,31.457496451663694,-121.88618926356664,118.6085242680561,1.4176923036283162,0.0,0.0,-1.7120480822615596,-4.199337344172483,16.849763204213794,315
-65.19199437641382,91.40731504594697,-38.83233269266989,98.87647855703017,73.3211506563393,83.53603917135581,33.184160605646476,-116.83764719468468,107.6085242680561,0.7456128095839681,0.0,0.0,-2.1701386649585994,-4.2148480721178325,18.821364263818037,316
-68.21498133998922,90.68863320006669,-37.6397890188494,91.7014567558763,75.55604628165956,84.53609231573787,32.68982606203565,-109.52325342043049,96.6085242680561,0.640376455355583,0.0,0.0,-2.5768891171516177,-4.482242660360502,20.321470374240477,317
-71.40905983729533,89.82166198431321,-37.31868518099014,89.02845544381236,76.8847822025916,83.87377393425439,34.06074380938276,-106.03034036956106,85.6085242680561,0.9429787402356676,0.0,0.0,-2.972466764777296,-4.5462421173615235,21.508062077991763,318
-74.89198986680164,88.39286054306197,-33.50871037002476,81.5150267754728,77.14140240676402,83.1226360573158,34.76445846270555,-97.80031636201842,74.6085242680561,1.3702975254999923,0.0,0.0,-3.243185668838843,-4.5853610342895825,21.709744268226803,319
-82.4953817686673,85.14359702798478,-30.047679263916038,75.6080486464527,81.13816620774926,81.95971017921885,37.613780499174936,-89.5866272997409,63.6085242680561,1.5110338530705358,0.0,0.0,-3.81857068967632,-4.336038606319551,20.74504005538364,320
-85.78260297683268,82.82845000945578,-30.04755746138968,68.26102296413309,82.23898102540585,82.12394397807708,40.44226793900252,-78.5866272997409,52.6085242680561,1.886136769031556,0.0,0.0,-4.626543703996153,-3.8616165555857087,20.26813207742531,321
-87.90896337540963,81.53922652392251,-28.381661918564845,65.51815870647717,81.78862181965415,83.06781299104676,42.317476240134134,-67.79949607784839,41.6085242680561,2.1563975644885045,0.0,0.0,-5.782332038070957,-3.2010985978735143,20.082243314260236,322
-91.16529111068824,81.69899265772415,-22.38706605881536,65.87085078308763,82.13997237091702,84.11401990551708,41.279570585299986,-62.44174649007838,30.6085242680561,2.5065012338900305,0.0,0.0,-7.1088696109420395,-2.1621475122397524,20.205140997509933,323
-94.489962897584,81.32892556430492,-18.307897462541845,68.74384563678652,84.14716826514041,84.30300535588599,40.46508510856753,-60.28418235554537,19.6085242680561,2.7158071422013217,0.0,0.0,-7.977067544845677,-1.0506156412893628,19.67544159366997,324
-98.55027423097557,81.6768854377105,-14.18097185553087,74.95589184422784,87.23726233729852,84.06588881205826,39.8940727449293,-62.0888926128185,8.608524268056101,2.8140682755776156,0.0,0.0,-8.605789955390051,0.049763762736376393,19.153129231939307,325
-101.99668540656288,80.6237864500886,-11.209269613494088,82.82286100977636,89.05452265596226,83.17179845094999,39.02220803279731,-66.65129714946623,-2.391475731943899,2.8375326917203023,0.0,0.0,-9.18162007984062,1.0777631304177093,19.344723323271317,326
-105.93406554015473,78.70036877973061,-7.674008521089206,92.3531801257031,91.05127240647629,81.91468513597712,38.049916283010525,-74.91369891665137,-13.391475731943899,2.830352954491935,0.0,0.0,-9.637747524587164,2.3404079680254304,19.817306176127587,327
-110.30800692207183,78.5591962386134,-1.6740085210892062,102.79269353967727,94.29656497039434,81.52252578020631,32.13963983307296,-85.91369891665137,-24.3914757319439,2.9463574914781048,0.0,0.0,-9.778572282532458,3.5449891976592123,19.932126823693455,328
-116.14043580306728,79.14843460191658,4.325991478910794,110.41767208947499,100.73630869898557,82.37579856637872,26.139639833072962,-95.96595868716742,-35.3914757319439,3.246705529926694,0.0,0.0,-9.68970285657568,4.3550535699561514,19.618002211623445,329
-118.73803552361905,81.83697674212013,10.325991478910794,119.7209486053624,105.07586778517086,83.21620886317403,20.139639833072962,-106.85510885592322,-46.3914757319439,3.519708324450775,0.0,0.0,-9.98882163756317,5.107862330701857,19.058967046687613,330
-120.14247171612816,81.00738907902571,15.6857410025121,127.75650020804633,108.773288129337,82.47944229622098,16.78656152467158,-116.17252565667715,-57.3914757319439,3.859537939893643,0.0,0.0,-9.383951321811736,5.500431246490126,18.23344408130407,331
-119.40692548556422,80.01721157888203,17.080461782496904,134.49973129087397,110.33611740330298,82.79865763776385,14.851602182846921,-123.66662479967638,-68.3914757319439,4.195932364554022,0.0,0.0,-8.525760444689556,5.839509167872219,17.38231453703372,332
-117.35780358506211,77.79811691799574,18.455481575016186,140.0700522911187,111.11017937654825,82.05979654143924,15.17996918336893,-129.49750515801855,-78.94552967610046,4.321179916328813,0.0,0.0,-7.856149283683235,5.773946811708777,15.99334066258197,333
-116.495065429898,75.501890666639,20.12635788123994,144.91862002644072,111.06011857545121,81.80345022971471,15.652317422576454,-135.40833367345857,-86.44045097993045,4.341445988963707,0.0,0.0,-7.853856591304449,4.961976476535178,15.496221231800936,334
-115.347641940607,73.19791012767621,21.81926286527634,148.09462889230102,108.78138012767643,81.13076452253387,15.932896358600438,-139.394811358746,-92.6388217752044,4.53563947376762,0.0,0.0,-7.491620046275829,4.304575137288145,15.106177632601582,335
-112.34919100422599,69.66800736546806,22.74608350761657,149.33275632570727,103.96842425817628,80.12306468969726,15.596316122128743,-141.15194564547673,-95.99037725864223,4.8318147310197075,0.0,0.0,-7.168265496373749,3.9064208221198657,14.73609377522907,336
-108.63249802671726,67.24764263142833,22.401365628820553,149.9455261888095,99.99395397525015,80.13577292196845,16.834142594758276,-142.2739693596085,-98.15956649246637,5.025438343777753,0.0,0.0,-6.586616268572312,3.5587449340311044,14.742158822224006,337
-104.48623658799994,65.66711621240108,20.219713489065573,149.70232568595517,95.14305080967435,80.3953826800966,17.885569017019378,-141.75166492561377,-98.94791968472177,5.3005006165454045,0.0,0.0,-6.460715569207456,3.2295576963388806,14.225242733886889,338
-99.71378440270428,64.97453965670397,17.251074729443747,148.95240124319128,90.77231348118461,80.12594158627554,18.69232569603645,-140.97923357332726,-99.62212813006487,5.4938584607106,0.0,0.0,-6.21470541696786,2.723849194016341,13.669655241131329,339
-93.05658081702151,64.01774545754702,11.251074729443747,146.04114962915585,85.00019054501638,78.5181657883346,21.811314350178893,-137.67439149870376,-99.5814829907966,5.634036727701736,0.0,0.0,-6.20990288952378,1.9224983268249696,12.587398174206388,340
-88.01843270805782,62.770558967008526,5.251074729443747,142.7119058883448,82.13598483302796,77.83058845979066,25.315502117013978,-134.55568097801213,-99.41751360948845,5.742097200318479,0.0,0.0,-6.07329527239863,1.465920377317074,11.7223033479367,341
-83.42285122840525,62.99529710848046,0.8790169021110786,138.03355044024957,78.76063824320731,77.12636804549119,28.57542698252206,-130.18079306379255,-98.87348939279482,5.8262058280051745,0.0,0.0,-6.153526415688267,0.8803907637110868,10.818853611738161,342
-82.35485331740398,62.14479714728926,-1.561425721769651,134.72502060041748,76.93542264669827,78.45521192342775,30.35486182046554,-126.84796641756476,-97.0182854799089,5.940366578022414,0.0,0.0,-6.428001289701406,0.17590159370109157,10.707672001290339,343
-81.77797982303903,63.124403581999836,-2.8592088514716862,131.38170924453195,75.8579920430496,79.47280426871772,31.34121994818524,-122.76123627058506,-94.56910318710771,5.911049762395307,0.0,0.0,-6.7620597990652795,-0.3711194791619615,10.845030897656962,344
-80.92962177429519,64.6944371790408,-4.608385285231196,128.49142424952896,74.22404395067318,78.74768341569039,34.10395939799195,-119.4889531057418,-92.13152100935196,5.8383006682096426,0.0,0.0,-6.815517408486823,-0.968817246518109,10.790880962684108,345
-80.23965857426472,66.53510731975122,-6.527896904439299,125.6103130533257,75.71398913102088,81.19183927968324,33.52179118410613,-117.29969903149761,-89.78331696788008,5.747734776631094,0.0,0.0,-6.476008791503574,-1.443337552158619,10.920107134040913,346
-81.36700496456729,67.84838987087392,-8.507091640590128,122.81068150316575,77.53723428453931,82.08251904160595,33.96323608807184,-114.87207713254756,-87.37383909288019,5.733979138879921,0.0,0.0,-6.4565823950298125,-1.7239972898200664,10.681745451176864,347
-83.96397939334464,70.59509986906522,-8.232426950968875,120.16075615116384,78.98850259927569,82.15118310214116,33.980720897957276,-113.26083365915188,-84.20750639920813,5.653271132340222,0.0,0.0,-6.481619082281152,-2.14791312548302,11.06330321224391,348
-87.67458040660834,73.74870377065766,-8.129680498885024,118.53888405618625,81.75059301797347,82.93457201616911,31.878811529736364,-111.76081131631717,-81.8074879071679,5.521061202410153,0.0,0.0,-6.282188334909335,-2.716793832593009,11.798016229563236,349
-88.79741213328214,77.87750454237793,-8.107483561074273,116.78244513378964,82.91428291930576,82.25463749733423,32.18395775556281,-110.74957056184843,-77.8142956388108,5.268462415976607,0.0,0.0,-5.538286009094895,-3.27781072427958,12.747040652137114,350
-89.78870673217449,79.49025660478227,-9.017929243220912,114.65930277336093,84.42979908352608,83.04275683904126,30.625427356069668,-109.79551758376233,-73.74360851388177,4.9354041519524685,0.0,0.0,-5.025885185895882,-3.894164479746626,13.470297722180431,351
-91.77310838977535,82.05693887251614,-8.448286415663409,114.04392771017515,85.95916146056398,83.29503329151433,30.73470566323171,-109.88198867748442,-68.71725740936733,4.670075428283297,0.0,0.0,-4.8873602418349416,-3.8669168133233973,14.241599789639038,352
-93.49077799815541,82.16438932023293,-9.484740182974242,114.00915418021265,88.78035511664736,83.87536433774021,30.263045562538846,-109.61469885129307,-64.65526892356272,4.472255045908164,0.0,0.0,-4.862379941124683,-3.236748303747418,14.407993089410637,353
-96.55693810097603,83.25806141062642,-7.9428359060886855,113.65851387253862,92.48311624575108,83.33834389167706,28.866855214227552,-108.72478896618323,-60.94914922881948,4.2220605396030555,0.0,0.0,-4.840963603046772,-2.7754798122087365,14.301988302846048,354
-99.11596896431308,84.24505985260848,-5.717089573537687,113.6565933974657,95.2820079469068,81.45168887578747,26.96548678336979,-108.48199456905243,-59.170415069327106,4.052095891068695,0.0,0.0,-4.7286888267574465,-2.6677062843691446,14.056154138093099,355
-101.89433080143955,84.5919630302035,-2.487553728871245,114.7555518511472,98.7668200574844,82.00844375563678,21.336922744602404,-110.15318595322302,-59.70164731572076,3.96603485889813,0.0,0.0,-4.311713811369965,-2.4211387428997755,13.717154482696198,356
-104.5683761789869,83.51885300241872,-0.971943623526081,117.53001253155749,102.89171800484766,81.2026898905373,17.64078141706433,-113.866079667568,-62.1866815811693,3.773547207834821,0.0,0.0,-3.8150230301127164,-2.2052209733654866,13.211636543474599,357
-105.76167662614826,82.96691606065879,0.6992418371715666,121.59475626601763,107.48871750148226,80.36521033887499,14.062347810919862,-118.28118501052828,-66.19131811860841,3.5616101737202297,0.0,0.0,-3.044873905677853,-2.0590007729743025,12.659864667032886,358
-105.33844742263346,82.70020020092593,2.0111348350440545,126.03273265418177,110.57346817712109,81.39504434991603,8.60404470080869,-122.63766763375335,-70.99616349105258,3.432255947497215,0.0,0.0,-2.3428940527294912,-1.7606246384483555,11.93835515125177,359
-106.18711607686794,81.72958554982773,3.3924732447901955,130.3674694605937,113.19045196295946,80.01786208373923,6.846046502166199,-126.94646391329455,-76.8721478730405,3.3001507023182595,0.0,0.0,-2.0960266145346824,-1.3131322689857816,11.443202083235398,360
-104.65107790627755,80.28147767375012,5.918508974629907,133.66145486253953,113.51050718636667,80.33290375296406,3.764685543080426,-130.79599129286137,-83.99831267337376,3.232034626903719,0.0,0.0,-1.4295428137970498,-0.6876317795378252,11.088536302227915,361
-103.07578613079298,78.91998644854617,8.378428990445471,137.04417061785446,113.75495229916169,81.43829620349041,1.6157157264420674,-135.09661147909029,-91.27282239441462,3.097603251256414,0.0,0.0,-0.8409783714415656,-0.22526317833686424,11.248237414518595,362
-100.26949324343158,76.68665504307636,11.622993166727264,139.75260999076045,111.46561959114801,78.74397953337868,1.915864559195181,-137.6112432516189,-96.59816384128143,3.0623070990061385,0.0,0.0,-0.6681225643586761,0.16420973881711998,11.716914807853383,363
-96.24642034708849,72.05203197481448,14.053818202191728,141.25684379974015,104.93038063703968,77.36262975837323,-0.6482398645544784,-139.6754348218179,-103.60402271456438,2.989435299157831,0.0,0.0,-0.8428538551061145,0.4939915707933095,12.010663110331889,364
-90.81253985745145,68.1225262418196,15.751649588973965,142.1450834186397,98.82380378878993,74.99944313861161,-0.30790365546624976,-140.97205286054154,-109.61584170501796,2.9333584558322285,0.0,0.0,-0.7969847196483972,0.916321991801362,11.703944541926303,365
-85.17214692113139,63.85806425367541,13.87160912846482,142.2658289643919,91.98876744029539,73.97708125584573,2.1540962326574733,-141.47997493354754,-113.82118679058503,2.979287525293005,0.0,0.0,-0.8183504757647128,1.1393357684055199,11.853337875776585,366
-80.37379286637717,61.152881266283764,13.48953882291273,141.62531805574528,85.11860784988198,72.59459396249663,3.7983464195377215,-141.62432717912964,-117.13516913262576,3.0219657842108436,0.0,0.0,-0.9380773417269085,1.490193133219628,11.986061599154628,367
-75.02604865885114,60.27365835465377,11.465401120065133,139.6391390023517,78.24852306347161,71.99424272730242,6.562379693075935,-140.5817537674489,-117.65538584432221,2.973444974965627,0.0,0.0,-0.9307414062207723,1.9355143166941944,12.306759592208412,368
-69.31589177788415,60.31919904112363,9.50103960695556,137.48808799367023,70.90980394604868,73.4848243159165,7.837449882704803,-138.89542949667032,-116.44490491287745,2.9561889743230143,0.0,0.0,-1.0599498147148512,2.4330157019924266,12.599449568580253,369
-63.5943899144856,59.14957900662882,5.11895128969595,134.70809386884252,64.78495284017067,73.38904103179273,11.135444331258945,-135.87823435976006,-114.43252639096154,2.8554272902369724,0.0,0.0,-1.0399720038955516,2.9219809204699936,12.896235930800584,370
-57.30084755210531,60.42799430715829,1.9527762460734757,131.79620502218634,59.00457898397098,75.64212298109011,13.386333488876932,-132.73277761212842,-111.79364809613625,2.740472284532489,0.0,0.0,-0.6139746021283156,3.4349101953278147,13.652674946359292,371
-52.491692989263996,61.03106031450298,-2.87913730638863,127.93211651263188,55.07183955699105,78.5803166215013,16.452706393048945,-128.75010327101856,-108.26590742821854,2.59760091853795,0.0,0.0,-0.3937593564419491,3.742175633104036,13.994469378881726,372
-50.527245978387306,63.652816455879346,-3.8207021966639694,125.44582114323421,51.788910514006034,80.80471134056047,18.38774963861363,-125.40843565877809,-102.54260318295148,2.4747309464891303,0.0,0.0,-0.5965244729435607,4.040386649929215,14.759854296432133,373
-49.32138885890026,63.47833111169788,-4.763453613747412,124.61045809019052,50.06323136830769,83.36932723280214,20.23478963635886,-123.27871698678139,-96.16141918338825,2.436325351814892,0.0,0.0,-0.841806475781138,4.585382563342622,15.179654172572949,374
-48.44360943712744,64.91099265486471,-5.569874878253404,123.42532885537055,47.832804101516864,84.88834809449433,24.482079883649426,-120.60811385430571,-86.15782065359545,2.5182820812669853,0.0,0.0,-1.3281454194827746,4.898900045086324,15.93300498202855,375
-50.059348133145654,67.56732715530491,-5.262910951395336,123.2818648807489,48.76694115257801,87.5775817743372,26.65755444019453,-118.49875680606843,-80.79230717035458,2.5647803022990394,0.0,0.0,-1.7618725969960964,4.986670037980169,15.85054208960819,376
-52.085889465415285,70.41555653367452,-5.213480289147179,123.07348350354934,49.59335125581925,90.11527100071147,29.05531128025777,-116.05276532253679,-74.4605326337152,2.759140915358691,0.0,0.0,-2.4282078481970024,5.04579040593175,15.788078907527055,377
-54.803462335125374,72.1995307885445,-7.45880751397472,123.10581007566226,50.848026023157615,92.78551521043941,31.49640858520716,-113.69604175740997,-69.70573947961631,2.972359836085292,0.0,0.0,-2.8991974797168365,4.884002138132672,16.07917175816971,378
-54.44605989301944,76.54189089331823,-11.680367754095915,122.53476505832703,50.9078754920481,96.08460865601184,35.64758275536777,-111.24197127735918,-64.17862754632837,3.141535475643476,0.0,0.0,-2.978649067198197,4.193102914744174,16.82139117260207,379
-59.22352872528005,78.93978321625863,-13.847904502770035,123.63713540222864,53.75626214468454,96.74571204055606,36.65284725811852,-110.34437651109846,-63.30000885679722,3.2549410809294397,0.0,0.0,-3.105855741812274,3.5316271184739114,16.779289169621325,380
-61.64474763731783,82.32778500916511,-16.90101587133197,123.54258990103958,53.81347638263326,97.19257676720666,39.798672452783286,-108.94261081350841,-59.74771484907107,3.3281776156830114,0.0,0.0,-3.0751561789218296,2.8356611639220173,16.995440790302556,381
-60.668345736922596,87.43842808995488,-20.953540450880848,121.4809147254161,55.971162581106924,98.21812616946086,41.10488960146532,-106.10818106723212,-54.58248193708441,3.283244494455903,0.0,0.0,-2.3281663734991485,1.9389931450668108,17.109997483850805,382
-61.484424589616076,89.38862541166299,-24.20374712973091,118.66439211732656,58.3536772837157,97.44479086606249,40.48446244853502,-104.87433530653396,-49.87847111033557,3.198696794090017,0.0,0.0,-1.5509490479796135,0.6747831369812392,17.61950852167606,383
-64.35585796516762,91.44059260559422,-26.45750722559519,114.88430247277276,60.26419327449768,96.5107035748217,39.0628308308008,-103.52672001456568,-46.18850544040402,3.094602887264037,0.0,0.0,-1.0174587673781303,-1.1798778485885153,17.62878800888806,384
-69.11277250108664,89.40893554519522,-28.855386682485214,113.15384927652727,62.756838819639356,94.48806942083189,39.86570063328351,-103.75121484795432,-44.39724193422483,2.996889002894692,0.0,0.0,-0.7944917174555518,-2.6027785115611994,17.565826031157396,385
-71.65550230379333,87.461693930037,-33.393874288821344,110.40874944185894,64.8894917210442,92.57798092595982,40.4184580317843,-101.78300608327149,-42.30462408170929,2.7538474732110703,0.0,0.0,-0.3346637278960194,-4.6486083909639415,17.816888563124536,386
-74.20197717211222,84.8826343198679,-37.88308400131982,108.6509409689856,69.32174717664324,89.20117887344203,42.35402345922939,-101.52200407744272,-39.26917476712617,2.3094096102585104,0.0,0.0,0.3382288755899007,-6.310317533208398,17.7629177730736,387
-77.91370080102166,81.94285712446485,-39.67926951059496,106.99317018891324,71.78388774672685,85.59944276363531,44.13674768238098,-100.90989507950113,-36.279494750876204,1.804362201234673,0.0,0.0,0.7736010220958974,-8.117007409853542,17.917864034870977,388
-81.67923320833685,77.44518642035219,-44.21819330800558,107.96154723598066,76.73731264195467,82.85539084024998,42.82112553939433,-102.14209062517953,-27.782514981208468,1.2387020549750802,0.0,0.0,1.1215428520858535,-9.825317442702913,18.55168761111622,389
-77.47082906589547,78.95585910771754,-45.819977091501435,102.16913582012808,74.8316990154687,81.411382199339,44.60489235099912,-97.52860515029062,-16.782514981208468,1.1087779050210393,0.0,0.0,1.540754232643656,-10.866059764343026,20.70431599411167,390
