JMW9912/AVATAR/Dynamixel/dynamixel_control/data/csv/poppy/.data/waist_test/3DoF (3O+Pos)/Old/0429_2055_13_18_3DoF_Pos_bvh_motor_degree.csv
theta1,theta2,theta3,theta4,theta5,theta6,theta7,theta8,theta9,theta10,theta11,theta12,theta13,theta14,theta15,frame
-94.43494790221065,24.917594212411334,94.45756007044649,28.298822862089697,-113.04071324074401,3.9747615163935133,-66.61159636734803,-28.29882286208982,9.061519176957306,4.529334041110131,0.0,0.0,0.16486564300239123,-1.380775650506828,-1.249808812688048,0
-97.18494790221065,27.667594212411334,92.95756007044649,31.048822862089697,-110.29071324074401,6.724761516393514,-65.11159636734803,-31.04882286208982,11.811519176957306,7.279334041110131,0.0,0.0,0.16486564300239234,-1.380775650506828,-1.2498088126880482,1
-94.43494790221065,30.417594212411334,91.45756007044649,33.79882286208969,-107.54071324074401,9.474761516393514,-63.61159636734803,-33.79882286208982,9.061519176957306,6.869169302140076,0.0,0.0,-0.8351343569976079,-0.3807756505068278,-0.249808812688048,2
-91.68494790221065,33.16759421241133,89.95756007044649,36.54882286208969,-104.79071324074401,12.224761516393514,-62.11159636734803,-36.54882286208982,6.311519176957306,6.440721104615194,0.0,0.0,-1.835134356997608,-0.08906927775929334,0.7501911873119522,3
-88.93494790221065,35.91759421241133,88.45756007044649,39.29882286208969,-102.04071324074401,14.974761516393514,-60.61159636734803,-39.29882286208982,3.5615191769573062,6.015159639091701,0.0,0.0,-2.8351343569976084,0.07411741933976382,1.7501911873119524,4
-86.18494790221065,38.66759421241133,86.95756007044649,42.04882286208969,-99.29071324074401,17.724761516393514,-59.11159636734803,-42.04882286208982,0.8115191769573062,5.621973012796615,0.0,0.0,-3.8351343569976084,0.2216307790752983,2.7501911873119527,5
-83.43494790221065,41.41759421241133,85.45756007044649,44.79882286208969,-96.54071324074401,20.474761516393514,-57.61159636734803,-44.79882286208982,-1.9384808230426938,5.2723153468773205,0.0,0.0,-4.835134356997608,0.4598085880354029,3.376117146862458,6
-80.68494790221065,44.16759421241133,83.95756007044649,47.54882286208969,-93.79071324074401,23.224761516393514,-56.11159636734803,-47.54882286208982,-4.688480823042694,4.860036746141124,0.0,0.0,-5.835134356997608,0.7369037582488904,3.403609735867724,7
-77.93494790221065,46.91759421241133,82.45756007044649,50.29882286208969,-91.04071324074401,25.974761516393514,-54.61159636734803,-50.29882286208982,-7.438480823042694,4.4146156064525535,0.0,0.0,-6.835134356997608,0.9336775530985258,3.5028944802635764,8
-75.18494790221065,49.66759421241133,80.95756007044649,53.04882286208969,-88.29071324074401,28.724761516393514,-53.11159636734803,-53.04882286208982,-10.188480823042694,3.9067382004746753,0.0,0.0,-7.835134356997608,1.1643915898039308,3.622572480458536,9
-72.43494790221065,52.41759421241133,79.45756007044649,55.79882286208969,-85.54071324074401,31.474761516393514,-51.61159636734803,-55.79882286208982,-12.938480823042694,3.4346333581262223,0.0,0.0,-8.835134356997608,1.4329378257164063,3.636173510941858,10
-71.24171583299085,55.16759421241133,77.95756007044649,58.54882286208969,-82.79071324074401,34.224761516393514,-50.11159636734803,-58.54882286208982,-15.688480823042694,3.053657930343079,0.0,0.0,-9.835134356997608,1.7854050333716793,3.518784506295762,11
-71.55295320167485,57.91759421241133,76.45756007044649,61.29882286208969,-80.04071324074401,36.974761516393514,-48.61159636734803,-61.29882286208982,-18.438480823042696,2.6415599423084775,0.0,0.0,-10.835134356997608,2.125022677543163,3.451023350799152,12
-72.7800368471224,60.66759421241133,74.95756007044649,64.0488228620897,-77.29071324074401,39.724761516393514,-47.11159636734803,-64.04882286208982,-21.188480823042696,2.1773864199303,0.0,0.0,-11.835134356997608,2.425291977947928,3.402008947417661,13
-73.55094826121811,63.41759421241133,73.45756007044649,66.7988228620897,-74.54071324074401,42.474761516393514,-45.61159636734803,-66.79882286208982,-23.938480823042696,1.6822006839747925,0.0,0.0,-12.835134356997608,2.734970396452188,3.3593340392148727,14
-74.2994648825693,66.16759421241133,71.95756007044649,69.5488228620897,-71.79071324074401,45.224761516393514,-44.11159636734803,-69.54882286208982,-26.688480823042696,1.248762259125351,0.0,0.0,-13.835134356997608,3.098728361021728,3.2564758540421233,15
-75.00055844664993,68.91759421241133,70.45756007044649,72.2988228620897,-69.04071324074401,47.974761516393514,-42.61159636734803,-72.29882286208982,-29.438480823042696,0.9039927153272089,0.0,0.0,-14.835134356997608,3.449917295370624,3.172099332939597,16
-76.00761774747548,71.66759421241133,68.95756007044649,75.0488228620897,-66.29071324074401,50.724761516393514,-41.11159636734803,-75.04882286208982,-32.188480823042696,0.5453581207342195,0.0,0.0,-15.835134356997608,3.7395373669998007,3.204216404726228,17
-77.08566333189007,74.41759421241133,67.45756007044649,77.7988228620897,-63.54071324074401,53.474761516393514,-39.61159636734803,-77.79882286208982,-34.938480823042696,0.24859020585123107,0.0,0.0,-16.83513435699761,4.041879367600409,3.2289470496418167,18
-78.24604207998735,77.16759421241133,65.95756007044649,80.5488228620897,-60.79071324074401,56.224761516393514,-38.11159636734803,-80.54882286208982,-37.688480823042696,0.26783868770699787,0.0,0.0,-17.83513435699761,4.277618084135541,3.1746472847340406,19
-79.44948515967045,79.91759421241133,64.45756007044649,83.2988228620897,-58.04071324074401,58.974761516393514,-36.61159636734803,-83.29882286208982,-40.438480823042696,0.2584874474096511,0.0,0.0,-18.83513435699761,4.381138652857031,3.125657674721883,20
-80.71546130010269,80.35800450086218,62.95756007044649,86.0488228620897,-55.29071324074401,61.724761516393514,-35.11159636734803,-86.04882286208982,-43.188480823042696,0.20970629765917653,0.0,0.0,-19.83513435699761,4.410307811703519,3.087805910189081,21
-81.84986663409353,80.44388948510732,61.45756007044649,88.7988228620897,-52.54071324074401,64.47476151639351,-33.61159636734803,-88.79882286208982,-45.938480823042696,0.4379716959157106,0.0,0.0,-20.83513435699761,4.491165278822247,2.935338014026732,22
-82.80881648634343,80.45908631372828,59.95756007044649,91.5488228620897,-49.79071324074401,67.22476151639351,-32.11159636734803,-91.54882286208982,-48.688480823042696,0.8333930676380635,0.0,0.0,-21.83513435699761,4.570229958443358,2.7475715647282226,23
-83.89488741617753,80.60505228933584,58.45756007044649,94.2988228620897,-47.04071324074401,69.97476151639351,-30.611596367348028,-94.29882286208982,-51.438480823042696,1.1728806040722342,0.0,0.0,-22.83513435699761,4.548768116510917,2.684143130174213,24
-84.93146052438458,80.78155660643985,56.95756007044649,97.0488228620897,-44.29071324074401,72.72476151639351,-29.111596367348028,-97.04882286208982,-54.188480823042696,1.4718440756657512,0.0,0.0,-23.83513435699761,4.530384946502581,2.6796069257186894,25
-85.98662777230744,80.89524578751768,55.45756007044649,99.7988228620897,-41.54071324074401,72.19623857876665,-27.611596367348028,-99.79882286208982,-56.938480823042696,1.7638685215655947,0.0,0.0,-24.83513435699761,4.568444130558462,2.7357376307969634,26
-86.88318141828171,80.91754768915362,53.95756007044649,102.5488228620897,-38.79071324074401,73.47518023672289,-26.111596367348028,-102.54882286208982,-59.688480823042696,2.130445826913123,0.0,0.0,-25.83513435699761,4.658233004160217,2.687795075632274,27
-87.509371362149,80.98882234160713,52.45756007044649,105.2988228620897,-36.04071324074401,72.8645266627797,-24.611596367348028,-105.29882286208982,-62.438480823042696,2.5327316650252625,0.0,0.0,-26.83513435699761,4.8382310701590105,2.5520411040385182,28
-88.09052997116368,81.06417779620897,50.95756007044649,108.0488228620897,-33.29071324074401,71.73448433062437,-23.111596367348028,-108.04882286208982,-65.1884808230427,2.915953604310834,0.0,0.0,-27.83513435699761,5.00251473060982,2.4883205596792646,29
-88.85701715224448,81.08265376971717,49.45756007044649,110.7988228620897,-30.54071324074401,72.22499469093705,-21.611596367348028,-110.79882286208982,-67.9384808230427,3.195327405375485,0.0,0.0,-28.83513435699761,5.168763073025157,2.4983367784193544,30
-89.54294806163641,81.07215937855541,47.95756007044649,113.5488228620897,-27.79071324074401,70.78206719435344,-20.111596367348028,-113.54882286208982,-70.6884808230427,3.4715807747385177,0.0,0.0,-29.83513435699761,5.423074443416254,2.45281408388465,31
-90.05931070490227,81.08431037710743,46.45756007044649,116.2988228620897,-25.04071324074401,70.9676161035331,-18.611596367348028,-116.29882286208982,-73.4384808230427,3.7679586166819825,0.0,0.0,-30.83513435699761,5.7220666285208495,2.415595149326274,32
-90.67361459300051,80.9385300427735,44.95756007044649,119.0488228620897,-22.29071324074401,69.17102298066442,-17.111596367348028,-119.04882286208982,-76.1884808230427,4.065461832930573,0.0,0.0,-31.83513435699761,6.001217382165501,2.4304871674841415,33
-91.14667456278067,81.09537319686574,43.45756007044649,121.7988228620897,-19.54071324074401,69.51805438671391,-15.611596367348028,-121.79882286208982,-78.9384808230427,4.330075248693653,0.0,0.0,-32.835134356997614,6.302645849572989,2.5020216968999924,34
-91.86392766885724,81.06743750250855,41.95756007044649,122.84709374855863,-16.79071324074401,67.81618281245588,-14.111596367348028,-124.54882286208982,-81.6884808230427,4.431573296211663,0.0,0.0,-33.835134356997614,6.631189480874883,2.6159574933247067,35
-92.63476279936049,81.09338384021385,40.45756007044649,123.2124510419481,-14.040713240744012,65.8546653087449,-12.611596367348028,-127.29882286208982,-84.4384808230427,4.423663836132418,0.0,0.0,-34.835134356997614,6.952203002698048,2.8484551065097903,36
-92.59501787967613,79.35413453613276,38.95756007044649,123.26152374690032,-11.290713240744012,66.21378396894912,-11.111596367348028,-130.04882286208982,-87.1884808230427,4.552751795471849,0.0,0.0,-35.835134356997614,7.273370199755129,3.0906529783114203,37
-92.77423420904587,79.41684018918512,37.45756007044649,123.01124698520833,-8.540713240744012,66.06846400730257,-11.367484524707514,-132.79882286208982,-89.9384808230427,4.860259157028803,0.0,0.0,-36.835134356997614,7.5960912688617395,3.2155851868145655,38
-93.51692449810814,79.54926327602965,35.95756007044649,122.95585099185065,-5.790713240744012,64.0733592344538,-10.098101785273919,-135.54882286208982,-92.6884808230427,5.073139138560111,0.0,0.0,-37.835134356997614,7.853387933589733,3.4295233890606673,39
-94.33254118851968,79.6177753889344,34.45756007044649,122.9527208247276,-3.0407132407440116,64.1352984550209,-9.733080358250163,-138.29882286208982,-95.4384808230427,5.276724664574993,0.0,0.0,-38.835134356997614,8.091456390413812,3.6440808674742766,40
-94.7815440775582,79.6471005806435,32.95756007044649,122.89064179171532,-0.2907132407440116,63.753909984004274,-9.469229794498412,-140.4676442671966,-98.1884808230427,5.44775246376376,0.0,0.0,-39.835134356997614,8.374380984945438,3.8093891523628147,41
-95.45329750591847,79.81852937144757,31.45756007044649,122.87398568243518,2.4592867592559884,64.81720949641688,-9.594386675641662,-140.94179728628052,-100.9384808230427,5.480690399368711,0.0,0.0,-40.835134356997614,8.621771698772765,4.145470706307461,42
-96.39326117956337,80.08048412062678,29.95756007044649,122.86482651014691,5.209286759255988,64.60359605284975,-8.094386675641662,-141.22875346326447,-103.6884808230427,5.52899884188801,0.0,0.0,-41.835134356997614,8.817503506875125,4.53622294525792,43
-97.12195770841541,80.26982020797962,28.45756007044649,122.75376073070865,7.959286759255988,64.4390797546923,-6.594386675641662,-141.42013555543593,-105.87150208316251,5.61082906626345,0.0,0.0,-42.835134356997614,9.027501562595726,4.814434847823379,44
-98.12638227759226,80.50628993142088,26.95756007044649,122.64447110230037,10.709286759255988,65.90752934520198,-5.671947225387927,-141.56271815507273,-104.38616995894198,5.612151537795018,0.0,0.0,-43.835134356997614,9.10537895584622,5.1048701434791175,45
-99.23714582315321,80.67227342393198,25.45756007044649,122.54959860240952,13.459286759255988,65.61322890299574,-4.171947225387927,-141.71618683247007,-103.94935569826495,5.69657516610365,0.0,0.0,-44.835134356997614,9.139636482449081,5.358453973757807,46
-99.78596083202967,78.85251973770309,23.95756007044649,122.37511216036032,16.20928675925599,65.62844331238574,-2.6719472253879273,-141.68604688580388,-103.41780851527241,5.863710166699237,0.0,0.0,-45.835134356997614,9.20247898638442,5.4868005911815985,47
-100.67357011141782,78.81803886228451,22.45756007044649,122.10836950071683,18.95928675925599,67.59152039550847,-1.5910352214846892,-141.50800433684773,-103.42701787829955,5.993198026312635,0.0,0.0,-46.835134356997614,9.17153517105377,5.542158177931073,48
-101.71604492438712,78.70499885915498,20.95756007044649,121.963597065059,21.70928675925599,67.64765685089195,-0.09103522148468923,-141.41373236452324,-102.5182404501471,6.093491434418825,0.0,0.0,-47.835134356997614,9.112433727558303,5.552034844709069,49
-102.78680432409212,78.80794053379405,19.45756007044649,121.91095833752837,24.45928675925599,67.61500194666822,1.4089647785153108,-141.23166701192693,-100.84021890971388,6.115144151162971,0.0,0.0,-48.835134356997614,9.040328549862991,5.64593535167465,50
-103.78073421914301,79.20293016155622,17.95756007044649,121.64897166451541,27.20928675925599,69.14396789625883,2.6690190962348903,-140.99402070219148,-99.55542743155524,6.006593033545663,0.0,0.0,-49.835134356997614,8.85990474557209,5.894330799855175,51
-104.92216855024235,79.57583914308285,16.45756007044649,121.40874818988742,29.95928675925599,70.27450374743441,3.417605055462111,-140.70682233385415,-98.40777333872877,5.7976052161956,0.0,0.0,-50.835134356997614,8.59930122540737,6.188520328703349,52
-106.19193614040731,79.80574074793462,14.95756007044649,121.25618364239673,32.70928675925599,69.28933655280217,4.917605055462111,-140.3263573477156,-96.32534865953538,5.56967728697008,0.0,0.0,-51.835134356997614,8.291879400358878,6.450022624339551,53
-107.08903555799927,79.84198272397224,13.45756007044649,120.99235282578051,35.45928675925599,70.1407980404488,5.665591231644305,-140.0093165824127,-93.57534865953538,5.385519989976002,0.0,0.0,-52.702895913641406,8.019229003790675,6.6917378257371,54
-107.90309947545386,80.02530865132415,11.95756007044649,120.78027493601026,38.20928675925599,70.65797927369336,5.689168737726296,-139.7117990838463,-90.82534865953538,5.249949657126114,0.0,0.0,-52.485380272077904,7.740970177458993,6.98195547326202,55
-108.79945009635375,78.47303023482814,10.45756007044649,120.03110688586716,40.95928675925599,73.04196638864752,4.548308739611981,-140.09419654531092,-88.07534865953538,4.88065909933418,0.0,0.0,-52.16645814421523,7.359860966528031,7.403962842598254,56
-109.47657406292652,78.51102019580043,8.95756007044649,120.21921563643843,43.70928675925599,73.45180286280066,4.865081261006257,-139.22457780872946,-85.32534865953538,5.352085980993949,0.0,0.0,-51.66317088267619,7.526828558538281,7.423352743339533,57
-110.38517526853717,78.91554950450087,7.45756007044649,119.97543203310084,46.45928675925599,73.26029405620906,5.045892997661696,-138.82200579684925,-82.57534865953538,5.28353083731012,0.0,0.0,-51.22993989955654,7.2477181402040705,7.845621524094516,58
-111.34918851182589,79.08029654387573,5.95756007044649,119.6459142711883,49.20928675925599,73.05680127223117,4.977239404750332,-138.86380930749857,-79.82534865953538,5.3065854373834,0.0,0.0,-50.966410535791994,7.027661324585461,8.287186067075138,59
-112.06438657542999,78.98255446753902,4.45756007044649,119.6342673604032,51.95928675925599,74.71584335739087,3.477239404750332,-138.5290497375921,-77.07534865953538,5.702249651420563,0.0,0.0,-50.72703526801991,7.107875708335313,8.551245038787954,60
-112.60212114071254,79.00167049512382,2.9575600704464904,119.47140378028833,54.70928675925599,73.98904366495715,2.72114210312435,-138.04610286486488,-74.32534865953538,6.005065025646859,0.0,0.0,-50.5148544614455,7.12236882589316,8.93693745208578,61
-112.79354857862005,79.13815804547306,1.4575600704464904,119.26923905581025,57.45928675925599,74.96109567058235,1.22114210312435,-137.4605376868125,-71.57534865953538,6.298525054703311,0.0,0.0,-50.456761893629995,7.067399949960809,9.404482434483533,62
-112.85397557573275,77.73889103403845,-0.042439929553509614,119.1248868875633,60.20928675925599,73.40923719572824,-0.2788578968756501,-136.63547241594324,-68.82534865953538,6.373174420345634,0.0,0.0,-50.36094856171687,6.768777167486035,9.991826801905821,63
-113.68385551492543,78.19186301633906,-1.5424399295535096,117.51607280919235,62.95928675925599,71.6409492079324,-1.575792910832017,-137.73207728899357,-66.07534865953538,6.01961232278938,0.0,0.0,-50.22149694217171,6.022397325287102,10.84897584637502,64
-114.43653987890497,78.00154937173708,-1.0851014696712642,118.45544871503108,65.70928675925599,72.24110566090262,-3.075792910832017,-135.71603701013774,-63.32534865953538,7.1247758801621135,0.0,0.0,-49.73035334562993,6.5284805760270865,10.744397608723935,65
-115.31548047682033,78.59461936769068,-0.7275065517625919,116.9787003830403,68.45928675925599,69.81017427610273,-4.575792910832017,-135.97382861582395,-60.57534865953538,6.53888591406683,0.0,0.0,-49.542116437150234,5.569648046579355,11.549916141848456,66
-116.02216735356697,78.90477607147626,-0.2074782533899462,116.4403888626177,71.20928675925599,67.67626133664248,-5.208275839936872,-135.39631872075876,-57.82534865953538,6.674530531408619,0.0,0.0,-49.143780931796655,5.254175770049309,11.83114163846718,67
-116.46488392297631,79.27820349016187,0.12731288344292832,115.73499441885552,73.95928675925599,65.16363684485516,-5.832512568477138,-134.8854387891462,-57.55680547348632,6.765109416073583,0.0,0.0,-48.82283995569499,4.84946825600511,12.155374271247586,68
-116.91269905751145,79.49521364956621,0.4690588665464604,115.1306965732605,76.70928675925599,64.57361888542165,-7.332512568477138,-134.34837213934583,-57.41907855281487,6.913966515048323,0.0,0.0,-48.589226561074334,4.480694973013364,12.379370873317207,69
-117.56379837441754,79.63000547144914,0.9538874287544629,114.62268321755614,79.45928675925599,61.93693930036497,-7.9317275518333545,-133.59577783661987,-57.02604763435998,7.01947237028152,0.0,0.0,-48.308536018370496,4.129294008134503,12.50085644377167,70
-118.59462939980098,79.73985170932413,1.6206310204294685,114.17575259599883,82.20928675925599,59.18693930036497,-7.746300879139458,-132.570528133131,-58.04083021505855,7.105025390186492,0.0,0.0,-47.9614814634717,3.7083143083467216,12.582955951558626,71
-119.47288765716299,79.84063719709488,2.1947196436231766,113.7275454429614,84.95928675925599,57.94384818193654,-8.615490756645762,-131.38591277344324,-59.72536163525646,7.310388584004785,0.0,0.0,-47.66700218687329,3.257503139002262,12.626952460030772,72
-120.03738283332677,80.0178180253139,2.731721545251414,113.143019485751,87.70928675925599,55.19384818193654,-7.762588153318556,-130.03032879884054,-60.84120051811596,7.511814633664772,0.0,0.0,-47.327735968978715,2.819793426547482,12.75835191122796,73
-120.58459501814393,80.16866522606188,3.375462846618481,112.67780328256815,88.14204084985478,53.423191066039365,-7.456989266656201,-128.08089885654414,-62.40451332630496,7.659936432298023,0.0,0.0,-46.928372441729,2.3900865615515343,12.844261104421646,74
-120.98719277718342,80.19816254850618,4.001608427533292,112.27925776479942,85.39204084985478,52.27098570325322,-6.725398973063371,-125.68614164237589,-64.1008550127534,7.849069393626595,0.0,0.0,-46.62393295003348,1.967897809624033,12.88443543508238,75
-121.1833947354132,80.17742311444374,4.647645629822259,111.77343991278451,82.64204084985478,51.25189645241796,-5.593786711359772,-122.93614164237589,-64.68240794922552,8.067101808404885,0.0,0.0,-46.341938695481076,1.558143313565889,12.957162043029973,76
-121.4005799249364,80.18758997739154,5.460921541492966,111.2919125647682,79.89204084985478,48.51028639306379,-4.093786711359772,-120.18614164237589,-64.94053952034888,8.199580778640362,0.0,0.0,-45.94633750534796,1.1413811174539485,13.069790453799923,77
-121.94220819168369,78.48093039447186,4.822600196118962,111.13296916651505,77.14204084985478,48.014870826374015,-2.5937867113597717,-117.43614164237589,-64.45523804579624,8.311086394267218,0.0,0.0,-45.44318717867446,0.7818233254563997,13.225215422940966,78
-122.12199472990903,78.52263163270729,5.761874807620544,110.9367365186767,74.39204084985478,47.94458051274314,-1.0937867113597717,-114.68614164237589,-62.62060978525922,8.520893287322632,0.0,0.0,-44.96078510297527,0.44839832860317863,13.380437569988217,79
-122.14955485011812,78.57982444504357,6.676195234783035,110.63485201650325,71.64204084985478,48.93170348100432,0.4062132886402283,-111.93614164237589,-61.53259534632963,8.77082486934487,0.0,0.0,-44.46398085429244,0.05060349310793291,13.485861708015847,80
-122.59585745888386,78.68299433572163,7.710671980614534,110.75136691226353,68.89204084985478,48.71626864160673,1.9062132886402283,-109.18614164237589,-62.059063166383304,8.953242244693733,0.0,0.0,-43.92940436702138,-0.42825194847320286,13.566325773854796,81
-123.05789110660635,77.03403015566673,7.137409891989383,110.49871121089377,66.14204084985478,50.65674533377167,3.4062132886402283,-106.43614164237589,-64.01869814940656,9.084636639266968,0.0,0.0,-43.335075795203196,-1.0143140668473059,13.490909309621713,82
-123.58714534179832,77.27879017722833,8.301601477521979,110.83977133611195,63.39204084985478,51.57198699371328,4.906213288640228,-103.68614164237589,-65.85813925333517,9.167771257401837,0.0,0.0,-42.605099481257284,-1.667707130747262,13.402642966549456,83
-123.8393668785851,77.68879342169821,9.434669276224954,111.05775611239527,60.64204084985478,54.12887456421337,6.406213288640228,-100.93614164237589,-64.97958414068434,9.168561715608773,0.0,0.0,-41.82638231820803,-2.3505104283767224,13.575645541337478,84
-124.29135618594303,76.38624060493517,9.013365009496294,111.15186087384781,57.89204084985478,55.59933208534884,7.906213288640228,-98.18614164237589,-63.49172684279847,9.243930889557587,0.0,0.0,-40.98763625681124,-3.071289546259129,13.716127988643725,85
-124.3390624307796,76.75842226525133,10.195418327656698,111.45568824423265,55.14204084985478,58.34933208534884,9.406213288640227,-95.43614164237589,-62.84390798497256,9.420915911676387,0.0,0.0,-40.14850481673388,-3.752798052214483,13.773159027565287,86
-124.45120452218026,75.50206657551955,9.733227591834401,111.81022759419416,52.39204084985478,59.876322450608264,10.906213288640227,-92.68614164237589,-60.249739332225964,9.46375721539942,0.0,0.0,-39.283792718596416,-4.4740692870675245,13.970058632591149,87
-124.15739178604333,76.15641446607947,10.78470162843107,112.14899706826017,49.64204084985478,62.39030128901856,12.406213288640227,-89.93614164237589,-57.499739332225964,9.401636864874323,0.0,0.0,-38.364348292552336,-5.304983081166149,14.288803378473661,88
-124.27161710238252,75.07143117850227,10.277093184842238,112.63009844379081,46.89204084985478,63.59906249654514,13.906213288640227,-87.18614164237589,-54.749739332225964,9.406916817155812,0.0,0.0,-37.44472740422683,-6.16620426343859,14.56158150338969,89
-123.89279847424908,75.72570383702173,11.441653212241974,113.28502710436942,44.14204084985478,64.90184891037619,15.406213288640227,-84.43614164237589,-51.999739332225964,9.514827907897446,0.0,0.0,-36.44472740422683,-6.916262455119238,14.798477025983624,90
-123.63248878056092,74.69754407467939,11.130043426094929,113.84541625580255,41.39204084985478,66.42793700806385,16.906213288640227,-81.68614164237589,-50.62605123484232,9.556041754725026,0.0,0.0,-35.44472740422683,-7.667687318718214,15.036504312299273,91
-122.99172727902778,75.49279460397453,12.45271054138602,114.62024412244905,38.64204084985478,68.11558997669303,18.406213288640227,-78.93614164237589,-50.863138574172595,9.485750595932169,0.0,0.0,-34.44472740422683,-8.411081571558345,15.244311561025372,92
-122.78943006267451,74.74014396333207,12.323356950569893,115.59256873056174,35.89204084985478,69.79131425395248,19.906213288640227,-80.51522474699138,-51.169865714823175,9.199502330688023,0.0,0.0,-33.44472740422683,-9.222636327206091,15.552052674514563,93
-122.52755617341694,74.17690326936804,12.30103004497719,116.50846260729688,33.14204084985478,71.71053549239939,21.406213288640227,-83.26522474699138,-52.31954543002688,8.877426237683368,0.0,0.0,-32.44472740422683,-10.157732114248226,15.867331018913806,94
-121.77878181898112,75.48047218626878,13.80103004497719,117.32691006345804,30.39204084985478,73.84593293803684,22.906213288640227,-85.97368800154146,-53.96494059612571,8.611648544938811,0.0,0.0,-31.444727404226832,-11.152427962440933,16.08193728402659,95
-121.14748165182945,74.9338222319136,14.30765295605945,118.01019511403594,27.64204084985478,75.9294560068324,24.406213288640227,-88.11304027316282,-55.65093578846623,8.243152432411565,0.0,0.0,-30.444727404226832,-12.130827643905022,16.275737878169256,96
-119.65325698755827,75.9332940536977,15.80765295605945,118.64107415480223,24.89204084985478,77.76211106394834,25.906213288640227,-90.26040509114245,-57.82572698700954,7.782192295004197,0.0,0.0,-29.444727404226832,-13.081145279172041,16.482727219173974,97
-118.38675444572597,74.97694170725546,16.25240105829487,119.32740610765497,23.96240598528157,79.24107154756561,27.406213288640227,-92.71547901925095,-60.57572698700954,7.3062764522214785,0.0,0.0,-28.444727404226832,-14.01351146664794,16.60467462586001,98
-116.55267596269624,75.71973643295195,17.75240105829487,120.01458033775138,25.945416859666356,80.53068953943364,28.906213288640227,-94.95489672495398,-63.32572698700954,6.716285803220186,0.0,0.0,-27.444727404226832,-15.012027643082275,16.58978437124404,99
-115.06730594585927,74.50521358916694,18.30247562618157,120.54855707349525,27.99202501838837,81.52820327310074,30.406213288640227,-96.80184049991212,-66.07572698700955,6.094299421836132,0.0,0.0,-26.444727404226832,-16.012027643082277,16.484869876199433,100
-112.68910352406479,72.75860763270953,18.078392978732957,120.68111551476603,30.74202501838837,83.05538069795365,31.906213288640227,-98.6986304568765,-68.82572698700955,5.617150836879109,0.0,0.0,-25.444727404226832,-16.958593841139766,16.39561703531906,101
-109.93910352406479,70.68098053591066,17.47592705871076,120.67475155847976,33.368813285088024,83.04612314739089,33.40621328864023,-100.75140057402297,-71.57572698700955,5.167914481998996,0.0,0.0,-24.444727404226832,-17.853558330151532,16.277722283122028,102
-107.25891288598264,70.33133047383355,18.786519511832445,120.0854126976152,34.194139697700564,83.50009524407866,34.90621328864023,-101.04693147945575,-74.32572698700955,5.053244923448449,0.0,0.0,-23.444727404226832,-18.84762564244095,16.141942056364837,103
-104.50891288598264,67.58133047383355,17.286519511832445,119.78807954837335,36.944139697700564,82.05175329416784,36.40621328864023,-102.82114885682974,-77.07572698700955,6.0325145923441355,0.0,0.0,-22.444727404226832,-18.4818173928768,16.03304638907237,104
-101.75891288598264,64.83133047383355,15.786519511832445,119.1413564243415,39.694139697700564,81.84289805916745,37.90621328864023,-104.60585634640297,-79.82572698700955,6.201089238866757,0.0,0.0,-21.444727404226832,-18.735721615029004,16.024363032660442,105
-99.00891288598264,62.081330473833546,14.286519511832445,118.11697575762773,42.444139697700564,80.72726349625673,39.40621328864023,-105.98291663114372,-82.57572698700955,5.844364998943777,0.0,0.0,-20.444727404226832,-19.501689979064775,16.065688237162043,106
-96.25891288598264,59.331330473833546,12.786519511832445,116.55788910728695,43.927924325462854,79.69464617427948,40.90621328864023,-106.65560626416489,-85.32572698700955,5.3930844020886,0.0,0.0,-19.444727404226832,-20.501689979064775,15.967621844367569,107
-93.50891288598264,56.581330473833546,11.286519511832445,114.72091832118964,46.46477489333151,79.77794783484495,42.40621328864023,-106.67459964410934,-88.07572698700955,5.411958761928465,0.0,0.0,-18.444727404226832,-21.501689979064775,15.716225865632547,108
-90.75891288598264,53.831330473833546,9.786519511832445,112.53420879456564,47.49666002989154,78.783796520301,43.90621328864023,-106.61543953196968,-90.82572698700955,6.040027787415811,0.0,0.0,-17.444727404226832,-22.501689979064775,15.476994999863502,109
-88.00891288598264,51.081330473833546,8.286519511832445,109.78420879456564,48.56341049716047,77.6970151955442,45.40621328864023,-106.53585483893283,-93.57572698700955,6.64499576549071,0.0,0.0,-16.444727404226832,-23.101037390793284,15.225598722159662,110
-85.25891288598264,49.077294018057636,6.786519511832445,107.03420879456564,50.82574719993567,77.6794671196833,46.90621328864023,-106.44891788609816,-96.32572698700955,7.039550262724245,0.0,0.0,-15.444727404226832,-23.489658250673838,15.197801032987927,111
-82.50891288598264,47.60696524400239,5.286519511832445,104.28420879456564,51.76992495778439,77.09958425885658,48.40621328864023,-106.09055334363113,-99.07572698700955,7.639218748363011,0.0,0.0,-14.444727404226832,-23.732742170382814,15.121901947347277,112
-79.75891288598264,45.07743894813766,3.786519511832445,101.53420879456564,52.69281492086484,76.38804345485447,49.90621328864023,-105.7217130162789,-101.82572698700955,8.303750270781649,0.0,0.0,-13.444727404226832,-23.861421722074738,14.94952991359774,113
-77.00891288598264,44.68904928242635,2.286519511832445,98.78420879456564,53.46825528600059,75.63535025512503,51.40621328864023,-105.50298289962473,-104.57572698700955,8.84504418669429,0.0,0.0,-12.444727404226832,-23.986675172769743,14.818973195270509,114
-74.25891288598264,43.24502758139468,0.7865195118324451,96.03420879456564,55.40298790354606,75.96794871518071,52.90621328864023,-105.32504336663725,-107.32572698700955,9.427099371508383,0.0,0.0,-11.444727404226832,-24.13674371385799,14.65844822046393,115
-71.50891288598264,43.5144196200668,-0.7134804881675549,93.28420879456564,55.64760449449548,75.53385457343501,54.40621328864023,-104.97102559604227,-104.57572698700955,10.02168759404453,0.0,0.0,-10.444727404226832,-24.266674630910828,14.420863878316931,116
-68.75891288598264,43.84104466362004,-2.213480488167555,90.53420879456564,56.25227285581112,74.94695839388265,55.29230557148118,-104.98279640007439,-101.82572698700955,10.467828127393451,0.0,0.0,-9.444727404226832,-24.274523494522185,14.26947889141951,117
-66.00891288598264,44.146052180566414,-3.713480488167555,87.78420879456564,56.694029982197435,74.30010480739256,55.83084141977745,-105.16024090056997,-99.07572698700955,10.900211396256559,0.0,0.0,-8.444727404226832,-24.47995631455684,14.066975223311017,118
-63.25891288598264,45.483330343742445,-5.213480488167555,85.03420879456564,58.14094336653795,74.78592458828089,54.449501904101844,-105.34008487836135,-96.32572698700955,11.370814913884315,0.0,0.0,-7.444727404226832,-24.757555282326887,13.744318418902658,119
-60.50891288598264,47.155354629464185,-6.713480488167555,82.28420879456564,58.94449503589837,74.38421771095942,55.02855585562301,-106.21203388170817,-93.57572698700955,12.121569884900696,0.0,0.0,-6.444727404226832,-24.713988611209288,13.51324752120787,120
-57.75891288598264,45.756321513947164,-8.213480488167555,79.53420879456564,57.486457082449895,74.97637218523761,56.52855585562301,-105.02966443584448,-90.82572698700955,12.727440174756266,0.0,0.0,-5.444727404226832,-24.884184701139713,12.687946628026525,121
-55.00891288598264,48.31559432498177,-9.713480488167555,76.78420879456564,60.11024385200449,75.66261332603034,55.02855585562301,-106.05175882839515,-88.07572698700955,12.65243063233897,0.0,0.0,-4.444727404226832,-24.224243082182827,13.169873438082456,122
-52.25891288598264,48.5496245912113,-11.213480488167555,74.03420879456564,59.73839227463851,75.68454951395705,54.86042309118208,-106.16517860907479,-85.32572698700955,12.952005118609625,0.0,0.0,-3.444727404226832,-24.31302093598583,12.798671223779513,123
-49.50891288598264,49.67740965197307,-12.713480488167555,71.28420879456564,59.384003724099735,75.79959960933942,55.22711305320761,-106.55158944249665,-82.57572698700955,12.920129181595868,0.0,0.0,-2.444727404226832,-24.180319859309577,12.883158089179405,124
-46.75891288598264,52.42740965197307,-14.213480488167555,68.53420879456564,62.134003724099735,74.84953553046245,55.986597376568305,-109.30158944249665,-79.82572698700955,14.133466607914913,0.0,0.0,-1.4447274042268317,-24.026442773413024,12.973229860859457,125
-44.00891288598264,49.67740965197307,-15.713480488167555,65.78420879456564,59.384003724099735,77.59953553046245,57.486597376568305,-106.55158944249665,-77.07572698700955,15.928364328703122,0.0,0.0,-0.44472740422683144,-25.026442773413024,11.973229860859457,126
-41.25891288598264,49.28695415516566,-17.213480488167555,63.03420879456564,59.30206658450102,77.11206922809352,55.986597376568305,-107.32981854796505,-74.32572698700955,13.646710088505712,0.0,0.0,0.5552725957731688,-24.342553280826625,12.05710277811284,127
-38.50891288598264,49.53835745499003,-18.713480488167555,60.28420879456564,59.2217095781853,77.01997482924646,55.46514876486436,-108.00223278530608,-71.57572698700955,13.469751065127872,0.0,0.0,1.555272595773169,-24.300368074843814,12.081749342292797,128
-35.75891288598264,48.94088269751485,-20.213480488167555,57.53420879456564,60.6349421395094,77.87563660277038,53.96514876486436,-108.7955805117441,-68.82572698700955,13.500966176387433,0.0,0.0,2.555272595773169,-24.3914116942283,12.054691847560441,129
-33.00891288598264,48.13513049143579,-21.713480488167555,54.78420879456564,60.163263767298105,77.8497811070106,54.24195029163539,-109.07866943040148,-66.07572698700955,13.506086739279498,0.0,0.0,3.555272595773169,-24.53520309880346,11.86602521593875,130
-30.25891288598264,47.72792003603601,-23.213480488167555,52.03420879456564,60.168025550196646,77.56221710471883,54.14575024430995,-109.8070622371032,-63.325726987009546,13.191984107391837,0.0,0.0,4.555272595773169,-24.571943309422206,11.917689957265729,131
-27.50891288598264,47.681493087829104,-24.713480488167555,49.28420879456564,61.57863100550271,78.33237374069331,52.64575024430995,-110.47479667641912,-60.575726987009546,13.078131048081248,0.0,0.0,5.555272595773169,-24.723689862325134,11.784993259562691,132
-24.75891288598264,46.951398023886576,-26.213480488167555,46.53420879456564,61.56918868174099,78.09846573749019,52.319897671777824,-110.91367132624029,-57.825726987009546,13.02271450574501,0.0,0.0,6.555272595773169,-24.798980250138612,11.604370307850235,133
-22.00891288598264,46.967560142558696,-26.407951001140827,44.68779649096177,60.87457059628086,77.8954746240263,51.79320610576025,-110.66055129827011,-55.075726987009546,12.32585370851037,0.0,0.0,7.555272595773169,-24.85249761403157,11.57985136780844,134
-19.25891288598264,48.24805021572328,-26.137625076497635,45.53780021530413,62.492308448829796,78.24622160849505,50.29320610576025,-112.17302405656666,-52.325726987009546,11.777142584126883,0.0,0.0,8.55527259577317,-25.017051453286193,12.141564126392572,135
-16.50891288598264,47.576183761874596,-27.637625076497635,47.01969535071607,63.15991441710904,77.90129035440611,48.79320610576025,-113.07753908030766,-49.575726987009546,12.19615112215699,0.0,0.0,9.55527259577317,-24.98954076570608,11.97231328523222,136
-17.10348578721346,46.81394776015135,-26.137625076497635,49.65857622813662,63.39891661244086,77.71728810797815,48.74907531022655,-113.11961345623251,-46.825726987009546,12.863865326781642,0.0,0.0,10.55527259577317,-25.05506853413974,11.327906943432808,137
-19.85348578721346,46.47202370970294,-24.637625076497635,52.304667194681585,62.994289792206594,77.64548636240178,48.78836180608339,-113.18429823343776,-44.075726987009546,13.152360502088891,0.0,0.0,11.55527259577317,-25.259849883638413,10.775680668271587,138
-22.60348578721346,46.75552987727739,-23.137625076497635,55.01873571613837,64.70013197221544,78.73243507116727,47.28836180608339,-113.08810391237002,-41.325726987009546,12.482955391516986,0.0,0.0,12.55527259577317,-24.878398716486853,10.978206561654359,139
-24.819370197982046,49.14009407120152,-21.637625076497635,55.657054079570024,65.38160057318096,78.2525451598674,45.78836180608339,-114.733441223076,-38.575726987009546,12.55397398124396,0.0,0.0,13.55527259577317,-25.035533423652264,11.191063901183991,140
-27.569370197982046,48.33426469990594,-20.137625076497635,58.407054079570024,64.21396555451526,78.87667901498305,44.414088747722595,-112.8031163863038,-35.825726987009546,12.058244023435055,0.0,0.0,14.55527259577317,-24.669365127689957,10.753460799357153,141
-28.66529690691434,50.94376503819576,-18.907210118854636,60.59727897318329,66.3795907732362,77.89883731507648,42.914088747722595,-115.36436604709695,-33.075726987009546,11.467314226888877,0.0,0.0,15.55527259577317,-24.390793357742165,11.65925608864621,142
-31.41529690691434,51.003463700065396,-17.407210118854636,63.34727897318329,66.60256260535567,77.64679153043612,42.10614636638224,-115.408960203179,-30.325726987009546,11.902822752697436,0.0,0.0,16.55527259577317,-24.623295416269414,10.884775497004213,143
-34.165296906914335,51.43422455626736,-15.907210118854636,65.94855683592955,66.502469113291,77.54368484530718,41.82598423560728,-115.80108146194412,-27.575726987009546,11.93780949943157,0.0,0.0,17.55527259577317,-24.8327223428494,10.60983999324737,144
-36.915296906914335,51.73434996415385,-14.512175813598649,68.63262638654967,67.04676453735637,77.62633896821035,40.99165280396896,-116.13380043916915,-24.825726987009546,12.045507177105609,0.0,0.0,18.55527259577317,-24.511228127438805,10.461418235496533,145
-39.665296906914335,53.337055765839004,-13.012175813598649,71.38262638654967,67.99986660604362,77.56688920012422,39.9183088032256,-116.53496427117345,-22.075726987009546,12.079443374387491,0.0,0.0,19.55527259577317,-24.163973370796782,10.34122949810299,146
-42.415296906914335,54.167450050996386,-11.707622243253958,74.13262638654967,68.30384384355209,77.57344373421371,38.94166387566112,-117.30857525337196,-19.325726987009546,12.100779856172178,0.0,0.0,18.55527259577317,-24.063255154430216,10.38311142978539,147
-45.165296906914335,55.835041719513015,-10.207622243253958,76.88262638654967,69.50476735536128,77.70983317665063,37.52138767081241,-117.94163959072434,-16.575726987009546,11.699662523000917,0.0,0.0,17.55527259577317,-23.43218666744666,10.493000834143931,148
-47.915296906914335,56.236172052875844,-9.571623491615636,79.63262638654967,69.66347747114114,77.81962067960656,36.75337325553818,-118.46161319725388,-13.825726987009546,11.413535521976769,0.0,0.0,16.55527259577317,-23.332441279840957,10.489036729669632,149
-50.665296906914335,57.808669494968804,-8.071623491615636,82.38262638654967,70.20340075997188,78.24030431543127,35.40191124964176,-118.89436873084873,-11.075726987009546,10.846779367676497,0.0,0.0,15.555272595773172,-22.713848476006685,10.750162802926367,150
-53.415296906914335,58.05696053397683,-9.05681230072848,85.13262638654967,70.44863153077004,77.0073467369707,35.58666424013824,-119.8360453604039,-8.325726987009546,10.524523322232126,0.0,0.0,14.555272595773172,-22.036304754961986,11.06175977659682,151
-56.165296906914335,59.66736352665614,-7.556812300728479,87.88262638654967,71.62638757314335,77.1312950181813,34.67907288733657,-120.52684073972463,-5.575726987009546,10.759876563795718,0.0,0.0,13.555272595773172,-21.743451246171794,11.044380316445835,152
-58.915296906914335,61.323140066672124,-6.056812300728479,90.63262638654967,72.28495668860509,77.22335848449966,34.30343892420429,-120.81184771335121,-2.8257269870095456,11.078886042672682,0.0,0.0,12.555272595773172,-21.726588096557318,10.867250893229036,153
-61.665296906914335,62.982391175789374,-4.556812300728479,93.38262638654967,72.87821370614093,77.35046073965827,33.851522907332416,-121.19851116019393,-0.07572698700954561,11.354969917872776,0.0,0.0,11.555272595773172,-21.658281528765446,10.882682877699152,154
-64.41529690691434,64.51596839445413,-3.0568123007284793,96.13262638654967,73.49454525765438,77.50064220880215,33.31157669106386,-121.56313986996277,2.6742730129904544,11.397236940537107,0.0,0.0,10.555272595773172,-21.512062355833773,10.867494240953723,155
-67.16529690691434,66.0295923909026,-1.5568123007284793,98.88262638654967,73.3712594794634,77.75495545317004,32.5580201010026,-121.68102432561484,5.424273012990454,11.145148622728275,0.0,0.0,9.555272595773172,-21.30569074017912,11.1205458700868,156
-69.91529690691434,67.36953625390947,-0.056812300728479315,101.63262638654967,73.39294708315592,76.5908219453047,32.67248346439883,-122.32268936454655,8.174273012990454,10.699961747798984,0.0,0.0,8.555272595773172,-20.641819651135933,11.494772426181786,157
-72.66529690691434,68.66246725093137,0.933918938486539,104.38262638654967,74.35993719686691,76.90971300033785,31.27768353033496,-123.02111465335108,10.924273012990454,10.496344106837407,0.0,0.0,7.555272595773172,-20.110240087862177,11.794437297510425,158
-75.41529690691434,69.94951564914354,1.483925446673927,107.13262638654967,73.88273428717453,75.57071517905177,32.02015998206133,-123.6080650245119,13.674273012990454,10.459035683292187,0.0,0.0,6.555272595773172,-19.744343683458204,12.012607057015416,159
-78.16529690691434,71.16120671880363,1.8683906993743886,109.55800584190364,74.6189114876952,75.82238349815738,30.804989859480255,-124.17697233323193,16.424273012990454,10.302990849920073,0.0,0.0,5.555272595773172,-19.298257629693275,12.259564732520884,160
-80.91529690691434,72.34659077260356,2.325359495818224,111.3244217375977,74.66542326431806,75.9939501670946,29.766520368056256,-124.72435050630465,19.174273012990454,10.145038049576073,0.0,0.0,4.555272595773172,-18.94849188713608,12.567828893563428,161
-83.66529690691434,73.2497211273396,2.783282139556562,113.20621616863627,73.96776865726076,74.61774724912146,30.254292977094718,-125.46566594306155,21.924273012990454,9.613746977823489,0.0,0.0,3.5552725957731717,-18.38162530774598,12.842953616341353,162
-86.41529690691434,74.1434097196612,3.2576390097725505,114.9170038945242,73.89008843160649,74.7823650868879,29.00855428537325,-126.2327577731136,24.674273012990454,8.976549798208536,0.0,0.0,2.5552725957731717,-17.827252824587994,13.284783504512765,163
-88.72323317310942,75.01795554279437,3.805230928986855,116.33552794230388,72.65974447646934,73.21279586777182,29.607067651342195,-126.99383744511005,27.424273012990454,8.565141106660002,0.0,0.0,1.5552725957731715,-17.32123433684202,13.566958526890138,164
-89.63402260456444,75.83363162190223,4.379033629395336,117.63420274003379,72.1999818837512,73.18916798286237,28.325298919956722,-127.82048194499002,30.174273012990454,8.151883171129432,0.0,0.0,0.5552725957731712,-16.78175889570364,13.819667417600668,165
-90.36167863706157,76.45479612838393,4.944282424912318,119.11753587910675,71.84322085811708,73.15414162466618,26.825298919956722,-128.76468185857803,32.924273012990454,7.722208983455019,0.0,0.0,-0.444727404226829,-16.120279218336222,14.090043411464253,166
-91.0183921857657,76.87878407340538,5.629049306173665,120.53435427528436,70.30688215187081,71.35336901261905,26.94065683380462,-129.66320199746988,35.674273012990454,7.244448588611833,0.0,0.0,-1.4447274042268292,-15.414295576553327,14.279150971332557,167
-90.89569564017968,75.48308999470515,4.805388661954178,121.44016711312493,69.28962297946815,71.2900428239488,25.44065683380462,-130.2141009052985,38.424273012990454,6.237509016802276,0.0,0.0,-2.444727404226829,-14.552385118486324,14.48095154276066,168
-89.89841263172691,76.06507568180855,5.400344831577427,122.56326196768475,68.56875108969982,69.51259659717714,24.922965153211166,-131.84578959646245,41.174273012990454,5.768764679188339,0.0,0.0,-3.444727404226829,-13.552385118486324,15.00471128851131,169
-90.76787462861212,75.43686568994029,6.171285096408276,123.66057059979224,66.82004595226613,69.1073910045381,24.559607832248446,-132.43589626309884,43.924273012990454,5.74621966242141,0.0,0.0,-4.444727404226829,-13.291321279814968,15.021334063735226,170
-90.52487511183485,76.88485447706624,7.671285096408276,124.62772257903946,64.66806309181554,68.82929289817577,23.760356327069175,-132.77847417158407,46.674273012990454,4.990448448105256,0.0,0.0,-5.444727404226829,-12.591792251438411,15.181271537049671,171
-89.08343997712169,75.90784951403104,8.835008464460767,125.43452545281811,62.7785888688378,66.84365503441701,23.492431849605218,-133.88548634433278,43.924273012990454,4.200105850839039,0.0,0.0,-6.444727404226829,-11.591792251438411,15.482672823465238,172
-88.26019647316151,75.02524686262113,9.597395781496475,126.2286303644151,60.8049671694766,66.4692947906152,22.296390056017398,-134.51195743016663,41.174273012990454,3.5796284184792033,0.0,0.0,-7.444727404226829,-10.591792251438411,15.66109205534293,173
-86.9841877238917,73.87139364831653,10.18614938636848,127.0007286085655,59.05960523063991,65.88714276677548,21.263647731717388,-135.03729067314234,38.424273012990454,2.9446071581801476,0.0,0.0,-8.44472740422683,-9.591792251438411,15.758476407939833,174
-85.97557679646361,72.97498361047009,11.211062311707606,127.70200831801432,56.32974036716832,64.37664384594538,21.72413475184482,-135.30524000875457,35.674273012990454,2.3450515544636343,0.0,0.0,-9.44472740422683,-8.591792251438411,15.9931628134735,175
-84.38639449041968,73.88571553950459,12.711062311707606,128.17970867490314,54.51132809938931,64.60920861680802,20.36654747949868,-135.6722902655749,32.924273012990454,1.8524030892958767,0.0,0.0,-10.44472740422683,-7.591792251438411,16.12596099425376,176
-83.10625953111746,73.00416202918396,14.211062311707606,128.59317384934153,52.067855681414464,63.02307580683125,20.99327961932453,-135.85833275000795,30.174273012990454,1.4428836377353216,0.0,0.0,-11.44472740422683,-6.591792251438411,16.180382605139236,177
-81.81607077544301,72.38910155688954,15.092658980566005,128.82132136733884,50.40378899404724,63.206869851396114,20.16873608169313,-135.84028025355232,27.424273012990454,1.234436802452199,0.0,0.0,-12.44472740422683,-5.8274812094300685,16.159644968334284,178
-80.60071106824337,72.04833121144462,15.916327947018866,128.95025402783844,48.8196768512085,63.42260977590378,19.689822663036754,-135.75140306410444,24.674273012990454,1.2608154248256855,0.0,0.0,-13.44472740422683,-5.197110282446072,16.100228199160433,179
-79.33612975701446,72.07993374038789,16.946042553135594,129.06074665307858,46.66096482182161,61.77906796836529,21.0402480086225,-135.58069456283644,21.924273012990454,1.284273704627333,0.0,0.0,-14.44472740422683,-4.6074566918027005,16.046105363653094,180
-78.40208511893799,71.1471238255977,17.085341452115777,129.03067268040417,45.477714834072465,61.87612881223619,20.65919182820541,-135.08658762865684,19.174273012990454,1.1806585622462018,0.0,0.0,-15.44472740422683,-4.132266621494774,15.97967505455427,181
-77.55336770059264,70.46885126625615,17.152793699814726,128.88498521458587,44.585750846134935,61.826349405062075,20.387542630621642,-134.57531353202077,21.924273012990454,0.9442347743778327,0.0,0.0,-16.444727404226832,-3.8117000642880647,15.984630029611118,182
-77.00394229594768,70.1125773641977,17.46220447702274,128.89256715187548,44.07647389508552,61.70358978403268,20.213044381478767,-134.38982361032964,24.674273012990454,0.9571745974541567,0.0,0.0,-17.444727404226832,-3.501226368849129,16.183479625631065,183
-75.95719303238043,71.61816570426645,18.700987001021993,128.77214096185114,44.51627282098752,61.48617015484305,19.743839004685615,-134.3345466908231,27.424273012990454,1.0841163375310217,0.0,0.0,-18.444727404226832,-3.210023640531455,16.209001467768342,184
-75.6755437624485,71.44889340303057,18.552809926127047,128.5562799121755,45.21359604740844,61.18617495848646,19.093077349948647,-134.2139570801233,30.174273012990454,1.1580164722474324,0.0,0.0,-19.444727404226832,-2.9190989559125082,16.22988616027623,185
-75.35094475986409,71.3877722037203,18.200381534251324,128.35408442883895,46.16953770184896,60.81487346338818,18.255916842115376,-134.07113249981887,32.924273012990454,1.2324540752696418,0.0,0.0,-20.444727404226832,-2.5925295306122598,16.320934288219657,186
-75.59408069154046,71.94733157458936,18.34889958173844,128.2953760763619,46.82153235063057,60.43035008123899,17.801068114842582,-133.83171960114294,35.674273012990454,1.5561174325507239,0.0,0.0,-21.444727404226832,-2.445123197667457,16.58161397414111,187
-76.68285023617001,70.63594747328113,17.038944661302512,128.35659674790938,47.80304889509406,60.14578631854433,17.296175381397436,-133.60119618110045,38.424273012990454,1.7598124535569823,0.0,0.0,-22.444727404226832,-2.2129107331674405,16.834274190640546,188
-77.11407623553538,71.21918477435261,16.757978436401892,128.31207878872434,49.350738732408615,59.91685652571498,16.579941429968187,-133.54446437557436,41.174273012990454,1.7327816478988336,0.0,0.0,-23.444727404226832,-1.9045286671042838,16.99462403494099,189
-77.92212704144747,71.92350588591728,16.794867830645348,128.4335121409043,51.05115073232699,59.883446993674674,16.13211363416367,-133.34373748581066,43.924273012990454,1.6353270883339985,0.0,0.0,-24.444727404226832,-1.6521163701393355,17.118094823957172,190
-79.07339232841731,72.78989403436644,17.11288002994344,128.71152473966282,52.73433631608024,59.928168181929685,15.91405456324077,-133.05952245417217,46.674273012990454,1.6560902927802703,0.0,0.0,-25.444727404226832,-1.4452425677043315,17.287610050122066,191
-80.84014855283473,71.84058816734047,16.02747564057642,129.083613479492,55.27622740677904,61.81713131073953,14.41405456324077,-132.81790001688174,49.424273012990454,1.6998070314095004,0.0,0.0,-26.444727404226832,-1.199916101669395,17.446182387753478,192
-81.80404448330731,72.73057504808567,15.849838427269331,129.22840360865655,57.70119108030374,61.70592331543763,13.010343711419749,-132.9090360673632,52.174273012990454,1.7026282911109598,0.0,0.0,-27.444727404226832,-0.9714270944700789,17.553716940814805,193
-83.01278256671608,73.67338159979633,15.950804287076407,129.37926839982543,60.06962914476268,61.62226141937882,12.357249029259018,-133.08388071917426,53.54975735134372,1.77273378993,0.0,0.0,-28.444727404226832,-0.8306208283820014,17.694746759078267,194
-84.73910227950932,72.62444744904879,14.9034189049394,129.6425483181051,62.25352154349802,61.63149707248965,11.759368283430264,-133.18769782864334,50.79975735134372,1.9145810604044637,0.0,0.0,-29.444727404226832,-0.6446517643077394,17.86692179942629,195
-85.68073451270244,73.3774757761331,15.086902789168201,129.8419913412043,64.06883358777401,61.55602309855454,11.028870936315284,-133.17889264159845,48.04975735134372,2.128874120894431,0.0,0.0,-30.444727404226832,-0.45333950401439055,18.14781165275742,196
-86.52833689938363,74.20716843600852,15.201854492148954,129.92168482408385,65.55072324131864,61.194033533155796,10.551900794900472,-133.3313549282141,45.29975735134372,2.343023357608262,0.0,0.0,-31.444727404226832,-0.3129618415212177,18.51199826472385,197
-87.28775840167059,74.83625751221608,15.236858169983968,130.0007410678541,67.13517672065039,61.77467388309032,9.536275655922857,-133.63068327600539,42.76244004154254,2.427842436041597,0.0,0.0,-32.44472740422683,-0.15884261236923192,18.754488083384764,198
-87.8795063918644,75.28729126507953,15.144835789133817,130.03528294913934,68.50009129954468,62.23458649024753,8.449543581948886,-133.9620001313195,40.573722003140055,2.446257803522571,0.0,0.0,-33.44472740422683,0.06846074826037356,18.983973920667474,199
-88.88807189653345,73.79160902069958,13.647058911873868,130.00797454450537,69.52113918208808,60.556769383911906,8.738187756866363,-134.3584227939869,38.3190139245047,2.3979698530399944,0.0,0.0,-34.44472740422683,0.32186290968175624,19.21549866259483,200
-89.3148607739553,74.05323097869368,13.485892516636724,129.938492228769,70.82573167011077,60.63827379763239,7.379120987148735,-134.85563005967026,35.5690139245047,2.378278081015587,0.0,0.0,-35.44472740422683,0.5510866267038076,19.400754357470312,201
-89.81670736328844,74.26264527548113,13.553592051403312,129.91973536906917,71.78017381926774,60.608567683178414,6.29880616084209,-135.37015498268323,32.8190139245047,2.3363394052034647,0.0,0.0,-36.44472740422683,0.7394190371233554,19.60579464702637,202
-90.28825630106705,74.45175572250247,13.767265578245562,129.93602571836337,72.25627609396628,60.3996014030344,5.544815803369833,-135.76082704403834,33.10571116365749,2.2537976194515354,0.0,0.0,-37.44472740422683,0.878418948010721,19.847690498290664,203
-90.63769334651555,74.66715009237268,13.959582609541954,129.8216535102879,72.3163693294934,59.871677765178795,4.968341629275543,-136.22477499019988,35.85571116365749,2.199500830678008,0.0,0.0,-38.44472740422683,0.9393968801381378,20.122252567189715,204
-91.18966290983084,74.82783819993828,14.48986299275567,129.76645429008062,71.86653684102792,59.237024474492415,4.7608806544078925,-136.726787842801,38.60571116365749,2.2477627825875075,0.0,0.0,-38.95979966505211,1.0005565751158223,20.44013271618463,205
-91.73827966266931,74.78355490793902,15.185555713401751,129.8353410478672,70.99855380683162,58.548266734614685,4.675778372781476,-137.16217188158905,38.022703453760684,2.237820427468197,0.0,0.0,-38.931355429802814,1.1916247823871766,20.75672687190925,206
-92.35968123919221,74.61797328705805,15.892107960576205,129.90168253882612,69.74809785036716,57.675998165376406,4.680513518706762,-137.4796379383452,40.74432286878276,1.9906755321280196,0.0,0.0,-38.96861659916849,1.4090565583417398,20.983818810308247,207
-92.81303396867857,74.2353920688038,16.272029915132006,129.8565529271598,68.66655564389464,56.84601791782806,4.4220190787938165,-137.8964086450805,37.99432286878276,1.5362283745737741,0.0,0.0,-39.2673948325415,1.6933618469768432,21.03582529173233,208
-92.49600039804776,73.50718365867307,16.189885428536172,129.7302028194535,68.37643956015431,56.168689376937024,3.343258031002162,-138.6108204717399,35.24432286878276,1.3038355917842523,0.0,0.0,-39.78108586674621,2.1721014747944416,21.02849888985021,209
-92.16346678729896,73.00699764617589,16.43044791533446,129.6393586263553,67.48030790069848,57.1054961122083,1.8432580310021618,-139.22086152009012,32.49432286878276,1.5766447072690186,0.0,0.0,-39.99706200006827,2.564016199627739,21.25869721122711,210
-92.16607262894327,72.80735137404625,16.95278910897163,129.50063559562136,65.32675656793211,55.563950612995555,1.5155039697416652,-139.69718996683022,29.74432286878276,2.0127427429607088,0.0,0.0,-40.01766202998607,2.7882796056170562,21.609397489189952,211
-92.2303954826918,72.51091297027136,17.54697181116173,129.33892511908462,62.99733252413555,55.70489482953788,0.2633822577363078,-140.0768552773586,26.99432286878276,2.2083301177126615,0.0,0.0,-40.06864011335434,3.003149403742436,21.907632840053374,212
-92.22768264107042,72.1441691030416,18.127467008484142,129.26992415556063,61.08017712536457,54.45077989469413,0.49977986225053656,-140.44480294356921,24.24432286878276,2.3610083345834334,0.0,0.0,-40.10855819329783,3.261295049122923,22.165782237430697,213
-91.89303050288534,71.83050656732652,18.353354615333807,129.0265759976861,59.45012107354151,53.19273294303857,0.5208436685400998,-140.87334261562464,21.49432286878276,2.6289685992842657,0.0,0.0,-40.24559827388277,3.486003835129752,22.425267307244,214
-91.62606799552393,71.69036842772562,18.618985320339533,128.73593872343122,57.61079752300024,51.8907358080525,0.828321864525783,-141.21498225547745,18.74432286878276,2.958360307102577,0.0,0.0,-40.313242994532224,3.616514763780715,22.75875562001013,215
-91.77116844559444,71.72252070639361,19.218103741731564,128.58511535378992,55.63916633085698,52.47702062040514,0.467562308119086,-141.3899645432872,15.99432286878276,3.2316563182714773,0.0,0.0,-40.22128580358699,3.6845752446915965,23.1527084176125,216
-92.1458304024534,71.75480343186119,19.749441137862053,128.4742443219378,54.159160530599294,52.10957796575184,0.964254599904826,-141.4257100059946,13.24432286878276,3.350231118466978,0.0,0.0,-40.24205864837177,3.735773819359497,23.4254069191539,217
-92.37727568636963,71.7286224436055,19.906191680525815,128.2405038476648,53.22353849157629,51.80574989397356,1.2279063176267748,-141.46137455042594,10.49432286878276,3.4167048937961293,0.0,0.0,-40.49448648434893,3.8137138547041665,23.591167887492233,218
-92.53345150333902,71.74784741440205,19.771052315245846,127.94270657345845,53.16901077189732,51.69686514927151,1.3179642842399453,-141.51923227303246,7.74432286878276,3.4462414722356405,0.0,0.0,-40.800210719441495,3.8369267597291588,23.63065450108498,219
-93.55779410218814,70.1745521661535,18.356592432910197,127.57640141326522,53.63172618974373,49.764112537301315,2.8179642842399453,-141.61089857864266,4.99432286878276,3.4020788061395373,0.0,0.0,-41.067926577516424,3.7277996080624223,23.679827227642075,220
-94.21464205830613,70.44445890219986,18.371943328370136,127.22213581226836,54.91284254807978,49.9326726134132,3.0162644538199896,-141.76311955135466,2.24432286878276,3.3791072977979804,0.0,0.0,-41.33208577628327,3.625063798405187,23.743528970981174,221
-94.97368957922531,70.53453571114206,18.322554028368515,126.91933788110948,57.496001565022816,50.33961330937893,2.2872543893122446,-142.05550546301936,-0.5056771312172401,3.315402775721444,0.0,0.0,-41.706794317221316,3.590370769573937,23.634692925102954,222
-95.64565024705914,70.49968922086819,18.113562518562375,126.63444711273083,60.246001565022816,51.60322292892371,0.7872543893122446,-142.4233530403874,-3.25567713121724,3.2044272622412655,0.0,0.0,-42.13732541414938,3.573934565986286,23.380008066926386,223
-96.4179300439046,70.54903182658649,18.00053666619787,126.33248974420452,62.996001565022816,53.491326056668434,-0.7127456106877554,-142.66608175555595,-6.00567713121724,3.1721926294347456,0.0,0.0,-42.42516312797708,3.5009686087868896,23.118672481961895,224
-97.49926494744581,70.66416940579705,18.189467566695907,126.12435334960642,65.74600156502282,53.583145064395744,-0.32820164468718643,-142.68880958214848,-8.75567713121724,3.2399442709520736,0.0,0.0,-42.537427240453354,3.391530384571362,22.860408041692867,225
-98.88403256999581,70.8097127342242,18.467867219019393,126.08781923668457,68.49600156502282,55.74801819496138,-1.1335419525332706,-142.46521182357247,-11.50567713121724,3.264518359303169,0.0,0.0,-42.67344416396928,3.276439483393642,22.566696292018033,226
-100.13838280973287,70.88775649553625,18.25535433464108,125.95933384465701,71.24600156502282,56.01899413531094,-0.7767740663969575,-142.35598678427033,-14.25567713121724,3.2789545724084572,0.0,0.0,-43.15569718003331,3.165880064102757,22.18681949573535,227
-100.8990806011535,70.75693223179482,17.46092110491048,125.73388965137063,73.99600156502282,58.59417723567187,-2.2767740663969573,-142.4955445207179,-17.00567713121724,3.25703546402146,0.0,0.0,-43.92655320597369,3.1101263524739293,21.66568182896053,228
-101.90830725323606,70.89575828180898,17.018752467036858,125.64212621903572,76.74600156502282,61.341313012485614,-3.3941079351556325,-142.4647748025619,-19.75567713121724,3.226513944933031,0.0,0.0,-44.391358671482564,3.0529048524420452,21.35990992537676,229
-102.63190690528455,73.02896331094173,18.073261064243123,125.4879678029957,79.49600156502282,62.02753344885962,-2.5471030837762747,-142.2096451486597,-17.00567713121724,3.0894649118683644,0.0,0.0,-44.70573775058447,2.8607927755756912,21.11185326883799,230
-103.9028246473938,73.35983069239079,17.621656608368923,125.19588627447438,82.24600156502282,64.74638002779095,-3.1272874563357065,-141.96052434989733,-14.25567713121724,3.0306995685321696,0.0,0.0,-45.09771033122741,2.686129783067521,20.860741642777903,231
-105.02155423863793,73.6022141700991,16.9710462370844,124.83035381910383,84.99600156502282,67.49638002779095,-3.6480284470279627,-141.63217864560303,-11.50567713121724,3.0390383867599295,0.0,0.0,-45.599668903105396,2.617636790219452,20.607526712795117,232
-105.81458916669605,73.67755367156025,16.01653395932809,124.31970058106909,87.74600156502282,70.24638002779095,-4.373093543569584,-141.2912158497279,-8.75567713121724,3.2721939322757354,0.0,0.0,-46.3317261204976,2.639991316860474,20.361583820209685,233
-106.54300550495167,73.75564312484245,14.933534078389723,123.54077170470426,90.49600156502282,72.99638002779095,-5.252638902311197,-140.97496473860863,-6.00567713121724,3.487696501391022,0.0,0.0,-47.160062271805145,2.6468897273489023,20.18955748572081,234
-107.23796608995097,73.8145640266298,13.588680609510854,122.82618437579006,93.24600156502282,75.74638002779095,-6.099284429622922,-140.43521190159325,-3.25567713121724,3.8603656187471507,0.0,0.0,-48.05739176365666,2.7783780982204687,19.957391632583995,235
-107.64277983019649,73.88829122031893,12.088680609510854,122.03996923319465,95.99600156502282,78.49638002779095,-7.234098240222421,-139.74188309103192,-0.5056771312172401,4.160493771255133,0.0,0.0,-49.05739176365666,2.951014197161627,19.750340976995023,236
-107.59536047443062,75.91528855961764,11.192065935046806,120.9619823198947,98.74600156502282,81.24638002779095,-8.734098240222421,-139.14589670788612,2.24432286878276,4.476997456563393,0.0,0.0,-50.05739176365666,3.026373022691463,19.68040601952962,237
-107.9376357826841,76.16444082014966,9.692065935046806,119.82741861889744,101.49600156502282,83.99638002779095,-10.234098240222421,-138.38638174424872,4.99432286878276,4.905407093780213,0.0,0.0,-51.05739176365666,3.1547616761397475,19.671198040840945,238
-108.07650258446421,76.45522035932778,8.192065935046806,118.52562391897706,104.24600156502282,86.74638002779095,-11.734098240222421,-137.36784329729895,7.74432286878276,5.291050728531118,0.0,0.0,-52.05739176365666,3.246640743232563,19.699882254264462,239
-108.08926652450853,76.83435600387602,6.692065935046806,116.85541318157472,106.99600156502282,87.3432753158736,-13.234098240222421,-136.3132959907383,10.49432286878276,5.707371959797245,0.0,0.0,-53.05739176365666,3.263847784153692,19.876572281595756,240
-108.01074499617933,77.20705484507349,5.192065935046806,114.93723007559804,109.74600156502282,89.24552727717665,-14.734098240222421,-135.14278414632872,13.24432286878276,6.145089159054522,0.0,0.0,-54.05739176365666,3.3083242016895817,20.110288137875756,241
-107.90278584079878,79.30649629069413,3.6920659350468057,112.97800724878618,111.54050782488834,90.80439100424583,-16.234098240222423,-133.56907901327057,15.99432286878276,6.4863509268533255,0.0,0.0,-55.05739176365666,3.434798556908235,20.30328431863367,242
-107.926667539572,79.58503607328291,2.1920659350468057,110.90942907084867,110.95321693348411,91.09500191367457,-17.734098240222423,-131.5829637703188,18.74432286878276,6.7553338536809076,0.0,0.0,-56.05739176365666,3.5938689043373744,20.557811956540693,243
-107.76731613893634,79.81599519509895,0.6920659350468057,108.52157154114013,109.2794806263528,91.8041174873875,-19.234098240222423,-129.1753963872211,21.49432286878276,6.8958853877865005,0.0,0.0,-57.05739176365666,3.777254730107129,20.8083312351512,244
-107.65112123174245,81.69000859241959,-0.8079340649531943,105.9813492832187,107.91877937035761,90.40778478102155,-20.734098240222423,-126.4253963872211,24.24432286878276,6.846545662703105,0.0,0.0,-58.05739176365666,3.962731508126299,20.957378606739624,245
-107.44591065461685,81.71651283767017,-2.3079340649531943,103.3071739083688,105.16877937035761,90.29245672659889,-22.234098240222423,-123.6753963872211,26.99432286878276,6.754472527992139,0.0,0.0,-59.05739176365666,4.231533068632245,21.120963637826556,246
-107.31911386069869,81.60886767708274,-3.8079340649531943,100.5571739083688,103.26457461189302,88.23641821542022,-23.734098240222423,-120.9253963872211,29.74432286878276,6.30739140600819,0.0,0.0,-60.05739176365666,4.245417673951558,21.00341747706105,247
-106.67764154468527,81.44550209414666,-5.307934064953194,97.8071739083688,100.79867055983108,85.86877754982697,-25.234098240222423,-118.1753963872211,32.49432286878276,6.0819508787182315,0.0,0.0,-61.05739176365666,4.655899585596485,20.94618672573664,248
-106.14430514777501,82.84188171146486,-6.807934064953194,95.0571739083688,98.19642594442728,83.17886312529495,-26.734098240222423,-115.4253963872211,35.24432286878276,5.7000053955800345,0.0,0.0,-62.05739176365666,4.97170573158575,20.847077016446804,249
-105.5294940618006,82.58451980702934,-8.307934064953194,92.3071739083688,95.44642594442728,80.42886312529495,-28.234098240222423,-112.6753963872211,37.99432286878276,5.080244987030656,0.0,0.0,-63.05739176365666,5.214260788433394,20.684003408267586,250
-104.96265451437206,82.27737165400949,-9.807934064953194,89.5571739083688,92.69642594442728,77.67886312529495,-29.734098240222423,-109.9253963872211,39.38752710734378,4.863558103167729,0.0,0.0,-64.05739176365667,5.460828453121293,20.528308404431936,251
-104.2966856376553,81.94987069756613,-11.307934064953194,86.8071739083688,89.94642594442728,75.22223822593311,-31.234098240222423,-107.1753963872211,39.143641686588985,4.889090006862915,0.0,0.0,-65.05739176365667,5.768200859347,20.447711253380415,252
-103.9465212449265,83.02760610809827,-10.907317626798614,84.0571739083688,87.19642594442728,72.47223822593311,-32.73409824022242,-104.4253963872211,39.18282924713566,4.82953535223872,0.0,0.0,-66.05739176365667,6.103637242599525,20.43790132270643,253
-103.29149939732096,82.14949390725992,-12.39619402310101,81.3071739083688,84.44642594442728,69.72223822593311,-34.23409824022242,-101.6753963872211,40.83617517553107,4.680280627151595,0.0,0.0,-67.05739176365667,6.255661654001872,20.518792123907943,254
-102.78789664568836,81.72056521443812,-12.833064267942312,78.5571739083688,81.69642594442728,67.93019717214493,-35.73409824022242,-98.9253963872211,40.509240960866634,4.589076327194428,0.0,0.0,-68.05739176365667,6.535841603670747,20.542978876229746,255
-102.44763879476707,81.18674648251654,-13.014650810755723,75.8071739083688,78.94642594442728,67.67367996848769,-37.23409824022242,-96.1753963872211,38.631422304521635,4.441856089809362,0.0,0.0,-69.05739176365667,6.864788264366681,20.503938584714618,256
-102.32208846702858,80.63056484723523,-12.922452862251872,73.0571739083688,76.19642594442728,66.75650136129298,-36.425303002996195,-96.43432312235383,36.07262751883699,4.283460466813273,0.0,0.0,-70.05739176365667,7.219696168961092,20.460359354036346,257
-102.73085217024357,81.30780550906456,-11.422452862251872,70.3071739083688,73.44642594442728,67.49792224462347,-34.925303002996195,-99.13612794553715,33.32262751883699,3.930903242687714,0.0,0.0,-69.6944506734798,7.589066379946551,20.341282363048833,258
-103.14645182482352,80.9671566321294,-9.922452862251872,67.5571739083688,70.69642594442728,67.09602638722842,-33.425303002996195,-101.88612794553715,30.57262751883699,3.3723067129977187,0.0,0.0,-68.96880289987078,7.85337407365955,20.28023331735975,259
-103.51343482351393,79.73672193806719,-10.542304602202362,64.8071739083688,67.94642594442728,67.02346852184716,-31.925303002996195,-104.04119400194081,27.82262751883699,3.0198116398685517,0.0,0.0,-67.96880289987078,8.074033944191395,20.2850819961495,260
-104.280667727132,80.0513113814449,-9.042304602202362,62.057173908368796,65.19642594442728,65.7403268022243,-30.425303002996195,-105.32479147722846,25.07262751883699,2.9260094163545474,0.0,0.0,-66.96880289987078,8.210646971178283,20.34834750008883,261
-104.90409990188779,80.55621508096122,-7.542304602202362,59.307173908368796,62.446425944427276,66.85979173436527,-28.925303002996195,-106.51615919265299,22.32262751883699,2.12419945343225,0.0,0.0,-65.96880289987078,8.28409700117898,20.339915701881708,262
-105.35174121532171,81.04318995250547,-6.042304602202362,56.56205588322182,59.696425944427276,66.89663677346151,-27.425303002996195,-108.0453320180254,19.57262751883699,1.5848386527064078,0.0,0.0,-64.96880289987078,8.396510009671383,20.138954779827102,263
-105.3881433700538,80.6270397583138,-5.429382282610621,54.51660563576546,56.946425944427276,67.21142512027205,-25.925303002996195,-109.69712966141293,16.82262751883699,1.2162658118789884,0.0,0.0,-63.96880289987078,8.589776247445467,19.929535935385704,264
-105.25955824150815,80.42399402607388,-5.520272752689634,52.602637456739615,54.196425944427276,69.22001441355096,-24.425303002996195,-110.23827877276157,14.072627518836988,0.9266771183345811,0.0,0.0,-62.96880289987078,8.844789967959594,19.80604069686388,265
-104.90131343149226,81.3020045492717,-4.020272752689634,50.52392675869411,51.446425944427276,69.38410160019565,-22.925303002996195,-111.15508493429421,11.322627518836988,0.7586275041267916,0.0,0.0,-61.96880289987078,9.08532181564352,19.681476513190397,266
-104.11910874262988,81.15227010023355,-4.221118823963285,48.69803239901456,48.696425944427276,71.32363165263693,-21.425303002996195,-112.57477165328322,8.572627518836988,0.9878466407170373,0.0,0.0,-60.96880289987078,9.415753776039134,19.40555225363447,267
-103.21798151481109,81.1153627324913,-4.5009575738424115,47.14579401609598,45.946425944427276,71.58648142255045,-19.925303002996195,-113.76066855280166,5.822627518836988,1.2089722439053978,0.0,0.0,-59.96880289987078,9.766423389223757,19.129389877470906,268
-101.95898493510224,81.30039275730171,-4.790356341754153,45.57129422643088,43.196425944427276,73.46515714798193,-18.425303002996195,-115.21049008355428,3.0726275188369883,1.1934675706974314,0.0,0.0,-58.96880289987078,10.140590506535911,18.99493051446736,269
-100.71938394099087,81.53065437682096,-4.848288664022469,44.605574852334485,43.1060211193075,75.36896613298887,-16.925303002996195,-116.99235836283955,0.32262751883698826,1.554362990110974,0.0,0.0,-57.96880289987078,10.566894099289945,18.797304860801255,270
-99.75407095032217,81.9783993511392,-4.465927493010991,43.64872776155317,43.79729892401589,77.41180436571153,-15.425303002996195,-117.69163011390113,-2.4273724811630117,2.2856011514803494,0.0,0.0,-56.96880289987078,10.698883684050273,18.499414890188113,271
-98.2311379811526,81.57196730131818,-5.965927493010991,42.243685778275456,44.302509325187636,77.28271163299901,-13.925303002996195,-118.39480862102396,-5.177372481163012,2.9449006701045586,0.0,0.0,-55.96880289987078,10.705253126419368,18.086962404937132,272
-96.67942554700699,81.64943157002074,-7.207442591814432,42.256980028661744,45.89934323216539,78.72891068832638,-12.425303002996195,-119.68039254970985,-7.927372481163012,3.5580308850050435,0.0,0.0,-54.96880289987078,11.090961439428469,17.55264849294605,273
-95.1699549677597,81.98427098295579,-7.2115015675513225,42.730953209422395,47.65384077116281,80.18198288201475,-10.925303002996195,-120.9149805842131,-10.677372481163012,3.9996161808232498,0.0,0.0,-53.96880289987078,11.359678213900729,17.14150197330645,274
-92.95494304372257,82.56326807320355,-6.966125824386486,42.701075684753086,48.28885156687541,79.85070668793544,-9.425303002996195,-121.209191544115,-7.927372481163012,4.4939976377488495,0.0,0.0,-52.96880289987078,11.542271116798624,16.986292417242154,275
-90.59499241013818,82.97328124406926,-7.061100150006299,42.757250374608454,49.83395023484249,81.03431292043743,-7.925303002996195,-121.44622719467144,-5.177372481163012,5.085167630027592,0.0,0.0,-51.96880289987078,11.654234639217192,16.56088607133062,276
-88.17688697765756,83.30147664837725,-6.873707547556311,43.752724739074864,51.719228425873055,82.09861538753538,-6.425303002996195,-122.03767696453727,-2.4273724811630117,5.540396529135625,0.0,0.0,-50.96880289987078,12.034953441177139,16.148747394190206,277
-85.42688697765756,83.21104735942308,-7.770592867688268,44.997791109031546,52.977396919398814,81.43967743632314,-4.925303002996195,-122.53762210411466,0.32262751883698826,5.9715582419646545,0.0,0.0,-49.96880289987078,12.476196680727588,15.82885634672537,278
-82.67688697765756,83.20619812897527,-7.8982510116074955,46.3254129824541,54.4280444045449,82.65130965090177,-3.425303002996195,-122.53542422096452,3.0726275188369883,6.405197921252827,0.0,0.0,-48.96880289987078,12.859219037373228,15.571861296068748,279
-79.92688697765756,82.96369013193684,-8.236739810992644,48.02164253874377,55.322854857910514,81.76305729471528,-1.9253030029961948,-122.46191576839321,5.822627518836988,6.925818356326553,0.0,0.0,-47.96880289987078,13.321938027679009,15.286489048223402,280
-77.17688697765756,83.47258055404876,-6.736739810992644,50.35580977729906,56.65570117303094,81.86361706491398,-0.42530300299619483,-122.23336378547631,8.572627518836988,7.44148062481841,0.0,0.0,-46.96880289987078,13.889917234927196,14.969784388984696,281
-74.42688697765756,83.10034016195348,-7.636052899660344,52.679433051432625,57.801625265179794,81.85749209078314,1.0746969970038052,-122.04541560499705,11.322627518836988,7.805269404754761,0.0,0.0,-45.96880289987078,14.454844206748419,14.741053235046406,282
-71.67688697765756,83.6995810065983,-6.626859311383089,55.05747516662012,58.89166042097333,81.76005769281466,2.574696997003805,-122.0742263247788,14.072627518836988,8.085077068600015,0.0,0.0,-44.96880289987078,14.97426874578728,14.611172676096528,283
-68.92688697765756,83.34187239203489,-8.043885075091499,57.48775508735827,60.10236358292497,81.54329847346567,4.074696997003805,-122.10376480219448,16.82262751883699,8.360326744699558,0.0,0.0,-43.96880289987078,15.410576962420677,14.505192761808038,284
-66.17688697765756,84.04765391434802,-7.451898554224445,59.5721953768263,61.024862779997456,81.19857370573298,5.574696997003805,-122.09645605645723,19.57262751883699,8.711389531342181,0.0,0.0,-42.96880289987078,15.725488325530367,14.480714606686067,285
-63.42688697765756,84.69811725043976,-7.087030396298872,61.55179834436423,61.49377004779401,80.87556876331809,7.074696997003805,-122.11645034108008,22.32262751883699,8.997074631480846,0.0,0.0,-41.96880289987078,16.017747863484548,14.508220365690596,286
-60.67688697765756,85.27233620688465,-7.066880751392962,63.48341341225322,61.85644344232389,80.58815904168586,8.574696997003805,-122.25630749764517,25.07262751883699,8.870001087672511,0.0,0.0,-40.96880289987078,16.394577536219437,14.578515920261198,287
-57.92688697765756,85.80686780375528,-7.281951302740725,65.30623321913518,62.3322675858099,80.26046848407506,10.074696997003805,-122.63550456996987,27.82262751883699,8.691146838932793,0.0,0.0,-39.96880289987078,16.784929813700604,14.6698700335627,288
-55.17688697765756,87.43532308394404,-5.781951302740725,67.23985253685441,62.84314696454502,79.95211449996964,11.574696997003805,-123.0843438463916,30.57262751883699,8.652884806168759,0.0,0.0,-38.96880289987078,17.10469047793943,14.72663489056037,289
-52.42688697765756,87.89570215579798,-5.7954837040517795,69.42552231822488,62.935600930583796,79.82574634322775,13.074696997003805,-123.2359623932947,33.32262751883699,8.672846544695206,0.0,0.0,-37.96880289987078,17.267736057283685,14.703568087192522,290
-49.67688697765756,88.04847368262509,-6.012250250891083,69.98185530875031,64.27532282000689,81.42652079907978,14.574696997003805,-123.8847988081094,36.07262751883699,8.936228677242708,0.0,0.0,-36.96880289987078,17.48366212719272,14.567083342357678,291
-46.92688697765756,88.08743718392347,-5.664760942423132,70.81153163405065,63.77669708933659,81.30840140573697,15.625467343938208,-123.5330094835801,38.82262751883699,9.50574995172845,0.0,0.0,-35.96880289987078,17.230401586899124,14.168196742017743,292
-44.17688697765756,88.24250770209844,-5.9608385038341005,70.46509519194511,63.980113896877086,81.20668151111437,15.791414916466412,-123.64195853520316,41.57262751883699,10.057180632951404,0.0,0.0,-34.96880289987078,17.352611714202965,13.759668220748857,293
-41.42688697765756,87.03775547098311,-7.4608385038341005,70.19501108519695,64.0770758720483,81.18161493302813,16.450691698369365,-123.77294425029243,44.32262751883699,10.818683657445305,0.0,0.0,-33.96880289987078,17.24889209246813,13.271320106391089,294
-38.67688697765756,87.00705676320597,-7.727321567360621,70.2464801401598,63.94492698566354,81.24429899198127,17.27746498436412,-123.74495376381222,47.07262751883699,11.382168949135915,0.0,0.0,-32.96880289987078,17.059802299643252,12.817009014402098,295
-35.92688697765756,87.07404373694352,-7.6713145093869874,70.40174662811347,63.89103615967287,81.27888958539724,17.829692813795052,-123.74523942712963,49.82262751883699,11.427759993216563,0.0,0.0,-31.96880289987078,16.95562022195428,12.54419369480582,296
-34.932532568841395,86.13498104849937,-9.171314509386988,70.4232643547425,64.22217208043436,81.12201026105701,18.0391629575801,-124.14400128117697,52.57262751883699,11.264852146532796,0.0,0.0,-30.96880289987078,16.906670718530016,12.555603470406874,297
-35.245295402613166,86.44452610905209,-9.82211270363773,70.73233461053526,64.34081810986683,80.90133398501821,18.331390883946593,-124.33026069629325,55.32262751883699,11.320253089438587,0.0,0.0,-29.96880289987078,16.68186536945397,12.522372043510318,298
-35.619897879413614,87.0136775615701,-10.027738230023107,70.75777658932658,65.52469083891478,82.32742270112499,16.831390883946593,-124.73020345885993,58.07262751883699,11.306038233693258,0.0,0.0,-28.96880289987078,16.589009876212778,12.485941447810918,299
-35.948201319277324,86.48156302016115,-11.527738230023107,70.58594482754405,66.37888313887699,81.89876439619725,16.300551210310577,-125.26417728433798,60.82262751883699,11.269625091055062,0.0,0.0,-27.96880289987078,16.486303023904558,12.364106259931992,300
-36.756867652621445,87.10706103238198,-12.4744511994446,70.3430232325241,67.14989029480599,81.5463197453207,16.075242325390864,-125.56761500749063,63.57262751883699,11.202859431492366,0.0,0.0,-26.96880289987078,16.35875362953386,12.21351919419292,301
-37.62719265777467,87.7292867996805,-12.66623798835969,69.99910216160478,67.69188423209661,81.29940594869512,15.739932704156924,-125.72982210282053,66.32262751883698,10.931394372582742,0.0,0.0,-25.96880289987078,16.283189016140916,12.16972665210382,302
-38.43864473271943,88.40192005796135,-13.125556025866086,69.71994915694034,68.24709996816179,79.21416530520821,16.75727824920175,-126.30946260665019,69.07262751883698,10.68258178899081,0.0,0.0,-24.96880289987078,16.355700264950237,12.21099376048431,303
-39.877667805720264,88.85959068640354,-13.214926690779256,69.94936385317695,69.1125572077866,79.06151330125218,16.57804991011535,-126.5316476539672,71.82262751883698,10.60166634626363,0.0,0.0,-23.96880289987078,16.250043287636224,12.045622848419868,304
-40.97110836568589,88.07721762352081,-14.714926690779256,70.229465660751,69.97812442391673,78.96941451032076,16.248654338939122,-126.7651443498022,74.57262751883698,10.44297760330082,0.0,0.0,-22.96880289987078,16.215305433503758,12.006759286448034,305
-42.36253599527134,88.50488514136585,-15.745155413239027,70.50417157685156,70.81864787685393,78.80658545616174,15.784120820336927,-127.02441388975812,77.32262751883698,10.428863714768237,0.0,0.0,-21.96880289987078,16.140243935243383,11.980227145799356,306
-43.78373905215643,88.92222120723248,-15.963597420050487,70.81231857069254,71.50403257285453,78.74274626558838,15.417808479536175,-127.2299963978171,80.07262751883698,10.31900269143515,0.0,0.0,-20.96880289987078,16.000953060849508,11.986989161425779,307
-45.244686575215034,89.27964231705381,-16.215562902601334,70.98771710286688,72.39263537599702,78.76253125079688,15.097475824659922,-127.43298294733981,82.82262751883698,10.041058693083242,0.0,0.0,-19.96880289987078,15.883435498365781,11.971173458055828,308
-46.91614848436198,89.54055769700008,-16.370049153526864,71.47701768470024,73.34736903824499,78.6784975405728,14.757749506959255,-127.60026311739753,85.57262751883698,9.7797538063248,0.0,0.0,-18.96880289987078,15.677452914502629,11.916277309126222,309
-48.480835830250655,89.8944426078196,-16.645866122076022,72.2287262975965,74.27157151070817,78.45626822188345,14.192644029524077,-127.99372224070609,88.32262751883698,9.414268823541438,0.0,0.0,-17.96880289987078,15.407440425041274,11.99541483654915,310
-50.14632931625669,90.27524942827083,-16.7990464285332,72.8529581843246,74.48781789805327,76.37208829075541,15.355767699244845,-128.33989211722576,91.07262751883698,9.018767911626062,0.0,0.0,-16.96880289987078,14.95907426514609,11.980901242218465,311
-51.77207092493569,90.52650600749791,-17.023626159806433,73.20279145754395,75.47135887895983,76.21104945437442,14.845897908921302,-128.78147131037332,93.82262751883698,8.748705881751825,0.0,0.0,-15.96880289987078,14.581714298176117,11.901106984399403,312
-53.52163958156924,90.59331763712056,-17.237807115082596,73.67167475687246,76.56873028708306,76.13097977133879,14.364103825282632,-129.27075373593792,96.57262751883698,8.66557478689541,0.0,0.0,-14.96880289987078,14.249803301814909,11.814255204908939,313
-54.93150387514458,89.36174790604552,-18.737807115082596,74.20623478329331,77.43786842997348,76.10110628239852,14.004519847110448,-129.4781125794047,99.32262751883698,8.537446544505777,0.0,0.0,-13.96880289987078,13.844796984636371,11.637000148587628,314
-56.577138176495005,89.33727109252655,-19.764684223435534,75.27946979657186,78.40935491973754,76.0926288436401,13.497874475129242,-129.90998952390515,102.07262751883698,8.270258515634627,0.0,0.0,-12.96880289987078,13.501230014703696,11.762207245423555,315
-58.186665620631175,89.31289487162483,-20.153290065281112,76.24487548156034,79.30946575888889,76.0583223591736,12.88969688223977,-130.34131432186345,104.82262751883698,8.064662815747463,0.0,0.0,-11.96880289987078,13.099385614309911,11.820026953911507,316
-59.52400557534558,89.232493964123,-20.650214076997482,76.94309741284069,80.22486323695021,76.08487589550408,12.148331497776995,-130.79847469653015,107.57262751883698,7.771729391993789,0.0,0.0,-11.255495511694964,12.76999502128791,11.89085024866445,317
-60.89452484013785,89.05171603873949,-21.08181046944406,77.64070300290969,80.80439980095636,74.26319619051417,13.044395804691913,-131.13320495482063,110.32262751883698,7.503527038873013,0.0,0.0,-12.255495511694964,12.428182053754595,11.841312650407588,318
-62.38221047326865,88.82810767652742,-21.498795549614943,78.53168871550302,81.83696929172287,74.30683387356669,12.381379942411034,-131.35914342653228,113.07262751883698,7.364252341715558,0.0,0.0,-13.255495511694964,12.026307889019007,11.708377985209605,319
-63.651041529869495,88.60632656697751,-21.941781276703324,79.39291061652831,82.88232970729705,74.34202565945515,11.647814684678325,-131.65034517321624,115.82262751883698,7.304128217168875,0.0,0.0,-14.255495511694964,11.583470074526476,11.603165554424038,320
-65.20330543456926,89.67818037197468,-20.44483555895827,80.16046837177707,83.88328052587318,74.38097762014397,10.832690632914744,-132.01787401365894,118.57262751883698,7.235326454743138,0.0,0.0,-15.255495511694964,11.158344001326963,11.54265444437696,321
-66.31942128121705,89.35127052505457,-21.01596260533607,81.1228721048476,85.03129704545198,74.46500093420019,9.872504292755202,-132.39723390610087,121.32262751883698,7.096476637882786,0.0,0.0,-16.255495511694964,10.787676207639128,11.47277658036631,322
-67.40657520448667,88.91628353985813,-21.654980741437956,82.08704480619855,86.33746899451339,74.66017914769,8.807319178145429,-132.66986544564983,124.07262751883698,6.890811571018625,0.0,0.0,-17.255495511694964,10.436245461036666,11.310865328171955,323
-68.28450179850908,88.46467769674267,-22.364245657066466,82.9663796465743,87.72577648948378,74.95442310864061,7.651355942049424,-132.97664512210957,126.82262751883698,6.746798524700582,0.0,0.0,-18.255495511694964,10.08631682502798,11.165641217647371,324
-69.12166782892587,87.95373743113235,-23.084464312153205,83.88806624015825,89.44150994066037,75.38610408648263,6.465057597596861,-133.6215457565082,128.1522564267613,6.672893991654083,0.0,0.0,-19.255495511694964,9.751889817550213,11.033753340565742,325
-70.83133798488963,88.475608654992,-21.682890128865342,85.10983964071683,91.38306747512088,75.97643279142333,5.4345460243555,-134.207095215116,130.9022564267613,6.602899238673489,0.0,0.0,-20.255495511694964,9.459057847546001,10.699526060043953,326
-72.27551905378712,87.46518449598416,-22.045853188316894,86.76097396432584,92.7995988372353,76.52955762048269,4.673941641847803,-134.26791779442465,132.5687459709091,6.578396352682871,0.0,0.0,-21.255495511694964,9.150897051907734,10.289107382756901,327
-73.18832661810497,86.77638885976536,-22.691815741055745,88.20414565435668,93.86584931657009,75.06667279985857,5.045462179653588,-134.19254037191362,130.71370816144227,6.546877477541601,0.0,0.0,-22.255495511694964,8.812233464060077,10.045484030369153,328
-74.20066167760649,87.75043871015197,-21.692664150198283,89.15178993837819,95.50414938618616,75.53621129162626,3.5454621796535877,-134.5539967782876,129.10374115056524,6.600011370204773,0.0,0.0,-23.255495511694964,8.402744895535395,9.960943658486903,329
-74.67683627000085,87.14359606460535,-22.500925804603995,90.06033850471633,97.25210191214063,76.21790881551965,2.0454621796535877,-135.07491801718555,129.37845196686644,6.643431148969648,0.0,0.0,-24.255495511694964,8.029645940464732,9.79905464420843,330
-74.88186377128548,86.40816300242935,-23.060142266608537,90.96739092078442,98.81498006338562,77.06127841152636,0.8920169830773642,-135.47111517344615,129.7437092097536,6.574237571498486,0.0,0.0,-25.255495511694964,7.7883198213005835,9.567642318182257,331
-75.20501937159464,87.2818766259776,-21.572592312279887,91.81371689591936,100.21417763875952,77.81352633726819,-0.21000543298533922,-135.48406931331309,130.85747085302754,6.49633299015736,0.0,0.0,-26.255495511694964,7.626998174278311,9.33843976640945,332
-75.32140775061512,86.82915572118486,-21.814325797020537,92.62000395736422,101.39829710112404,78.2301644227577,-1.2044902538169409,-135.77586574360132,131.42331558081588,6.773110258342812,0.0,0.0,-27.255495511694964,7.108383816466054,9.193544315881658,333
-75.87877329068615,85.95705140381752,-22.00189445355327,93.768181042324,102.28508837867722,78.6506343756039,-2.09140231114463,-136.35478019970347,131.69849173838614,6.9266600636825935,0.0,0.0,-28.255495511694964,6.646418033950834,9.014165910363733,334
-76.65278998153654,86.43707901484164,-20.502474876537164,95.19283878373085,103.15342920361996,79.28539771656948,-3.2314420836777633,-136.41208345043165,134.07366885891693,6.706882072674964,0.0,0.0,-29.255495511694964,6.606288845941301,8.66856996008052,335
-76.92381550189968,85.67259882083107,-20.78545097845236,96.39394223195093,104.0080285396418,79.63327952570843,-4.387087880520405,-136.79699863230147,135.21201372663103,6.685918671606037,0.0,0.0,-30.255495511694964,6.301567233624912,8.474198987045899,336
-77.31083178212943,84.85950559796862,-20.864978066906467,97.88973120860798,104.72353624651623,79.82607304540133,-5.3869837727578425,-137.13384211214543,135.8025746429825,6.715265464140629,0.0,0.0,-31.255495511694964,6.002744531749844,8.347782978399465,337
-78.12177714565355,85.7122746159925,-19.364978066906467,99.17407210814885,105.29750509368107,79.83250586518581,-6.461524533269117,-137.49785326845395,135.9894355144455,6.779553679507238,0.0,0.0,-32.25549551169497,5.681896103778439,8.245722347135414,338
-78.50203646443923,84.92422382027407,-19.14380782543195,100.27162026205494,105.50911997641512,79.69219173371101,-7.416456870348772,-138.19506902474683,136.05380879014976,6.7518278547868285,0.0,0.0,-33.25549551169497,5.363001558064608,8.177708509888387,339
-78.93662523282751,83.90856126097425,-19.19071996662298,101.86136329608796,105.52207264945609,79.63693371967294,-8.315143495695533,-138.57209313132736,137.4482532813344,6.504209314085505,0.0,0.0,-34.25549551169497,5.322134931881736,7.9683152355839155,340
-79.7661954109875,84.66049938190932,-17.69071996662298,103.37083245657661,105.88520428073488,79.54202903198659,-9.526365782790663,-138.9060222009571,138.38889213476818,6.3346202368643665,0.0,0.0,-35.25549551169497,5.248509279854194,7.7828915129609175,341
-80.13443195113962,83.94932167011326,-17.630266374669297,104.6687698765772,106.70050733279662,77.35319179732157,-9.405198566933716,-139.4915668378675,138.08738447735692,6.320586093733125,0.0,0.0,-36.25549551169497,5.002842679621138,7.738274797706809,342
-80.66888309393616,83.05037452819533,-17.620668326586294,106.105502937604,106.7347978917663,76.93449639453166,-10.435930074785649,-140.11714332121056,137.61197005922054,6.16443918584843,0.0,0.0,-37.25549551169497,4.798893011233547,7.713644049425041,343
-81.42317304692278,83.78425831783525,-16.120668326586294,107.49672990787309,107.03610974076764,76.72898928244427,-11.68228871503906,-140.57711675451426,137.61667728961476,5.822587789074136,0.0,0.0,-38.25549551169497,4.784788813982117,7.576333653116389,344
-81.63912290134999,83.006708578709,-15.877214233356082,108.80506183616652,107.43648161453073,76.35434754573461,-12.908502195630579,-141.05165047164525,135.05533942570236,5.6315061159628526,0.0,0.0,-39.25549551169497,4.712052268348852,7.577786907736058,345
-82.19331638120475,82.16223748155593,-15.576708342787725,110.19096623803145,107.44225527373668,75.68967148117713,-13.753489965560476,-141.70850667059193,132.30533942570236,5.554714112339506,0.0,0.0,-40.25549551169497,4.544199547168873,7.745184672899978,346
-83.35146519927393,82.82327474695842,-14.076708342787725,111.71271303807892,107.35634784394483,75.19956675932292,-14.415118930908513,-142.24046813761993,129.55533942570236,5.38732187102883,0.0,0.0,-41.25549551169497,4.462146374826425,7.791868704506211,347
-83.92580157666222,81.76991087979326,-13.493040643738809,113.08846833032527,107.61379524110696,75.10401065742838,-15.176995231494196,-142.67656387293098,127.84052729379691,5.139986832894838,0.0,0.0,-42.25549551169497,4.465231749777256,7.709415027926139,348
-84.89290287181554,82.12708293957611,-12.014418194530794,114.4214572168661,107.84543606841966,75.10897217659463,-15.777639948327257,-143.06944517753038,126.77775573017449,4.884651241844056,0.0,0.0,-43.25549551169497,4.471345933332017,7.617418299739634,349
-85.65591507853973,81.13749768630572,-11.716954995804597,115.8664494404784,107.98157279082554,75.16557648822078,-16.259748527585113,-143.33658891832852,125.2075295410511,4.545577954499919,0.0,0.0,-44.25549551169497,4.531645428899263,7.517586922727715,350
-86.37689493747979,80.10563270352785,-11.353085964273358,117.24657317764924,108.54153346498784,73.5369623202839,-15.287119679165725,-143.59150605880265,122.4575295410511,4.117747965289792,0.0,0.0,-45.25549551169497,4.686790972475451,7.483110123375326,351
-87.17712845380574,80.84958597732837,-9.853085964273358,118.37163852072248,108.79059262692799,74.2110716007719,-15.49316054779084,-143.77565244942875,119.7075295410511,3.6945078714476667,0.0,0.0,-46.25549551169497,4.955436899403655,7.423564654201577,352
-87.76465973725064,79.91250313711485,-9.117562543429187,119.47691441296091,109.21655226178075,75.0616338811471,-15.46406828827652,-143.8491236839842,116.9575295410511,3.3357045927246656,0.0,0.0,-47.25549551169497,5.2127295321134985,7.316456872822437,353
-88.45568688141117,79.06060042661804,-8.698192037465962,120.57774656385133,110.14755253193928,74.11661797740331,-13.96406828827652,-143.82796255149168,114.2075295410511,2.9716437139176866,0.0,0.0,-48.25549551169497,5.433447114189022,7.215196052468524,354
-89.01873379307796,78.20703656402837,-8.36169588995136,121.53859771296845,110.83154076667435,75.2829763296938,-13.79359008441849,-143.83738337349988,111.4575295410511,2.6971955498632116,0.0,0.0,-49.25549551169497,5.697558570261968,7.160100310086545,355
-89.53510429269586,77.36682520613374,-8.028545897404324,122.41184657599203,112.28846652675536,74.6699342770738,-12.364198487276314,-143.8477427336885,108.7075295410511,2.5997847650058175,0.0,0.0,-50.112952549453844,5.941876486101322,7.094944429848793,356
-90.6640617867066,78.53290786416683,-6.5285458974043244,123.32559054211082,113.24668008206022,73.85238689948268,-10.864198487276314,-143.84000549766444,105.9575295410511,2.6889172599723343,0.0,0.0,-50.24737252029714,6.136635864661387,7.078320556006965,357
-91.3827816225369,77.79407258370637,-5.325696407811233,124.25939173808442,113.9366656394949,75.15626313281278,-10.039263883469165,-143.68290954536215,103.2075295410511,2.7255208849019423,0.0,0.0,-50.46752228393668,6.454204731775724,6.970981923112417,358
-91.9393468208929,77.13596442058656,-4.942301140886474,125.0361919700646,114.75276283219102,76.51661116031866,-9.573327840546433,-143.5377326978946,100.4575295410511,2.897689798067625,0.0,0.0,-50.7209872028616,6.78283421696769,6.927153332190528,359
-92.74457667948008,76.60838755244126,-4.376462223606976,125.69319083146502,115.64552275344712,75.87423927169105,-8.073327840546433,-143.40894498603737,97.7075295410511,3.1248269959659494,0.0,0.0,-50.86625380181402,7.06780196481625,6.934597682305994,360
-93.4514157630936,76.00159196638566,-3.8886921583622405,126.33967711512788,116.30756063570888,77.19584434879371,-6.894423233642356,-143.17476657850128,94.9575295410511,3.336374601217538,0.0,0.0,-51.05421259293952,7.464735589250859,6.864502708791046,361
-94.07819560402478,75.45601007373646,-3.4713862473112527,126.96551771971538,117.14987862497473,76.48689297755836,-5.394423233642356,-142.9053953251553,92.2075295410511,3.756163945349692,0.0,0.0,-51.25405447866683,7.877834312345524,6.812789108527097,362
-94.80904809526501,75.01129296676945,-2.9800256837748713,127.49639334708655,117.553630789581,77.59445654355582,-4.3811942084470665,-142.7540087928383,89.4575295410511,4.226758429218421,0.0,0.0,-51.43215088046045,8.239992691238628,6.847950077249883,363
-95.3518503501085,74.45000284666342,-2.6659686419541218,127.99462891289154,118.09635344915985,78.68439935442184,-4.014644579735377,-142.47503266305057,86.7075295410511,4.532534562820771,0.0,0.0,-51.71588492431869,8.66175917063572,6.759628960757857,364
-95.89779800772304,74.01328549073959,-2.44493224547624,128.41057141461084,118.643353061971,79.55523082154677,-3.8519823928543926,-142.18369961148574,83.9575295410511,4.807523945617845,0.0,0.0,-52.00804230174346,9.037111873141303,6.676871105195772,365
-96.5472714046981,73.7025501457679,-2.2267220697784476,128.674511559991,119.15422595527849,80.2738304565935,-3.8186184564175902,-142.1158201995408,81.2075295410511,5.0967501193162565,0.0,0.0,-52.32307119384849,9.343246449192959,6.679633353793548,366
-96.91777107294432,75.11996199786265,-0.7267220697784476,128.79784988210668,120.00731158079284,81.0474040657418,-3.9755875071488718,-142.09717204418905,78.4575295410511,5.271964464602892,0.0,0.0,-52.73073586428619,9.711124754880899,6.59903075537272,367
-97.34745229828424,74.6331543076856,-0.3397117420369248,129.01603032186932,120.69134583502102,81.43889734889405,-4.214273376531046,-141.94136153341339,75.7075295410511,5.414795179219496,0.0,0.0,-52.941499292740644,10.05368952812887,6.4895854533021575,368
-98.12389799882682,74.33637629144602,0.059011983506898354,129.24534601994813,121.07344706123129,81.42375084011088,-4.744601293205039,-141.90066631430122,72.9575295410511,5.647442471312523,0.0,0.0,-53.121487802368776,10.28885753025796,6.455767455490669,369
-98.71188224088397,73.99231661047817,0.09856549393766781,129.32170763561692,121.67397886094676,81.40929675942463,-5.81792595853038,-142.07634404009872,70.2075295410511,5.88675677754935,0.0,0.0,-53.59736742228713,10.574904893453223,6.40689160460028,370
-98.77496731325202,73.4714362155951,-0.26378670754776434,129.2472151118283,122.63193618927423,81.41518281012557,-7.31792595853038,-142.2434999437385,67.4575295410511,6.013572288657357,0.0,0.0,-54.31165105141872,10.964332384751112,6.250677877089667,371
-98.83231556380335,73.01653079536594,-0.6194282071804565,129.0978063327965,123.1894811335129,83.04389434371646,-8.817925958530381,-142.38845135335004,64.7075295410511,6.109666879160685,0.0,0.0,-54.94979567995653,11.259114139775068,6.062857808900362,372
-99.1078827703888,72.62594409890637,-0.8804904567012917,128.86403325842605,123.92517382684488,82.43531576257826,-10.317925958530381,-142.60537853319386,61.9575295410511,6.147969503265079,0.0,0.0,-55.556639500817326,11.474611884488237,5.893076241345043,373
-99.32508456385872,72.19980422026221,-1.2304387320193937,128.66439977168784,124.75941231444062,81.72882316758269,-11.817925958530381,-142.7811812435814,59.2075295410511,6.104766874443911,0.0,0.0,-56.2368135765974,11.748493665921133,5.706078322424038,374
-99.4392180084482,71.84856147810856,-1.697827003651459,128.48992321961958,124.83978120955199,82.66731312651216,-13.317925958530381,-142.92769965014497,56.4575295410511,6.100761426156933,0.0,0.0,-56.924446368010045,12.001527562834008,5.53557721381673,375
-99.6738626135453,71.59716188469774,-2.1981779605506766,128.2633557254486,125.22531923086409,81.66898325979253,-14.817925958530381,-143.10345293392365,53.7075295410511,6.126055544005558,0.0,0.0,-57.60574675033915,12.175721261061017,5.369794331948824,376
-99.846760698298,71.27043367140871,-2.8424551030316403,128.0610270983665,125.41759901707208,80.62184546252668,-16.31792595853038,-143.17713436799687,50.9575295410511,6.15275674872848,0.0,0.0,-58.43083946251437,12.413590634858512,5.161961185320686,377
-99.93400692556395,70.98944406379715,-3.6704957664944153,127.85511092957363,125.4280708532483,79.4757129688671,-17.81792595853038,-143.04623157771934,48.2075295410511,6.249591393209155,0.0,0.0,-59.36190594565458,12.660859889581374,4.980528650089684,378
-99.9656028013247,70.7952311851382,-4.646799495650777,127.50956160524062,125.37085022188612,78.17586764460385,-19.31792595853038,-142.92137915928532,45.4575295410511,6.351155264518768,0.0,0.0,-60.36190594565458,12.837225736767703,4.866425118990516,379
-100.04800403349039,70.5207817586396,-5.568465050455832,127.16327767621084,125.19228322900294,76.72953883607119,-20.81792595853038,-142.78468049086896,42.7075295410511,6.480149826786851,0.0,0.0,-61.36190594565458,13.039752633143634,4.725509321216858,380
-100.2879003192989,70.13297396381445,-6.262755359675184,126.88514945624306,124.67428992586585,75.03260090282184,-22.31792595853038,-142.37684891774555,39.9575295410511,6.708809718652349,0.0,0.0,-62.35206373133329,13.273364280327801,4.523617662533916,381
-100.42824329073008,69.63806459902437,-6.865704440275117,126.7284106117748,123.93822471647762,73.21499784091189,-23.81792595853038,-141.64611885570918,37.2075295410511,6.937758146501632,0.0,0.0,-63.27865960262094,13.546680229461282,4.330744367718176,382
-100.71250661492515,69.18959114895387,-7.265306747954526,126.62719887703788,123.04170528946109,71.11167448127773,-25.31792595853038,-140.78975282306163,34.4575295410511,7.1741515194364744,0.0,0.0,-64.08756069061732,13.792202205440779,4.251470316648341,383
-101.26119286314223,68.79205107021409,-7.402830220664331,126.55499233119227,123.2886160773957,68.36167448127773,-26.81792595853038,-139.57619012560352,31.7075295410511,7.47421795747632,0.0,0.0,-64.7197427517162,14.003127778228226,4.22638476715323,384
-101.79962005031884,68.29187267740107,-7.5857143055343474,126.51838677846824,121.59970705246832,65.61167448127773,-28.31792595853038,-137.67827714915086,28.9575295410511,7.781607434567397,0.0,0.0,-65.41063618291078,14.229520699945779,4.0800200779011515,385
-102.13036952551018,67.82420125302272,-7.918219394509002,126.28655892316196,121.84793387194398,62.86167448127773,-29.81792595853038,-135.17002847678975,26.2075295410511,8.095461730380793,0.0,0.0,-66.10996693481556,14.509079972396439,3.8828192341619476,386
-102.42146101663778,67.46186137803447,-8.318934011079525,125.8238940072972,120.29676886273339,60.11167448127773,-31.31792595853038,-132.42002847678975,23.4575295410511,8.439250812641259,0.0,0.0,-66.75477159025898,14.849083389920182,3.6930881072063295,387
-102.75826759041301,66.83781940542758,-8.423301380715943,125.68599977443245,118.60975267692619,57.36167448127773,-32.81792595853038,-129.67002847678975,20.7075295410511,8.624809045306295,0.0,0.0,-67.38168755946276,15.1806856846249,3.4508557207124997,388
-103.1597703672126,66.1783214847793,-8.522810544175549,125.48836759810185,116.49731084827407,54.61167448127773,-34.31792595853038,-126.92002847678975,17.9575295410511,8.509409276252761,0.0,0.0,-68.02816666369665,15.364496817626582,3.1313035774150166,389
-103.08987903345496,65.36894669859426,-8.968391670945262,125.14706300479337,114.44817929547527,51.86167448127773,-35.81792595853038,-124.17002847678975,15.207529541051102,8.384384554012824,0.0,0.0,-68.9149046508616,15.469866781230431,2.638351120420623,390
-102.90999502651114,66.44837953555398,-7.79598902033236,124.9590504478432,112.17089803779326,49.11167448127773,-37.31792595853038,-121.42002847678975,12.457529541051102,8.417202626407564,0.0,0.0,-69.6744432388457,15.548017649959016,2.1019556666039487,391
