JMW9912/AVATAR/Dynamixel/dynamixel_control/data/csv/poppy/.data/waist_test/3DoF (3O+Pos)/Old/0429_2055_WMCA_Dance_3DoF_Pos_smpl_motor_degree.csv
theta1,theta2,theta3,theta4,theta5,theta6,theta7,theta8,theta9,theta10,theta11,theta12,theta13,theta14,theta15,frame
67.74424497272129,55.169528594175404,-80.42073597635718,34.516804500941916,-62.0906002596848,42.12311874894945,79.74479133830472,-64.44520878903654,-14.399843021523077,0.8601719300635369,0.0,0.0,1.160466121630794,-1.2148182201712452,4.975333174475474,0
73.32895631531473,51.48577829700821,-86.42073597635718,28.298822862089747,-68.89660082969505,40.278789485526715,85.74479133830472,-54.3138998450475,-15.051752726686148,0.879796388663506,0.0,0.0,0.23084952237919565,-1.5794654912603976,6.191323934672102,1
74.10397226800211,51.43449255146425,-91.13769501278573,28.29882286208972,-68.57142697982422,42.244811973296535,88.01134720653648,-48.73943198831562,-24.779640277021414,0.8154774477192561,0.0,0.0,0.542824457746371,-1.314658187768909,6.882471335017863,2
77.07292397801459,54.387786875206565,-91.6918693743758,28.298822862089875,-73.49642903355104,52.70007224374469,91.38904155805977,-37.73943198831562,-35.779640277021414,0.5562823587591857,0.0,0.0,0.8825392990582305,-0.23939131635551958,6.071487800767983,3
79.72505442306029,58.22523616426824,-91.99902196474986,28.298822862089697,-76.66938448170093,55.15352614485567,91.4932489951761,-28.29882286208973,-46.779640277021414,0.5121625834385265,0.0,0.0,1.1716814053476419,0.9794284456153214,5.042665929981122,4
80.73648554185024,61.67854404552171,-91.1824130893184,28.298822862089697,-78.01084307006298,57.70831663255801,90.3326307823974,-28.298822862089562,-57.779640277021414,0.42919175071439325,0.0,0.0,1.4541587552260178,1.8250566266628503,4.403916781951699,5
79.60655658086225,63.42361259647612,-86.04337730989486,28.298822862089953,-77.63473634028873,58.856592228677926,88.28581878106112,-28.298822862089686,-46.779640277021414,0.4113410077183,0.0,0.0,1.1994473500800258,2.194421197632013,4.551753664670596,6
79.35724934591454,62.66552329122656,-85.7816426582427,28.298822862089747,-78.11460104006758,57.36371268943506,87.87948539363947,-28.298822862089686,-51.66095180222389,0.3934236840269333,0.0,0.0,1.2765331903685095,2.0994901397670613,4.7976463996699446,7
78.89642566770226,61.090712024578394,-85.33112467259537,28.298822862089953,-78.64932192948599,55.49862080654149,90.0684556436493,-28.29882286208982,-62.66095180222389,0.3737695365836398,0.0,0.0,1.2875177575294463,1.5340561566321544,4.600339585243151,8
78.31033011054545,59.637741683877564,-84.74457133579126,28.298822862089697,-78.82900864356115,54.47286432312601,89.74275152800944,-28.29882286208984,-73.66095180222389,0.5279151332589488,0.0,0.0,1.2804375858169552,0.5663951926014377,4.771110604427201,9
76.89093895451141,58.648232396765124,-84.03433672772567,28.298822862089647,-78.67963471613605,54.035882221208695,91.89345772604462,-28.29882286208962,-84.66095180222389,0.685659749492157,0.0,0.0,1.2929712724937164,-0.4803207470146785,4.847268184141899,10
74.9579091290353,57.30827069461671,-83.02084487892238,28.29882286208985,-77.24738553130138,53.33902599007449,91.20328038416018,-28.298822862089725,-95.66095180222389,0.8316591777909909,0.0,0.0,1.233523723199294,-1.47895705192068,4.520406669301247,11
73.84456317235978,57.00502813269382,-82.6692096480995,28.29882286208985,-76.07664061602509,53.653199962618054,90.81595450300398,-28.298822862089875,-106.66095180222389,0.8955700334879684,0.0,0.0,1.2671606063298633,-2.1418500804637652,4.2454368812422825,12
72.71091895057388,57.04215063412138,-80.65319994482236,28.29882286208962,-74.53990810947488,54.306704511332995,87.87795210154557,-28.298822862089636,-109.99474244873734,0.9285584767921596,0.0,0.0,1.3553836044865846,-2.469337968238958,4.015063753429781,13
72.25032168065638,56.82494601043416,-80.67403783904527,28.298822862089594,-73.6686176659052,54.67574775416102,87.74633850528036,-28.298822862089825,-107.21782217384671,0.9343688142772257,0.0,0.0,1.4110763399163575,-2.4917140391617694,3.6169626997477407,14
72.82500161598266,55.428892902813566,-81.95156937794543,28.298822862089594,-73.60045224342424,54.212694050142645,87.83317924006408,-28.298822862089715,-106.86302333340024,0.9506517969003628,0.0,0.0,1.2116962059523335,-2.576757284074937,3.457865244155393,15
72.99745677458093,53.81887104242303,-81.38558836819784,28.29882286208972,-73.71217896569605,53.255106407510944,87.81815858890212,-28.29882286208974,-107.62489704121533,0.9658141124765031,0.0,0.0,1.0661817671369753,-2.5480631893276637,3.2671243707911866,16
73.95701898060906,52.75133293591276,-83.83330586559644,28.298822862089647,-73.65913249704501,52.542786963695,87.71672885845915,-28.298822862089626,-107.17989790888576,0.9611427224710648,0.0,0.0,0.9464217733441564,-2.4389786633234243,3.218606853740573,17
75.51959598596635,49.77964888641528,-86.03467058453016,28.29882286208985,-75.66959201441166,49.947716985381845,89.01869835075959,-28.298822862089594,-96.17989790888576,1.022623289086292,0.0,0.0,1.5725244113000754,-2.4688599852013833,4.692473932806265,18
77.89386676083616,46.71620900933024,-88.4054111831376,28.29882286208962,-78.16835740137599,47.580172499626705,91.14464344355075,-28.2988228620897,-85.17989790888576,1.1218442291457036,0.0,0.0,1.8366830018577525,-2.6607956914094095,6.0211798645670935,19
79.1253308071546,44.868255691497176,-88.74340904251113,28.29882286208985,-79.92814708178696,46.21085425895724,93.59066485083909,-28.298822862089665,-78.193833400886,1.1547703272513279,0.0,0.0,2.2991742891366487,-2.621319118970329,6.437318312000848,20
80.83357288863867,44.678102551751266,-89.58282683165332,28.298822862089672,-80.87823683225,46.29367862797267,93.08363835171974,-28.298822862089807,-75.52189099416402,1.2359273925675194,0.0,0.0,2.8189974712828643,-2.641237775528942,7.450686268079218,21
82.0368014742161,44.77233556941677,-90.28370061093855,28.298822862089672,-81.12829476595667,46.485479248850005,92.49208853606653,-28.298822862089654,-73.69559848752351,1.265986650189983,0.0,0.0,3.2335356288114383,-2.625714534703048,8.147843320615513,22
81.3398121177244,48.65384212227342,-89.36753946838874,28.29882286208972,-80.26681092783609,50.25273147340074,92.02461714639495,-28.298822862089704,-78.83012764017538,1.140382668518615,0.0,0.0,4.161676161076963,-2.5961388159229846,8.252149494828735,23
79.61003250961798,54.741484346756515,-86.15014709932993,28.2988228620898,-78.01599988776763,56.392651967544026,89.28278928774785,-28.298822862089697,-87.20011156276935,1.0171787386952995,0.0,0.0,4.8695177193721415,-2.6661544858026627,8.767847535035045,24
78.3211886823062,63.343345645930036,-84.93516329561037,28.29882286208985,-76.14814304536927,64.4891802273262,85.95328005088358,-28.298822862089697,-96.9393879319089,0.9104052542763321,0.0,0.0,4.889697707426065,-2.6254085270762544,9.204802522922751,25
75.95284279853716,69.83265593419502,-82.07758852270108,28.298822862089594,-73.96469113124509,70.18492411380277,81.39870848862473,-28.298822862089576,-102.1292084665643,0.898810960195817,0.0,0.0,4.543542169381715,-2.2110341055412563,8.554786980001548,26
74.94374507860356,72.34977185442699,-79.3750864273257,28.29882286208985,-73.14822210960907,70.55534015642375,79.07674815609028,-31.94915629580493,-102.46335593985772,0.9152890698924518,0.0,0.0,4.243201627280314,-1.8524341383407121,8.105660430074455,27
74.09951038447572,77.78589466437191,-79.18202446525635,29.64717940613213,-70.99266341406667,69.83630802858902,76.84263154751868,-42.949156295804926,-113.46335593985772,0.8813083884043788,0.0,0.0,3.799242200793515,-1.6221137268617767,6.317112317998694,28
72.44792423382873,74.26293261549503,-78.43392091262214,40.647179406132125,-69.81336555933584,67.86913052601595,74.68504295952367,-53.949156295804926,-124.46335593985772,1.006200479143617,0.0,0.0,3.11557948704967,-1.3685894661641897,4.504995188982507,29
71.26497095122214,71.81797243308061,-77.18063644567331,51.647179406132125,-70.78443016119401,66.41106311462384,75.720893522181,-64.94915629580493,-134.26403348191673,1.0084975209374782,0.0,0.0,1.946291462304809,-1.2085596002189776,4.150049608463867,30
70.94601017187709,68.51181788164143,-76.15911652139481,62.647179406132125,-69.86824085163819,63.024811754318655,73.32227708540489,-74.37271583901341,-132.11231319285767,0.8480089350837983,0.0,0.0,1.198416675163156,-1.0489524785963593,4.519725029433945,31
71.35622824057909,66.93888688735001,-75.57299483214477,65.77037101554491,-72.1165779423113,60.61252128888023,76.1198306992041,-76.26929204207471,-127.79298112929636,0.7692330935619681,0.0,0.0,0.7797584160368165,-0.8936343938884166,4.591238619230342,32
74.06492544292144,62.54622468720853,-76.97444180679382,63.910835753872895,-73.58714240533253,54.860457197777144,75.9841526295243,-75.86350220245603,-116.79298112929636,0.4399068898219084,0.0,0.0,0.12339693348216839,-1.0687839818861284,6.778033899565492,33
77.7250277567208,59.00576292603311,-78.85346290512828,61.84189006896383,-76.77253993523732,47.592237055199554,78.49678550047926,-78.48834303277181,-105.79298112929636,0.17883409070281328,0.0,0.0,-0.30417316243010595,-1.6098046961286292,7.956948394083781,34
80.06118224587759,60.448937469923315,-79.17850504426663,53.35601503410158,-73.50896167416055,41.16464651067417,76.00568974052729,-79.6804215417777,-94.79298112929636,0.2314271632182342,0.0,0.0,-0.11840195982289628,-2.8531610367088613,8.415301767379004,35
83.86148548444669,64.46089439161281,-82.49669452181891,42.52270874744635,-64.41988483138367,33.15642882548953,70.00568974052729,-84.19724348058838,-83.79298112929636,0.7690387644405068,0.0,0.0,0.1561720247975865,-5.050586809071618,8.922527336202819,36
84.72868561831118,68.45323607093634,-82.71698806596831,34.75653496589798,-54.227805858340396,29.87704950217499,64.00568974052729,-89.25185273571995,-72.79298112929636,1.257059472371475,0.0,0.0,0.2102097009909805,-6.497792500509603,9.29864584039856,37
83.13915525382065,70.38364695346476,-80.22801240027339,28.29882286208952,-43.227805858340396,24.93140746182358,58.00568974052729,-95.20038816076026,-61.792981129296365,2.0420997463127337,0.0,0.0,2.9970912478546308,-9.112301431593327,7.78283366230419,38
80.48688754172824,70.53198682047358,-78.77324218423064,28.298822862089672,-32.227805858340396,23.02469303708827,52.00568974052729,-104.54831433500576,-50.792981129296365,2.8547249491272897,0.0,0.0,6.997091247854632,-11.093083218738704,5.409854441467226,39
76.6162783686097,71.31510995082277,-75.01585404667676,28.29882286208962,-21.227805858340396,27.990185263169,46.00568974052729,-111.70572113036617,-39.792981129296365,3.417032690101473,0.0,0.0,9.342010131333833,-12.312316143985944,3.8351790281788127,40
74.51565163844741,72.95461363880278,-73.70429730891671,28.298822862089924,-10.227805858340396,33.964619734760696,40.00568974052729,-118.91431597901195,-28.792981129296365,3.759131203593533,0.0,0.0,11.08291335214345,-13.189377530801472,2.230450416186888,41
74.63290660880627,73.00683419879076,-76.54664836643548,28.298822862089647,0.7721941416596039,33.77476198244358,34.00568974052729,-121.44806320653004,-17.792981129296365,3.971027194139452,0.0,0.0,11.57733061180952,-13.394103448473308,1.497662904066584,42
73.7971883693519,73.3550634339801,-75.38243425277267,35.41314742717334,11.772194141659604,40.174361162492794,28.005689740527288,-126.03591305593186,-6.792981129296365,4.024744903799227,0.0,0.0,11.151975577115389,-14.143983581906763,0.9284112195701336,43
74.51931446543239,71.05594244034671,-77.55372427670183,43.46985049020145,22.772194141659604,43.596108907999934,22.005689740527288,-129.95679163870017,4.207018870703635,4.0556117108515295,0.0,0.0,10.669252307280294,-13.955400276522475,1.1191614092121398,44
76.44440250852686,70.7346385196429,-79.04618956732514,45.08629615524318,33.772194141659604,40.72189569185985,16.005689740527288,-131.03958945619726,15.207018870703635,3.9660277980045766,0.0,0.0,9.396339243271624,-13.410298623959068,2.1814335348327494,45
78.39150986369232,71.60253647619692,-81.28526242241493,42.41837091723385,44.772194141659604,32.595092870694366,10.005689740527288,-128.13920796452092,26.207018870703635,3.6181004955070843,0.0,0.0,8.74266331784636,-11.922564544984033,4.032974765671376,46
79.39496542041647,71.93657313410164,-81.19408302469756,42.81706951698204,44.028678293539805,28.517356912389168,4.005689740527288,-125.86248203744188,37.207018870703635,3.4438461644242513,0.0,0.0,8.480446524740913,-11.241305130980733,4.686533028482914,47
78.90326958498505,73.35479387132065,-82.11277572000459,37.125854238837924,33.028678293539805,21.784297243025154,10.005689740527288,-116.56297823524064,48.207018870703635,2.697478072610905,0.0,0.0,7.826442647301087,-9.016368681181255,5.563335674465547,48
78.67507029671852,75.71794233464519,-82.00668750977563,33.165017956700076,22.028678293539805,26.246175914287093,16.005689740527288,-105.56297823524064,59.207018870703635,2.127866724107856,0.0,0.0,7.356418273222696,-6.936037293404292,6.249774451268508,49
77.18398121053646,79.1316543398847,-78.36465398891187,28.29882286208962,11.028678293539805,37.24617591428709,22.005689740527288,-94.56297823524064,70.20701887070364,1.6174710208714878,0.0,0.0,5.931922070435096,-5.448389316170019,5.664847291539468,50
75.30688271776127,82.01538704006492,-75.78340566717246,28.298822862089924,0.02867829353980511,48.24617591428709,28.005689740527288,-83.56297823524064,81.20701887070364,1.2212205305205819,0.0,0.0,5.518435541578909,-4.187467620664843,4.8889140152405774,51
74.66638810612471,83.1337407173915,-73.08886887112013,28.29882286208985,-10.971321706460195,58.30566336923544,34.00568974052729,-72.56297823524064,92.20701887070364,1.0858950511755938,0.0,0.0,5.126163057012216,-3.905471742078689,4.494167000514702,52
71.30083015869393,88.56006992350665,-67.47121480951314,28.29882286208972,-21.971321706460195,69.30566336923545,40.00568974052729,-61.562978235240635,103.20701887070364,0.7325167016149229,0.0,0.0,3.7441019177055916,-2.7248151996722862,3.581978705898217,53
67.47051158621335,93.29170778592459,-61.722861588605475,28.298822862089647,-32.971321706460195,80.30566336923545,46.00568974052729,-50.562978235240635,114.20701887070364,0.5233290999808903,0.0,0.0,2.0501629548096916,-1.5997738447574688,1.7633663444833536,54
64.21989701876319,97.05947241706887,-56.345207890358786,28.29882286208962,-43.971321706460195,91.30566336923545,52.00568974052729,-39.562978235240635,103.20701887070364,0.42012609434094006,0.0,0.0,1.2691150522687373,-0.8291653279842874,0.19492659665392342,55
62.25930894410713,96.42173342350122,-55.2187087324963,28.29882286208972,-54.971321706460195,94.08031859500277,49.39914359236226,-32.71018153694203,92.20701887070364,0.3466097974016526,0.0,0.0,-0.541165940578066,-0.3400184309344979,-0.059494982164363074,56
60.73143181895555,96.43779510711077,-52.58047159825963,28.2988228620898,-58.32183892006895,94.37556014261446,47.30296255096651,-31.95820851656249,81.20701887070364,0.44062913329599507,0.0,0.0,-0.9414374248172881,-0.09708152873909079,0.13297351192740123,57
57.974098492058054,94.0027886813101,-52.33430248144897,35.02461230866344,-55.89593445414976,92.12296921295187,47.678997024223186,-37.04104434410296,70.20701887070364,0.4467826043791995,0.0,0.0,-1.4757158660667966,0.14749776720633112,0.8542397955599713,58
57.187964014505944,91.04690872073922,-56.17591538558788,39.40094340012374,-54.56927620395803,90.80980859824645,48.30492905102073,-39.622176186547385,59.207018870703635,0.4921239237051817,0.0,0.0,-2.3752037479015744,0.4838009515100392,2.4609345420225153,59
56.6149339077372,90.37480359385962,-57.50648078534089,39.62219727868278,-52.97023184803525,91.47762072283552,46.76305603941882,-36.966691482684695,48.207018870703635,0.5936283615789504,0.0,0.0,-3.542406238839408,0.7566479150664359,4.311899849318264,60
53.81558974142058,87.01119240283326,-58.84792028917214,46.469747372201134,-49.42986896213328,92.69251693374652,47.913007797856245,-37.46150557637409,37.207018870703635,0.7600073176736039,0.0,0.0,-7.251302026303721,0.8419692659439734,7.005734138787028,61
51.40298788737371,85.66714455173987,-59.591147403040594,50.501607369562876,-46.368046619663524,94.30457669091315,47.393475592255655,-36.59487339762105,26.207018870703635,0.9904057984961534,0.0,0.0,-9.30294572951696,0.9823575537368188,8.989648767429863,62
46.52971586173807,81.5231310148802,-62.72420854469489,56.76882023593555,-39.89597617718145,96.52031963496201,46.555399114878696,-35.70260581227707,15.207018870703635,1.692684283304523,0.0,0.0,-10.854869798072269,0.3240565265164011,9.626004978358274,63
38.68655679111596,74.95992167990703,-63.93157133519583,67.76882023593555,-29.65588750438308,95.67459664355628,47.668728371708134,-44.848373987196,4.207018870703635,2.1138682788835763,0.0,0.0,-12.049880539243793,0.047562370961896576,9.218903454203899,64
30.057831910120232,69.3470496914754,-62.79833131375984,78.76882023593555,-19.925416975217427,97.21611319016972,47.21143960754463,-49.736373531435184,-6.792981129296365,2.625255802980066,0.0,0.0,-13.183055510725783,-0.1980274051003012,8.336212922292527,65
19.057831910120232,65.13106000290965,-57.85555961875624,89.76882023593555,-8.925416975217427,100.14797625422916,46.206838609345006,-57.85428506041072,-17.792981129296365,3.132848227335589,0.0,0.0,-13.483252251757458,-0.4763741493586279,6.922058640740483,66
8.820526052178339,63.99924496934593,-55.30554121585221,100.16778462469385,-4.272394097925909,102.36711419371078,47.429914856457295,-59.21169220178247,-28.792981129296365,3.5161344519603728,0.0,0.0,-13.771332966134205,-0.6316548917620384,6.263870925993102,67
3.0593298912340194,64.50287408476059,-53.11326780935776,103.42216110039433,-2.4417386108342822,105.90348583521778,48.205481927843444,-58.6923087747943,-39.792981129296365,3.841481080153356,0.0,0.0,-14.22459378782627,-0.972404742725946,5.431253303978098,68
-3.056433397787657,66.71421238889515,-50.057582432553396,107.55610675024214,-0.6281332341201042,107.61670224910836,50.11724265953331,-63.29636680654268,-50.792981129296365,4.217902075137618,0.0,0.0,-13.567634779662223,-0.8325231981979453,3.991962882274607,69
-8.566148813948265,67.66002926487222,-45.85646659014639,111.68559787037711,0.06739485417569031,107.65710764167339,51.227263066083594,-67.33529437946868,-61.792981129296365,4.574740148305866,0.0,0.0,-13.419178902083498,-0.6154515546374553,2.4764870194442987,70
-12.037003542453013,67.9258909962466,-44.67967369315469,112.52452383681668,1.7175171858809777,106.71730338288903,51.6641920320867,-68.93391325729604,-72.79298112929636,4.876058936890305,0.0,0.0,-12.8546032486808,-0.04421869688942459,2.2965918093611797,71
-14.052264329269036,69.25044571266284,-43.688435920301615,113.27306953024706,1.8064923935722796,105.20559372674616,54.0456133546649,-70.37868527891162,-83.79298112929636,5.093383183357966,0.0,0.0,-12.25432923888221,0.3911506190925834,2.6195816390191293,72
-14.794054684046083,71.8159767377747,-42.918566400476365,112.61028908275502,2.1719863077926402,103.51322292478196,54.716164713542504,-71.37469294350139,-80.42198598547962,5.072455602951494,0.0,0.0,-11.077758469490083,0.358199811264178,3.372497465914718,73
-13.45761939580101,72.26461243017827,-43.36556065074378,111.98709807724971,3.6305862924514734,100.58124797242029,54.40759826699867,-74.69630305864673,-77.19277478547208,4.88139385295351,0.0,0.0,-9.245044692770565,0.06534482476686791,5.550289302395463,74
-14.272812805813341,74.5403771560918,-42.335154312089195,110.61307399996544,3.576586222650169,95.38121777963465,55.49132013891569,-77.97304155957657,-74.8985731786601,4.744090794600088,0.0,0.0,-6.710290570318031,-0.5010980573228928,8.058942286967884,75
-12.784478563328165,77.72458877700387,-43.285280600586496,111.61539676695605,7.1590019736563155,86.52906755715493,52.930223506656354,-88.97304155957657,-78.38589785787121,3.8184349901571872,0.0,0.0,-2.71029057031803,-1.2017925832698888,9.422488215196207,76
-11.857839160347597,81.3165655490508,-44.83931726813031,110.7809228830721,8.095080358305964,82.68210402848351,52.66887643529774,-96.25402008991615,-80.57057446496819,3.256068901338384,0.0,0.0,0.37968562582757154,-1.7991129708934404,10.382429411281768,77
-10.991357234151161,88.1612689746555,-44.914418371039254,105.52566365898622,8.097779706382877,80.96499310195888,52.12659765034883,-102.41796324361724,-79.69845541716161,2.559019461327607,0.0,0.0,4.015107780174231,-2.5701521169028734,10.827360568137458,78
-11.261130888846337,92.6525276809308,-47.562819724750575,98.92459995117775,10.939840459877582,76.54308892966525,50.87609416813606,-106.34067371247961,-87.23000986758868,1.8179493657718755,0.0,0.0,7.438124364244837,-2.6980944952636654,10.331024401208591,79
-9.224320927588181,97.37613973107531,-49.43058020277413,87.92459995117775,11.349158359094304,71.91373217771606,48.56831370195105,-108.05478586900207,-96.6339987666015,0.9666753386430696,0.0,0.0,11.420919629737543,-3.0435887019338295,10.779085694160454,80
-8.874304467511996,103.65019213698119,-49.17751741479331,76.92459995117775,14.015598617427663,64.10024096063735,44.72161815211332,-114.54049050169577,-85.6339987666015,0.4460391426869441,0.0,0.0,15.420919629737543,-2.7151118094329,10.06710510887383,81
-7.720915265066279,106.51386691994344,-51.82101857356611,70.83867107388909,16.082420422825148,61.36550468878945,41.05909963239092,-119.66017378363122,-74.6339987666015,1.1866359724982356,0.0,0.0,18.40463416259132,-2.3188017235835563,9.16612480165398,82
-9.485318109705995,108.38395784323029,-53.125380285673714,72.40098476227726,18.30738453789489,59.82888843679781,39.79670745345611,-123.44614826007464,-63.63399876660149,1.5890655597378496,0.0,0.0,18.30895637235577,-1.7852832122371445,8.44730793195405,83
-11.977580738878691,109.92428631235994,-54.483315234426904,74.54838791531932,21.67915058137341,61.6010317984086,37.81045127435414,-125.62847448923829,-52.63399876660149,1.7755711324594259,0.0,0.0,18.190235250559244,-1.3553585001692539,7.325293982904026,84
-13.720691724934207,110.26121546883957,-57.17730359277341,77.51617240078507,24.662165744162245,65.65986020293005,35.26759568943818,-126.91233141734584,-41.63399876660149,1.8938529038170526,0.0,0.0,17.14550961698903,-1.0892525637071382,5.808520756608766,85
-15.090548158380606,109.52445506539179,-57.41425221316175,79.1614466941306,26.03428054039483,68.95892629346736,34.71882757889862,-127.6514513304845,-30.633998766601493,1.8561252952289145,0.0,0.0,15.953063312791892,-0.39378310470379435,4.873935582475138,86
-15.451479851533428,108.42685984465984,-57.1499045501473,80.5480478049186,25.811752414660877,70.10546825142505,35.56813965068835,-127.73712435458708,-19.633998766601493,1.770919582001673,0.0,0.0,15.059439075201174,0.019880750032013426,4.462793316122302,87
-15.87903902349961,104.46170762063007,-57.52891058500644,85.08901793916934,25.47992063611112,74.55777621021065,37.115946547174076,-126.79775773731724,-8.633998766601493,1.5578670132618628,0.0,0.0,11.962110819664426,0.16320655719246435,5.797964086110379,88
-12.882354400262104,100.7465064908927,-56.08741810446442,82.37268885083559,22.700477463583493,76.75232324827616,41.357621022332495,-120.8638061725676,2.3660012333985065,1.4478084270094862,0.0,0.0,9.336969273336944,0.3137891824146082,8.030800533940697,89
-12.73757990196843,95.6322714779448,-56.88533075037008,89.04894611936516,22.799806712200215,79.86248900736763,43.8056654308557,-116.99577996611534,13.366001233398507,0.9862949835943638,0.0,0.0,5.89209884804859,0.6579661266566289,7.907666211079099,90
-12.767735040100312,92.20509972134224,-55.800187250545314,95.1215160425315,21.26190181359048,84.52589011461873,46.693960289633694,-109.62323456477051,24.366001233398507,0.3030739373604503,0.0,0.0,1.8920988480485894,1.0319511357443223,8.462643249025879,91
-10.602345603773951,89.44423226446784,-56.713555465268456,97.43828573105033,22.154640615399163,87.27261236441088,46.18336154735348,-102.57779719614501,13.366001233398507,0.2998385691244623,0.0,0.0,-0.1866053323804986,1.3020658902609497,9.086265773359676,92
-12.528629836844772,82.77768175257604,-51.69522810245946,97.81744746249102,19.623575335720435,88.52776392947452,47.264951290712936,-91.57779719614501,2.3660012333985065,1.0405653506912735,0.0,0.0,-4.186605332380499,1.132744912228123,10.090955437904622,93
-15.29994016747552,76.64424713579666,-49.573998977464555,102.25236730778353,18.490869505576107,92.28359243183519,46.721886510681884,-80.57779719614501,-8.633998766601493,1.9461121720496386,0.0,0.0,-8.1866053323805,1.3385667342561844,10.89781666092284,94
-17.694615447574282,73.50966068527356,-48.18198678185334,108.23764844182931,17.82579524652576,96.68087144755036,46.44091884616339,-74.94252891011546,-19.633998766601493,2.5067974078086888,0.0,0.0,-11.093815959219498,1.2703275418632058,11.359559622849389,95
-20.794341782415824,72.41721770746499,-48.076569261735536,111.86478159651273,18.057927997895817,100.8911470159683,46.27150985798167,-71.21472858653979,-30.633998766601493,2.901602871113696,0.0,0.0,-12.09953676608667,0.927384787293952,11.447227456016607,96
-23.84200239596222,73.43869625486575,-46.201810275329734,113.9488135932527,17.637701082114837,102.53225937388724,46.92810499309661,-70.13350540822422,-41.63399876660149,3.036884783927631,0.0,0.0,-12.31353533018099,0.6303102194136978,11.308986659102061,97
-31.898254510556903,74.12468583462433,-45.16482968706727,112.11850151225568,21.533154002460083,101.34898526435224,47.3967708292507,-68.24857006322662,-52.63399876660149,3.0269734892466156,0.0,0.0,-11.139756297230548,-0.07740751434754416,9.065134373663744,98
-38.09250019527071,77.2893992567135,-42.165290885574336,110.30343906725729,25.879302914344596,100.68953797519502,48.50815654124138,-68.61619425530711,-63.63399876660149,2.961667841198517,0.0,0.0,-10.431864501881533,-0.3383022901913488,7.204470015353438,99
-45.13296633564252,80.50356862426969,-37.03730369947042,110.29510466463256,29.180144808496976,99.8031824157309,46.888592289725764,-72.05492645174088,-74.6339987666015,2.9404694743469504,0.0,0.0,-9.83853051465287,-0.04355308184054532,7.090348984027489,100
-54.22569952808531,81.45915864350026,-31.03730369947042,116.55647050205026,33.76733716414712,96.14482884546155,45.20702900733399,-83.05492645174088,-85.39181569032465,3.03061560177067,0.0,0.0,-9.102268076706798,0.27354164740741677,7.858751786757844,101
-56.73482060730218,81.5900695765283,-25.03730369947042,118.81105702968783,34.970113344675774,94.632826921019,45.39157543376495,-90.74829988392511,-78.65816505370714,3.034145922192637,0.0,0.0,-8.57287462515015,0.6371050757312221,8.686254723123067,102
-53.823854068833384,77.0568692029673,-19.03730369947042,124.83467571885733,40.637770335923165,83.632826921019,40.716489875611146,-101.74829988392511,-74.68703147782219,2.9256090361282383,0.0,0.0,-4.687329927970584,0.8778944085501005,10.67216810081964,103
-42.823854068833384,66.0568692029673,-16.085435129607813,123.61781241687949,40.67591710288352,72.632826921019,35.65090159516777,-112.74829988392511,-74.80928671064824,2.616678873756546,0.0,0.0,-0.6873299279705831,0.03626801100848392,13.24675250983829,104
-31.823854068833384,55.056869202967306,-21.448737711986865,113.91444798119247,32.27030329610725,61.632826921019,32.902416174315604,-118.02674190400143,-81.27979155673299,2.0460355418518863,0.0,0.0,3.3126700720294178,-1.8269752058263253,15.653148926041451,105
-20.823854068833384,44.056869202967306,-27.448737711986865,102.91444798119247,21.27030329610725,50.632826921019,38.902416174315604,-107.02674190400143,-92.27979155673299,1.6717771943581003,0.0,0.0,6.812088464434056,-3.3684686955974916,15.582930422163756,106
-9.823854068833384,38.61333060384618,-33.448737711986865,91.91444798119247,10.270303296107251,39.632826921019,44.902416174315604,-100.90310035624235,-103.27979155673299,1.4708054268553101,0.0,0.0,7.941375076083372,-4.446358022181002,15.293575059187532,107
1.1761459311666158,37.01500257310143,-39.448737711986865,80.91444798119247,-0.7296967038927491,28.632826921019003,50.902416174315604,-90.45843926030724,-114.27979155673299,1.9182796495824395,0.0,0.0,7.596729171672267,-4.854217815557805,14.814961140024279,108
12.176145931166616,40.86815639296947,-45.448737711986865,69.91444798119247,-11.729696703892749,27.324303049607263,56.902416174315604,-79.45843926030724,-125.27979155673299,2.129677800867704,0.0,0.0,7.222812485365173,-4.934494448764683,13.662726091036836,109
23.176145931166616,49.751862762563725,-51.448737711986865,58.91444798119247,-22.72969670389275,34.7078095410412,62.902416174315604,-68.45843926030724,-136.279791556733,2.16827255143226,0.0,0.0,6.658427154524865,-4.493524364559799,11.850573909225385,110
34.176145931166616,51.68853105259342,-57.448737711986865,47.91444798119247,-33.72969670389275,45.7078095410412,68.9024161743156,-57.458439260307244,-147.279791556733,2.4882708591866467,0.0,0.0,4.667489149651917,-3.4183473273386364,9.106166704478564,111
45.176145931166616,52.74963137965373,-63.448737711986865,36.91444798119247,-44.72969670389275,49.83915426875755,74.9024161743156,-46.458439260307244,-152.68724613157596,2.5504703060378264,0.0,0.0,3.2740608089215604,-3.0333751596201712,7.605621220913313,112
56.176145931166616,53.935678928549336,-69.44873771198687,28.298822862089924,-55.72969670389275,50.708867708838845,80.9024161743156,-35.458439260307244,-152.09379288405282,2.7352326870421093,0.0,0.0,2.3655482500075053,-2.611606979995147,6.508555296870186,113
67.17614593116662,53.84815084788841,-75.44873771198687,28.29882286208972,-66.72969670389276,50.946877012151376,86.9024161743156,-28.298822862089686,-150.88229521759058,2.7041787237329444,0.0,0.0,0.8865474777692464,-1.987663401848262,6.074353786602142,114
78.17614593116662,55.101891660328754,-81.44873771198687,28.298822862089697,-77.72969670389276,52.135574124479604,92.9024161743156,-28.298822862089644,-151.07549372104592,2.5338102409916177,0.0,0.0,-0.2523562244887247,-1.3147276672587154,6.049532714134555,115
83.46961190065434,55.32638573701858,-87.44873771198687,28.298822862089697,-81.13154885743297,53.298539736035735,94.62230868784037,-28.29882286208984,-150.21892894343645,2.2689989736047775,0.0,0.0,-2.009352969617063,-0.6751659664123794,7.6733708844846324,116
84.9738428159521,55.13466046065672,-93.44873771198687,28.298822862089594,-81.8948928405369,53.4015631305056,92.9187212635585,-28.298822862089676,-148.95208091878325,2.195612313387883,0.0,0.0,-2.836177225614051,-0.22878653358143783,8.704980282776452,117
85.77675540188697,54.702201085893755,-97.28055610032362,28.2988228620899,-83.56094552314968,52.835949400509726,96.18663816514838,-28.29882286208985,-147.89296889862572,2.095429437968882,0.0,0.0,-3.3904187726555786,0.19320131404459692,9.461308996233127,118
86.70252412254126,53.28658186538043,-99.14180111799844,28.29882286208952,-84.0015271406929,51.396516282719936,95.9921475838086,-28.29882286208957,-146.23885575557873,2.0121951419615947,0.0,0.0,-3.7708550372877374,0.33748929466286925,10.229022813283928,119
87.93470191074951,51.297965003781776,-101.0508980953791,28.29882286208972,-84.2062516645817,48.9624131908254,98.47166875883943,-28.29882286208964,-143.96005913420757,1.9964707602736986,0.0,0.0,-4.539929513841531,0.37163954231432517,10.33816308203579,120
87.00744994003306,50.19206603859891,-100.28629589994054,28.298822862089594,-82.72199507813878,47.90999285842106,97.6662057538193,-28.298822862089853,-142.97400450949766,1.9733920972397674,0.0,0.0,-4.814781723107308,0.11093634139949739,10.185731672277086,121
86.90992771549992,49.23735252571232,-100.00481347780706,28.29882286208972,-82.27926340171396,47.12662294227876,100.1956866844112,-28.2988228620898,-143.9049018379977,1.9503236746182788,0.0,0.0,-5.225003754352595,-0.18967014169397198,9.706708481167421,122
86.65423122333318,48.353695965333756,-100.16559763132148,28.29882286208972,-80.86489145322648,46.03910367684318,99.47473033920976,-28.298822862089985,-147.59302317871948,2.0004319653799736,0.0,0.0,-5.212398243281181,-0.32801873883253974,8.928570628238667,123
86.34366726777459,47.92502853161682,-100.93748258134829,28.29882286208962,-79.36356707573856,45.93404401870372,99.1656842035138,-28.29882286208968,-151.61201629244763,2.101002551414866,0.0,0.0,-4.934749110617065,-0.4554287929135517,7.496066318218574,124
85.04339792833164,47.85104004368033,-98.77516005731854,28.29882286208985,-77.36968743831456,46.22385653889131,95.93508928136015,-28.29882286208969,-155.02520254319379,2.188771198511996,0.0,0.0,-4.472099701757129,-0.4948969918036033,6.387805926342399,125
83.25350616738335,47.98694146476726,-96.98949772393236,28.298822862089697,-76.32389063568144,46.90731899531298,95.19375899268472,-28.298822862089697,-156.23710479074833,2.3943431548508785,0.0,0.0,-3.362550191748718,-0.8364730133428686,5.260461900895807,126
81.7194697666852,47.768823525807164,-94.46068997697111,28.298822862089647,-75.18504325484398,47.13640256252816,94.46536903974634,-28.298822862089715,-156.835960508701,2.4913068028493237,0.0,0.0,-2.8326788474090403,-1.0066840899888772,4.702359148880855,127
81.11168716156864,47.49301522684782,-94.80195084805266,28.29882286208985,-73.98478556559314,47.30498258625817,90.9058020726332,-28.29882286208973,-154.44045358956726,2.5039733575079914,0.0,0.0,-2.152377727210327,-1.1297974803231492,4.5012291710450985,128
79.2389585771965,46.50211764537446,-91.67164194693565,28.298822862089875,-73.6878217103258,46.62847178075359,89.5533513436712,-28.29882286208968,-150.98667966367046,2.375117643623467,0.0,0.0,-1.3310008163690155,-1.2106434038878877,4.85749344795687,129
80.06042570305905,44.395783380328005,-94.08787977783847,28.298822862089647,-75.72259982807628,45.11685166660735,90.73875691227228,-28.298822862089608,-146.12489260163838,2.240903919094119,0.0,0.0,-0.27479377449149506,-1.228513568168243,6.5363363559788725,130
82.06491221182091,42.054064033748524,-97.41501723016597,28.298822862089697,-79.2927334409463,42.9168734449363,95.27302093688742,-28.29882286208968,-143.20309029698703,2.222588923201637,0.0,0.0,0.927818798947198,-1.3362650351764467,7.876274663824729,131
83.70957727239977,41.056277853999184,-101.00009783942448,28.29882286208962,-81.21576951156273,41.842841707678865,97.18875176135117,-28.29882286208958,-141.70602815674334,2.165286789869462,0.0,0.0,2.0195193995680807,-1.3166443542828195,8.753394622660625,132
84.67289494101517,40.90790344315963,-102.06481615351456,28.29882286208985,-82.99412306669,41.67388361079694,99.16063506131167,-28.298822862089615,-142.25082446270793,2.1152987241133,0.0,0.0,3.258864811649665,-1.3253378758184684,9.591907646512832,133
85.12217482698831,41.87399573797648,-102.97344682652509,28.29882286208962,-82.67051519428658,42.51826075944284,97.78190545227903,-28.298822862089853,-143.33107088844147,2.0171975078567095,0.0,0.0,4.279664181476706,-1.4363908975596809,10.367676523870916,134
82.89390185962024,43.85320549761873,-98.08989100104725,28.29882286208972,-81.48848737792788,44.39737150936207,96.70445421404828,-28.298822862089708,-147.7883672624663,1.983076015084408,0.0,0.0,5.157074110110526,-1.4823681436055518,10.389390939843246,135
79.55747986131861,50.066614858343925,-92.08989100104725,28.298822862089953,-78.31086361288509,50.768071180106595,90.70445421404828,-28.298822862089636,-154.49042176684932,2.049963340527085,0.0,0.0,5.185852809873446,-1.4466035595817925,9.50971663417218,136
77.93113061466525,55.163652452124424,-86.08989100104725,28.29882286208962,-76.35132839979678,55.46238223911681,85.75102474706009,-28.29882286208992,-157.0135734011899,2.06516991740019,0.0,0.0,5.055403773987423,-1.448000836830683,8.90687439611066,137
75.73713040250537,61.8141012644774,-81.99870661605677,28.29882286208962,-73.65542112365007,61.34082586313563,80.78165186017051,-28.298822862089718,-161.50105869348783,2.028658242366778,0.0,0.0,4.460117793910772,-1.4285944829582595,8.24932506390139,138
72.70640917040865,68.84306215035537,-78.92482741604368,28.29882286208985,-70.45510749840616,66.92783960112072,76.6288696541133,-28.29882286208987,-166.16232893840515,2.045278941496937,0.0,0.0,3.910733433081611,-1.3642807676335205,7.044462341413223,139
70.54224389423582,74.923090177218,-78.30460703428041,28.298822862089978,-68.39339718940305,71.77776304200412,75.28344459366534,-28.298822862089754,-169.97056835172987,1.9973474820687558,0.0,0.0,3.064778431519341,-1.1643636650913023,5.729935082813928,140
70.1495953419874,77.92684516878866,-77.75334806234112,36.43148036021059,-67.14445095529557,68.55923694252992,75.6508260191391,-39.29882286208975,-175.65016268237554,2.2159049888628988,0.0,0.0,2.202681497434141,-0.7985366207215182,4.370286859889266,141
68.31060836144063,76.2600672411405,-77.49201591781299,47.403704008924784,-65.70879015422818,67.9013072909556,73.21349604086973,-50.29882286208975,-175.85772097386752,2.204900146284551,0.0,0.0,1.8749220550334795,-0.49790771923861393,4.007982483289874,142
68.16330900330833,73.24445992144814,-76.70005014454391,57.50516855656744,-66.72268832691742,65.55880847983978,73.6009772239119,-61.29882286208975,-175.83257746808349,2.1302106492822346,0.0,0.0,1.0951061088749003,-0.09266659206927579,4.165548448292578,143
69.10252161154712,71.76525850586692,-75.9744484496888,59.81948393755466,-68.3136997396546,63.79835390156329,73.97697412156288,-68.1386424970181,-175.88275993739546,1.9173482196902039,0.0,0.0,0.44522573200752924,0.1311127844528459,4.88080607082752,144
70.67961993946915,70.55787183266854,-75.41842804407555,56.783294779576984,-69.68550307609937,61.52495531014827,74.02958370216776,-66.07308485187544,-177.8707598348871,1.7215881477632162,0.0,0.0,0.04077334028897526,0.29241366267176794,5.697122015930153,145
73.80733324846904,69.10425775291846,-77.12592907662541,48.13825215605116,-70.70841072866325,57.471432976824374,74.20333150677939,-61.07573881258043,-166.8707598348871,1.4855749799765183,0.0,0.0,-0.5417927236623603,-0.03445725723252594,6.891288603696624,146
76.20848545374146,69.72276051084044,-78.83075686502005,42.08616102069667,-71.7011983319794,55.07117502788517,74.97714187786919,-58.407451396252725,-155.8707598348871,1.348515769629526,0.0,0.0,-1.3619140098506346,-0.41307779553675256,7.901913691544126,147
78.75298384220949,74.45342713195437,-80.98533463935726,31.08616102069667,-69.12511380899024,53.69779038157754,72.86226510498027,-53.81054690317582,-144.8707598348871,1.3148104113317545,0.0,0.0,-1.8633478914573354,-1.2978265199913526,9.024795118517817,148
79.75454149003275,73.60842267165577,-80.92509766455531,28.29882286208985,-65.07873749127295,49.46449459801668,69.61369197671588,-53.31110594078562,-133.8707598348871,1.3333818337289547,0.0,0.0,-1.711766758346988,-2.688203661306468,9.66135280125758,149
79.07469727421528,73.23199717228955,-78.64053763386659,28.29882286208985,-54.078737491272946,43.69495818850557,63.613691976715884,-57.71710488008023,-122.87075983488711,1.593035309033093,0.0,0.0,-1.1424100690011718,-4.8786015460065775,8.736500180713191,150
74.88813830054794,74.7104009318037,-75.91784731267775,28.29882286208972,-43.078737491272946,36.488633732423864,57.613691976715884,-68.71710488008023,-111.87075983488711,2.2297080918258496,0.0,0.0,2.0945677489847725,-8.303853131687074,6.2126980594121415,151
72.07520148888706,74.6749683186765,-73.8376513964171,28.29882286208972,-32.078737491272946,39.090126601256536,51.613691976715884,-79.71710488008023,-100.87075983488711,2.7425501778657413,0.0,0.0,3.433069796491392,-10.345090506902638,5.309239067820945,152
70.097364272442,74.9799025979098,-75.82480727594702,28.29882286208972,-21.078737491272946,42.191954260264446,45.613691976715884,-90.71710488008023,-89.87075983488711,3.0785494442995964,0.0,0.0,3.732949878533749,-11.497558776806446,4.095163184605713,153
68.2087763063924,76.1263101017104,-73.86416995099873,28.298822862089594,-10.078737491272946,44.00234237636293,39.613691976715884,-100.43077893030491,-78.87075983488711,3.375582124750647,0.0,0.0,4.9359893519152545,-12.622852357718623,3.0723071607892485,154
67.4202006105116,79.3497993397253,-71.78179456359575,28.29882286208972,0.9212625087270538,50.31056044832804,33.613691976715884,-106.47813491431694,-67.87075983488711,3.7027864770931482,0.0,0.0,5.60275100700712,-13.744557435901166,2.4118603985598748,155
68.16596712509424,76.25609246582678,-73.85298306501639,37.019544230395375,11.921262508727054,53.60183951987036,27.613691976715884,-114.47705871413467,-56.87075983488711,3.86476135195266,0.0,0.0,5.268339897124701,-14.502479897046436,3.5668498116084977,156
69.60255886743828,76.54409023524859,-74.21473076678343,38.00052014378509,22.921262508727054,56.18866135832158,21.613691976715884,-117.76987641538395,-45.87075983488711,3.9013205208470643,0.0,0.0,5.214225499898216,-14.612965604044941,4.113856964031505,157
71.44101129701288,75.74391673113423,-76.95930072581712,36.34312531336048,33.921262508727054,55.65933309115038,15.613691976715884,-119.56461182830789,-34.87075983488711,3.804239447158087,0.0,0.0,5.212735368489597,-14.377454338653802,4.813278202799907,158
72.63695495172117,76.51615018438847,-77.88961071759392,32.57769383280173,41.05805952944333,51.5318172549236,9.613691976715884,-119.71863812735592,-23.87075983488711,3.5231813631486526,0.0,0.0,5.641815336287566,-13.292270583492318,5.8480392211205645,159
73.35709072632463,77.34510186771755,-78.93250655920045,29.843762149162178,32.50020984171296,42.51638086553978,3.6136919767158844,-117.1135905482919,-12.87075983488711,3.1739889213994137,0.0,0.0,6.127013945038343,-11.54961223805224,6.481956669627593,160
73.53890924493282,79.83528868638106,-80.87268486627596,28.29882286208962,21.50020984171296,31.611342681818186,9.613691976715884,-106.49733049050343,-1.8707598348871102,2.4714665356001864,0.0,0.0,7.200244315006697,-8.40883540523938,7.05552090976382,161
74.12425571559442,81.08335119266351,-77.07846491123972,28.29882286208972,10.500209841712959,33.012630787824435,15.613691976715884,-99.64801015427685,9.12924016511289,2.1644984603579553,0.0,0.0,7.726607005492777,-7.314618765222964,7.948170291858349,162
74.69626167587228,82.3907476458773,-75.43076280949977,28.298822862089697,-0.4997901582870412,39.417139535668234,21.613691976715884,-89.51492525548306,20.12924016511289,1.9727690639471251,0.0,0.0,7.992625995015229,-5.976603204797671,8.003116708332021,163
73.69689383709022,84.74006771359387,-70.46779536083429,28.29882286208972,-11.499790158287041,50.417139535668234,27.613691976715884,-78.51492525548306,31.12924016511289,1.7721833286391304,0.0,0.0,7.40813508015822,-4.691427489152461,7.550786935997182,164
72.47765613534568,88.31833410826613,-67.36950853734369,28.29882286208972,-22.49979015828704,61.417139535668234,33.613691976715884,-67.51492525548306,42.12924016511289,1.5575846705659042,0.0,0.0,6.1432329489272055,-3.450104943877583,6.426237588880067,165
69.8961121523154,94.12819491033133,-63.04712752503931,28.29882286208957,-33.49979015828704,72.41713953566824,39.613691976715884,-56.514925255483064,53.12924016511289,1.2800056975044618,0.0,0.0,4.124237441773395,-1.942408428757268,4.766776911000548,166
68.6221086062558,96.4375086193147,-60.494400678863336,28.298822862089825,-44.49979015828704,83.41713953566824,45.613691976715884,-45.514925255483064,64.12924016511289,1.0897701308557952,0.0,0.0,3.287726396276607,-1.272316495074806,3.544881943431907,167
67.03860421608441,98.58784910205158,-57.90301411904895,28.298822862089747,-55.49979015828704,90.03535358234512,51.613691976715884,-35.92771483961198,75.12924016511289,0.9448134311633621,0.0,0.0,2.422571092649504,-0.6775831621739322,2.070880360044747,168
64.93194411935217,98.50386653728265,-56.988888467216306,28.298822862089594,-58.6718811895208,93.46743032820535,52.101730829077006,-31.221855423142756,86.12924016511289,0.857496720630482,0.0,0.0,1.409685867135117,-0.31253291731818256,0.4855818625406988,169
62.30498577999846,98.51473313590034,-54.04051663648853,28.298822862089697,-57.7546702087132,95.17330101799598,50.729431797547036,-28.2988228620896,97.12924016511289,0.8657534986440018,0.0,0.0,0.35242700442177205,-0.2159787276008373,-0.1411930921609368,170
60.271422968731656,97.22175913303158,-54.95841286834982,28.29882286208985,-54.85151343746392,94.82850064696979,49.67081375201558,-30.367800768148417,86.12924016511289,0.6574969736399553,0.0,0.0,-1.098187289720624,0.08178189973822272,0.8797477569483072,171
58.55964323866467,95.77181911049927,-56.84367962999007,30.74450182159023,-52.80841484753305,93.63112940535008,50.137997645443136,-33.40837858262531,75.12924016511289,0.6316334899563885,0.0,0.0,-1.7204106001930086,0.34417821508990637,1.6125741469184325,172
57.37447250053685,93.06518170678194,-58.30415682659622,37.461036222490826,-50.90205964279164,92.17646121223484,48.72279158589628,-37.41535451869068,64.12924016511289,0.5617956973678742,0.0,0.0,-2.972724688898326,0.775888711339899,3.6659243443261604,173
56.5909605321881,91.0336968944272,-59.26811179384336,41.8091451939975,-49.84279567575341,91.66197743266304,47.65342570911727,-38.6840942673846,53.12924016511289,0.43438575581453065,0.0,0.0,-4.5543033483418185,0.9879371728930313,6.314833491624554,174
54.74604405272543,88.21737248342185,-59.886870597638826,48.025909549428604,-45.91304605626704,90.30802272480783,46.7405586599198,-41.963094661236845,42.12924016511289,0.4316789974660104,0.0,0.0,-6.292928099498981,0.7382640968207261,7.961538633282728,175
51.38931009308758,85.28772771231732,-61.974120189964374,51.591781584208015,-41.694904231921726,94.55994632136078,44.89501382386135,-37.890663803870396,31.12924016511289,0.7815270408111318,0.0,0.0,-8.970359689913069,0.32378141206815514,9.22267320450338,176
47.18222729048622,82.61320164356206,-62.587784283696536,56.789528273187685,-38.19159588118793,97.44597374190829,44.28306281862713,-33.982815730994886,20.12924016511289,1.2892696666032766,0.0,0.0,-10.816496779075223,-0.1985107041653149,9.831852255151816,177
41.65007964778224,77.01610998197957,-63.230125533197295,67.50896581839,-31.620469270555247,97.81367205534248,43.834168492243755,-39.677256791361415,9.12924016511289,1.7840563719219513,0.0,0.0,-12.199417988445733,-0.8582161912019624,9.33039989471686,178
35.69399980888747,72.1812896195873,-61.630403801463316,76.75037683776912,-23.815156382275728,99.28269528113059,41.94498361944578,-46.09784812552995,-1.8707598348871102,2.156585482561976,0.0,0.0,-13.311840638841723,-1.3497791934284318,8.248352411310666,179
28.484090914520255,69.73052225314068,-58.723471360880005,83.45567426675196,-16.89318907323915,101.03791798241767,41.70837704118318,-51.003037470227945,-12.87075983488711,2.4798358491718235,0.0,0.0,-13.497369942062702,-1.796880539618219,7.767598722271555,180
17.484090914520255,68.49525664865983,-52.723471360880005,93.66576615214669,-5.893189073239149,104.05605948931847,42.462887541614684,-61.025475769464855,-23.87075983488711,2.9613771300453173,0.0,0.0,-12.594377452947704,-2.295787579269047,5.894892425966241,181
6.484090914520255,68.0371725759291,-50.51159583025839,100.71826357343107,-2.001213175995678,105.34517006197225,45.95286043797316,-65.2170069864408,-34.87075983488711,3.3556313960104527,0.0,0.0,-12.478781384847329,-2.4906144803777055,4.910936591980406,182
-1.9106732358534033,68.28397271870129,-49.10255632301574,107.06193620178169,4.4622488918582555,105.90593812437459,45.794756363782604,-70.5122177958643,-45.87075983488711,3.557659704814162,0.0,0.0,-12.1617593271475,-2.817712917259211,3.037479279584603,183
-9.586070347043247,70.60673584745403,-46.422203368355405,110.92115872580791,7.291830498094062,106.28785823223978,51.678254112852066,-74.12185967361357,-56.87075983488711,3.8867060724441456,0.0,0.0,-12.08106453664117,-2.524704294480709,2.340476668651774,184
-15.262750798396691,71.47817225177471,-42.4786529223707,113.41356763234755,11.502793215022695,104.85049248312197,53.38131887664081,-78.75239476238379,-67.87075983488711,4.104285242759572,0.0,0.0,-11.545960508709339,-2.2673697981511163,1.6098552780685766,185
-21.989125045381,77.64163997443235,-36.89428285694746,114.49362103379312,14.927530770925506,102.66993424566851,50.674034159217534,-81.14171491735716,-78.87075983488711,4.183865961107097,0.0,0.0,-10.32438535503875,-1.7697569152388135,2.9137025900607685,186
-24.848833529676153,81.61491122388078,-35.05887755404527,114.45153090902424,15.14759741554218,101.19010002617448,50.94700099489819,-82.3166698871339,-85.95364868801512,4.322668354882476,0.0,0.0,-9.224709460248597,-1.426241222272539,3.916936210580525,187
-25.46748249104457,83.15990804467333,-34.309598100493865,113.99644569848606,13.911588340208942,97.3785441868152,49.53335849646835,-82.27232099268834,-82.37069871564941,4.414532746444416,0.0,0.0,-7.796296470754665,-0.9204406160320214,5.16090899333522,188
-24.234980285199065,84.57366988034042,-36.277049812737566,113.24940142402289,13.826677009350114,92.71682088236909,51.038001384213516,-85.33804636026895,-83.16218312507287,4.193368310139351,0.0,0.0,-5.349612634112242,-0.311248135639657,6.703371011019556,189
-23.522830428835956,87.50491101821605,-36.53665326638427,113.32490325405962,14.418181686480722,87.04896065653729,51.912199032920206,-93.1709517407716,-83.6916245683216,3.8441361551464484,0.0,0.0,-1.9269063447862689,0.255505067274211,8.23584279428176,190
-16.47400569769764,90.01421601041784,-41.20336022877687,105.29578782470978,12.933035883706992,80.85660434860561,52.10314740569939,-99.20395766074846,-90.50474756840012,2.8933401608465776,0.0,0.0,2.0730936552137322,-0.6480511036037964,9.666936177176561,191
-13.844577045006915,94.95571349161352,-42.42760187789325,99.63336928337137,11.976810405479348,79.32259161522619,51.18567771588777,-102.55351885406586,-95.9927077530907,2.2960511819719427,0.0,0.0,6.073093655213733,-1.245105856994232,10.239648491142358,192
-12.26666942995104,96.83770555137349,-45.27856042926327,92.96641875462798,13.022783806389683,76.5831075358481,50.127656910029245,-105.34799933746241,-106.9927077530907,1.7565579204961534,0.0,0.0,8.67259377016545,-1.5601174321827487,9.972650014417676,193
-8.76616253151947,100.14245115509864,-45.18844176062208,81.96641875462798,12.00788996839383,74.13621672530398,48.41687746435111,-106.33411776175414,-117.9927077530907,1.272630852282312,0.0,0.0,11.564250476952282,-1.9743983309528241,10.396277260138804,194
-6.103570931600165,102.4804293590675,-44.82497676228175,70.96641875462798,10.598997319608525,70.79560130805818,45.820427592678925,-107.72542868889876,-128.9927077530907,1.0617485077067288,0.0,0.0,14.01393912077716,-2.5858188710526275,10.672568470709194,195
-3.912606959367783,105.5454097451297,-46.78982274078228,60.70306099117099,17.969859490715674,69.42037540670185,39.820427592678925,-111.19488401826658,-117.99270775309071,1.564843802800061,0.0,0.0,16.92252982827872,-2.7471720981534395,9.685756113090394,196
-3.4747209224335984,107.87434836991946,-46.86151600617855,54.71226428211103,22.62916211943638,69.33842387302805,35.32265109959691,-114.22955929471364,-106.99270775309071,2.1608365071610116,0.0,0.0,18.31102234314138,-2.775304591931644,9.063373651849995,197
-7.0618966553883595,110.08109352822093,-48.65236744013777,57.6071570756222,28.7818095826512,72.04892272883616,31.45171291792385,-119.41632869421424,-95.99270775309071,2.544950025558658,0.0,0.0,18.653719682080347,-2.1802545703278327,7.629334594289886,198
-10.690971329363675,110.84817752935616,-52.80161164976845,64.53256681407775,32.05088894087817,75.52212541861368,28.918040390587876,-123.33459101259781,-84.99270775309071,2.6316910611022557,0.0,0.0,17.710991154821794,-2.340905635930355,6.707282298277201,199
-14.918216862984632,111.1025630779504,-52.70022311751439,68.28311929106921,35.93473708707879,79.14637789378868,27.145112223239057,-124.0340598938706,-73.99270775309071,2.555600606413817,0.0,0.0,15.916645297236526,-2.5904978152555618,6.408917079134695,200
-19.326210090304013,107.03901448698238,-52.672025156922636,74.98557865476468,37.98537464797716,83.97179592257038,28.253928943320272,-122.05796156996061,-62.99270775309071,2.0375616582611333,0.0,0.0,12.226359322420551,-1.5144990307608985,6.955361860110303,201
-20.064371729699698,104.39192505998547,-52.92096072866833,78.17193298945237,37.94443784675298,85.49458463666662,29.69680756192865,-119.8011076837875,-51.99270775309071,1.6327996599751209,0.0,0.0,10.32570856886345,-1.091877914359931,7.66008771114186,202
-19.93975296513222,101.70638459254845,-55.54197365507625,83.72260506974263,37.69760929909174,87.26743978422313,31.337615227354686,-119.02167786214405,-40.99270775309071,1.307692979199587,0.0,0.0,8.630854543520549,-0.6300133180782023,8.424021105070826,203
-20.752148849828483,100.46381794790317,-55.970171884298544,86.53820583195663,36.28403480749859,87.05458435542647,33.96294639514491,-118.55519991442691,-29.992707753090713,1.1163112331807634,0.0,0.0,7.698735914978585,-0.34226368953249536,8.629027203501268,204
-20.01788181397333,97.74492046233198,-57.18618662053394,89.49426263760208,34.88300856564972,86.59629766538669,36.37312068424579,-116.85718627512162,-18.992707753090713,0.8360599203190312,0.0,0.0,6.434650022062479,-0.1364514364925983,8.568321522103654,205
-18.787319003323105,96.21622967005209,-58.651450560134606,91.67872703135865,33.55291757991973,85.52295945190987,38.29156721755907,-115.89286655714973,-7.992707753090713,0.6683444645326831,0.0,0.0,5.934122305716692,-0.07902488743971925,8.595733021535358,206
-16.33110788325143,90.68920342909395,-60.14822179831377,93.62005349890859,29.93789120811153,84.38311019508949,42.43612472138714,-108.27785382276647,3.0072922469092873,0.502939585192482,0.0,0.0,3.2973549217844704,0.10162568588558087,8.326268342029012,207
-13.462380728477829,84.96812091082028,-58.91585301682952,98.39370674530328,26.737341808942823,84.71364562979996,45.16700425433369,-104.7300643151651,-7.992707753090713,0.8051878281524232,0.0,0.0,1.1842656020527031,0.03851674694523394,9.074519310759664,208
-12.847684385627076,81.75790678293245,-56.42374247212891,103.49185200583183,24.826195549124293,85.82110161672813,48.236180729315784,-101.59711317130784,-18.992707753090713,1.331641665266159,0.0,0.0,-0.12684712591312092,-0.018971837146152852,8.633894065492932,209
-14.663768317325879,78.22526596278438,-55.34996396623221,105.32403569990942,25.283748282856894,87.93858534332043,49.01652945588239,-95.61463743861789,-29.992707753090713,1.8215306076896094,0.0,0.0,-1.4705675074554938,0.26703901678168046,7.521291766589741,210
-15.838520922595007,76.20928547736008,-54.730489915976015,108.3877413283961,24.40858235505211,87.6570380968276,51.16563912205991,-93.2744282784856,-40.99270775309071,2.1262628371482997,0.0,0.0,-2.2579087702730662,0.3843012728805726,7.011212535170715,211
-24.112998768853622,74.32601883695266,-50.94516016386292,106.39071852276614,26.385653010236272,88.22057381469203,51.80520676598752,-88.12098021619924,-51.99270775309071,2.3034918910165896,0.0,0.0,-2.5546818846070236,0.57225438362634,6.075130658408692,212
-35.11299876885362,74.11430964863682,-44.94516016386292,109.3119620398276,31.418676355395547,90.5500245355162,49.762948452474305,-87.56023132668783,-62.99270775309071,2.369446059964756,0.0,0.0,-3.4780802519853355,0.9163600955500991,6.042839614717887,213
-46.11299876885362,74.66596464063704,-38.94516016386292,115.444505960275,39.303041324546435,89.91668878027703,47.79903393576813,-91.26959015175126,-73.99270775309071,2.2617960072695156,0.0,0.0,-4.762950198602411,1.4090109153286439,6.227429603346318,214
-57.11299876885362,75.2985607207655,-32.94516016386292,123.02359997576163,50.303041324546435,87.27516301190501,41.79903393576813,-100.36758419856527,-79.35335165159515,2.0628947210662156,0.0,0.0,-4.856448628290536,1.619013763754653,7.703829790564551,215
-64.97687401152494,78.68549652128401,-26.945160163862923,126.63282751337867,55.923286006062696,87.5687974999103,36.0739729107243,-105.30783224041349,-68.35335165159515,2.069679779533573,0.0,0.0,-5.251057388120173,1.421169438408947,8.610765389314821,216
-56.73328372490462,77.25334891328922,-20.945160163862923,134.48748689013485,64.38397918956483,82.4131127727659,30.0739729107243,-116.30783224041349,-57.35335165159515,2.0228962359074933,0.0,0.0,-1.6176054379510614,0.46564734510398414,11.419644616044396,217
-45.83425386120603,73.57603409008588,-14.945160163862923,135.90357657117534,65.06295792287258,74.1092419284467,24.0739729107243,-125.71430143499988,-46.35335165159515,1.855804156047641,0.0,0.0,1.7346182095389162,-1.5616793317583053,13.725966930494362,218
-35.435030339795084,72.85799051509598,-8.945160163862923,132.85834545991926,58.33638238418055,69.93947631585647,18.0739729107243,-131.15906397510363,-35.35335165159515,1.5242633335542792,0.0,0.0,4.225114186165756,-3.8019473707727234,14.851005817416093,219
-30.497204808856797,73.53290905481651,-14.945160163862923,128.9888581566829,50.445876494858226,68.54837614925951,12.0739729107243,-134.6213930094724,-24.353351651595148,1.061331304150242,0.0,0.0,5.348078740014551,-6.210248001886714,15.217689350206529,220
-30.924982071775624,73.83914573952644,-20.945160163862923,127.13361912342144,45.95052387157951,70.6043781546719,6.073972910724301,-136.41104861659727,-13.353351651595148,1.0557902832340478,0.0,0.0,4.9748624245963535,-7.0790415360777,15.638072874176178,221
-36.163030284415434,80.47912448680366,-26.945160163862923,123.4610125670866,48.755571472348336,76.18709890436809,10.300329828334656,-138.02654079664265,-2.3533516515951476,1.6393515922431776,0.0,0.0,6.136553541874921,-9.072043173327515,15.612503877196671,222
-38.167116464449855,84.6150747131579,-32.94516016386292,112.4610125670866,55.580050222998764,77.97363662900776,14.098014253797327,-135.92195513154834,8.646648348404852,2.9742034705172364,0.0,0.0,8.658131426702953,-11.3826776852792,16.055622891499286,223
-39.157823531706356,86.95479406687471,-36.69219463650001,101.4610125670866,60.252294329392825,79.00273601873893,12.811844328896571,-132.19516324352296,19.646648348404852,4.123861463636502,0.0,0.0,10.725658379498363,-13.709311302732686,16.830385083950603,224
-41.31035571259754,89.13809643746721,-38.504868241879564,92.90702878287101,67.8843841031611,76.27354215969989,9.806482202960723,-135.22945824160152,30.646648348404852,5.409349330403644,0.0,0.0,12.857388754174192,-14.920805456742183,18.197397517294753,225
-44.08637678094992,89.47969311514825,-38.0002202888462,91.8298846346009,71.72911949683497,72.23171122816835,10.288079926586084,-136.88370189083633,41.64664834840485,6.059749752012338,0.0,0.0,12.88945556710955,-15.483874485741095,18.417669420460886,226
-49.43529531900245,88.84938112650488,-38.54275908687585,80.8298846346009,78.29041101329811,72.57224611256957,11.134065156015808,-131.2454137365501,52.64664834840485,6.748064568198019,0.0,0.0,13.096215936273511,-14.871981036918186,19.415669743693137,227
-54.425521877104735,90.77831832696447,-35.73445988607324,69.87538165670601,85.81830684601276,71.31894088805936,6.311103502050253,-126.30826379353798,63.64664834840485,7.3791183982991555,0.0,0.0,13.991518361219665,-14.053379767827685,20.115101163983127,228
-58.7768495113095,92.09960757200959,-36.759592935983775,64.11092787613094,87.85591631297683,70.57441970457356,4.259635007652825,-117.40386796114149,67.05371003043915,7.333893326746042,0.0,0.0,13.69052640242775,-12.59789042308818,19.708927488684918,229
-61.28154544657803,93.28812955993865,-35.823235935993175,66.4322978521805,87.02923784516645,70.29190694129996,3.455911081028413,-111.47997018873255,62.01723541168112,7.3029915455167025,0.0,0.0,12.438326994768573,-9.524326233858158,19.058701575438885,230
-61.63972972615232,93.2880842145937,-37.9919693914498,68.9592768286834,86.69984710490873,71.26073169985482,2.2070232864626056,-108.32732053379495,59.349983064276195,7.327230889068914,0.0,0.0,11.840154643851644,-7.666031908775538,18.59518913137346,231
-63.51128991104956,90.55085192356435,-35.728347864327255,75.09726078498984,91.56597050521141,67.68087270113537,-3.7929767135373944,-103.3613455075879,57.82913845194946,6.773844237478579,0.0,0.0,11.239653651894512,-4.688852501885095,16.131191961400194,232
-61.75974898396922,89.6525677070273,-31.774870150229127,81.06585945907213,88.70190970907954,67.41660221685656,-9.792976713537394,-99.71991799655945,55.400869906150376,6.301950211891419,0.0,0.0,10.56024602520117,-2.2263320492495167,14.647123937995259,233
-60.89113852557021,87.17481433278179,-28.45966130341598,88.62268504100766,87.1578726237106,64.66551556384103,-15.792976713537394,-101.96662012289202,56.04381487999052,5.817143199324975,0.0,0.0,9.757561545967404,-0.8441857423133029,13.106436288472002,234
-58.59679444891737,85.85159536188645,-25.07512834926413,94.29572483909351,82.8382629761258,65.1689694244621,-17.535784840049093,-104.22295816189559,55.22513072314649,5.13421002078395,0.0,0.0,8.468645562264292,0.05529686495064626,12.241378790231755,235
-56.85364642228704,85.5443213555201,-25.558330872407524,94.24691742229315,79.68812353792391,65.78640776925297,-14.138308298595238,-103.69898603249631,53.872737249965404,4.789326088639631,0.0,0.0,7.672783913806102,0.11676169467700544,12.209460330152249,236
-53.83696168111862,83.87224863978042,-21.08653657053747,100.89606563030179,75.54530714308295,65.2973425799352,-17.470010057849006,-107.70144121018427,55.56134750997051,4.105765280680461,0.0,0.0,6.410672585545655,0.790405716855958,11.7138669426967,237
-50.74242551031544,83.5120235155858,-19.641887488071795,104.83309395770354,69.11397468985419,64.64389741428825,-14.03387556289798,-110.73992674470107,57.784839455648395,3.3418023779049033,0.0,0.0,5.043128029239695,1.349151018987651,11.124426454026903,238
-50.14312526534051,81.87166056622208,-19.507960537465124,110.86835373306897,64.79181561410076,67.67362232970386,-11.800020399030299,-114.11496518032736,63.29456733063922,2.731169701578634,0.0,0.0,3.365182368732586,1.666812181166316,10.02847967685984,239
-48.49706909458128,82.48407749199625,-14.006337515062016,115.18764590931129,60.753007459707696,69.49730949551774,-8.524780230979921,-117.08613771355674,69.72815384650863,2.273318314473758,0.0,0.0,2.055484891515572,1.7478139646989224,9.41915030886834,240
-47.362517295463824,81.62284424521897,-12.972623330772876,116.66947357238259,59.01690726509394,71.83975216757788,-6.981226557174684,-117.73188106619361,75.51200495069205,1.9566323004370483,0.0,0.0,1.4541366684031898,1.5814288716987956,9.097493876015527,241
-45.30591739605718,79.17539005790462,-6.972623330772876,121.68271178081119,57.682278043569454,74.32675067148745,-6.063159559391327,-121.34392261284032,85.64069636269501,1.7550565378703045,0.0,0.0,0.5357614255895833,1.6703096379931996,8.899645261121075,242
-42.98136341039853,73.5667603395957,-1.6664052018408058,126.30155234915698,59.16101382876242,75.22649339422681,-8.314547006268777,-126.55155823013783,96.64069636269501,1.5543601732981385,0.0,0.0,0.8031933649095326,0.9837823543122348,7.908724667987921,243
-42.2231021021367,72.71176868484778,3.691499174291799,130.78573656627378,62.57040385364721,77.05378080892014,-10.194898033707993,-131.43894185087515,107.64069636269501,1.4250665333935175,0.0,0.0,1.4889265550139639,0.18052303743656195,7.307125403657746,244
-41.55093277982181,71.36152311543607,5.72436119816547,133.72772390583611,65.18156987308464,78.13503166978369,-9.022587309877006,-134.0330491272415,118.64069636269501,1.3151561528028295,0.0,0.0,2.002561267161958,-0.27237730623976397,8.042021606232222,245
-41.8791836033478,71.07096760880589,7.079813611462086,134.95975441040954,65.72664608170997,80.52492657704487,-9.241732675115152,-134.60830723637554,125.11155132310247,1.3002404283734683,0.0,0.0,1.6526326934310918,-0.624753815925862,8.912701833371722,246
-40.339288674944164,74.70014406213915,1.079813611462086,133.01932676120714,58.41728204161857,84.97695050358605,-3.241732675115152,-134.87497716260495,124.05234481574249,1.2606728900608324,0.0,0.0,2.1340707761271784,-1.869641869133808,12.298820182415433,247
-41.74420610902009,79.21813840198936,-4.920186388537914,127.20612603562232,55.050515410701934,87.98694035867601,2.758267324884848,-131.32793546598847,113.4157388031461,1.5725745778803528,0.0,0.0,2.623743623134898,-3.6939881882162746,15.031918384627405,248
-44.83172137606649,80.50949208334406,-10.920186388537914,125.43038203934002,57.23245353919099,87.05319647715982,8.758267324884848,-131.89590547022323,102.4157388031461,2.372700392684939,0.0,0.0,3.7783557139985757,-5.818433547877445,17.51412131798397,249
-46.953255569888675,84.30640049837977,-16.920186388537914,122.66989529886617,57.88755404510114,87.20101834099329,14.758267324884848,-131.07743810159926,94.94076940164692,3.1558851020292122,0.0,0.0,4.522200089804929,-7.492164013817627,19.30680504123209,250
-47.14517717351388,84.91189698723194,-22.920186388537914,122.11772447984073,58.288504998657814,87.26354836626481,20.63665358730656,-131.74588848917722,90.9650614681988,3.8997649765587252,0.0,0.0,4.2431612441906825,-8.319338972824436,20.035048529335455,251
-51.89048992909822,82.86589048480647,-23.436922988148833,115.26721860299958,68.51373815347446,76.85921989841054,14.636653587306562,-135.7106891549,87.3168670868375,5.275138646050082,0.0,0.0,6.555235521855651,-10.020989351303198,22.18667649284855,252
-54.10621554956276,81.5376198912582,-26.766174964486567,104.26721860299958,73.59845460180394,69.27464087699744,8.636653587306562,-134.5649111416977,81.75380072623597,6.368238510033026,0.0,0.0,8.519441316788624,-11.738114064623954,23.939538191237546,253
-57.82974990685399,84.63794368075398,-28.802758575325097,93.26721860299958,73.27379239738339,67.84696028670442,5.823582556259762,-132.49686164439382,76.12685917521611,7.329402810448058,0.0,0.0,8.890100283070568,-12.529379990860422,24.874615594933136,254
-59.89684294811846,86.65128643344751,-31.232299481751948,82.26721860299958,77.57729310942672,65.12083093943153,3.3417197603177877,-129.26504935472025,72.20443694896349,8.032034827586115,0.0,0.0,9.224494795148084,-12.709828923149399,24.295884388472835,255
-60.56951621467436,87.69698865579028,-34.23746209315514,76.12933420632861,80.45439115935233,62.49505638367313,0.13269661005175765,-128.19483882758465,69.6802030462416,8.36139109488024,0.0,0.0,9.371361904814316,-12.664502671252063,22.97606535044524,256
-62.89741514601644,90.1084819581646,-31.49946043554727,69.10515126959481,86.47460307176286,61.981517725794724,-5.219720963786725,-117.19483882758465,65.14814433637598,8.109538112593173,0.0,0.0,9.401152863437765,-10.355467095722986,20.763512671627954,257
-64.46689917403961,90.70066875472057,-31.862931043433314,68.94237749292363,87.37058040414622,61.86665822314274,-10.043135819765668,-106.19483882758465,60.81439498564448,7.767445638689602,0.0,0.0,8.730143127982664,-7.6611230056226685,18.605059721540307,258
-65.08195187978902,90.33901295880644,-31.99223974476756,71.9163127849434,87.36330985242564,61.677291633166234,-14.907844705403626,-99.40925770717975,57.389663729641285,7.398864789238191,0.0,0.0,8.130528412664741,-5.171766961608083,16.429174833984288,259
-66.818976146252,88.57618119143389,-29.715331595321334,79.97535741841901,85.82071857311142,61.4011674823272,-13.477025301415894,-102.21839294283599,55.627401768533794,7.020538484692041,0.0,0.0,7.660154160276339,-2.3425042931835915,14.421339355743752,260
-67.05628419181485,87.20370194086007,-30.354242721152886,82.77934699034668,83.80639368055314,63.23772934617558,-10.99787028246443,-103.13513432866577,53.70649582026309,6.632597705032446,0.0,0.0,7.6215191652521765,-1.2224554094655515,13.562126203710891,261
-64.91648031277307,84.70199319879889,-24.354242721152886,93.77934699034668,79.23806854964342,64.4023417545773,-11.037456675590938,-108.4097683344066,53.10892601377972,5.804132398225673,0.0,0.0,5.937041330004707,1.9343210222481901,11.527878933393936,262
-60.452175099102334,83.13075966882175,-18.354242721152886,104.77934699034668,76.51050278541236,61.859523598733,-10.488517561851362,-112.13405169667189,54.26590832562156,5.039965668625422,0.0,0.0,4.28501809026834,4.1152844109933895,9.901149440774699,263
-53.13547388992638,81.94384857126387,-12.70272114941734,115.77934699034668,74.4853288434607,61.24801789627271,-6.0735629205982855,-111.88350895487226,54.247452810973286,4.204882233275325,0.0,0.0,2.875906853945363,6.277078008920122,8.86843631894255,264
-45.70761258656179,78.72232029871756,-9.79562771570494,120.87559514290942,69.86008587958727,60.50203071022283,-6.606374324751462,-113.21035086507892,57.42292526164228,3.3733348547971196,0.0,0.0,1.6526064712247528,6.353445301435908,8.232029355705466,265
-42.762970692376534,79.15118861920787,-9.599904720729405,120.4016865251939,67.02677732516419,61.113715797842474,-6.560144576637946,-112.9930595500644,57.9140831999002,2.880332924837379,0.0,0.0,1.858657635807061,5.823374449542515,8.118389722388528,266
-38.39002173364421,78.56816929121435,-6.067966022960884,116.96205452617986,56.02677732516419,65.9057385145953,-3.902867675784862,-113.80351386909771,61.13320694016486,2.409985823711394,0.0,0.0,0.5246924818154313,4.570501449027903,7.791297113350583,267
-36.37750126514125,77.46920308937725,-7.413893865526326,116.51355425856343,46.61382176929714,70.33384825938258,-0.8873287802969003,-116.8022186553279,63.98052946644989,1.802485416931223,0.0,0.0,0.16716738575334314,3.4232192476120944,7.891520074225808,268
-37.59516244231104,80.49455742871191,-9.264881920924235,116.8288754042859,45.11255674898312,75.62429741230412,4.058521646745081,-118.79348010082319,62.63167320054613,1.2313818779535104,0.0,0.0,-0.06776494129422377,2.4090911578257352,7.959348567462163,269
-39.36289734580438,83.5858748178863,-14.10913848596106,116.3977231455437,44.24913807795468,80.66635365910966,10.058521646745081,-118.53302037012052,51.63167320054613,0.6988985348180313,0.0,0.0,-0.5367298973304934,1.5522461629377995,8.330077252054796,270
-39.95591477087299,85.72825133279574,-16.0471563081287,115.82382600771355,45.666361453318146,83.38481785916719,11.150895522842637,-118.46318750197808,40.63167320054613,0.585890696726504,0.0,0.0,0.5120595699091306,0.955216225143126,8.614013426802382,271
-42.643482674723586,92.16386702650742,-22.0471563081287,115.50372217652966,47.11660089147534,92.22882287991648,17.15089552284264,-118.0682766436663,29.631673200546132,0.9776841198206219,0.0,0.0,0.2508564165396718,0.23342781979958416,7.923526369292452,272
-48.64196342681044,95.15838947408223,-28.0471563081287,111.18520657049255,49.863275966101014,96.06053165701317,23.15089552284264,-112.5876249657278,18.631673200546132,1.742421844110026,0.0,0.0,-0.23325926841126682,0.24566152503263697,8.960081849176994,273
-50.40641950002813,95.35651020071747,-34.0471563081287,116.51697803639443,49.749509641635406,97.26620464982044,29.15089552284264,-118.04507325989637,7.631673200546132,2.219212183864714,0.0,0.0,-0.9925052392548422,0.25521521885060355,8.856185090783656,274
-49.14418252372504,90.99134516734748,-35.71935041905751,119.69665468116017,50.71711515858324,94.08771469169085,33.71952661707889,-123.4131044652169,-3.368326799453868,2.440462882492982,0.0,0.0,-1.4138266988852468,0.5271852324079589,8.718255659371598,275
-49.36766115757558,91.80040068445071,-33.08810991043511,122.00579423005051,50.807063828603766,93.11067024719344,32.103523959037155,-126.8225137010231,-14.368326799453868,2.717051942593004,0.0,0.0,-0.9446274122325663,0.716250154116576,8.98189719894002,276
-49.730926361528674,83.48212168352391,-27.088109910435108,120.525704221399,49.08559386809518,87.00767416484689,26.103523959037155,-127.57098241536649,-25.368326799453868,2.5568211378462,0.0,0.0,-2.7592528347255127,2.0763860985160223,9.665661756621727,277
-50.63236630143292,78.58837465415633,-21.088109910435108,120.59346863823076,43.80389987139112,80.68355763604433,20.103523959037155,-127.29188385072185,-36.36832679945387,2.915372377844799,0.0,0.0,-4.250689473586614,4.0291632517556755,11.634041667250917,278
-52.198430867134775,77.40148059166204,-18.584103376154818,120.76394393121782,42.847070966062695,75.36156624845205,14.291258615791246,-124.01625903568319,-47.36832679945387,3.6077140686783773,0.0,0.0,-4.555025417658392,5.535716571761311,12.916951045856566,279
-53.47355423062224,75.7268263430189,-20.272659589930367,125.37989878420649,43.124750934552324,69.08807457485995,14.82208552961881,-124.08725284658321,-58.36832679945387,4.409523847112448,0.0,0.0,-4.507218957091376,7.733578299035716,14.528295978429778,280
-52.95805825891035,76.96304067471402,-22.953370693532303,127.96830607803727,44.71408467526238,68.09681781341567,11.888095172861899,-124.59427983050794,-69.36832679945387,5.0051661601765645,0.0,0.0,-3.2404654887963007,8.621383889706365,15.188440473737012,281
-62.9799487311698,74.58313037247207,-17.286157616187065,131.8925796571512,48.7276927691541,68.92076940226177,13.125340368171315,-123.44608725577629,-74.08348123756369,5.940263975013397,0.0,0.0,-6.394162834162137,10.639569344205455,16.581069695909314,282
-70.40560142509143,71.36172155931847,-13.509411718424467,134.54838847975444,55.095645882225554,71.03502979968677,15.26409539942152,-119.86804142845406,-73.49391750248473,6.931491098422182,0.0,0.0,-8.671441656845213,12.19209593896813,17.202484882247287,283
-81.40560142509143,66.8744411035841,-7.509411718424467,134.03466576455253,59.987370298259506,71.93612587320698,15.223117624425162,-114.83653835787638,-71.94428623377881,7.741745015027364,0.0,0.0,-10.169524384541527,11.846925541985923,17.56375624412479,284
-92.40560142509143,64.89940319927554,-1.5094117184244666,127.59863022719712,62.48264708329226,77.4003303302241,17.118680119126132,-109.28402761578751,-69.27423353966536,8.06302304208795,0.0,0.0,-11.290150928998962,10.866723050735285,17.04009785327761,285
-98.76774434688068,65.88947720195598,4.490588281575533,124.63334506821906,64.0152664121982,78.15639530458428,20.71403701655238,-108.0158700899821,-67.7279018481413,8.357955806684359,0.0,0.0,-11.658466656990063,10.564465165365537,16.5257298378166,286
-95.57367556895434,68.03703380706901,5.047835753698389,114.50560262047453,67.54370055527737,83.1140154724272,22.760951364468262,-97.0158700899821,-63.40655818497724,8.280286353132514,0.0,0.0,-11.973185157740875,7.652929196318579,15.184185466114833,287
-93.83759541033992,71.32051945181904,5.844487858724269,107.4605603417103,69.18267125409784,84.53714383917763,24.846013757752665,-87.08053854146956,-60.621995902227155,8.456473737011088,0.0,0.0,-12.342671237454557,5.106125678250089,13.791443288833918,288
-89.621779524874,75.55761370581071,7.6758735210998115,106.88779914663502,69.68893320562883,87.34961791048282,25.884467158354607,-87.2677464613767,-58.99591949936211,8.28960859753976,0.0,0.0,-11.97126199193646,3.1360194096132483,12.565128057221724,289
-86.25605284550043,74.32384052671748,5.562727082083836,108.99708776649268,68.43977661358339,88.00467136300705,28.661658984240134,-89.33494378624462,-58.80492631611812,8.081196730257163,0.0,0.0,-11.172123169897743,1.734424686461795,11.226586502942537,290
-84.74817541120944,75.52972298185814,5.7846621049881595,108.62890748934583,66.63040554004314,87.68228572628698,32.22011082348435,-88.85347854964355,-58.484732872640606,7.898651834248756,0.0,0.0,-10.54770759322933,1.1627844870764996,10.594466464955767,291
-82.80403745819645,73.91752602161002,6.68461183338655,111.97663636493718,63.144954430464246,89.30977233191788,32.69851294252249,-90.83205945632757,-60.51830191769076,7.6430067042174885,0.0,0.0,-9.912533690761576,0.4396864944231698,9.626077730874673,292
-80.71843921011556,73.8372515118476,5.762453682635152,114.22890210416695,60.25405031308805,90.47002799431912,37.83038329251488,-92.49097687443515,-63.58450949472954,7.165838760379933,0.0,0.0,-8.553484791992934,0.10080232075686296,8.464902173614998,293
-77.25503276024783,70.77793656407131,4.427039016263907,115.98554968860776,56.72060557827243,91.23920818854967,41.66787772854118,-91.82653037455262,-66.42886098750235,6.793813274620412,0.0,0.0,-8.103297695502077,-0.489544268082566,8.164422302395872,294
-70.83864078578875,68.10707783711358,4.90233211922468,118.95290898381732,56.03669354500774,92.18218840975719,43.70528890021309,-94.40997759261023,-69.86276730947124,6.162576224730647,0.0,0.0,-7.162888895002774,-1.2778352092903562,7.900818135368639,295
-67.30878182940297,67.72765025414246,3.35041262355942,119.42464051355654,55.054568041877914,92.97306630988514,44.45686333938128,-94.24900278998959,-71.31420407221398,5.906745474858461,0.0,0.0,-7.1841272252427695,-1.638697567954665,7.934471707409885,296
-61.60190623938007,68.44104180919474,3.748083644199798,121.82903672450276,54.54099519010604,91.6684052360718,42.93106627032714,-98.22696817774091,-73.99453483732218,5.528585752555155,0.0,0.0,-6.029290385140465,-2.092644892748857,8.18374759453573,297
-53.937486994022336,71.52117634276836,-0.7808415488550339,124.0603117971072,55.02343809239796,91.0700487456052,38.03579490588442,-102.90504342012173,-75.90895630122932,4.8837166834171715,0.0,0.0,-3.903837199927573,-2.5765999394974237,8.137587373564646,298
-49.11554638504551,74.61200398252738,-6.172654966969469,126.90011324730912,54.12541733672834,88.78098579410981,34.4047351721492,-109.80300564506337,-79.5645214616891,4.376629818900682,0.0,0.0,-2.2515257222722425,-3.3228828374953445,8.012579290794328,299
-49.448252348830195,72.47508358655067,-6.359981724146667,131.00104119652042,53.246666769196075,85.09912115020056,28.404735172149202,-117.48029928065546,-84.312661230265,4.00561797190726,0.0,0.0,-2.6046706517282265,-3.8633091740736223,7.623481129847075,300
-48.43370971642118,72.61053788818649,-6.235772931314239,132.73881927549047,53.36121407334492,84.68754721290298,23.196690409314254,-121.16246494381089,-87.37060582653348,3.8030000513824183,0.0,0.0,-3.0028275740104733,-4.100267794027562,7.712685351041663,301
-39.986325063086355,76.91682763951417,-12.235772931314239,131.00751906812417,46.68220418672361,79.42078466013575,17.77590399600943,-126.17944041786814,-85.94963077870193,3.2637567453296246,0.0,0.0,-1.5275850578587522,-4.583964891597421,8.705277320058979,302
-32.6720546100023,78.2975106126307,-18.235772931314237,126.2081165842328,35.68220418672361,74.94501125428594,14.733998562146489,-130.49635080260228,-83.98038722922415,2.741419991625446,0.0,0.0,0.10503976994621372,-5.3446768293682725,10.893132457093412,303
-28.201642409508537,77.64312537047948,-24.235772931314237,118.50001219972958,27.641355745824423,71.51209724261457,13.329125784099089,-128.80432293506837,-82.7836166586349,2.348893095872,0.0,0.0,1.2587649872426196,-5.376666958167141,13.026628167054026,304
-23.651702667351483,74.79379135509042,-30.235772931314237,113.94096162467181,21.758231734545284,67.64658686113027,15.077883759043587,-125.06482126105253,-84.22288697593352,2.32015066799955,0.0,0.0,1.254743693407173,-4.707902018049164,14.836944238764731,305
-20.175263238473942,72.6280456835578,-36.23577293131424,112.05058753908345,19.857911796713726,66.0953960481298,16.98165437529044,-122.54692816970984,-83.4539023227827,2.34205779554092,0.0,0.0,1.3660903957970851,-4.671847746793046,15.54449043052359,306
-20.258968547880656,77.33480218135738,-42.23577293131424,106.76610610257745,19.07896744277519,71.78614540030723,21.00708000689873,-113.10639929545312,-73.2458161831443,2.749741491391984,0.0,0.0,0.8435275508084049,-2.6617686712084905,19.056002406273524,307
-25.817604237511315,73.17732869169829,-48.23577293131424,102.56419634444396,22.904932723771385,73.27809115968995,27.00708000689873,-102.10639929545312,-75.63785851484744,3.2145363366444117,0.0,0.0,-1.0447629873832307,-0.523250230087452,20.662731283152052,308
-32.11883284581428,68.19714395834752,-54.23577293131424,98.30021842744065,27.22779058751692,76.46788321699482,33.00708000689873,-91.10639929545312,-74.4737341778062,3.87925423462933,0.0,0.0,-2.822358150131668,1.8369403685450303,22.04323400178102,309
-37.34539764207602,65.12177846909445,-59.44266204136814,91.94337105501026,31.035771997946025,79.25013138530846,39.00708000689873,-80.10639929545312,-72.28316912612205,4.560669220913716,0.0,0.0,-4.359764016544329,4.087629833471341,22.538704968617516,310
-41.941533188993475,63.25795835333904,-57.5417162347316,92.13679530110878,33.33917295015297,82.03479605553676,44.67873294671542,-73.87460051764018,-72.16043660937777,5.1264072646478,0.0,0.0,-5.184880327508054,5.125039367597939,21.384690261032773,311
-52.941533188993475,53.601191288403804,-51.5417162347316,87.3203597847472,37.73471693616685,84.87391861734086,44.45588803869614,-65.32942725595309,-72.19222307363356,5.853357986823357,0.0,0.0,-7.969811995970766,6.716777450917802,20.290583714940407,312
-63.941533188993475,54.415221984631074,-45.5417162347316,84.18883841688586,44.200921312273145,87.82293530191212,41.98526276886033,-59.71244528329487,-70.86946826676055,6.660970811221373,0.0,0.0,-10.621759147629358,7.78846448321785,18.47355990718114,313
-74.94153318899347,59.09335378329901,-39.5417162347316,87.55332831048952,50.730018371785846,90.76549885635225,38.72540261928535,-57.59928934080252,-67.21229096983905,7.538865717684968,0.0,0.0,-13.263172733486561,7.016569337265145,16.821439664557204,314
-85.10414187719823,63.54136279264836,-33.5417162347316,96.64921844364306,56.115016186944565,92.72635119923162,36.943235149471505,-60.79491397346574,-65.25062573702445,8.05739418171922,0.0,0.0,-14.802302052917549,5.49441066974348,15.082258963598308,315
-85.68805276531874,65.70073455515471,-27.541716234731602,100.95278089257532,57.41905105693908,93.04177680260364,39.05264471744171,-61.979068403784865,-63.75801450446135,8.348261856679791,0.0,0.0,-15.681198671497643,4.996118046191527,13.767685703033555,316
-83.80210065142012,66.37119796748759,-21.541716234731602,111.95278089257532,59.45093333491304,92.88630335242962,39.442694546712275,-72.97906840378486,-63.290487769342285,8.294742525722295,0.0,0.0,-14.978433935802661,2.763903958501749,12.124234770149883,317
-77.93627826976115,66.22982352991349,-15.541716234731602,121.86533459046122,58.17527244041876,93.09813681039988,39.36124272716907,-83.67322351422857,-62.92892496307086,8.071728543101742,0.0,0.0,-14.061218428537043,0.8468405604458932,10.74322111793742,318
-76.41882762963478,68.2996041299425,-9.541716234731602,124.78570983508692,54.988511445539814,93.50621227697924,42.158025736103134,-90.82275883225314,-63.39347348583644,7.6371311101828745,0.0,0.0,-13.614653696702597,-0.9785313400167867,9.201457536625535,319
-74.34354275723983,71.68569369353989,-3.5417162347316022,124.45828718777922,54.426231382057395,95.42783666754089,44.600958530402195,-93.46159829606549,-63.98838241784703,7.1317532982829,0.0,0.0,-12.42874653490514,-2.492568872369102,7.904096631162523,320
-73.59385715966927,74.47254225978028,2.4582837652683978,123.91318154944808,54.54368279455357,96.6366827983766,45.948774741356,-93.23568575630634,-64.45215879476315,6.745692367484419,0.0,0.0,-12.416842004130752,-2.945848037504594,7.217033570247404,321
-62.59385715966927,70.7474484604047,5.15350899538198,125.99206157823122,52.348622083716215,94.59508697523908,45.12565770114978,-98.30481492641358,-67.67679245352684,5.887635006627693,0.0,0.0,-10.097246213146573,-3.212137222350116,6.870548175528703,322
-73.59385715966927,67.63388018410886,2.488277053697792,127.8849511181548,63.348622083716215,83.59508697523908,39.12565770114978,-109.30481492641358,-74.48900724871221,4.626855830576486,0.0,0.0,-6.097246213146572,-2.3746833228046453,9.784252984437968,323
-84.59385715966927,70.03644954628784,7.235194971113251,126.04855687424244,74.34862208371621,72.59508697523908,33.12565770114978,-111.14894119347498,-77.62861118743058,3.5220257597473172,0.0,0.0,-2.097246213146571,-0.7594911613329249,12.006815757028411,324
-94.8984804105279,74.55858355666231,9.868780356426095,127.47391909645339,85.34862208371621,67.96039172132726,27.125657701149777,-111.21363498608892,-72.2371779550659,2.4699900678696887,0.0,0.0,-0.3404199711122336,0.1799943356362673,12.225793137219432,325
-96.64862716267281,80.5841015576992,13.160800028507264,130.82466307777912,96.34862208371621,75.00401870488942,21.125657701149777,-115.99348792574808,-61.2371779550659,2.508255390255578,0.0,0.0,-1.1543617902071235,-0.03660734695264295,12.25006777246467,326
-85.64862716267281,69.5841015576992,19.160800028507264,134.3174658854487,88.30772837667536,74.72660625859673,15.125657701149777,-125.51191434321657,-50.2371779550659,2.3598169634747848,0.0,0.0,0.622157078804425,-2.4070200059675098,14.983633653976334,327
-74.64862716267281,58.5841015576992,22.983366819305516,135.53735013991025,77.30772837667536,63.72660625859673,9.125657701149777,-135.06557093015493,-39.2371779550659,2.363544134598707,0.0,0.0,0.9348539755910406,-4.232568817944831,16.924201940683904,328
-63.64862716267281,47.5841015576992,16.983366819305516,129.34720360509021,66.30772837667536,52.72660625859673,3.125657701149777,-135.5412855201373,-36.26827985428342,1.9758588884000017,0.0,0.0,2.104043522764075,-5.695389155355492,17.222706465949422,329
-52.64862716267281,36.5841015576992,10.983366819305516,127.28480250425633,55.30772837667536,49.49632386768558,-2.874342298850223,-136.62673356934894,-36.15238275502322,1.8263339370985732,0.0,0.0,3.175700836278888,-6.664793251724569,18.119587125328646,330
-41.64862716267281,25.5841015576992,4.983366819305516,118.58601268237437,44.30772837667536,39.329318549939885,0.9429521019503302,-131.30811325518698,-42.63419333075205,1.3829882461579344,0.0,0.0,3.9625983558336206,-6.4285181428606055,18.14448083964466,331
-30.64862716267281,21.05540115216646,-1.016633180694484,107.58601268237437,33.30772837667536,28.329318549939885,6.94295210195033,-120.30811325518698,-53.63419333075205,0.879671637653829,0.0,0.0,4.099413555126942,-5.0021522902597155,15.436840636672265,332
-19.64862716267281,31.40060994716995,-7.016633180694484,96.58601268237437,22.307728376675357,25.337194606046452,12.942952101950329,-109.30811325518698,-64.63419333075205,0.9798058386862475,0.0,0.0,3.0774582638317134,-3.958498422473572,11.436840636672265,333
-8.64862716267281,42.400609947169954,-13.016633180694484,85.58601268237437,11.307728376675357,36.33719460604645,18.94295210195033,-98.30811325518698,-75.63419333075205,1.6018413069640896,0.0,0.0,1.9429936971059332,-3.261667217156813,8.53573651884378,334
2.3513728373271903,48.165544820513176,-19.016633180694484,74.58601268237437,0.3077283766753567,42.549800297613096,24.94295210195033,-87.30811325518698,-86.63419333075205,1.778608188272154,0.0,0.0,1.1002901629318118,-2.880176463267313,7.893418510922297,335
13.35137283732719,46.55587779088772,-25.016633180694484,63.586012682374374,-10.692271623324643,47.57682886712917,30.94295210195033,-76.30811325518698,-97.63419333075205,2.275785082658861,0.0,0.0,0.02484158376023304,-1.9675701156108363,6.052006572257491,336
24.35137283732719,48.97833833077486,-31.016633180694484,52.586012682374374,-21.692271623324643,47.48212824792369,36.942952101950326,-65.30811325518698,-108.63419333075205,2.348826033139238,0.0,0.0,-1.1574003074618564,-0.5777892150255975,5.159051953267687,337
35.35137283732719,53.660898083090316,-37.016633180694484,41.586012682374374,-32.69227162332464,50.16284399233057,42.942952101950326,-54.30811325518698,-119.63419333075205,2.244325568990765,0.0,0.0,-1.760138493520188,0.6321475875852923,5.318033581721719,338
46.35137283732719,57.46524624635754,-43.016633180694484,30.586012682374374,-43.69227162332464,53.24059263181731,48.942952101950326,-43.30811325518698,-130.63419333075205,2.0337549942075372,0.0,0.0,-2.0623071800273802,1.3635022948295281,6.80069088561303,339
57.35137283732719,57.690014755528615,-49.016633180694484,28.29882286208962,-54.69227162332464,52.90255083851205,54.942952101950326,-32.30811325518698,-141.63419333075205,2.07347467326411,0.0,0.0,-1.9753362578218174,1.8364898124895732,7.542842181079848,340
68.35137283732719,57.32184282494599,-55.016633180694484,28.298822862089953,-65.69227162332464,52.330697716044924,60.942952101950326,-28.29882286208972,-152.63419333075205,2.0246769508303513,0.0,0.0,-2.387798106309897,1.922110782400223,8.639458838956346,341
79.35137283732719,55.97474057401036,-61.016633180694484,28.298822862089697,-76.69227162332464,50.36688802286039,66.94295210195033,-28.29882286208955,-163.63419333075205,2.185511256082769,0.0,0.0,-3.092990614591477,1.6773353304540402,9.69911208500597,342
85.62712503376004,53.83502671012929,-67.01663318069448,28.298822862089594,-86.45195439543765,48.12250959161348,72.94295210195033,-28.298822862089725,-171.11607565884057,2.2438047760561477,0.0,0.0,-4.069887684434441,1.210030884853663,10.832235953255548,343
86.17593998950035,51.67800779658504,-73.01663318069448,28.29882286208985,-86.23129269635207,46.23837821574679,78.94295210195033,-28.29882286208987,-167.58207101405972,2.247610162563445,0.0,0.0,-4.848884170457622,0.8702921819761167,11.366043812187252,344
86.26607551697332,50.87311670381358,-79.01663318069448,28.298822862089747,-85.46907317389079,46.05963328276651,84.94295210195033,-28.29882286208962,-166.69802823732704,2.218878754798912,0.0,0.0,-5.21030943975439,0.620994117265943,11.25487413070679,345
85.88252966957467,50.108318256245155,-85.01663318069448,28.298822862089875,-84.37194593090874,46.08750427437656,90.94295210195033,-28.29882286208986,-167.41843093109168,2.233245961984254,0.0,0.0,-5.4562161728947824,0.5178043874836684,10.867353133683494,346
84.7315681093457,48.69355070736614,-91.01663318069448,28.298822862089672,-82.73648880139531,45.88781482775506,96.94295210195033,-28.29882286208998,-167.2707637510316,2.399132310124062,0.0,0.0,-5.005215021069748,0.11629474625114813,9.418734242899003,347
83.5498522273711,47.32805071827479,-90.51357144124462,28.29882286208985,-80.76951078335837,45.504781729290215,94.03446324670367,-28.29882286208989,-168.15337513764928,2.7252283178534844,0.0,0.0,-3.8486319418576254,-0.2642220007447066,7.446879528532183,348
83.08623484188864,45.63300743184293,-91.8665465039297,28.298822862089697,-79.27542353607511,44.80641389122351,92.96128505454062,-28.298822862089704,-168.9569423742833,2.949218015137717,0.0,0.0,-2.763399584923056,-0.7629095989154993,5.766457466132796,349
81.44709607761571,45.24709670922664,-89.3610425538321,28.29882286208962,-76.94636962948431,45.091122828943696,89.10853244440315,-28.298822862089626,-168.96754237209967,3.009051177081203,0.0,0.0,-2.1578126042196644,-1.1353047304885013,5.05291539030384,350
80.58389649694834,43.93052860061461,-89.13386552717402,28.298822862089647,-75.98629457189016,44.35087862628404,88.13347481910516,-28.2988228620898,-166.86104392859326,2.965132517122143,0.0,0.0,-1.7586928434994558,-1.3662204580922566,4.767236603312018,351
81.34730633085604,39.55070957522927,-91.5371611720417,28.298822862089647,-78.08290695133644,41.01121607537367,91.33200760233917,-28.29882286208989,-162.64920156692148,2.7025377183799177,0.0,0.0,-0.4091218638676326,-1.8562738695456806,6.1401900584542,352
82.51053076177884,35.8400730064051,-93.78774547612979,28.29882286208972,-80.92984398489374,39.158309454847064,93.13359065631619,-28.2988228620896,-156.95919238356691,2.5686497677722815,0.0,0.0,0.6952292381455921,-2.06218680935826,7.824871805799974,353
84.3157826230809,35.24804021701987,-97.43710847275669,28.29882286208957,-83.11580400022301,38.60722895103093,94.69050111039795,-28.29882286208961,-153.4298154385556,2.421839595153429,0.0,0.0,2.1503782338019595,-2.221329715536615,9.36686058240744,354
85.98365062983378,35.342294704343544,-101.30759276343908,28.298822862089647,-84.74258484943797,38.612887790477586,96.77181119156472,-28.2988228620896,-151.90806657358755,2.3199033112282232,0.0,0.0,3.2364813552229648,-2.3085344217244788,10.22494676254244,355
85.66978473893549,36.613444887515456,-99.39826945823057,28.298822862089544,-85.62099529519375,39.46433277143384,98.2548237048634,-28.29882286208983,-151.64345679950702,2.2284606097797153,0.0,0.0,4.5627061259578605,-2.520357978945847,11.11869447342263,356
83.29324074927791,40.13487733085451,-94.58794391131039,28.298822862089697,-83.1885517769569,42.61393147157145,93.87210603710624,-28.298822862089647,-154.107489498083,2.23419932782822,0.0,0.0,5.501319706042689,-2.6423245723980697,11.363956788327982,357
79.68815235850163,46.61264708327895,-88.58794391131039,28.298822862089594,-80.18100041222512,48.55759949853663,87.87210603710624,-28.298822862089683,-157.17402442886322,2.2560550358139984,0.0,0.0,6.362104439938706,-2.881213840932334,11.578598323844986,358
75.94679854590201,54.31158792753571,-82.58794391131039,28.298822862089697,-78.22038036326005,55.81930695655222,86.30837182388889,-28.298822862089622,-158.69716095005495,2.2886112639927956,0.0,0.0,6.648261106079113,-2.9820834200075863,11.174516681074783,359
75.28721770413296,57.525049160704434,-81.11912913190645,28.298822862089953,-77.70409557205893,58.37969114368864,84.75341526036006,-28.298822862089928,-157.65238513331923,2.2861568912729724,0.0,0.0,6.540199462935305,-3.0034407231649376,10.828861985681582,360
74.44559507516374,64.14857429869365,-78.23451228372451,28.29882286208972,-77.18396719419614,64.86940614100602,81.86392092665048,-28.29882286208962,-158.3113642593336,2.2799731353966513,0.0,0.0,6.153040821890974,-2.795835580267366,10.35047766843156,361
72.3601089339331,70.05980534078077,-77.10505502875145,35.00679914586868,-73.04807463389966,64.78203886050694,77.93184967927262,-39.29882286208962,-165.31731473250403,2.4391467048412556,0.0,0.0,4.9242634702616375,-2.4921881442207487,7.912113715434007,362
70.24476471714198,67.46903374834899,-76.09353910222849,46.00679914586868,-71.83211516884674,61.96674062344017,78.44782492644022,-50.29882286208962,-168.34737604575872,2.6842184030340093,0.0,0.0,4.123384809020087,-2.2428623875054563,5.453291575495919,363
70.49762563641885,66.67912158663025,-77.5977925652684,57.00679914586868,-70.36348687277199,61.5249151849197,76.88317320365472,-61.29882286208962,-169.08999952196942,2.7190194988958,0.0,0.0,2.9617856737232438,-1.9237438920614425,4.253595378356482,364
71.01754415239523,65.34665247864062,-76.91098634822548,68.00679914586868,-70.95958387515886,59.928206022295704,77.26521783418744,-72.29882286208962,-169.1240937132988,2.71897598757424,0.0,0.0,2.3288119459256054,-1.5556612479463083,3.5150485942072662,365
72.09816175666803,63.341221535486895,-76.07370970729937,71.122558923894,-72.459770830566,57.85692304195201,77.57425610780251,-79.24235465033546,-169.02078746091576,2.6162610358649157,0.0,0.0,1.71901883648881,-1.353837697778392,3.756606656070128,366
74.9499781969193,60.337750091784656,-77.44640640572825,66.4685040494206,-74.28074164340597,53.153188180016556,77.93313331571407,-77.37027102886165,-171.6621176537866,2.1755051975333397,0.0,0.0,0.8344367521525055,-1.5176244174917206,6.160694597092913,367
76.86795421069337,60.525898372232035,-76.91739431278839,57.699537981681715,-73.23563196927427,47.3105456685659,77.80255493377692,-77.77202523366361,-160.6621176537866,1.9309086856160762,0.0,0.0,0.3448996552713259,-2.0333697219096067,7.779357039696489,368
80.08009022662253,63.13677675334903,-77.32872107331634,46.788685236248554,-66.53979859736445,38.804720003659845,72.77238198247115,-82.43649865777667,-149.6621176537866,1.897398155745631,0.0,0.0,0.42456894112397586,-3.2250539042454323,9.40625455067271,369
83.64922374047268,68.03272643071554,-80.06672572744212,36.52758890076219,-59.1874789342438,34.732917581735215,68.69251760267923,-87.34677434330679,-138.6621176537866,1.9995736622799742,0.0,0.0,0.06395501699888115,-4.159869520028068,11.03310864153584,370
83.26190871166865,71.95993361430413,-77.96636411594405,28.29882286208985,-48.1874789342438,32.360250517290545,62.69251760267923,-91.45769673241989,-127.6621176537866,2.236756927038294,0.0,0.0,0.38257792910271515,-5.505709156408693,11.97135093099664,371
79.98136709656038,69.04223207686161,-74.43630641290109,28.29882286208962,-37.1874789342438,30.109577408123425,56.69251760267923,-101.92887055554988,-116.6621176537866,2.8434977391181993,0.0,0.0,2.555535946751904,-7.764462003207842,11.050126177327652,372
77.40371843544031,68.92607382275163,-74.13639577926347,28.29882286208985,-26.1874789342438,41.10957740812343,50.69251760267923,-112.23941628743692,-105.6621176537866,3.6937238416359253,0.0,0.0,5.4071715212415645,-9.488169589636868,9.77663783092208,373
74.11477579320088,69.76697546180463,-72.45473699228535,28.298822862089494,-15.1874789342438,47.493932858453384,44.69251760267923,-117.28858968055565,-94.6621176537866,4.12205442955264,0.0,0.0,6.881029819166396,-10.02175546564854,9.151340002979607,374
72.75457220800658,70.15912857045305,-72.42459068935766,28.298822862089494,-4.187478934243799,47.39361945672787,38.69251760267923,-118.85965850402656,-83.6621176537866,4.2038750143283705,0.0,0.0,7.071154778832193,-9.90799420507826,8.987522908336235,375
71.3684545121796,72.6292168653188,-73.03515103569266,28.29882286208985,6.812521065756201,50.41357546244301,32.69251760267923,-121.19125789031766,-72.6621176537866,4.291080135836029,0.0,0.0,8.00471769038437,-10.594332475395888,8.288107648735872,376
71.29767380206665,75.5398079323675,-73.94690649085939,28.98852110748006,17.8125210657562,52.21510546960528,26.69251760267923,-123.20970659619266,-61.662117653786595,4.241558490466003,0.0,0.0,8.860432439070108,-11.058244805258052,6.949250724912692,377
71.56097672927409,72.83379488181906,-76.98376021799584,37.312082393562456,28.8125210657562,51.637429890461526,20.69251760267923,-124.37108016115596,-50.662117653786595,4.163521652539213,0.0,0.0,9.408079029178525,-10.863310370691392,5.570008766800989,378
72.854999534705,71.43010833015666,-79.4648624364928,38.82563786296555,39.8125210657562,45.25772776734584,14.692517602679231,-123.9251507027942,-39.662117653786595,3.9840584580126697,0.0,0.0,9.094648613495051,-10.133980847600297,5.05631749049517,379
73.91721484346428,71.08442944784191,-82.18476721489458,39.86425818666063,50.8125210657562,42.080006541792706,8.692517602679231,-122.82492978500356,-28.662117653786595,3.8539897109470846,0.0,0.0,9.078582267014552,-9.650725080658246,4.360531867333359,380
75.31113054988478,70.79807298568606,-84.68910699320901,37.23042400227338,61.8125210657562,33.67399094561157,2.6925176026792315,-119.36582540095506,-17.662117653786595,3.563269597888386,0.0,0.0,8.725919884348528,-8.73429653997205,4.68403157762419,381
75.33575555673694,73.99045123543362,-85.16289358335338,28.893509090525246,50.8125210657562,22.67399094561157,-0.8961264805343959,-108.7271511246793,-6.662117653786595,2.841822510846347,0.0,0.0,8.694742180795739,-6.774004691457541,7.146467197969849,382
74.09238286082412,74.5575022195335,-83.2230774720447,28.298822862089697,39.8125210657562,26.2892526579107,5.103873519465604,-97.7271511246793,4.337882346213405,2.381896354114913,0.0,0.0,8.938550808250902,-5.124690675351953,9.327916256447896,383
71.88427086669334,75.8459686660561,-79.37507996454362,28.298822862089594,28.8125210657562,37.2892526579107,11.103873519465605,-86.7271511246793,15.337882346213405,2.32664110553468,0.0,0.0,9.916614674631653,-4.079093738686498,10.723344407320699,384
71.47507681324494,75.89172155788712,-75.66284667027638,28.2988228620899,17.8125210657562,46.02136547729583,17.103873519465605,-75.7271511246793,26.337882346213405,2.182421613274678,0.0,0.0,11.193247470301726,-4.23287050860305,12.237990560716176,385
71.97589019732183,76.59161920862726,-73.16808680535267,28.29882286208962,6.812521065756201,54.569088108876564,23.103873519465605,-64.7271511246793,37.337882346213405,2.090530284590823,0.0,0.0,10.964786569341127,-4.05744256758964,12.352851806490648,386
70.89454428633996,80.86600620630881,-68.64878704159806,28.298822862089647,-4.187478934243799,65.56908810887657,29.103873519465605,-53.727151124679295,48.337882346213405,1.8840853219064126,0.0,0.0,8.308683068961974,-3.1532485682483578,10.709427010764509,387
69.0053198272958,86.26161905525656,-64.45655652752525,28.298822862089697,-15.1874789342438,76.56908810887657,35.10387351946561,-42.727151124679295,37.337882346213405,1.6726475160736032,0.0,0.0,5.907253920556392,-2.670183068036986,9.162050406783013,388
66.29053645653569,90.8116987585674,-58.45655652752525,31.439158638300235,-26.1874789342438,87.56908810887657,41.10387351946561,-35.549859778215534,26.337882346213405,1.457162829159853,0.0,0.0,3.656104930864724,-2.385075063014557,7.3642934006734375,389
65.11980397569967,91.03717227062084,-57.95136141113048,34.32102775748843,-37.1874789342438,89.04807795541,47.10387351946561,-37.40998507231125,15.337882346213405,1.3195391273421357,0.0,0.0,3.123351575544641,-2.1051028318322134,6.255446759926535,390
63.262074848358985,90.42921868695792,-57.211787394681416,37.59219054779045,-48.1874789342438,89.65985639484832,53.10387351946561,-38.32420651598757,4.337882346213405,1.2996269246239038,0.0,0.0,2.1851087166747547,-1.7187787644884256,4.290996745373548,391
