JMW9912/AVATAR/install/dynamixel_control/share/dynamixel_control/data/csv/poppy/.data/GN_LM_HumanPoint_flip_Problem/1119_2030_Semina_Robot_joint_Human_Point_GN_LM.csv
theta1,theta2,theta3,theta4,theta5,theta6,theta7,theta8,theta9,theta10,theta11,theta12,frame
105.856615818226,84.1200698794594,6.79235704376282,-71.6611649926174,-98.7170852419378,85.0946242287922,-179.64394194099,-63.3015837988758,0,0,0,0,0
107.639393781081,84.5159850213125,6.12499561051814,-69.1783368907738,-100.531215280612,85.1770443302322,-178.324037644671,-60.8338460453925,0,0,0,0,0
107.542162841245,85.2722149714199,5.01861045589982,-67.3357295946548,-100.196757095214,85.7650198823745,-177.331315731027,-59.1237768377926,0,0,0,0,0
107.113945258203,85.0636024933881,4.72359897462454,-66.8565320116967,-99.5419265258752,85.4846468885283,-177.039249020688,-58.7149322242281,0,0,0,0,0
106.730773642285,84.9292237368493,4.68045697411273,-66.4932113661905,-99.1901238492434,85.3509917486057,-177.043070799638,-58.3954056851807,0,0,0,0,0
106.535581300301,84.9336363938365,4.47607762117781,-66.0685858972289,-99.0231961708591,85.3507656145217,-176.795105109651,-58.015275646437,0,0,0,0,0
106.334308579843,84.785191740849,4.54737505361953,-65.9722842717158,-98.6664765727238,85.2631341441543,-176.993404119625,-58.0347806264403,0,0,0,0,0
106.108188020744,84.6528867728794,4.55090866168908,-65.9562600860872,-98.3649012585736,85.1548008576218,-177.150983684687,-58.079312506847,0,0,0,0,0
105.940159566414,84.5843480278151,4.61403407024605,-66.047485483105,-98.0392144286895,85.1044576177353,-177.318792897685,-58.1490865466156,0,0,0,0,0
105.931985336475,84.5059789746483,4.58597424116172,-66.0548643188817,-97.8728242427995,85.1355879822219,-177.449688009946,-58.191023982598,0,0,0,0,0
105.748410830626,84.4263095547348,4.56717371076581,-66.1357443336409,-97.5407252743316,85.0701079643811,-177.733645133469,-58.4828236589859,0,0,0,0,0
105.567178550488,84.289115127249,4.52958388062552,-66.2875223623864,-97.2255554287468,84.9648547816643,-178.044460854449,-58.794383343169,0,0,0,0,0
105.386170913783,84.1656983054592,4.4278303914067,-66.3852744874143,-96.9099313099492,84.9675624794068,-178.199323184251,-59.0100404171495,0,0,0,0,0
105.322059372739,84.0184085706227,4.39918615776381,-66.5616016120478,-96.6084859518589,84.8631484388296,-178.417761162634,-59.3560166125128,0,0,0,0,0
105.419807461515,83.8748618847151,4.23215673821534,-66.7724490863859,-96.5801686225901,84.7019880071295,-178.530259590035,-59.6336513145778,0,0,0,0,0
105.329533400473,83.6869381029745,4.2407437709185,-66.9602513621775,-96.2125026612463,84.5796773557449,-178.683265863713,-59.91002131153,0,0,0,0,0
105.194108465829,83.5245261389752,4.23549466268827,-67.1324969218041,-95.9195707317676,84.4613002231739,-178.792891375614,-60.0562557500132,0,0,0,0,0
104.989191017158,83.3423963158806,4.17123957496648,-67.3939804737719,-95.7246307793244,84.3771146967126,-178.740481356649,-60.2015243568225,0,0,0,0,0
104.603002422089,83.1522763960003,4.29014510150057,-67.8184084503412,-95.3983159271433,84.2529831536685,-178.851398614684,-60.4793430237444,0,0,0,0,0
104.341985237366,82.9667979010526,4.40096076872433,-68.0694446284074,-95.2441427770838,84.175553310435,-179.00432615293,-60.5793495016211,0,0,0,0,0
103.989261149482,82.7115122792057,4.58020044318499,-68.6743492528817,-95.028332958074,84.0517879149562,-179.248361466296,-60.9573914669512,0,0,0,0,0
103.62802359006,82.548427210888,4.70071600870864,-69.115832466187,-94.7895311797134,83.9289787725011,-179.374949082873,-61.2025079157518,0,0,0,0,0
103.155372283898,82.3166170031117,4.98200838618763,-69.7363772507463,-94.4154249593465,83.7798575403641,-179.596386167308,-61.4943233723368,0,0,0,0,0
102.736943877556,82.0809236560173,5.31928395024767,-70.5871575352128,-94.0145846478325,83.6125879673379,-179.950242858172,-62.0761404614596,0,0,0,0,0
102.232067702612,81.7868804758451,5.70562493375627,-71.5260720343551,-93.6047956199948,83.4504021200863,179.806888802156,-62.4972441876066,0,0,0,0,0
100.957557282168,81.409211745401,6.44140392051099,-72.3060760851228,-92.3468716058776,83.1995642697449,179.038425399964,-63.0809978983999,0,0,0,0,0
100.128165412614,81.1335918731604,6.94709136666998,-72.918782664828,-91.5345584694019,83.0260366509613,178.558823196252,-63.441896700509,0,0,0,0,0
99.0899867954183,80.8427392396867,7.55318739311673,-73.7756653526054,-90.5710697937974,82.8514075222444,178.032908857574,-63.9852403443211,0,0,0,0,0
98.1896078013835,80.5825581955071,8.12123085016478,-74.587556106365,-89.6483214222673,82.6858645084902,177.425974359071,-64.5299288448696,0,0,0,0,0
96.7287225061386,80.2664981787995,9.01345913179944,-75.6207298103417,-88.1054829068147,82.5312272153455,176.489826881927,-65.1349331624319,0,0,0,0,0
94.914480509355,80.1042628141913,9.91208605614432,-76.287302530233,-86.2486950287574,82.5312238952772,175.434133028522,-65.6264092514196,0,0,0,0,0
94.3808016124277,79.9626597731894,10.3234883602409,-77.3147790670696,-85.3003956417276,82.391004903487,174.782957150655,-66.7052635149408,0,0,0,0,0
93.2234683388176,79.9059374805204,10.952729493533,-77.813474834133,-83.8868414581247,82.4335368051094,174.013002648871,-67.2662641659243,0,0,0,0,0
92.1419366947911,79.7976062556071,11.2543048955259,-77.7408500342473,-82.3133944518073,82.3544446076261,173.322336811521,-67.5628756297032,0,0,0,0,0
90.472132735296,79.6907025330721,11.933416691004,-77.9014761757246,-80.4401580250158,82.3859387288441,172.209453788582,-68.1153249924098,0,0,0,0,0
88.5251760824785,79.5132597070909,12.7688427568562,-77.3297514936118,-78.6032808856363,82.3744331354877,171.087689841301,-67.8711080424515,0,0,0,0,0
87.8038740886082,79.457518369746,13.1175875966104,-77.2545541838223,-77.9060730200075,82.4259274309088,170.509489482054,-67.7461748869026,0,0,0,0,0
86.1387681722429,79.4364595283903,13.8630298898597,-77.0165750613178,-76.4508879644862,82.3763546948985,169.76837291631,-67.5547193246103,0,0,0,0,0
85.4215778506383,79.0828382252064,14.2277165096724,-77.191363415023,-75.4921948954566,81.9884976264703,169.263163641556,-67.5153972488775,0,0,0,0,0
83.7033314282754,78.8071913065,14.8991391952973,-77.1915862128948,-73.7441770382646,81.7635370792211,168.338556273175,-67.6492503053344,0,0,0,0,0
82.861127166081,78.3132926406831,15.1573172549406,-78.1564152831714,-73.3851210689058,81.2216350842882,167.83406471946,-68.6502076287646,0,0,0,0,0
81.0702564836025,77.8816868191536,15.6326126914148,-78.186744485499,-71.9659033231072,80.861128161451,167.365367227619,-68.5668814446318,0,0,0,0,0
78.6499339227389,77.3879105400702,16.2551205562305,-77.8621873088758,-69.9995194486211,80.5062947095837,166.703211931098,-68.0493216167416,0,0,0,0,0
77.3638268102389,77.0360477512078,16.2885929651115,-78.3066160974352,-68.6832840207454,80.1371507215017,166.297145635407,-68.1412862200198,0,0,0,0,0
75.8424565244543,76.4109663581018,16.844490021597,-78.0859408799602,-66.9973605976977,79.6036738762889,165.488610456366,-67.6383701145602,0,0,0,0,0
74.7649330619888,75.7625390357161,17.2330251215703,-78.3047176696688,-65.8007713090996,79.0945608517289,164.945421805259,-67.551585109108,0,0,0,0,0
73.4844367768118,74.6833440957456,17.3371289739528,-78.037139624341,-64.9905916332546,78.0716823985942,164.586568574945,-67.6184609649263,0,0,0,0,0
71.772488712801,73.806957691298,17.8887654219182,-78.3290696869536,-63.247858760722,77.0183049265772,163.826151275921,-67.8885862718468,0,0,0,0,0
70.8168288857859,72.9562857943813,17.9322880747631,-78.6326844561564,-62.3331880777516,76.0155053880705,163.5098426152,-68.2962275144049,0,0,0,0,0
69.4866499341371,72.3071356275873,17.9999503725831,-79.277391438195,-61.4598457810931,75.1617494451409,163.213814172878,-69.5082048398665,0,0,0,0,0
67.3465635808589,71.4737667804581,18.1058164251797,-79.1839044413381,-59.9430314450407,74.3319034086281,162.887949103007,-69.6989609516468,0,0,0,0,0
66.5205282036227,71.0648187810285,17.9488326152386,-79.6221099012103,-59.0626226446992,73.9321854453294,163.145041800637,-69.7744243320116,0,0,0,0,0
66.4015445557308,70.4443794655468,17.8251419093029,-80.386890932296,-58.5937111395637,73.3722382805353,163.017609250761,-70.6058891849183,0,0,0,0,0
66.1633654124111,70.0074024000479,18.0816021741172,-80.7611873878296,-58.161839962431,72.8999751181904,163.006475475211,-70.2648900531373,0,0,0,0,0
63.9772609215657,69.4987859268828,18.9420191644667,-80.2115901546879,-55.9903470766444,72.5895227398798,162.384510246509,-69.1256258480647,0,0,0,0,0
61.9941392277872,68.6177723716784,19.7925217020691,-80.1147668936993,-53.949228477645,71.9593903920175,161.660192310082,-68.4234321887257,0,0,0,0,0
60.1400366848714,68.0035729141477,20.8568493389423,-78.6725715162633,-51.8450860281464,71.509311604985,160.504548559408,-67.0215855975394,0,0,0,0,0
58.5226841101573,66.4666110635626,22.3578920830072,-78.258046922123,-50.1579978028502,70.3655328876635,158.746179965102,-66.2213699115965,0,0,0,0,0
56.0066757999612,64.9267398207031,24.8088726059627,-77.3113605387777,-47.8281777731448,69.2242500436466,155.858534109536,-65.2955948679799,0,0,0,0,0
54.3285190623253,62.1049263878196,26.7030208925213,-78.0006881100206,-46.6557962682044,66.418020618929,153.520686813495,-66.2182800754418,0,0,0,0,0
52.8769302398456,59.4152400409173,29.4947980461199,-78.7445677200478,-45.6430559490306,63.9208369175217,150.390915261613,-66.8653241124753,0,0,0,0,0
50.8173216212995,57.4162121753112,32.1230536605763,-79.37494728976,-43.3279760951635,62.3581279942272,147.348921817912,-67.2298557831792,0,0,0,0,0
47.2120550770479,55.3602238526815,35.2614879224303,-78.8584494685948,-40.2840143612845,60.8592165216172,144.312650941764,-66.3421693801803,0,0,0,0,0
43.8397383636187,54.6150317099901,37.3124634940335,-76.8151445088705,-37.2723771441891,60.202076406021,142.459552093571,-64.596460469558,0,0,0,0,0
40.1871480816035,54.1231104856456,39.9062377500942,-73.9775197496796,-33.3996998142022,59.9643474883488,139.421249045484,-61.9829959148818,0,0,0,0,0
35.3869883742173,54.1561461996832,43.3393159797565,-71.2394739248612,-28.893757889063,59.768718010237,135.42292819044,-59.7616682750752,0,0,0,0,0
31.8210489374788,53.4138133964137,46.6081747759407,-69.7025748321727,-25.3618940235795,58.8887886512826,131.164130519017,-57.83123880866,0,0,0,0,0
28.455785498292,53.6274944529847,50.2598995429204,-67.4349396466146,-21.8475879774307,58.9269493758147,126.241274278247,-55.4846199831865,0,0,0,0,0
23.0304843439663,55.4098948249991,55.2065544365765,-63.2073544393565,-16.6581701485364,60.9613410423102,119.919693708055,-50.4517310873418,0,0,0,0,0
20.4657603140162,56.2019998407898,58.2014341802644,-61.1827998653266,-13.9933898220148,62.1134121713,115.44596457738,-47.6420230815585,0,0,0,0,0
17.2013086954245,57.9305747107,61.0061119980131,-56.5677231343042,-10.5093840103955,64.1734527100935,110.311295189021,-42.8297968084484,0,0,0,0,0
14.5416141072073,59.1153867905779,62.2393572392085,-52.7187449311082,-7.60220129988602,65.5916361228732,106.49293234526,-38.7840095228892,0,0,0,0,0
12.8606386721056,60.3906248819624,62.9411536249061,-49.0398799096878,-5.3148147641723,66.7279592890659,102.188082302072,-35.1014821570537,0,0,0,0,0
11.6715894857074,62.6229735740858,61.9230402610333,-46.0256116742835,-3.15575162060645,68.6213943953487,98.4972106715168,-31.2072883465831,0,0,0,0,0
10.5370841940832,64.6065118094643,61.0482359822779,-43.0650511927976,-0.948900945985088,70.5986315673564,91.7741487248981,-27.1057899314252,0,0,0,0,0
8.81335533740719,66.0201058789817,61.4458476072066,-40.5455620281853,0.079671013518464,71.8190920535808,91.377796056079,-25.7765656703368,0,0,0,0,0
5.66464385646793,68.2847208700668,63.8163531809848,-35.3741030666313,2.79723220933408,74.7752491405967,79.2901679546897,-20.6529611843501,0,0,0,0,0
2.24431402489876,69.5976022108689,67.6333269246867,-30.3724847346897,4.84507922954731,77.444858766905,61.9906928776126,-15.1960158815705,0,0,0,0,0
-0.822266975701268,70.9272617416035,71.7935071689859,-26.3334396893317,5.92750333343679,79.5110729615923,45.9134147033365,-10.9959532665143,0,0,0,0,0
-3.7914282378207,72.3323636177817,76.7822464522205,-23.0359854991723,6.97522565513032,80.8023676052903,34.5299067407046,-8.88053838923074,0,0,0,0,0
-6.62000733017277,73.6985906961302,83.119710425746,-20.1086622111002,8.34630623167459,81.5442410855401,28.0323916812173,-8.27085519417702,0,0,0,0,0
-9.00462998392948,74.7344520326359,88.9552001263975,-18.6880588708686,9.68502699940132,82.1624595362265,23.7999820837857,-8.15853778577187,0,0,0,0,0
-11.1333564856055,75.682904059401,95.0515359099313,-17.8319925533694,11.0386166512839,82.6426169597837,19.9170932700651,-8.30731670053561,0,0,0,0,0
-12.7096419955562,76.3246003946787,100.488172917588,-17.4907848218058,11.9799127551403,82.9095007789177,17.206154018425,-8.58786081535993,0,0,0,0,0
-13.5668949142501,77.0406407316807,104.537881430396,-17.2310734341953,12.4881384464503,83.2392824045091,14.9388496677618,-8.90146329195133,0,0,0,0,0
-14.2960004940962,77.5809778079864,108.314646831388,-17.1639223193979,12.8550419623821,83.4744327030363,13.0841336460418,-9.26764353534713,0,0,0,0,0
-14.6239543838513,77.8755148379703,110.788387052528,-17.2080746335892,13.0057601386485,83.5368030583384,11.8263867896143,-9.60988522834106,0,0,0,0,0
-14.8824064162102,78.0600472923745,112.995783910306,-17.1745515551281,13.0385135473532,83.5632701137074,10.9841561972574,-9.81293103647778,0,0,0,0,0
-14.8768272059518,78.1379237194141,114.206499481564,-17.2408028922005,12.9695827467181,83.547430076808,10.7818608074863,-9.96955744636588,0,0,0,0,0
-14.6585180746978,78.139140939908,113.711230600353,-17.292568203299,12.893334785115,83.522059471964,10.5484176028019,-10.0794794909417,0,0,0,0,0
-14.5763327912293,78.5252381037611,116.204447149661,-17.2308180653877,12.6322984861397,83.7905970499105,9.44088671345656,-10.2800825923019,0,0,0,0,0
-14.0704069719456,78.4170530797968,114.768237745516,-17.3530116583895,12.307866427316,83.8334374658396,10.0631720797878,-10.2742929603176,0,0,0,0,0
-13.6128940868946,78.4553143773311,113.59089571299,-17.4178645654461,12.0878661741963,83.9382862843737,10.960571412054,-10.2586770635849,0,0,0,0,0
-13.453394121384,78.4824815603025,113.604001472284,-17.5581798709489,12.0044796274628,83.9291337621714,11.1331307365914,-10.3597408972578,0,0,0,0,0
-13.3168194443686,78.3986693379717,113.12396423211,-17.6308425229795,11.945039748148,83.8865900879466,11.6375449373994,-10.3997700312045,0,0,0,0,0
-13.3230935410124,78.2561635334719,112.997487615267,-17.774423174949,11.9913687099964,83.7949052227247,12.3857535541101,-10.3887466928938,0,0,0,0,0
-13.1041154403933,78.1677168772862,112.612803288725,-17.8337324311026,11.8275145984834,83.7699449713255,12.7928353489906,-10.4096971921723,0,0,0,0,0
-12.9489110487256,78.2129549733529,112.552143012213,-17.8672537120109,11.7692771194641,83.8252747118694,12.69290442647,-10.4714742649009,0,0,0,0,0
-12.6292145684906,78.0423946358174,111.175585925019,-17.891872647658,11.5784729805519,83.7529927618528,13.4469328390682,-10.4359785175662,0,0,0,0,0
-12.3597317202396,77.9111553347921,110.618630078826,-17.9222786366705,11.2603942408037,83.7996480648073,13.9222928910771,-10.3949632352662,0,0,0,0,0
-11.7255443295528,77.89989526714,108.331558073557,-17.8441073879063,10.9122308537999,83.8753481955814,14.4008743242784,-10.2935719942941,0,0,0,0,0
-11.0616614565536,77.7389503898957,106.042663720638,-17.8997139688611,10.4473082216947,83.9115645885017,14.9427617926187,-10.2031867327793,0,0,0,0,0
-9.9166794035113,77.4137888017689,101.447849749761,-18.1372111258595,9.93583923480378,83.8116330726552,16.7081922588241,-10.0330136335413,0,0,0,0,0
-9.14460485505407,77.2727558268643,99.8818877703149,-18.2002100999277,9.39198855500229,83.7660101810925,17.3214605587416,-10.0386119094742,0,0,0,0,0
-7.90296696973331,76.8508513131719,95.648270855228,-18.745236185511,8.74215308464204,83.630107587533,19.6862167307205,-9.87614673743727,0,0,0,0,0
-6.7261735166274,76.6428174562506,92.1139997234117,-19.2192713362583,8.21046200476417,83.5419801253776,21.051369509739,-9.90596771190636,0,0,0,0,0
-5.68831313073878,76.3884366785455,89.4668382237583,-19.8387220058946,7.56995891971656,83.4635924524296,23.0416722219838,-9.86757506953308,0,0,0,0,0
-4.6724998428349,76.1580713837586,87.0250016434059,-20.4967061565095,7.08513887531126,83.3255356325631,23.5710834621187,-10.0049044193167,0,0,0,0,0
-3.57337031360595,75.7750058752317,84.856659531134,-21.1163113528839,6.36590863691254,83.1487211591262,24.3342610439575,-10.0143296720356,0,0,0,0,0
-2.1464740673386,75.4588753841051,82.3956050345042,-21.7800592230592,5.5519723803535,82.8118126450416,24.9665144735102,-10.2727150091705,0,0,0,0,0
-0.975504964873721,74.6652142459361,80.6509109574583,-23.2451628269096,4.87960083540656,82.2427147232378,27.8894873591822,-10.5484657656673,0,0,0,0,0
-0.605178132079288,74.2219435180261,81.3772042664434,-23.0793153293587,4.3700607755743,81.9756603211332,28.8570425236732,-10.6884693198691,0,0,0,0,0
0.589496877099577,72.9535567222427,80.2953624083978,-24.8434464580934,3.60512802806284,81.1400749745523,31.8726624237849,-11.5332933783546,0,0,0,0,0
1.30607398828289,71.9096489700045,81.2538431010345,-25.7369864375141,2.77505487330791,80.43789930125,32.1007922994789,-12.314328906694,0,0,0,0,0
2.05415109556503,70.6671108222103,82.7783969060137,-26.8484529568677,2.08517809372097,79.4771720541394,35.4515799061025,-13.9226107092785,0,0,0,0,0
3.55015181823001,68.6233004551937,81.7747330870028,-29.8155324386623,1.28035864247749,77.6341407481206,43.1516148479561,-16.5275749210134,0,0,0,0,0
5.05034987646587,66.6571380384661,81.0551089253255,-32.5670000769396,0.282410643137155,75.6013337398916,50.1214794724938,-19.4317379550775,0,0,0,0,0
6.47782871487067,65.0150576895155,80.0307475459471,-34.8880880785099,-0.736882079645852,73.690673648903,57.3111978135678,-22.1988241684229,0,0,0,0,0
7.97225690809194,63.404613326323,78.9111815550365,-36.73476382488,-1.9736405017893,71.8153112721757,61.8738539521945,-24.3237329283634,0,0,0,0,0
10.151872062225,61.3260911886699,76.3000599532774,-39.2477170444887,-3.87865701025748,68.8659537826933,73.0562062067634,-28.1089727207306,0,0,0,0,0
12.7906703230763,60.1247096802832,73.457537046544,-40.8019700629095,-6.387216451722,67.0538482364766,80.4386817563498,-30.5880834084491,0,0,0,0,0
16.3248457323853,58.6964982490669,69.3121452973944,-43.2783348893107,-9.5309478499023,65.1565146537989,88.4527132874192,-33.3255763989501,0,0,0,0,0
20.3858118349342,57.413715020451,64.6560378972198,-45.8928748431383,-13.1204586676563,63.3771872801914,96.5896232019695,-36.0431796790005,0,0,0,0,0
23.5757109018783,57.1367421462322,60.7378046520418,-47.4678024167758,-16.0405924526658,62.7643312171143,103.200915312206,-37.7126193813723,0,0,0,0,0
27.8796272527522,56.638569797347,56.3683823720913,-49.7687630649476,-19.8835674073075,61.8131824591402,110.085745678854,-40.0386149389641,0,0,0,0,0
31.2160783844552,56.521536063969,53.2194356597954,-51.9347272836118,-23.155292539395,61.574197304441,115.969531555778,-42.1196755232297,0,0,0,0,0
33.9801906657823,57.0115544642227,50.6943051322016,-52.5734578287881,-25.8760806240691,61.747154844977,119.482649332439,-42.7857079287636,0,0,0,0,0
36.7918096731368,57.6010073031208,48.1033123385643,-53.5668831254574,-28.6362379642412,62.1078762848909,123.468068886568,-43.8073691838001,0,0,0,0,0
40.1900368953547,58.2129758460459,45.1218821683536,-55.3189232501874,-32.1485536747365,62.6259517034472,128.461246936407,-45.4619079541071,0,0,0,0,0
42.6353051871783,59.5448735180216,42.7559874759612,-55.6054455533982,-34.3885792057046,63.865343713172,131.626589996299,-45.3902764939356,0,0,0,0,0
45.0151921474242,60.6339073621115,40.4335983650229,-56.4133406192204,-36.6725179562505,64.8582215970652,135.210870649891,-46.4052948415721,0,0,0,0,0
47.0839234076839,61.7217175384728,37.9997436997941,-57.0033732796904,-38.6276446907355,65.7292442415387,138.402911309746,-47.1569539453979,0,0,0,0,0
49.4513741145819,62.8991672858936,35.2098207898599,-57.4565034696395,-40.7540710789988,66.5813048108245,141.763021877169,-47.5966753080452,0,0,0,0,0
51.1801147766832,63.6017838783485,33.1370675537167,-58.2591388557522,-42.5540660941227,67.1400063324346,144.534585257115,-48.4695935849978,0,0,0,0,0
53.502036869302,64.2701053396818,30.8765589889167,-59.281968536685,-44.6692150464609,67.688344668527,147.289269196079,-49.551442659831,0,0,0,0,0
55.5922819286874,65.1106168263658,28.5811972372203,-59.4582208713616,-46.9211658513529,68.4260220510461,149.920739949468,-50.5202228326657,0,0,0,0,0
57.5353212394108,66.03212822582,26.7414369479752,-59.6489938659964,-48.7967395611338,69.2823641655246,152.030471459719,-50.7617861824906,0,0,0,0,0
58.7526831778738,66.6186371876377,25.759333466214,-60.0322973911069,-50.2703820328827,69.7497717926268,153.139025473966,-51.6812919110631,0,0,0,0,0
60.4799056142452,67.4494471541782,24.5370612202173,-60.4993817495821,-52.0583937999811,70.3212614967941,154.268094705023,-52.465984886722,0,0,0,0,0
61.8751326619526,68.4508729197329,23.4346811896463,-60.7828197323967,-53.4174667092532,71.1325461030501,155.417409226683,-52.5053263854788,0,0,0,0,0
62.9802343583432,69.550599295906,22.5297404493668,-60.7213412677012,-54.7982020382895,71.9325301442042,156.77067504638,-52.3493228755098,0,0,0,0,0
64.3890534822144,70.2580974083872,21.8517097824427,-60.7659572172912,-56.5362140665816,72.4706018600654,158.061585747869,-52.3207394410018,0,0,0,0,0
65.7391183913459,70.8656398316746,21.3037173410177,-61.0259954455016,-58.306626583611,73.0235573817584,159.40143001905,-52.4559467194252,0,0,0,0,0
67.755297946683,71.2159026911997,20.4421399959606,-61.6279593803546,-60.2502041724898,73.3794572284363,160.825046463599,-52.7582232096642,0,0,0,0,0
69.9141290616805,72.0542804233774,19.0671551961759,-61.4363451394318,-62.4409591505641,74.214049209458,162.607082966478,-52.6508302865218,0,0,0,0,0
71.4269827591443,72.8613936917968,17.8791435188183,-60.9944754829792,-63.972997294093,74.819198048881,163.824859242465,-52.5095263562641,0,0,0,0,0
72.9832192734312,73.416870102737,16.6238999237361,-60.6653892840611,-65.2968741909816,75.2933075479257,164.959774913641,-52.1992226011494,0,0,0,0,0
75.1547215607308,73.9876863478162,15.1051885365945,-60.6399084450365,-67.6379746760975,75.93795182497,166.427664720749,-52.4789421983691,0,0,0,0,0
76.3619251183203,74.2426587884362,14.5507913977628,-60.7947482918999,-69.1273425594149,76.2961893430912,166.903532848876,-52.7868920767042,0,0,0,0,0
77.8341936499622,74.8216472836966,13.7850772395583,-61.1423808856395,-70.8088759620021,76.8814762404147,167.555747050695,-53.2589263191203,0,0,0,0,0
79.0910543810999,75.2152220251378,13.2311458299654,-61.3901022270667,-72.0758122663956,77.3501500779296,168.399462195869,-53.2493191301049,0,0,0,0,0
80.9717170020165,75.6606306449191,12.017342720607,-61.5780990656209,-74.0266495676523,77.7238010326832,169.862118766812,-53.4448002830366,0,0,0,0,0
82.7081361799958,76.2380153559923,10.959578007984,-61.5405645106571,-75.7028397207404,78.2173131354422,171.434810927604,-53.3264836994909,0,0,0,0,0
84.2231426836607,76.8633547569693,9.79818469399834,-61.5173974264671,-77.301727435467,78.9315526752114,173.325534886287,-52.8061378835144,0,0,0,0,0
85.722582400917,77.6532707528421,8.55331290629516,-60.9249631014491,-78.7436461931001,79.5113929137744,174.769279931287,-52.3418891836709,0,0,0,0,0
86.9310248163969,78.4251895960199,7.61140663202804,-60.4313537665763,-79.7307891025719,80.1733167233865,175.7605879639,-52.0213982783217,0,0,0,0,0
88.0215912493617,79.0178117807017,6.88753236810953,-60.0485586400018,-80.6424021284537,80.6690256353653,176.772449482058,-51.5347396712903,0,0,0,0,0
89.2629953942417,79.6765054138136,6.23064182862549,-59.5739121166073,-81.5919638890609,81.1704438070177,177.448051385273,-51.13406562632,0,0,0,0,0
90.1272336664002,80.1897490518585,5.69465113488474,-59.0366034817091,-82.2702389054002,81.5636361745369,177.912182134142,-50.7920163072106,0,0,0,0,0
90.5930874712609,80.7270717546319,5.60242416214157,-58.8754831524216,-82.4447688723872,81.9093283084321,177.743122053663,-50.7566968542121,0,0,0,0,0
91.278938531614,81.2915306077303,5.2664640584855,-58.4694593546802,-82.9484575720602,82.332526980517,178.053261283816,-50.4716325740357,0,0,0,0,0
92.0976695059125,81.9389309683139,4.89201161769773,-58.133186422073,-83.6665387494318,82.7863954637806,178.508253593116,-50.2953041945579,0,0,0,0,0
93.0645347704103,82.4363876946761,4.60642046342161,-57.9157284357173,-84.5154301532762,83.1485836217016,178.872662023604,-50.1642428132911,0,0,0,0,0
93.8788913018447,83.0033042532593,4.02709351522014,-57.4569878595753,-85.3296884993128,83.6254888277854,179.848851925647,-49.7350401179635,0,0,0,0,0
94.7258509180701,83.3945460105913,3.80235849795696,-57.5121591517325,-86.2873381789585,83.9119792485459,-179.624208345474,-49.6903526425897,0,0,0,0,0
95.3098647555499,83.8092635775429,3.51505613517759,-57.1111551740749,-86.4371799854023,84.3267360078898,-179.107472595347,-49.2242484806367,0,0,0,0,0
95.7215123721762,84.0088594108529,3.49180331945038,-57.0365178218067,-86.609157888322,84.6662160904791,-178.65927056943,-48.8609583640503,0,0,0,0,0
96.1055352565337,84.2291629646317,3.37890044938774,-56.7434617267833,-86.9992243955632,85.0350310697206,-178.373413985692,-48.5743006126337,0,0,0,0,0
96.5937300054415,84.3251350797178,3.28144064317161,-56.7090396353632,-87.5765154540001,85.3387929801794,-178.08438269986,-48.5411242667631,0,0,0,0,0
96.8205827057036,84.3191766451978,3.47261268173972,-56.6176625315986,-87.9201880269069,85.536812964369,-178.375922018978,-48.5280173615104,0,0,0,0,0
96.7504777420005,84.3045851100998,3.57046729204731,-56.3965146549725,-87.9343720907553,85.7215092746669,-178.495885449784,-48.3676989224936,0,0,0,0,0
96.8698077578864,84.215729593516,3.59522999826621,-56.3402776657781,-88.2564782865924,85.9284758734602,-178.641943611719,-48.359336838316,0,0,0,0,0
96.9560713700593,84.1870942405098,3.59469686473875,-56.2078342035792,-88.5586114982307,86.0426300794742,-178.714811182008,-48.271641229864,0,0,0,0,0
97.119391555922,84.2025069580616,3.48234454773788,-56.0269432278157,-88.9721652315029,86.2022547528565,-178.437064694861,-48.0486651363024,0,0,0,0,0
97.5368787444562,84.2710670895428,3.1660141909818,-55.9405091535978,-89.546225191196,86.3889781558943,-178.063090992479,-47.8565638944236,0,0,0,0,0
97.666464232315,84.2913913653598,3.20255235804444,-55.858390073499,-89.9401119828418,86.3959085938319,-177.965039397717,-47.8295476268608,0,0,0,0,0
97.83281075491,84.2839017893675,3.19042154304992,-55.8381946603084,-90.2180963353655,86.40315380385,-177.781098272648,-47.8256368489452,0,0,0,0,0
98.5308415306478,84.3605721754795,2.93143545739062,-55.8136416272491,-90.8793868104019,86.3869562239077,-177.453659334765,-47.8480621260936,0,0,0,0,0
98.8345400361125,84.4379802541378,2.77929687860379,-55.6759521230916,-91.1651749141002,86.3812717075784,-177.099827614378,-47.7822539298764,0,0,0,0,0
99.0454062779838,84.6689865746262,2.52514638001,-55.4693383534806,-91.4606868387722,86.4085517889224,-176.665147347316,-47.6845033540251,0,0,0,0,0
99.3176545882286,84.9773994443749,2.24599641514345,-55.3335674566721,-91.7599971099963,86.5087430365728,-176.270744593832,-47.657355233746,0,0,0,0,0
99.9373052681391,85.4279300700119,1.68815861220364,-54.908190180799,-92.5395743508081,86.667373035877,-175.433678969765,-47.3874831728351,0,0,0,0,0
100.51294367533,85.884709647251,1.32393576349588,-54.6543906966748,-93.1611909415358,86.8730462468858,-174.687535044346,-47.223191209715,0,0,0,0,0
100.86965023906,86.4155882199641,0.747987828757175,-54.2302356187073,-93.5502890257944,87.2629244510748,-173.889241790533,-46.7407662192422,0,0,0,0,0
101.025330142146,86.8733728214696,0.497372369516739,-53.9597160170183,-93.7681619656981,87.6285883257204,-173.661700832057,-46.5891093714399,0,0,0,0,0
101.230259364914,87.3403342718134,0.232844991430255,-53.6206607541902,-93.9160006022111,88.050570005854,-173.672681094792,-46.3922295457978,0,0,0,0,0
101.300044933464,87.8348436736774,0.0679084546612785,-53.4353517334937,-93.8880685444643,88.4007814304281,-173.832544052962,-46.2042239020207,0,0,0,0,0
101.399671360693,88.0764032015129,0.205084958246061,-53.4684331978912,-93.8093946333579,88.6507886269871,-174.073206051431,-46.1233261227664,0,0,0,0,0
101.244147198052,88.2333123250683,0.563977945073617,-53.5868815899118,-93.5134716360207,88.8794774031958,-174.423223635517,-46.1674915538433,0,0,0,0,0
101.200551991783,88.2996033505644,0.866208137178916,-53.6365932787945,-93.4761996024278,88.9160595203139,-174.450508548929,-46.104830179562,0,0,0,0,0
101.188842209729,88.3169407103448,0.938050239790698,-53.6640750043671,-93.4653406332907,88.9294819220804,-174.362642216267,-46.1530690761751,0,0,0,0,0
101.31555429134,88.3655880227096,0.895678267704739,-53.6252538562302,-93.5661135310725,88.9021144584827,-174.3059992297,-46.1448398910868,0,0,0,0,0
101.382850845622,88.3688229466121,0.824152142366444,-53.6392304705306,-93.5429677148336,88.9043843169702,-174.149499458286,-46.1196700834929,0,0,0,0,0
101.582219638971,88.3743899340465,0.538586111355301,-53.5889577576227,-93.7495485179358,88.8653018651723,-173.884957511326,-46.0801852820323,0,0,0,0,0
101.657605657673,88.3282758187905,0.443630117066022,-53.6236110382101,-93.8074827727541,88.7454465989423,-173.764911154465,-46.1365820044803,0,0,0,0,0
101.880158972737,88.3355616895171,0.134087261499133,-53.473926581216,-93.9872991762021,88.7065220629714,-173.369213974673,-46.0465267754639,0,0,0,0,0
101.995306432125,88.3727141425605,-0.0388967358766479,-53.4467612489182,-94.0353463553679,88.7118941163448,-173.213003185695,-46.0436688941561,0,0,0,0,0
102.099446717811,88.3638550504538,-0.167671597068932,-53.4235637290852,-94.0697243526171,88.6797433996192,-173.023148372405,-46.0533887706427,0,0,0,0,0
102.327481236138,88.3212892485085,-0.42733499300158,-53.3540124719879,-94.3196788718753,88.5786911981809,-172.659838668497,-46.0645323253499,0,0,0,0,0
102.173375091927,88.2312447736182,-0.261184976349284,-53.5365324538898,-94.3632798902319,88.5002719902261,-172.760757480155,-46.1992373722688,0,0,0,0,0
102.147053703789,88.0876437521792,-0.200453883567832,-53.6222978010812,-94.3312665935736,88.3313152348471,-172.896833634062,-46.3556972126789,0,0,0,0,0
102.382911924206,87.8644976872205,-0.28597796815842,-53.8108899955512,-94.4836817480586,88.115106961232,-172.967292713182,-46.5987666385803,0,0,0,0,0
102.610921142895,87.7405591741259,-0.480833179488968,-53.8225142047376,-94.7375066050535,87.8918836535061,-172.658178118474,-46.5967262339655,0,0,0,0,0
102.78303957827,87.5660378929944,-0.778915918907472,-53.9173256605138,-94.9959289825299,87.6256438364713,-172.457763275636,-46.7788339689294,0,0,0,0,0
103.097019825919,87.1817565744799,-0.996362901856173,-54.0917690443727,-95.1187384261288,87.2897924345016,-172.297932373381,-46.9105639531296,0,0,0,0,0
103.371419724958,86.6898389954778,-1.18584769509155,-54.4863101621413,-95.1613487850196,86.9705833337446,-172.053089751141,-47.0537967425888,0,0,0,0,0
103.448224684749,86.1495232062861,-1.43244247886395,-54.8246973972427,-95.2053061099263,86.4383206241452,-171.950477552031,-47.3878593953695,0,0,0,0,0
103.495378515029,85.2416622962225,-1.83147615485609,-55.3357953022998,-95.2018575062752,85.7123194087738,-171.481616122773,-47.6711010939884,0,0,0,0,0
103.557452286308,84.3154800418768,-2.51508176010648,-55.7948046955732,-95.2191928733752,84.9380414029073,-171.0666452367,-48.0880757222836,0,0,0,0,0
103.679784151652,83.0059237847096,-3.24547978196446,-56.2554375334691,-95.184367306824,83.9114815650672,-170.487591596713,-48.3892145330258,0,0,0,0,0
103.667226946454,81.3018682670765,-3.75646233158841,-56.9286493183776,-94.9769098805548,82.5772362459194,-170.244898629298,-48.9082305929325,0,0,0,0,0
103.767851327463,79.4321361766569,-4.71796087385098,-57.1982096941272,-95.1017510877883,81.2832453698124,-169.690408078324,-49.1272329237711,0,0,0,0,0
103.790974437171,77.4002597081309,-5.48239979057027,-57.6417783470297,-95.1664108465011,79.6590947405138,-169.386295497164,-49.4385072236099,0,0,0,0,0
103.580749095202,75.2004610203135,-5.99964951990043,-58.0180663117979,-95.0637060458921,77.989958004018,-169.128904100579,-49.6452520257985,0,0,0,0,0
103.558714404597,73.0405893751229,-6.7767731053776,-58.1031873403234,-94.9286443794452,76.0682093374758,-168.875512328344,-50.0620436610798,0,0,0,0,0
103.804032997007,71.1409233770909,-7.4385345088985,-58.321636107056,-95.0130380541808,74.3175942983746,-168.545052600645,-50.3524226914848,0,0,0,0,0
103.839156727874,69.4778900754481,-7.72062075922341,-58.517680393547,-94.8678696780963,72.7889337508682,-168.392060226372,-50.5551649379979,0,0,0,0,0
104.049375797375,67.9045181298848,-7.94538819356606,-59.0024169620841,-94.7029199326107,71.1208684083573,-168.454028536245,-50.9932068730475,0,0,0,0,0
104.638514763311,66.4556655501511,-8.68217341574666,-59.0114501809826,-95.0235004963725,69.429400269207,-168.031833802032,-51.0198576241361,0,0,0,0,0
104.693477101422,64.9192261035148,-9.01180355963311,-59.168781962579,-94.7421509217173,67.7750485477361,-168.005811725559,-51.0630808359783,0,0,0,0,0
104.39374180474,63.428406494794,-9.34267986166628,-59.2692445747811,-94.142237116921,66.062908330206,-168.116453917151,-51.2276524543109,0,0,0,0,0
104.668250333492,61.7855153199986,-9.78544205364614,-59.3745837248045,-94.0490687419029,64.1202355094407,-168.143389430009,-51.4183822894015,0,0,0,0,0
104.832859207571,59.9104790881257,-10.1708731624188,-58.723056720151,-93.7866313004083,62.0738383728727,-168.274608282152,-50.749434778997,0,0,0,0,0
105.328336431386,57.8327893463953,-10.7094341658352,-58.3175335599506,-93.8365651800691,59.7149940016203,-168.491115568354,-50.4345504743051,0,0,0,0,0
105.060167799321,55.6331180526542,-10.746318223141,-57.8149355725006,-93.6478247290436,57.4998725603732,-169.013927674859,-50.123367916774,0,0,0,0,0
105.357814946382,53.428273284964,-10.608220322327,-57.2098896776504,-93.9668437180912,55.481556524726,-169.605933107188,-49.660015703243,0,0,0,0,0
105.872647337952,51.0462383390364,-10.4687757010971,-56.4509233438339,-94.4759987465038,53.3217529846469,-170.071817591298,-49.1645944388883,0,0,0,0,0
106.041347867372,48.3267090803426,-9.92071880285329,-55.9983621776434,-94.4797025229171,50.8894614222172,-171.344937838692,-48.6969481957719,0,0,0,0,0
107.225014866432,45.8688215619539,-10.2385795305819,-55.214766595843,-95.3122290609383,48.5036124620458,-171.717062804607,-48.1904070763499,0,0,0,0,0
108.352394510606,43.6528322278238,-10.6743846650252,-54.6491827760739,-95.831124038556,46.2068790353496,-172.28354634788,-47.8453913381181,0,0,0,0,0
108.987030830499,41.2671337895222,-10.5966844967967,-54.1443745574307,-95.6880926005692,43.9483795478151,-173.63536601579,-47.4723838945526,0,0,0,0,0
109.871569440824,38.9257542159288,-10.6520489124732,-53.4852487292588,-95.9700473410746,41.6081369698327,-174.684264105614,-46.9125223660088,0,0,0,0,0
111.050940931857,36.6561005188255,-10.9904522783662,-52.9070555689951,-96.2948345867056,39.2542309443936,-175.639811942087,-46.4298170851509,0,0,0,0,0
112.583633138698,34.4793131003844,-11.0565809199322,-51.7837482819115,-97.1430095589423,36.9631278789555,-176.696494819826,-45.4095884713128,0,0,0,0,0
114.299477294678,32.1564616303667,-11.5674902565144,-50.8788330828767,-97.6535884945531,34.4348867866731,-177.950857566197,-44.6460401250033,0,0,0,0,0
115.913205081337,29.6913732899551,-11.7029327063194,-49.7587988772128,-98.0166011287156,31.8028137694511,179.877565672289,-43.6264792601579,0,0,0,0,0
117.90085620377,27.4819523207154,-12.0016149483498,-48.5402655768523,-98.7211139291255,29.3184621037707,177.974700100047,-42.5337236385887,0,0,0,0,0
120.157847850943,25.6191695770856,-12.8781824222288,-47.6018201132778,-99.5807891830481,27.2002904230743,177.028383345882,-41.9015318283832,0,0,0,0,0
123.090232054935,23.6176674601828,-13.7575694630915,-46.3447286016215,-100.372327818333,24.5614224501997,174.984039330654,-40.8103686437215,0,0,0,0,0
126.878865279962,21.9965144798311,-16.2627350032961,-45.3418308991977,-102.311547903097,22.3837210856264,174.703091048243,-39.8418298688505,0,0,0,0,0
131.425378489289,20.8888942818298,-20.2596784658555,-44.708281342863,-105.017959658924,20.4819508592336,176.145321601779,-39.0741787147024,0,0,0,0,0
136.578775507596,19.8320647540659,-24.3495419374111,-43.6583553728316,-107.724071467981,18.3939690367645,177.148741392204,-38.0672557220828,0,0,0,0,0
141.81325780093,18.9950531523546,-29.7898762984502,-43.1314229323946,-110.495032462087,16.3074598941456,178.859504796359,-37.3119428344919,0,0,0,0,0
147.26795825287,17.4963896493723,-34.8473468421587,-42.3730227313729,-111.785713899541,13.4190671356319,177.95595163306,-36.3032016449058,0,0,0,0,0
154.043392514937,16.6404222213965,-40.6176435393468,-41.4119132425699,-115.676116552622,11.0639180128531,179.367528612421,-34.9475741821318,0,0,0,0,0
160.80968893994,16.2602490000068,-46.6725717367166,-40.652059991649,-121.023506653382,9.3156959267769,-176.99067192419,-33.8537176820149,0,0,0,0,0
167.188538282096,16.0684567599854,-52.9025308893999,-40.2122905920318,-127.795224498317,8.06517102748097,-171.299622756067,-32.9940003498729,0,0,0,0,0
173.889787271342,15.8803871363574,-57.5003195548875,-39.2732309597106,-137.282138823979,7.36350575522394,-163.486188522389,-32.170626076551,0,0,0,0,0
-179.541642437697,16.3669839789742,-62.9252119417546,-38.7430334907762,-151.310836506758,7.72668983554212,-149.452349804813,-31.785443247348,0,0,0,0,0
-172.958782209081,17.1345368898328,-68.6923677840922,-38.3607901979857,-165.666453077285,8.16329330895272,-134.936922927173,-31.4563927425758,0,0,0,0,0
-166.448353403808,18.068988393863,-74.7999209748048,-38.0930732897495,-179.358645127235,8.74743297065803,-120.898354959402,-31.3057894822862,0,0,0,0,0
-160.939988420518,19.1339253303558,-79.1613911795879,-37.5113543753204,169.563823368517,9.928046783735,-110.274342008991,-30.691019285455,0,0,0,0,0
-155.842730267017,20.257232307951,-83.5211737552985,-37.0069595300235,159.634891170582,11.1837814816225,-100.440605643946,-30.286502837145,0,0,0,0,0
-151.55586967068,21.2739226124351,-87.2561329201399,-36.5378674734616,152.303722336047,12.5777798246663,-93.6116401450296,-29.7607072544777,0,0,0,0,0
-147.850012721867,22.4134257143281,-90.0673143513728,-35.9322197809803,146.651350640872,14.0191031694072,-88.8092100945546,-29.1499084751106,0,0,0,0,0
-144.683507974891,23.6102452947804,-93.760274118987,-35.4743362430492,141.504945388731,15.5782253734878,-83.5783278575902,-28.6647384231986,0,0,0,0,0
-141.475991594315,24.8151245888476,-96.4759173135831,-34.8861734640121,137.169983338305,17.1133607116603,-80.0225918669144,-28.0350588596191,0,0,0,0,0
-138.626316766576,26.2998565819562,-98.9143025393524,-34.0753840169052,133.177533088654,18.8347239510128,-76.8878646866151,-27.2914128274902,0,0,0,0,0
-135.776561014768,27.7640218162139,-101.67638894485,-33.2949515146533,129.070902185048,20.595389483904,-73.3892100092973,-26.5390357700038,0,0,0,0,0
-133.280766858602,28.9922834124382,-104.088741093844,-32.6306510524894,125.675711198901,22.1445937239501,-70.4083696130701,-25.8833892975811,0,0,0,0,0
-131.387631433043,30.2047481624966,-105.669194513353,-31.8763586622169,123.443265087113,23.5375188413843,-68.7974793865144,-25.2252759806714,0,0,0,0,0
-129.512106401821,31.3824810056505,-107.897392697598,-31.2685799715052,121.235489586919,25.0276278518422,-66.4573126504167,-24.6561191266764,0,0,0,0,0
-128.173785559075,32.4746834600825,-109.253572947781,-30.6491165763176,119.449511678858,26.407325770747,-64.8175768663212,-24.0136797892774,0,0,0,0,0
-127.047430937739,33.3215276682652,-110.83634940081,-30.2252973087099,117.846345981749,27.5000361286982,-63.1366884911496,-23.6002193387399,0,0,0,0,0
-126.234160462551,33.8728387298643,-111.837738421161,-29.8884784440428,117.029253496421,28.1842944759485,-62.4087033532341,-23.2725034742865,0,0,0,0,0
-125.834089476319,34.2128402058965,-112.532435809365,-29.6919573650383,116.368997342537,28.6967646580103,-61.5300873331218,-23.0139855113887,0,0,0,0,0
-125.502603652746,34.4760577756898,-112.528958148508,-29.4648177670065,116.279454566962,28.986271974983,-61.8256228421803,-22.7675161558286,0,0,0,0,0
-125.367300705907,34.6022901491522,-112.51226798762,-29.3524605206054,116.209418157139,29.1207647087977,-61.950953677881,-22.6589480590358,0,0,0,0,0
-125.486712362868,34.5713348581199,-112.212799774697,-29.2892434265956,116.321984910154,29.0914344112376,-62.2721620174045,-22.6105836541886,0,0,0,0,0
-125.639321254484,34.3780925116837,-112.06537355614,-29.3558060326982,116.593852898117,28.8458874645279,-62.444823368517,-22.7110457251122,0,0,0,0,0
-125.892366439682,34.0638601037684,-111.594286969864,-29.4647960054897,116.972507579448,28.5039646504539,-62.8801774553831,-22.8183116089928,0,0,0,0,0
-126.265876990999,33.7679528053506,-111.037981164358,-29.5610905767488,117.345119958285,28.1550388102576,-63.2481766033084,-22.917813321787,0,0,0,0,0
-126.529621370676,33.3709677302862,-110.855227073837,-29.7735409876026,117.57094575088,27.7367859407047,-63.3209250220951,-23.115261380692,0,0,0,0,0
-126.775273216242,32.9895385369671,-110.670124256528,-29.9823727760313,117.852383412945,27.313344182043,-63.6092725864477,-23.284885787747,0,0,0,0,0
-126.869256333966,32.7340481038851,-110.576961588555,-30.1178481852219,118.008877989391,27.0220004043956,-63.7279496661521,-23.4154834420915,0,0,0,0,0
-127.032335332675,32.4508288892677,-110.634984032621,-30.2821106504167,118.10295445198,26.7741696989789,-63.6494624732575,-23.5328112435668,0,0,0,0,0
-127.153643007325,32.2468434924122,-110.617025570966,-30.3866690377997,118.05392324761,26.6084739067086,-63.5625828751023,-23.5975695622447,0,0,0,0,0
-127.212594937362,32.0638947186518,-110.644778263742,-30.4810800467342,118.050083075911,26.4553829170032,-63.4845749649378,-23.6589565278833,0,0,0,0,0
-127.324100817306,31.9187481538009,-110.414390485981,-30.4969546656104,118.03966630162,26.3057698792944,-63.56942793758,-23.6900040149751,0,0,0,0,0
-127.395805546143,31.7998603895115,-110.249844574796,-30.5190876221632,118.004626357476,26.2232180134596,-63.5922203276235,-23.6984545342766,0,0,0,0,0
-127.525354749542,31.6877555989297,-110.060109692262,-30.5341894048327,117.909038559528,26.1610019927102,-63.5629893871564,-23.6954352050021,0,0,0,0,0
-127.502631636002,31.6042473486344,-110.176408661437,-30.5738836708213,117.73479311174,26.0680545869191,-63.2246610617605,-23.7481632836172,0,0,0,0,0
-127.434892383157,31.5108282646641,-110.180463741708,-30.5899486919819,117.59741586617,26.0364986370951,-63.0990501015106,-23.7643889377566,0,0,0,0,0
-127.603461401617,31.3951042650439,-109.886181413113,-30.6066934327421,117.747792481708,25.9047147162426,-63.3135294010814,-23.7822805275003,0,0,0,0,0
-127.822067632749,31.2140564825488,-109.622873558712,-30.6646131164816,117.934666081048,25.7439916334861,-63.4315189490892,-23.8379304703865,0,0,0,0,0
-127.848161084066,31.1048504374523,-109.316426805313,-30.6620064391739,118.012498505083,25.6152045504639,-63.6260050598164,-23.8671394781552,0,0,0,0,0
-128.086106709035,30.9032380160374,-109.208437119749,-30.7611600667786,118.279557301244,25.4389270846445,-63.6912317180676,-23.9396682610044,0,0,0,0,0
-128.285455537933,30.7398702688805,-109.140155029233,-30.8325984236986,118.605875366677,25.2608204948716,-63.8107695808437,-23.9966919161398,0,0,0,0,0
-128.696662174558,30.5158121173789,-109.045933295318,-30.9638570461109,119.304407769375,24.9986196306844,-64.1901321878768,-24.0765659689188,0,0,0,0,0
-129.13565386953,30.2113761880657,-108.962143128427,-31.1341778556389,119.37387186221,24.7268789114729,-63.9713852805736,-24.2332722625256,0,0,0,0,0
-129.466248855009,29.8460290574879,-108.928652234076,-31.4004151084691,119.898238342932,24.3578867921066,-64.2871043245973,-24.3961802431118,0,0,0,0,0
-130.565921880933,29.4453888001622,-108.250138884894,-31.5896957243218,120.864437606181,23.8420215519542,-64.7333529861993,-24.6327486470182,0,0,0,0,0
-131.574757255224,28.8674410254721,-107.690502875723,-31.9278159017417,122.142599539589,23.2190901070919,-65.4017129278198,-24.9134955180851,0,0,0,0,0
-132.973501945123,28.2994024659585,-106.802710996663,-32.2495491740998,123.545595174796,22.5577632716372,-66.2065111510431,-25.2098571306826,0,0,0,0,0
-134.867069057799,27.4794423976406,-105.52888128757,-32.7663066808867,125.446067098688,21.5605149289688,-67.2477854606521,-25.7203011953545,0,0,0,0,0
-136.727785916622,26.5562847461356,-104.720875684315,-33.4719991411707,127.507293226038,20.5428529557913,-68.1785055476258,-26.355938535946,0,0,0,0,0
-139.063025700247,25.5451707693767,-103.363610049423,-34.2105821597294,130.027345067365,19.3723643050764,-69.3431376275729,-27.0972461317904,0,0,0,0,0
-141.641590041963,24.6783610559543,-101.412061370491,-34.7503865083565,133.325154008241,18.2413172415463,-71.9616461089066,-27.5955165850854,0,0,0,0,0
-144.330264140745,23.6757964716532,-99.4837942393289,-35.470592635403,136.943535813297,17.0256589370463,-74.4969632934839,-28.3120005427757,0,0,0,0,0
-147.462881142804,22.6809880510037,-96.794186784609,-36.0490171367386,140.971849113273,15.7968537374438,-78.1235007154994,-28.797523984279,0,0,0,0,0
-151.286392525377,21.8594635861013,-93.1808439825111,-36.3825142222215,146.164574649147,14.6511244920487,-82.9415592213068,-29.1605765423611,0,0,0,0,0
-155.198147355742,20.9445782987328,-89.616438231264,-36.8684508694678,151.720899716501,13.4622964729241,-88.0450755065925,-29.6673758914762,0,0,0,0,0
-159.661412152882,20.1275631407071,-85.4373483992863,-37.1782387452636,158.40241122927,12.5541362121762,-94.287020030101,-29.950074524521,0,0,0,0,0
-163.643735845767,19.4237984169715,-81.5956217583354,-37.4202315817545,164.121778220385,11.7218522129203,-99.9458793912955,-30.2296415270033,0,0,0,0,0
-167.274327341265,18.7697115932392,-78.1709713881363,-37.6143506934063,169.817618090303,11.1293642988452,-105.318484567165,-30.4803261778216,0,0,0,0,0
-171.296327629221,18.3767743961276,-74.8272174050712,-37.832033251856,175.870491801785,10.7140303414692,-110.797859589596,-30.780213953592,0,0,0,0,0
-175.8448252062,17.9223839662139,-71.3979604045259,-38.2323082235022,-178.073908492918,10.3681635520535,-115.978403469667,-31.1280058788643,0,0,0,0,0
178.78222799557,17.9104494857646,-66.9107403217528,-38.4720402617962,-170.120961859279,10.444339035742,-123.391581105019,-31.3229108130396,0,0,0,0,0
173.410610512781,17.9153561167207,-62.4726368843953,-38.9587626047989,-163.709860165134,10.4236986288592,-128.867454658662,-31.8169757044433,0,0,0,0,0
168.219490584493,18.0080157640999,-58.2490907952949,-39.5394348471763,-156.942297899521,10.553614958076,-134.59131989832,-32.4531534786212,0,0,0,0,0
162.945407422515,18.3084652565977,-53.6362219268483,-39.9896540324071,-150.489208574394,10.9856333366733,-140.404543144091,-32.8282687430445,0,0,0,0,0
158.071387266721,19.1196919105014,-49.2785912364951,-40.3919465623382,-144.899489103509,11.7144796287051,-145.57446784271,-33.0409640647753,0,0,0,0,0
153.215849029182,20.0034825116523,-45.864743217242,-41.3369983020027,-139.895504310927,12.6225391373606,-149.168375200593,-33.7462929297139,0,0,0,0,0
148.572683127522,20.7298714253162,-42.5813916896772,-42.2572677979591,-135.060461933282,13.5190539910799,-152.905921228994,-34.4170508071493,0,0,0,0,0
144.075766626261,21.8543931688101,-39.4082016771699,-43.2183381435048,-130.574531096682,14.8294972469873,-155.901865525488,-35.2632609101224,0,0,0,0,0
139.594938980326,22.742735195385,-36.3047374464058,-44.2906299364446,-126.070925757621,16.0392729936152,-158.949422510916,-36.2241593880075,0,0,0,0,0
135.761516704443,23.3944521777408,-32.9978129672672,-44.7658105303806,-122.143595645988,16.9948293999543,-161.984423693506,-36.7506000141762,0,0,0,0,0
132.638104973566,24.7107563709585,-30.7141628805248,-45.4507931886965,-119.176250487461,18.4193150419504,-164.015325107939,-37.3576215032426,0,0,0,0,0
129.565036635635,25.9569840571435,-28.5312088549239,-46.2560779449148,-116.381211859452,19.7867182599486,-165.370809949986,-38.1870487387026,0,0,0,0,0
127.022862348864,27.6614246473162,-26.7872675230743,-46.7682291556781,-114.071957356123,21.4747990367175,-166.414553583821,-38.7656025579859,0,0,0,0,0
124.968553882297,29.2602891371863,-25.858755190837,-47.4924693247004,-112.978900856396,23.2519641490447,-165.937430349063,-39.4256957736848,0,0,0,0,0
123.045308111681,30.6539723218159,-24.6582275019314,-47.892534665083,-111.199242015242,24.7119964009657,-166.636154799753,-39.8591343815162,0,0,0,0,0
121.557887986138,32.3530676974125,-24.1542399307402,-48.6254943442924,-109.586911415964,26.1904460346426,-166.813052311572,-40.5396361711733,0,0,0,0,0
120.085047057586,33.8667871762605,-23.5219722135347,-49.1782725841567,-108.32094636905,27.8396821633764,-166.929763870403,-41.0513255217205,0,0,0,0,0
118.610173151411,35.1107479916256,-22.8333981852752,-49.8354219487248,-106.575087956172,29.1696604959539,-167.449047550889,-41.7218235759035,0,0,0,0,0
116.751744999665,36.5088189302698,-21.9351992215734,-50.5642209013126,-104.602374767408,30.70108268443,-167.995580321784,-42.430916706508,0,0,0,0,0
115.107006249929,38.3226304837606,-21.4178241039239,-51.4171244370011,-102.813364695941,32.6957447470405,-167.786041809633,-43.3985247521563,0,0,0,0,0
112.651711858391,39.284298244721,-19.8253818482458,-52.1698358426411,-100.058402023487,33.9043283474443,-169.405795470138,-43.9437323028075,0,0,0,0,0
110.512164192451,40.8175684477333,-18.6214475533967,-53.0492729520767,-98.0890984092979,35.8114064324962,-169.966913765962,-44.8721894183358,0,0,0,0,0
109.724852079454,43.3416366847257,-18.5441176864415,-53.7571235067849,-97.4842952212094,38.3016848587135,-169.086440159633,-45.6142805178275,0,0,0,0,0
108.341700164391,45.4969264471014,-17.9783457646661,-54.6030271599173,-96.2440410334185,40.6492902072906,-168.784526722242,-46.4875451676105,0,0,0,0,0
107.105140678828,47.6026055725404,-17.4663130644982,-54.9998676151695,-95.3068397348702,42.7892152319751,-168.460816344378,-47.0132816412981,0,0,0,0,0
107.200341726051,49.8512433318112,-18.0104134922354,-55.364837616575,-95.831860898677,45.3527747768206,-166.661514347089,-47.3612534249841,0,0,0,0,0
106.81407948596,51.9534809401881,-17.9935700553051,-55.4766258450181,-95.7115196887456,47.4718720349909,-165.782136873219,-47.4838701094426,0,0,0,0,0
106.435880021836,53.8542470781675,-18.0340367359219,-55.7101875578933,-95.7917184045423,49.5107325468853,-164.918678197123,-47.6584282337281,0,0,0,0,0
106.12346306611,55.9551805005318,-17.9848818426927,-55.8740219882766,-95.6630729476201,51.5412280696424,-164.274946877166,-48.0155491079909,0,0,0,0,0
105.893450319155,57.9253066130177,-17.9380179794242,-56.0903545413466,-95.8327363758687,53.6344390001895,-163.401121351621,-48.1358387503361,0,0,0,0,0
105.32200619296,59.7898937981293,-17.5344503384285,-56.4197222624106,-95.2969467050386,55.5594905469281,-163.310201429036,-48.2690213290635,0,0,0,0,0
105.040159949379,61.642649613371,-17.2829829723088,-56.4651411351459,-95.0576545925098,57.4836894548151,-163.071560315784,-48.4620034314107,0,0,0,0,0
105.120541054449,63.2255455959223,-17.2976733410393,-56.5335523528319,-95.2665123562357,59.2366569022448,-162.491444357924,-48.623129488063,0,0,0,0,0
104.941539151919,64.4859383263249,-16.8705079607486,-57.030905232684,-95.4004889533241,60.7504146226368,-162.270567879932,-48.9583446251067,0,0,0,0,0
105.060698609414,65.7635358057623,-16.6476248574484,-56.8429125962129,-95.6511845507899,62.2137039597266,-161.967398033535,-48.9893194549439,0,0,0,0,0
105.084718319346,66.9144563511628,-16.2562951693139,-57.2443794095869,-95.7426933286255,63.4513733697098,-162.074121469426,-49.2725197527733,0,0,0,0,0
105.281724534373,68.0587777487945,-16.0277990127236,-57.3698983722014,-95.9341026619941,64.6995408447114,-161.93295609574,-49.3164472179573,0,0,0,0,0
105.361048403119,69.146465865354,-15.6351518814447,-57.385691782619,-96.1803851202781,65.8102636325065,-161.930003385131,-49.2777862240437,0,0,0,0,0
105.54315762023,70.3955720635864,-15.3699159544798,-57.4367872187249,-96.6970218399854,66.9942877840044,-161.708274393046,-49.3498039566273,0,0,0,0,0
105.626461270756,71.6763005096421,-15.3813290823181,-57.3238142256488,-96.9773182203402,68.2833334473227,-161.313665314112,-49.1744814991906,0,0,0,0,0
105.820270148758,73.0607281657366,-15.5548357188325,-56.9526918820234,-97.3810252288059,69.7734334323966,-160.818524534062,-48.8617895716893,0,0,0,0,0
105.892052948596,74.4130718298826,-15.2957632875449,-57.0189767267951,-97.5057969687241,71.1830155869886,-160.924127591593,-49.121194795115,0,0,0,0,0
105.576393216462,75.7022611624395,-14.7309917906489,-57.1825713696596,-97.3043107599921,72.6387508446063,-161.347292055458,-49.3714482939765,0,0,0,0,0
105.654289636402,76.9729128668664,-14.4844522665918,-56.9032162720378,-97.5560859630817,74.110608124688,-161.25115042872,-49.2282816381877,0,0,0,0,0
105.896914643967,78.1754672477399,-14.2634190580788,-56.5701325444945,-97.7301778595687,75.5194472657079,-161.156032635955,-48.9968915538878,0,0,0,0,0
106.187999370717,79.3598322911002,-14.3718935319053,-56.1232812553809,-98.0610381637657,76.8258999704271,-160.700031767655,-48.6548711722576,0,0,0,0,0
106.184182495593,80.4137363421243,-14.0903683402557,-56.1872527250973,-98.2482590303446,77.9247687712575,-160.514468342523,-48.6989481385971,0,0,0,0,0
106.126380360687,81.1972168805589,-13.9152273054617,-56.0168590584722,-98.3398555505453,78.8749201756374,-160.347515760774,-48.5096381109913,0,0,0,0,0
106.21227087543,81.9085753649794,-13.9639503782253,-55.7593062490137,-98.4803709612573,79.5856654382405,-160.139926857983,-48.3654830101595,0,0,0,0,0
106.282572699133,82.4252842920352,-13.7777146708727,-55.7219140899548,-98.6376330587833,80.1473112940506,-160.085844060664,-48.2414036328552,0,0,0,0,0
106.28742342709,82.709654576353,-13.7295891008218,-55.5667137565321,-98.746296169956,80.4467698482682,-160.109865785068,-48.1085744349736,0,0,0,0,0
106.428558004253,82.9537624547551,-13.7773042579316,-55.470872744241,-98.8459331807922,80.6812836389441,-160.068197768035,-48.0476144723465,0,0,0,0,0
106.467424465848,82.907869263251,-13.6567924549993,-55.5916817034224,-98.9118780483699,80.7221437578962,-160.141558987166,-48.0939219927976,0,0,0,0,0
106.496965653059,82.8800394644798,-13.6422974380872,-55.7256860910366,-98.9425088514792,80.7274679960955,-160.167032523141,-48.0749780079291,0,0,0,0,0
106.433402757544,82.760079279626,-13.71636033431,-55.7765979869922,-98.8748536143164,80.5379269787454,-160.126052506714,-48.0882969687944,0,0,0,0,0
106.328220917812,82.4834522969247,-13.5474065365892,-55.8634062927466,-98.7900858739785,80.3102764560997,-160.3428787601,-48.2381376579395,0,0,0,0,0
106.182222863424,82.2353001693469,-13.4643256598999,-56.0070820026823,-98.6480808175986,80.0829930717875,-160.478892784534,-48.3483555777292,0,0,0,0,0
105.855125133219,81.8571935409348,-13.1718837084249,-56.1663718692884,-98.3738684502261,79.8503021958765,-160.838408234242,-48.4626606918169,0,0,0,0,0
105.735784911757,81.3795243293777,-12.7771763001604,-56.4382257493627,-98.2726836793905,79.4980987386667,-161.323024146765,-48.7271580373949,0,0,0,0,0
105.352277590219,80.8617607574276,-12.1856419605201,-56.6473940048271,-97.9346643886968,79.1930327543076,-162.059698078917,-49.0199546535455,0,0,0,0,0
104.887333221298,80.385611529798,-11.4626407109728,-57.0373553304904,-97.4479800357539,78.8568680039684,-162.992609078022,-49.5254251995504,0,0,0,0,0
104.452777413181,79.9008336726304,-10.7771046390135,-57.3244028158463,-97.0547175478345,78.5210848957658,-163.71922877935,-49.8077018657038,0,0,0,0,0
104.034925364691,79.3902546024483,-10.1450997623963,-57.4980347223085,-96.7281847871199,78.1755540145057,-164.351443995771,-49.9376729388359,0,0,0,0,0
103.658465472112,78.9863742531846,-9.50447960810132,-57.6104744088624,-96.3851859438297,77.8763920326166,-164.896909031925,-50.0285675339604,0,0,0,0,0
103.388618640012,78.7235864426994,-9.00425753902664,-57.6546133017715,-96.0737457563742,77.7115720731741,-165.369914762728,-50.0286047523443,0,0,0,0,0
102.981926201011,78.4264869111002,-8.40590084393577,-57.7641172777704,-95.7107459551409,77.5878246837465,-165.904065686903,-50.0376412251354,0,0,0,0,0
102.581258743554,78.147451891555,-7.73979702317655,-57.8948886796393,-95.2571562961782,77.519254083366,-166.529383732986,-50.0800801448012,0,0,0,0,0
102.247096433538,78.0347055366848,-7.22348967191283,-57.9036391164899,-94.8981701834588,77.5279744255744,-167.026454020453,-50.1088827772529,0,0,0,0,0
101.914109827679,77.9636391933506,-6.80495074295627,-57.8448514100477,-94.4909705810428,77.5715412288247,-167.452024930984,-50.1173766358513,0,0,0,0,0
101.758597228146,77.936956620151,-6.27578604858047,-57.8116601919363,-94.2101096313664,77.6270620505934,-167.953867181982,-50.1225871143205,0,0,0,0,0
101.487726759484,77.9768547176116,-5.79701409907551,-57.7641506339803,-93.9510948051147,77.7198305748628,-168.242294518714,-50.0678794211086,0,0,0,0,0
101.340404589553,77.9211363254476,-5.3770507347339,-57.7723934353367,-93.8022864601797,77.7023973331978,-168.545570793288,-50.0521348361843,0,0,0,0,0
101.191679696099,77.9401840281847,-4.94693504221814,-57.7484864749865,-93.5889318992832,77.8007713896541,-168.858230343511,-50.040467018859,0,0,0,0,0
100.917505485498,78.0267979422684,-4.47219111897326,-57.7165274688751,-93.3047224440439,77.9066383206196,-169.203242623937,-50.0578748326417,0,0,0,0,0
100.782364928289,78.1307183019626,-4.17227901812447,-57.6562575813305,-93.1290707723696,78.0223598899276,-169.456268026675,-49.9980562479238,0,0,0,0,0
100.77054536006,78.2022150764638,-3.92723796642608,-57.4540394696676,-93.091199208851,78.1698294070728,-169.610894832548,-49.906193824213,0,0,0,0,0
100.708842689182,78.4006664582312,-3.80818916566335,-57.2294222408914,-93.1224119584465,78.3551789316897,-169.598434328792,-49.7045220877955,0,0,0,0,0
100.757772088945,78.5098187567503,-3.60882715225949,-57.0675587636597,-93.1951059480834,78.4405199322392,-169.695795960333,-49.5684977526347,0,0,0,0,0
100.770886673226,78.5496479386624,-3.46164477833173,-56.9756681374498,-93.2688455835757,78.5517060403712,-169.780701482451,-49.463827304543,0,0,0,0,0
100.868021104272,78.585775047772,-3.28031771059088,-56.9534399811174,-93.350740029819,78.6685641148404,-169.852567949755,-49.3669008076079,0,0,0,0,0
100.908919155498,78.5692346856456,-3.06361292501347,-56.9357753693619,-93.3862659122497,78.8033130493405,-169.853697305985,-49.2449617918493,0,0,0,0,0
100.90583816945,78.5466750906923,-2.86167203999668,-56.874867803525,-93.3858185808753,78.7897479458151,-169.904199016839,-49.1804017174822,0,0,0,0,0
100.956441339066,78.5324991583224,-2.73064714455623,-56.8018700753233,-93.3032410320312,78.8490163697165,-169.858186743937,-49.0359296718786,0,0,0,0,0
101.054341639254,78.5020126347158,-2.50879083282192,-56.8498658864235,-93.271963490571,78.8076075344799,-169.912530085456,-48.9898878104868,0,0,0,0,0
101.033881532104,78.3830569454461,-2.26334472269838,-56.9037838338858,-93.1283996858902,78.7940509376534,-169.985264228268,-48.9380156264939,0,0,0,0,0
101.114399095033,78.3747833713211,-2.366068767879,-56.8122904234199,-93.0836939532431,78.8086535433633,-169.808627691217,-48.7474188649709,0,0,0,0,0
101.18914557023,78.4270807834959,-2.45703542381241,-56.781549263501,-92.9700612488549,78.7636606656945,-169.762678370178,-48.6599226030963,0,0,0,0,0
101.210740250218,78.3796559786306,-2.46522626686232,-56.7966506874287,-92.7758931297055,78.7441724605483,-169.707669723533,-48.5928065399842,0,0,0,0,0
101.130098854455,78.4345129855306,-2.39982032261727,-56.8230437974172,-92.5282483630836,78.7751048582028,-169.737271251019,-48.5080879615849,0,0,0,0,0
101.150220534095,78.5672085013503,-2.29974892350845,-56.8294334429832,-92.3555572988268,78.8497494801353,-169.697252652006,-48.412185888126,0,0,0,0,0
101.043360384525,78.6144758146153,-2.12255071581853,-56.8822673740381,-92.0807731887972,78.9357557781656,-169.771914659948,-48.4127446487087,0,0,0,0,0
101.056860287879,78.7356570453619,-2.1103660638899,-56.7939772923183,-91.8501836805519,79.0299920890827,-169.808017552143,-48.3328167878907,0,0,0,0,0
101.046420791946,78.8195140772007,-2.10945022007624,-56.6864570145202,-91.5474262534868,79.16202166662,-169.763332755267,-48.2469538629344,0,0,0,0,0
101.143151654721,79.0498451191734,-2.31600842362315,-56.4938414069778,-91.5840406850317,79.2578813458045,-169.639075777298,-48.1680542262587,0,0,0,0,0
101.199471819169,79.3045458191885,-2.53141758014127,-56.3708322580641,-91.5137254476007,79.4698442786052,-169.455940881208,-48.1193449885378,0,0,0,0,0
101.420680482106,79.5589558383674,-3.01237443223206,-56.2511419072773,-91.472123687272,79.5723298581191,-169.145549661644,-48.0246612234878,0,0,0,0,0
101.179488211731,79.8407127840394,-2.96650487093655,-56.4707253041042,-91.1154606232676,79.7857900154392,-169.20904217288,-48.2025026734568,0,0,0,0,0
100.66987707381,80.092965593463,-2.75523711993807,-56.6799630345987,-90.6593659080958,79.9528736207408,-169.339506214117,-48.2917871890285,0,0,0,0,0
100.250016338777,80.452822622873,-2.61027565530534,-56.7943505662025,-90.2228474153298,80.1772929456854,-169.222573659162,-48.1960324624471,0,0,0,0,0
99.6304213840713,80.771899343532,-2.27075269091722,-57.0954518575612,-89.6563145379126,80.4560994670351,-169.35142732912,-48.1593352471046,0,0,0,0,0
98.9106735306321,81.0478219520936,-1.79469885148225,-57.3592284105594,-89.0523441109743,80.6924895283046,-169.425902180044,-48.0935291467388,0,0,0,0,0
98.215626928369,81.5135623717496,-1.47256010569328,-57.4892402138701,-88.5190319820565,80.8296228413157,-169.298119821753,-48.0308349119951,0,0,0,0,0
97.8409302507036,82.016935549135,-1.3824360283007,-57.4591474119553,-88.4722196388605,81.1344801053551,-168.955409309516,-47.8380962958539,0,0,0,0,0
97.2960206741518,82.3502908245464,-1.23406018199631,-57.5318891957714,-88.1232651936572,81.1969733071087,-168.678548406705,-47.7609583901982,0,0,0,0,0
96.7699435787609,82.5562140443568,-0.943498966575049,-57.5379572346219,-87.7533370806157,81.0464972945064,-168.536939508397,-47.704571026776,0,0,0,0,0
96.2641521267299,82.6880667768151,-0.606948110742025,-57.5058827843614,-87.438544300891,80.8288019784772,-168.470109195803,-47.699550086979,0,0,0,0,0
95.8940993331096,82.7450848795931,-0.457310187922133,-57.318886582485,-87.2360575499801,80.6085729612088,-168.421376992757,-47.6800156552577,0,0,0,0,0
95.9021484133647,82.82178027834,-0.509018946680811,-57.0877333253793,-87.1240762123447,80.3319532047106,-168.419977225279,-47.7063170007317,0,0,0,0,0
95.7147415664138,82.7502940518377,-0.422013858113388,-56.9508564769375,-86.8722286588779,80.0497756880892,-168.47686244659,-47.7612715458952,0,0,0,0,0
95.5545552693451,82.7770849456038,-0.261341785619493,-56.9573226602509,-86.6823072292524,79.7598009111019,-168.58493521832,-47.9665451350633,0,0,0,0,0
95.7430529518259,82.8150979862878,-0.35701258726337,-56.7175772971576,-86.7287226726851,79.5384947003171,-168.383519451824,-47.9104496204388,0,0,0,0,0
95.6437053018465,82.8500994752722,-0.295622660516358,-56.6083030620573,-86.5759948961136,79.3467397142508,-168.385590097626,-47.924682643119,0,0,0,0,0
95.6623177586803,82.9312157654794,-0.313081543966632,-56.3978324437914,-86.5915724261171,79.1876840313599,-168.233673924383,-47.8411157332375,0,0,0,0,0
95.7546373526483,83.0143204287073,-0.388601323407414,-56.2033533403712,-86.6174897492727,79.1228707415327,-168.093249335052,-47.8123867822952,0,0,0,0,0
95.9217480886607,83.0866584079645,-0.502454169536662,-56.0074927350902,-86.7122589437805,79.0248878297967,-168.052083855988,-47.7526985819286,0,0,0,0,0
96.1470266146454,83.1875272223702,-0.74059020666823,-55.7195022960767,-86.8409120368579,79.0136531986561,-167.915671365214,-47.6321137606304,0,0,0,0,0
96.3987279253325,83.210162316831,-0.956246927293932,-55.5078550417313,-86.8812702552042,79.0219753867132,-168.017482823958,-47.5208226539537,0,0,0,0,0
96.5931364385131,83.2063923068253,-1.09440867415728,-55.2436011677665,-86.943213628489,79.0489345908295,-168.056477818878,-47.3888077403823,0,0,0,0,0
96.8479368537698,83.3246818321426,-1.2288877368994,-54.8995006577537,-86.9950370373051,79.0732709359686,-168.032878894123,-47.217076114407,0,0,0,0,0
97.0882142260739,83.3525952192991,-1.22780851095305,-54.6474953924683,-87.0140730249989,79.1711636243122,-168.081145514678,-47.0938768957141,0,0,0,0,0
97.2974508878879,83.3887573985169,-1.11686021953869,-54.5404844157571,-87.0781618183884,79.1403967622438,-168.280145130988,-47.0572080564905,0,0,0,0,0
97.5408699385083,83.3156080987897,-0.968590631411843,-54.5413477083746,-87.1136198285992,79.1604404758278,-168.42255123663,-47.0264092047546,0,0,0,0,0
97.6465399345181,83.2459839532887,-0.814198983051909,-54.4490885608544,-87.0169675401351,79.2338705932102,-168.608035770173,-46.9498887975598,0,0,0,0,0
97.9329500623324,83.1467499325004,-0.779866392347145,-54.4963083935253,-87.1352834839414,79.1637610201576,-168.838724589926,-46.9174052821564,0,0,0,0,0
98.0923754692727,83.0269321848373,-0.612537243555863,-54.640014578817,-87.2840034058465,79.0966813980417,-169.15847811195,-47.0142442180426,0,0,0,0,0
98.1790777267406,82.9774003648636,-0.43428580222303,-54.717853441891,-87.1637052994577,79.0463979009861,-169.595866761693,-47.0728457089101,0,0,0,0,0
98.4399174570509,82.8805329428427,-0.359047898593445,-54.871440783391,-87.2514330160107,79.1080323438007,-169.895736878567,-47.1763269163089,0,0,0,0,0
98.6115413747601,82.7359744280038,-0.255372511547989,-55.0746597737345,-87.3938649318691,79.1400860385789,-170.388280432876,-47.3477371423746,0,0,0,0,0
98.8774721846488,82.7489083353055,-0.384994003415699,-55.1318987066217,-87.7123256346624,79.3340917864225,-170.4701002128,-47.3824417585733,0,0,0,0,0
99.0286393252441,82.8038098703994,-0.527420458526052,-55.0904342543231,-88.086683196167,79.4548305031651,-170.555553027199,-47.4460546523413,0,0,0,0,0
99.148004828039,82.8767507577347,-0.693333106300287,-55.0288514076491,-88.372221515215,79.6099480259201,-170.593960199473,-47.4646301442999,0,0,0,0,0
99.2730393260256,82.954162226101,-0.928300656569462,-54.88339827188,-88.6528488645667,79.8374093323285,-170.511748234471,-47.3539718130907,0,0,0,0,0
99.2563186262414,82.9405457937045,-0.998408732609278,-54.8831018585515,-88.8857356226541,79.9489194449224,-170.538285022348,-47.3204098055998,0,0,0,0,0
99.1080037847343,82.9139640721085,-0.985738178460252,-54.9410746670098,-88.9823233567926,80.0452712429128,-170.5710844013,-47.3445742268116,0,0,0,0,0
99.0869529212411,82.8611112305113,-1.0539520043798,-54.8937790634601,-89.0764941603813,80.0935786016474,-170.496394927605,-47.3032556249948,0,0,0,0,0
99.3340874354614,82.7985690608982,-1.29949444819988,-54.8436961547704,-89.3692741141349,80.020764434598,-170.409778928727,-47.2914061022326,0,0,0,0,0
99.5362353216586,82.6638113944269,-1.45852659456384,-54.9628139822403,-89.5784544809014,79.8931770668906,-170.375598084428,-47.3798963147199,0,0,0,0,0
99.636643923805,82.597352802197,-1.62895044836395,-54.9602142304382,-89.7037426180615,79.7640260945583,-170.127392806383,-47.3349981885753,0,0,0,0,0
99.8402430204429,82.5143604075682,-1.89704724331838,-54.9717736596803,-89.936310248963,79.6093262084743,-169.894264119871,-47.4216257027644,0,0,0,0,0
100.002984630677,82.4049750306235,-2.06758175803807,-55.0254575341106,-90.1734604964146,79.3866212824578,-169.732919332369,-47.4563515159499,0,0,0,0,0
100.164548353101,82.3183794710444,-2.34198661726995,-55.0188255076995,-90.4344607215224,79.2132211047043,-169.425515833027,-47.4520355923327,0,0,0,0,0
100.36572290838,82.2801384722485,-2.66106616841813,-54.9658062112408,-90.7000653195632,79.0567121873884,-169.114472459852,-47.4500708249687,0,0,0,0,0
100.614516734505,82.3230355581385,-3.11334977079625,-54.9182965182593,-90.9621724205242,78.9717565250362,-168.801297333615,-47.4618718892156,0,0,0,0,0
100.827533114992,82.2943564626737,-3.48040707368338,-54.902581634167,-91.2004600812994,78.9143481793583,-168.492249369125,-47.4796590149888,0,0,0,0,0
101.003979619525,82.3424259115531,-3.8774079689311,-54.8546924784119,-91.4939528077269,78.9465756163536,-168.072938486351,-47.3528965686172,0,0,0,0,0
101.304716106286,82.3056703961487,-4.39182110903724,-54.832404844017,-91.9658309060228,78.9788958007771,-167.610343434251,-47.2937366972678,0,0,0,0,0
101.402424354801,82.2986047577277,-4.87814207502237,-54.9162795501991,-92.2890206483178,79.0370078009444,-167.295200335816,-47.3434890828084,0,0,0,0,0
101.704248073841,82.2685241684678,-5.52473170238315,-54.8416059277344,-92.7337567772113,79.1559754704807,-166.61442237392,-47.1977848565366,0,0,0,0,0
101.844985832033,82.1689694454082,-5.96531809071911,-54.9753996205869,-93.0498190718519,79.2587365187849,-166.1810751072,-47.2308312324574,0,0,0,0,0
102.043236077562,82.0742362552695,-6.479184981137,-55.0341613035724,-93.4045758954537,79.4137726037166,-165.829403237428,-47.2282545438282,0,0,0,0,0
101.975137024551,81.9254388887414,-6.93679409074602,-54.8982230987356,-93.5095479356226,79.6135303041277,-165.510661119802,-47.1676355802618,0,0,0,0,0
101.974705372578,81.7875678627227,-7.53474360443428,-54.7715028653788,-93.5261920858972,79.8177071294132,-165.199618270314,-47.0232883833703,0,0,0,0,0
101.969310471987,81.6722676937154,-7.73440214973024,-54.8064872564725,-93.4421605737755,79.9331781245643,-165.26012631637,-47.1136519326419,0,0,0,0,0
102.000861760471,81.5023811996501,-8.2053731421847,-54.7482547711098,-93.467292211915,80.0066783046499,-165.028958586165,-46.9724750132344,0,0,0,0,0
101.705590817847,81.2042850356085,-8.31156976878106,-54.9674961966291,-93.1654493410211,80.023372162033,-165.347724671971,-47.2119499700424,0,0,0,0,0
101.523201629717,80.9807946643572,-8.27648165005738,-55.1662659609663,-93.0080710800904,80.0003400167193,-165.774700866505,-47.420952036571,0,0,0,0,0
101.173012739822,80.6352266122729,-8.0436415556018,-55.6069507976207,-92.6403269449387,79.9620800821769,-166.401251020612,-47.9159954413182,0,0,0,0,0
100.75931117439,80.0634819715618,-7.77864894617966,-55.968258944665,-92.1858711570165,79.6405561690803,-167.059212808198,-48.2481267888244,0,0,0,0,0
100.612905865675,79.6363713682916,-7.77713836965418,-56.1112911637931,-91.9962619273517,79.4580909283545,-167.43367230721,-48.5284064703762,0,0,0,0,0
100.229438399798,79.0303676537121,-7.65607277346803,-56.4295032299258,-91.4732766196162,79.1073720085379,-167.758002910585,-48.8122029033501,0,0,0,0,0
100.090744344048,78.4172198158683,-7.79414533309418,-56.5707493705766,-91.2849546433806,78.7144386809009,-167.899243391545,-48.9336193465353,0,0,0,0,0
99.8570326801748,77.7859161258967,-7.90439899063387,-56.6011936917423,-91.0794091765138,78.4184178485558,-167.880891702868,-48.9198122411246,0,0,0,0,0
99.5294258761853,77.0719568183339,-7.85506467725062,-56.8853181383211,-90.6017540654111,77.9820088259998,-168.188087467086,-49.1371131765038,0,0,0,0,0
99.222759769298,76.3804999946975,-7.76250387366162,-56.9818278716682,-90.1891265340561,77.5673392960775,-168.55676779281,-49.1966523402061,0,0,0,0,0
98.9337615055894,75.8764804547815,-7.56274329331879,-57.1404764797167,-89.7348328423586,77.2732255323519,-168.905016497952,-49.2941586167437,0,0,0,0,0
98.5230395121183,75.2248177763796,-7.36839315196403,-57.156240048198,-89.1850413262268,76.9041895921147,-169.228542146021,-49.2666648858406,0,0,0,0,0
98.2994376103677,74.6857648537256,-7.23339133587348,-57.2294690915468,-88.9289159934696,76.5207527375081,-169.536955509631,-49.3248056165547,0,0,0,0,0
98.067901462768,74.1905699893482,-7.16164437679086,-57.0081771578071,-88.7121534139786,76.2028089114704,-169.590472107655,-49.0715402589121,0,0,0,0,0
97.8569023596881,73.6618682068435,-7.05255159382025,-57.0241087837415,-88.5278103116494,75.6928809033984,-169.799758356345,-49.0557065656894,0,0,0,0,0
97.5744170929198,73.1502080655386,-6.85287132837405,-56.9878641420441,-88.3742129377638,75.1225843994798,-170.006200657648,-49.0135384496191,0,0,0,0,0
97.7068789489156,72.918268166654,-6.9871646271848,-56.8651973168965,-88.680129603569,74.7513963601154,-169.744520511852,-48.8110719975524,0,0,0,0,0
97.7373849497591,72.5781116569258,-7.04931444739333,-56.8267589112866,-88.6960959931652,74.1603861485926,-169.654139051045,-48.824794495135,0,0,0,0,0
97.8308345106231,72.2462583173222,-7.22331365620346,-56.7594375823935,-88.8520067018802,73.6040771719105,-169.637061154434,-48.765688083053,0,0,0,0,0
98.1231511236578,71.8981501327299,-7.52255982090105,-56.8554858364805,-89.261603385721,73.0535555325647,-169.385834176816,-48.8120203351637,0,0,0,0,0
98.2355601095166,71.4719127998081,-7.62856896917086,-56.8665201110084,-89.4375295033744,72.3863990294846,-169.394148521381,-48.7178876180235,0,0,0,0,0
98.2660223773712,71.092226598789,-7.66286134293011,-56.8062482911479,-89.5715934637343,71.8054718113848,-169.414591157146,-48.7538035615095,0,0,0,0,0
98.0754095831169,70.5861713880507,-7.43888164367647,-56.8717174134486,-89.2634008637371,71.1147603142317,-169.838612255689,-48.8620953583807,0,0,0,0,0
98.3336963536081,70.0479837711351,-7.36267082643323,-56.9559156808002,-89.4321160235586,70.5820857239462,-170.082833124965,-48.9423655843436,0,0,0,0,0
98.5703959562694,69.6729414904239,-7.38634541863178,-56.9941247847055,-89.7728409340956,70.1838319557241,-170.129547442464,-49.0268782311618,0,0,0,0,0
98.9412896441788,69.2848838949064,-7.59595539679052,-56.9410983319576,-90.1925317268601,69.8451863020418,-170.160410268743,-49.0169610212487,0,0,0,0,0
99.2701212828388,68.8384512767156,-7.63444836528916,-57.0329166368666,-90.5198973711216,69.4649875740278,-170.262954744947,-49.0821679272009,0,0,0,0,0
99.4971852489372,68.4076861903577,-7.756161820427,-56.9703545825739,-90.959193487089,69.213047991804,-170.23873417875,-49.0575404174882,0,0,0,0,0
99.7914874566684,68.0665653184501,-7.94464797992853,-57.0169257903204,-91.5151491487599,69.062244762897,-170.11745740053,-49.1357074147102,0,0,0,0,0
100.387662916935,67.8635330579702,-8.25680457735805,-56.8753470560868,-92.3001784324924,68.8857784276154,-169.840757808632,-49.103749861248,0,0,0,0,0
100.428057705283,67.5390618201769,-8.29612240190687,-56.9355702426619,-92.6309479470057,68.793899932763,-169.865742156688,-49.2873089942892,0,0,0,0,0
100.6314772998,67.2899795598671,-8.46176166299247,-56.882375354632,-93.070825972211,68.7621677617197,-169.672564569156,-49.3250777335939,0,0,0,0,0
101.087990624893,67.2026072649806,-8.62889608745616,-56.7867092459133,-93.6002505871167,68.8116806305671,-169.539413271745,-49.3288976026008,0,0,0,0,0
101.35684112798,67.0991714127738,-8.64668202574347,-56.755856680524,-93.9885416305689,68.7757936654178,-169.517553180619,-49.3910583905668,0,0,0,0,0
101.644370717217,66.9832036304728,-8.74113210965311,-56.7546822223856,-94.2762878912292,68.7463324059471,-169.513871023751,-49.5356470286786,0,0,0,0,0
101.888629318142,66.9150982674378,-8.86261300744829,-56.7847818077336,-94.579435364192,68.7682924985188,-169.449437560484,-49.6643619017434,0,0,0,0,0
102.025755435279,66.797419131508,-8.9275415158736,-56.8709545680082,-94.7730524849233,68.6982505188435,-169.477505827385,-49.7685715169543,0,0,0,0,0
102.187076074753,66.669728270663,-9.02849758898066,-56.8937400552542,-94.998818266911,68.5892927988192,-169.464932877252,-49.8280940511485,0,0,0,0,0
102.398254124451,66.569457061516,-9.22939062647805,-56.8970717595987,-95.2323454222031,68.4035182754571,-169.413959096038,-49.8925423422083,0,0,0,0,0
102.488366082411,66.4091165307635,-9.33018520637211,-56.9312640698282,-95.3553510373184,68.165479173853,-169.405560632927,-49.9951041209382,0,0,0,0,0
102.564776577915,66.3961695419991,-9.44009801903619,-56.9099516120424,-95.5451922881255,67.9824427572833,-169.339109262032,-49.9222156002312,0,0,0,0,0
102.663645674578,66.2966127119946,-9.57624710572989,-56.8708310587546,-95.7309680987457,67.8786481011332,-169.227658260162,-49.8498191612907,0,0,0,0,0
102.691688488818,66.3414209518734,-9.63083773364747,-56.8005043082345,-95.8471063616558,67.663080123431,-169.269362930452,-49.7904102406213,0,0,0,0,0
102.727432488158,66.4615399424821,-9.72088104416216,-56.8381536349789,-95.9187782082005,67.5431594341984,-169.226527373809,-49.7655717323079,0,0,0,0,0
102.737654642414,66.6290502377906,-9.79178824438964,-56.8404882429781,-95.9417619240522,67.4898678037366,-169.183103727205,-49.7627065462206,0,0,0,0,0
102.712978100198,66.7281450609059,-9.86353789400724,-56.8695771043303,-95.9267005261787,67.3778388593169,-169.21821018139,-49.8144536009273,0,0,0,0,0
102.731251604334,66.8658229139076,-9.96898939668864,-56.8552017886447,-95.9740376947268,67.2985441650434,-169.219543546677,-49.8486231034698,0,0,0,0,0
102.772885226151,67.0431404294724,-10.0976710431507,-56.8344687934783,-96.0703872768382,67.2757568528696,-169.207698460416,-49.8391567259215,0,0,0,0,0
102.751617387369,67.3024249103427,-10.1907883318932,-56.8067375593219,-96.1204900217526,67.3448996507516,-169.157931498232,-49.8587786318718,0,0,0,0,0
102.741724934373,67.5101344234659,-10.2551286252182,-56.8027111547743,-96.197501313411,67.4905442912949,-169.109456485954,-49.8582710092046,0,0,0,0,0
102.77547074762,67.6729344522479,-10.3096974536754,-56.8044835151426,-96.268955602786,67.5975089168052,-169.057272872634,-49.8532645898663,0,0,0,0,0
102.891829841317,67.8174368407795,-10.4825956875008,-56.8469778393366,-96.4070821227282,67.7542847553915,-168.941063893398,-49.8666385674474,0,0,0,0,0
102.877637769126,67.9541351939051,-10.6041433239347,-56.8084056807598,-96.5487009150175,67.8875923795379,-168.766245403325,-49.8393127266833,0,0,0,0,0
102.930132172135,68.03096278621,-10.6755858072252,-56.8443075022022,-96.6098149069757,68.0181185061374,-168.672279356034,-49.8751445503661,0,0,0,0,0
102.84196558193,68.1258634023155,-10.7118618424481,-56.8570339871364,-96.5695005829651,68.097567430556,-168.62847853812,-49.914837330576,0,0,0,0,0
102.756013946253,68.2182448417514,-10.7673199438387,-56.8629411339883,-96.529965978788,68.244651352384,-168.583145272459,-49.9270395736061,0,0,0,0,0
102.776264656164,68.3550358999896,-10.9198879381367,-56.9256352375789,-96.5174040738326,68.4803039532149,-168.487101676458,-50.0428298517554,0,0,0,0,0
102.774851106525,68.46031353585,-11.0348152154405,-57.0059085182879,-96.3800079789659,68.6181466813797,-168.51507242559,-50.1345728783777,0,0,0,0,0
102.744337735994,68.6385453614965,-11.1152680654691,-57.0674129929421,-96.2342410607338,68.8501173965991,-168.513027296314,-50.2635278824668,0,0,0,0,0
102.671016284662,68.9438905253486,-11.2463205275662,-57.1721404635364,-96.2289008224784,69.0786309225288,-168.445400388433,-50.3102512819753,0,0,0,0,0
102.507963467957,69.3626159010063,-11.2734068424144,-57.3392251155656,-96.0591536559115,69.5334481249809,-168.38599694624,-50.3718085128141,0,0,0,0,0
102.361913069069,69.7785994125894,-11.3324096167212,-57.4489186607585,-95.9142900470629,69.8691818155529,-168.313075244881,-50.4446299766342,0,0,0,0,0
102.146531267061,70.4416844531302,-11.4214010846712,-57.51693724903,-95.7548566529003,70.4744010113162,-168.00519976113,-50.3497817187042,0,0,0,0,0
101.930407106044,70.9630458736037,-11.5224682919574,-57.6703679329245,-95.5073961046353,70.9543357912779,-167.919110258456,-50.3450368712389,0,0,0,0,0
101.822550832384,71.6838938035436,-11.6556300866602,-57.7178314135493,-95.327311942123,71.5344461165012,-167.708745631143,-50.3640308675367,0,0,0,0,0
101.654988520717,72.3654593163009,-11.6405518513944,-57.7122266663251,-95.0571423318823,72.1509992247626,-167.563319065108,-50.334687931083,0,0,0,0,0
101.535799946572,73.0161746983256,-11.6323765898191,-57.6637480667176,-94.799019673489,72.7469514263206,-167.508466469004,-50.2959002428167,0,0,0,0,0
101.469574998047,73.6049951133911,-11.6865691515017,-57.5724002005597,-94.6231728785128,73.2132671674954,-167.369863540758,-50.2186713451045,0,0,0,0,0
101.40183396727,74.0507220561352,-11.713755472551,-57.4322038100106,-94.4800117237789,73.6694241542781,-167.247346648137,-50.0724854454165,0,0,0,0,0
101.30690136432,74.4356663459118,-11.7642178528924,-57.3327888808563,-94.3496913942066,73.9965865503027,-167.177150686698,-49.986816571105,0,0,0,0,0
101.372822652076,74.6398714490056,-11.7690675608099,-57.2832487127797,-94.2813579416646,74.1651558741975,-167.09152677162,-49.9042002761759,0,0,0,0,0
101.342743955243,74.8367255768892,-11.7297941035095,-57.334393182963,-94.1818136529982,74.2584126062951,-167.14571626606,-49.957669321722,0,0,0,0,0
101.475395863189,74.940010618394,-11.7900645893661,-57.3770248063702,-94.1410615534037,74.4368783477831,-167.197378381643,-49.9757459481431,0,0,0,0,0
101.551885545049,75.0878399757761,-11.8372440625628,-57.3283180923135,-94.0079059270607,74.5319299920379,-167.226591696191,-49.9298242758262,0,0,0,0,0
101.748569987031,75.3171618263959,-11.9871581183339,-57.2207527144697,-93.9865803714971,74.7343391385936,-167.156917719351,-49.8669018310074,0,0,0,0,0
101.934039893735,75.5391563698001,-12.0881728585287,-57.2196502740168,-93.8830429987847,74.8744917719247,-167.128718667885,-49.8813764776884,0,0,0,0,0
102.21858082645,75.8061285075594,-12.1964231556536,-57.1821798803171,-93.84578169866,75.0795455783689,-167.063512551996,-49.8012143693225,0,0,0,0,0
102.541440405391,76.1470897666407,-12.4691940795699,-57.1292599100107,-94.0585485962827,75.2219945062455,-166.886041147362,-49.7845812661785,0,0,0,0,0
102.780997845228,76.4506265008352,-12.7413023455268,-56.9784244836299,-94.1490066291618,75.4236092112752,-166.480109003112,-49.5421733135609,0,0,0,0,0
102.979188974692,76.7625132260891,-12.9224419535932,-56.9587734852443,-94.3041832368679,75.6315546019143,-166.180287457073,-49.4270071093758,0,0,0,0,0
103.240245678942,77.0915667687033,-13.1855038757229,-56.7424169374201,-94.515914905777,75.7828728497511,-165.772147911259,-49.2196301879127,0,0,0,0,0
103.513273782134,77.4690285366521,-13.3888094197361,-56.5700500412685,-94.6705358418535,76.04035562093,-165.394861742547,-49.0320729304929,0,0,0,0,0
103.856768367267,77.8345859089216,-13.680411134534,-56.2810790669034,-94.8020165783253,76.2488877138924,-164.982374060403,-48.8128680019707,0,0,0,0,0
104.152753351248,78.2276790445549,-13.7809168099544,-56.1092431313913,-94.9415764094149,76.4824104366425,-164.661146562377,-48.6652918959667,0,0,0,0,0
104.524789310549,78.7094459496932,-14.0079776775835,-55.7620640619041,-95.378316324337,76.7180836388121,-164.04953364765,-48.3591868735712,0,0,0,0,0
104.598128760915,79.1324635537107,-13.845907894363,-55.7321759060368,-95.672347977528,76.9928613890753,-163.700149333704,-48.2914285876836,0,0,0,0,0
104.85305929758,79.4991689595142,-13.5596058219099,-55.6900149576944,-96.0409263798718,77.2096249357211,-163.447494060488,-48.1583677930532,0,0,0,0,0
104.907961795149,79.7979849177805,-12.9087927722921,-55.792238728656,-96.4269840993921,77.5177815885848,-163.513054083177,-48.1918399145342,0,0,0,0,0
104.662103957417,79.992852557898,-11.8880752090879,-56.050620428099,-96.4189547350026,77.8750043115502,-164.047057829422,-48.3342381018011,0,0,0,0,0
104.485486626354,80.1704277247245,-10.7092680380682,-56.384728561564,-96.5111934727124,78.3128868552861,-164.819912451083,-48.4179354589487,0,0,0,0,0
104.301332744419,80.0973650606688,-9.14748500069459,-56.8898237004494,-96.4958643962886,78.7794561260048,-166.063133636146,-48.7012043957909,0,0,0,0,0
104.034337693677,80.1531509783466,-7.80522381736043,-57.0696862810075,-96.3180900142924,79.2623958102881,-167.31603808959,-48.7980065459677,0,0,0,0,0
103.927388502823,80.0909994602523,-6.54330586804807,-57.2612206536928,-96.0995210928705,79.6741988958272,-168.547193773038,-48.9072728551491,0,0,0,0,0
103.857859961696,80.1366943679532,-5.61814512487231,-57.2699453938079,-96.0659819788875,80.1020845921171,-169.426765170866,-48.8471041705082,0,0,0,0,0
104.065327521861,80.2620820470124,-5.06752171977143,-57.0613997148296,-96.2409731321006,80.5976127550805,-169.762981015871,-48.5343658766603,0,0,0,0,0
104.151252402623,80.4852018973697,-4.85911325406602,-56.9639256210248,-96.1919053738359,81.1276701488928,-169.944032645773,-48.3668638066199,0,0,0,0,0
104.284252026903,81.0283197331556,-5.21326946114314,-56.466542833393,-96.2889286205331,81.8210522204847,-169.52763059689,-47.8871100650349,0,0,0,0,0
104.579630359297,81.4719191135516,-5.50565318290538,-56.2070137249907,-96.5569756909006,82.458022093733,-169.127232723891,-47.5765630300035,0,0,0,0,0
104.736861612497,82.077135383563,-5.84201901184679,-55.8494800753244,-96.6625132757152,83.116952782661,-168.797195757816,-47.2509237284649,0,0,0,0,0
105.064909123009,82.6899795836595,-6.3134567232546,-55.3444816185766,-96.9316840801569,83.7133570803658,-168.403889294647,-46.8766354656241,0,0,0,0,0
105.394520748177,83.2789249632905,-6.55155701112261,-55.111211019553,-97.2797765113909,84.2508587485118,-168.062866032209,-46.5352763908745,0,0,0,0,0
105.391775785205,83.7649251521908,-6.54216942026099,-54.8753775993771,-97.2797046943763,84.6874844154871,-168.023101122121,-46.3610660529136,0,0,0,0,0
105.57105551678,84.2274001563337,-6.63886018856383,-54.7439059267914,-97.3502748415788,85.0932345224812,-167.958241263577,-46.1361843179817,0,0,0,0,0
105.826091073507,84.6217070721275,-6.57197419394288,-54.5132234147993,-97.4876698972464,85.3731092007562,-168.0056329741,-45.9389421446255,0,0,0,0,0
105.806417268974,85.0126614089112,-6.46929115183963,-54.4156625246898,-97.4315814174348,85.5536642444315,-168.154959956363,-45.8333677483278,0,0,0,0,0
105.97096032464,85.4030369568565,-6.63896268633275,-54.0938945731959,-97.5707123706824,85.819540778497,-167.763716986222,-45.4941128714136,0,0,0,0,0
105.903479650089,85.6297870435625,-6.55546342954841,-54.0365905174642,-97.5611736541851,85.8859512535469,-167.749622496887,-45.4398929634373,0,0,0,0,0
105.741246511835,85.7201226382241,-6.41788505296566,-53.9963646329966,-97.5413963886996,85.8620128830202,-167.712943474548,-45.3275055350863,0,0,0,0,0
105.670880589951,85.8662310140716,-6.35214785067245,-54.0013406904857,-97.6294734124052,85.8024341233728,-167.703314146173,-45.3249810518777,0,0,0,0,0
105.516692308319,85.9987828037336,-6.35323302618801,-53.9375577215881,-97.6751471750869,85.7222720588871,-167.71707876922,-45.3621407724722,0,0,0,0,0
105.380676125915,85.9720727981971,-6.35942948949463,-53.8492806030948,-97.5553614641873,85.6476191596776,-167.713226247783,-45.3020523820891,0,0,0,0,0
105.36137545421,86.0346869077067,-6.48655747673433,-53.7639247586805,-97.5744557735856,85.5599334221145,-167.56320571123,-45.228837845,0,0,0,0,0
105.212554773152,86.0227095309919,-6.40947497582772,-53.853003494084,-97.550267290395,85.4296036674601,-167.729233329783,-45.3566048839114,0,0,0,0,0
105.06136253607,85.863317193747,-6.38641367111813,-53.8711590698474,-97.4295995900529,85.3128128140135,-167.812108061314,-45.4496726625979,0,0,0,0,0
105.100836829349,85.6937642950009,-6.24801593910902,-54.0717290080452,-97.4749421295913,85.0871992975061,-168.069288475432,-45.745885075121,0,0,0,0,0
105.126456144732,85.5408779132337,-6.19815310301277,-54.2374764757109,-97.49143567317,84.9029981391311,-168.252281317564,-45.9971559636403,0,0,0,0,0
104.941023700928,85.2754201291094,-5.90489310140654,-54.7056479274576,-97.380312795728,84.6858479935467,-168.66384277059,-46.4662918152737,0,0,0,0,0
104.868318174116,85.0006877451377,-5.59504344971921,-55.1523711128013,-97.2801971748099,84.5694482249845,-169.096314243273,-46.8802588004008,0,0,0,0,0
104.740691324284,84.7510339593849,-5.32331600453631,-55.489196450586,-97.1283322337707,84.4332802957223,-169.435215625522,-47.2295537679898,0,0,0,0,0
104.538300614737,84.5098013672435,-4.98145916055552,-55.9509299791846,-96.8639705356947,84.3328327630356,-169.872883263874,-47.6227471989373,0,0,0,0,0
104.300200535732,84.3661743512837,-4.63958763581559,-56.4423765918015,-96.6445435525642,84.260445309831,-170.298698947135,-48.0455983887021,0,0,0,0,0
104.064553092006,84.1063608795436,-4.24725187281172,-57.0745874009124,-96.4060783886223,84.1760373296395,-170.744801054287,-48.5231297297365,0,0,0,0,0
103.869252508498,83.9322452370574,-3.94672085107061,-57.6762803627632,-96.2500878021227,84.1243280636987,-171.031368971179,-48.9877668139923,0,0,0,0,0
103.671152086122,83.7470904340696,-3.5500258609666,-58.4145068056814,-96.1252624734131,84.0437961679286,-171.451729940309,-49.5628342658109,0,0,0,0,0
103.605735056244,83.4929193203419,-3.2112149020937,-59.3368285707344,-96.0810016292501,83.9064655176444,-171.907994847075,-50.2923973072062,0,0,0,0,0
103.47474661917,83.2379449413091,-2.92720106082254,-60.1668201032387,-95.9269768748542,83.7466999338023,-172.317189063059,-51.1405916666443,0,0,0,0,0
103.393103424434,82.7661263834417,-2.3625092450724,-62.064925854039,-95.8613282334581,83.3790180738091,-173.235310472354,-53.0505355136357,0,0,0,0,0
103.228932565317,82.475876519765,-2.24130799739299,-63.9183306728293,-95.6035951085398,83.0670108152918,-173.749609699218,-55.0048494188137,0,0,0,0,0
103.172831785356,82.0134342802749,-1.86497952111853,-66.2925510069402,-95.1061420398745,82.4926602303702,-175.042030134779,-58.1934583647813,0,0,0,0,0
103.312456713865,81.708531817756,-1.85444693467579,-68.1845095325155,-94.8279143639049,82.071235206699,-175.952538340425,-61.1693579784664,0,0,0,0,0
103.434290237754,81.5856207965559,-2.14722646289735,-69.9738281203855,-94.3931222939776,81.6983005955631,-176.593233497843,-64.4218770135872,0,0,0,0,0
103.403127758368,81.5640385133122,-2.56784313999,-72.185005720043,-93.9052212497853,81.3772129370487,-177.073922837456,-68.5146360287901,0,0,0,0,0
103.148138102228,81.5545402372782,-2.9169290057236,-75.4038600182969,-93.4164429890015,81.1769329339016,-177.195131263547,-72.5390684043445,0,0,0,0,0
102.123054219417,81.6573542620328,-2.92727578337761,-79.2587635706825,-92.2123328851355,81.2174850684838,-177.555591087614,-76.7748291141115,0,0,0,0,0
101.461132056685,81.889381006655,-3.32248871535424,-82.5966771441047,-91.3365831353282,81.4071633805633,-177.297841899562,-79.7092891155988,0,0,0,0,0
99.600562230276,82.3020411886156,-3.58913685675944,-85.6552416365466,-89.4810854120738,81.7648619579932,-177.110187094695,-82.1357533508372,0,0,0,0,0
98.9547009453488,82.5158631662845,-4.15913287015314,-88.3210806821587,-88.6124851308634,81.8622896416055,-176.71985274215,-84.8774740025368,0,0,0,0,0
98.6338954274478,82.9318471781486,-4.7505495616943,-90.6520738286471,-87.8527887304369,82.0310006350904,-176.256431703654,-87.3086983464508,0,0,0,0,0
98.0575093488749,83.2685538477777,-5.37171955338954,-93.0596650183231,-87.2164246513574,82.2513469625467,-175.414598222434,-89.0632929169156,0,0,0,0,0
97.1115852067944,83.6374540115513,-5.92788665201346,-94.9495644341277,-86.362251177473,82.4373184150409,-174.560205412289,-90.2712931679996,0,0,0,0,0
96.945908182243,83.7751612999027,-6.65154282729498,-97.7064059897597,-86.38215708631,82.4068011806593,-173.360653490037,-92.3119617642615,0,0,0,0,0
96.7446825835918,83.7258362803677,-6.96693950653872,-99.7296156378984,-86.2254079372069,82.3054696546007,-172.568565759024,-93.6843693594466,0,0,0,0,0
95.9223965041554,83.4682792665361,-6.88917663080321,-101.609331051382,-85.3035204133468,82.0492985563879,-172.325561132007,-95.5234229131631,0,0,0,0,0
96.480402428198,83.1027675575777,-6.88700123403871,-103.082413659628,-85.8201544917562,81.6265010432104,-172.069901830506,-97.3630373694541,0,0,0,0,0
97.3453928457216,82.6087748753309,-6.94149288467565,-105.050193332426,-86.2645584361411,81.118205556528,-171.861003116217,-99.6313569620063,0,0,0,0,0
97.4462395951155,82.1205012059803,-6.85090520503184,-107.281949088958,-86.1761279071978,80.5860675340293,-171.890742543393,-102.029264505311,0,0,0,0,0
97.0326997081336,81.774779946064,-6.48416384965685,-109.57761886741,-85.7415741303632,80.2981354816783,-171.87216764516,-104.091395611468,0,0,0,0,0
97.9058155368872,81.3203314851085,-6.42641029075642,-111.80083433893,-86.4731007666804,79.7695820933322,-171.485324158215,-106.103819173771,0,0,0,0,0
97.7763685547512,81.662127620372,-6.79383858582372,-113.148482925125,-86.4834792221336,80.0320122615419,-170.675754588976,-106.910229031569,0,0,0,0,0
96.9950936938548,81.8528871700488,-7.15035284605247,-113.396612913022,-85.7962837490015,80.247953323099,-169.924291893181,-107.286752144998,0,0,0,0,0
95.6392349351387,81.8711425588259,-7.14083436293194,-113.620626943347,-84.0950008838132,80.4321857011019,-169.612256178448,-107.619167119277,0,0,0,0,0
94.4759226854279,81.8686178336611,-7.35962925371243,-114.204864043484,-83.2087505175957,80.5694482146353,-169.05980817315,-108.438830235987,0,0,0,0,0
94.5085508336183,81.5571686046149,-7.89317622769221,-115.383827350724,-83.4150598080911,80.3225500623115,-168.564311515345,-109.934123886766,0,0,0,0,0
94.5877450078127,81.7734084936025,-8.19951351105109,-116.69105249162,-84.0100191758073,80.4666463473915,-168.265922497259,-111.440786467091,0,0,0,0,0
94.018767848951,81.8750986904222,-8.5232018450366,-117.189616825218,-83.7054940099315,80.7620722662012,-168.068069125246,-112.279161204001,0,0,0,0,0
93.7691049885293,82.1709841039145,-9.45178988454168,-119.073603508616,-83.6818340410921,80.91354139762,-167.445343347426,-114.082535402853,0,0,0,0,0
93.1623492521206,82.136154234387,-9.82286677175898,-120.63162595101,-83.5261229932528,80.8064826031999,-167.260104499097,-115.653275351035,0,0,0,0,0
92.7362421839002,82.1010701691849,-10.0068682683371,-121.927409782136,-83.3391018139813,80.7369425495529,-167.117969102007,-117.189928117429,0,0,0,0,0
92.2723051565013,82.2835373251509,-10.3029664315735,-123.081221661748,-82.8098225217988,80.906340417243,-167.150084455557,-118.558921318892,0,0,0,0,0
92.3152447271739,82.2089412326296,-10.4626023014134,-124.214135666346,-82.8684919029523,80.7339854714414,-167.166848135829,-119.587461929249,0,0,0,0,0
92.7587746729059,82.2811071135645,-10.7183572298074,-125.144262738654,-83.3869840487018,80.8578437104171,-167.002484452845,-120.733797557867,0,0,0,0,0
93.852558594137,82.2783377186048,-10.748520791876,-126.01687439624,-84.5188447717541,80.762104692148,-167.011643998057,-121.792119778402,0,0,0,0,0
93.9378945680499,82.5189114783318,-10.8527462948102,-126.328490157437,-84.6284995834604,80.9710409645489,-166.78305712663,-122.204370282263,0,0,0,0,0
94.3099192182156,82.6634528322704,-11.0191995828725,-126.608194254318,-85.0538946116598,81.120954809977,-166.466974569748,-122.606961628384,0,0,0,0,0
94.8700458984985,82.6379682802249,-11.1870965342688,-127.06098113493,-85.588208202917,81.1577724086833,-166.344544243693,-123.08956614045,0,0,0,0,0
95.0740164381219,82.5891262702942,-11.1919322760291,-127.256883084107,-85.7578033482106,81.1486527367608,-166.389410823207,-123.247150586083,0,0,0,0,0
95.2112304744705,82.6062756755824,-11.1391607415414,-127.393253042943,-85.6788793943543,81.1763084021077,-166.389223710199,-123.264669682819,0,0,0,0,0
95.9214937307445,82.7492680036084,-11.3499075538226,-127.603100732449,-86.1609094692108,81.238362829005,-166.056433416755,-123.395323493657,0,0,0,0,0
95.7683788613443,82.7994376992057,-11.0439136159274,-127.61353934868,-85.8625246118621,81.2553773790318,-166.349832192063,-123.36191248419,0,0,0,0,0
95.6773222960831,82.7241236376723,-10.7125038622108,-127.678462008063,-85.9271048846208,81.168699794703,-166.651843744446,-123.408984399893,0,0,0,0,0
96.0848425674147,82.706691535474,-10.5063411077442,-127.871144333521,-86.44995051809,81.0443454946658,-166.749137023577,-123.735202461139,0,0,0,0,0
96.2706893070255,82.5323525524687,-10.4453379228142,-128.130327376012,-86.5656903965465,80.8543908528366,-166.717054773415,-123.969012140258,0,0,0,0,0
96.1971577815462,82.5949104709326,-10.4295726486293,-128.308396886764,-86.3039999231745,80.8982369610283,-166.754706046187,-124.144714954786,0,0,0,0,0
96.256335256746,82.7179172653418,-10.6009692010177,-128.622104585369,-86.0400304858822,80.8418132335943,-166.377490105843,-124.454420292525,0,0,0,0,0
96.1179981681468,82.8430431923249,-10.7487660332987,-129.0451466326,-86.0924076400767,80.7756194438572,-166.340399840625,-124.666165541764,0,0,0,0,0
95.9165183898763,82.8138238313878,-10.7953559782044,-129.696220282907,-85.6951391611733,80.6193165727802,-166.500165634239,-125.134662005447,0,0,0,0,0
95.9572931566425,82.5984736347722,-10.8667085295536,-130.664662874915,-85.8478914421654,80.3977351385986,-166.676140983547,-125.653487068354,0,0,0,0,0
95.6938389719765,82.3680513265182,-10.8799104831938,-131.596737726638,-85.7907512161274,80.1064937203589,-166.835144901123,-126.310467947074,0,0,0,0,0
95.2775134362424,82.2612643417347,-10.953267566731,-132.709319628497,-85.7699277105892,79.9393288045639,-166.844584718064,-127.185073227755,0,0,0,0,0
94.7209616990609,82.0175708461791,-11.1383710243937,-133.966216325049,-85.803712567163,79.7172796408434,-166.889966749326,-128.180425734024,0,0,0,0,0
94.1921561657804,81.7520111952297,-11.0560725883738,-134.915606601006,-85.4469167443301,79.594583188507,-167.184947971032,-128.976087866635,0,0,0,0,0
94.0786282605012,81.542752680583,-11.092154101201,-136.065739278977,-85.5400181958425,79.4930509956686,-167.521077177278,-130.01389688816,0,0,0,0,0
93.6719225358581,81.096755765572,-10.852996396149,-137.688767654978,-85.4720498732677,79.3171115845087,-168.013565043505,-131.234346227398,0,0,0,0,0
92.7599926897347,80.8908313750692,-10.6622798600293,-138.834440069912,-85.0100811324787,79.2801190241628,-168.501542196657,-132.091432748017,0,0,0,0,0
90.6717117581833,80.9072174228454,-10.1509099954851,-139.630208918284,-83.6439089718425,79.3589121570081,-169.30203653059,-132.672064840494,0,0,0,0,0
87.1005582712273,80.858169329494,-8.94799626329251,-140.194038951559,-81.0405800898067,79.4963432521036,-170.743911136943,-132.954053892342,0,0,0,0,0
84.0019856214908,80.8088371674731,-7.24027295110508,-140.380139600284,-78.1315126991929,79.9110372603618,-172.785551877381,-132.999044580793,0,0,0,0,0
81.2139374114901,80.8248194872479,-5.91691626072324,-140.559247802504,-75.6692971503703,80.2776564303412,-174.33633562181,-132.967319798199,0,0,0,0,0
78.4882388072017,80.9635848057014,-4.67533886890678,-140.478427829344,-72.8193208547542,80.7304219363372,-175.571282040352,-133.00077830613,0,0,0,0,0
76.7994593052472,80.8734702990867,-3.60552215631358,-140.682681650979,-70.8062659946047,80.9948664041085,-177.010801314229,-133.197225143288,0,0,0,0,0
75.6363341433783,81.1407443792209,-2.83071067907167,-140.697827617334,-69.16684115037,81.5254167393592,-178.223856514971,-133.260431373853,0,0,0,0,0
74.9311649602501,81.1857751593241,-2.29987829135615,-141.228411917828,-67.9664651528403,81.8044280861461,-178.944555507807,-133.700609439272,0,0,0,0,0
73.5396206447126,81.3301995804175,-1.75616448448315,-141.40695267878,-66.2316104049566,82.2370335173345,-179.877870847688,-133.908445167284,0,0,0,0,0
72.2708015938892,81.4937317260417,-1.06411002268337,-141.483041428657,-64.3863416926662,82.7367464359264,179.074033371978,-133.865725075017,0,0,0,0,0
71.9652240577065,81.494407176806,-1.05357220435414,-141.884531101284,-63.8123610055203,83.0085170228297,178.76888232627,-134.077026597543,0,0,0,0,0
71.3654203749835,81.4501530129722,-0.907006464208791,-142.040242760626,-62.7557892014932,83.1414120756046,178.433086454993,-134.192242358506,0,0,0,0,0
70.4465779142725,81.5914269305758,-0.680153250304215,-141.802505273504,-61.5756559509694,83.5464471289959,177.981816958676,-133.94853716019,0,0,0,0,0
69.7931085348935,81.8161972199192,-0.424210465266327,-141.618523435936,-60.844095223366,83.9116516676465,177.460471774102,-133.839217889427,0,0,0,0,0
68.4507487565672,82.1879433069173,-0.168277416315959,-141.439637626476,-59.6963451570917,84.4845039806048,177.0785470532,-133.570940662456,0,0,0,0,0
67.4727593904755,82.3716542013138,0.0878411260499661,-141.459480731126,-58.9776458716097,84.6532151288719,176.832811636758,-133.581067849784,0,0,0,0,0
66.9534794514573,82.3627960150494,0.385019943920412,-141.4742740984,-58.6178067534503,84.7316141055122,176.568152525287,-133.627975254247,0,0,0,0,0
66.6245352111654,82.3680535724288,0.555913816741082,-141.609490381291,-58.2478960689683,84.8170456533949,176.316394835573,-133.660464333198,0,0,0,0,0
66.4065109721212,82.2925525737938,0.820497326655897,-141.825105957274,-58.1897523179508,84.5341792315682,176.038670108512,-133.772137390659,0,0,0,0,0
66.1281106975823,82.6186851520865,1.04341508034281,-141.751264937313,-57.9536118465056,84.7234235740892,175.915804154774,-133.665950251497,0,0,0,0,0
66.197765672998,82.802062087007,1.02822440644701,-141.843537946438,-57.968965216463,84.7037694551868,175.944284788003,-133.682501112328,0,0,0,0,0
66.2496497022972,83.0324333811879,0.987394348623695,-141.82538170614,-58.0724683734262,84.8449844325124,176.022456796742,-133.638259088304,0,0,0,0,0
