JMW9912/AVATAR/Dynamixel/dynamixel_control/data/csv/poppy/.data/waist_test/2DoF (2P+Ori)/old/0422_2057_13_16_2_dof_waist_with_adj_poppy_bvh_motor_degree.csv
theta1,theta2,theta3,theta4,theta5,theta6,theta7,theta8,theta9,theta10,theta11,theta12,theta13,theta14,theta15,frame
-94.32656916508857,24.253969233946375,94.35497390174723,28.29882286208972,,,,,26.292119648224475,6.000000000000009,2.8051766135533356,0.736096783755453,0.06106657397293583,-1.5574253403185632,-2.1207448039576726,0
-94.32656916508857,28.206242397811696,94.35497390174723,77.67928416080046,-37.834937961569,52.84305849831287,27.477233012139155,-45.753554382917066,0.5193414052590086,6.000000000000009,21.604019580428652,-2.7119876779886165,0.6861814414248294,-20.352149877967115,1.415702820916039,1
-7.417480561725021,75.40274078235939,94.35497390174723,48.13731812962665,16.697560975293836,13.254906698625756,20.963700592445196,-59.96291736052103,90.0,6.000000000000009,21.3986603552554,-2.7236719433169934,-15.822110120286853,3.223359162038755,5.687973516863878,2
-5.807621998148847,75.36917924816751,94.35497390174723,51.01908573915913,12.707082498153015,11.497939770712561,24.528144154249894,-62.78707021687345,90.0,6.000000000000009,21.14183626249486,-2.7338137004207814,-16.114137957489866,3.298645394981569,5.863745471216113,3
-3.9426273386343844,75.71705436192455,94.35497390174723,53.09662006831407,9.417982693786946,9.64265696397842,27.32719709875522,-65.82304377427823,90.0,6.000000000000009,20.755750646683882,-2.7525937807859777,-16.429884276955647,3.4705942638075924,6.091420964545566,4
-2.570176407446333,76.23218395500815,94.35497390174723,55.29569083917737,4.791527303227813,9.326717039847466,29.31628258334977,-68.76806727591057,90.0,6.000000000000009,20.29909705214489,-2.732159695147574,-16.57134214540196,3.492863131193539,6.007383427626306,5
-0.6059341238052451,75.33429913772629,94.35497390174723,57.95405653725443,-7.507079364953911,8.509856323976358,40.86288293665773,-71.58791474446839,90.0,6.000000000000009,19.81584546969757,-2.70139599294307,-16.557318244362772,3.3732132926299627,5.705662281013963,6
1.316383404130939,74.42319252848596,94.35497390174723,60.54377584292184,-20.86523715713899,7.931005878451539,53.24942013672807,-74.51532034956634,90.0,6.000000000000009,19.275312280468217,-2.6324286382335083,-16.58486488152356,3.2719251295425202,5.384469234935852,7
3.3181722703891774,73.48127270056368,94.35497390174723,63.095545322471466,-25.898029048662725,8.383414846214945,55.24052948916672,-77.35204022549283,90.0,6.000000000000009,18.70458394443331,-2.575975218433173,-16.578056794626075,3.1723264099419906,5.120151004758744,8
4.7173296009830175,73.4265769356368,94.35497390174723,65.60817449287758,-37.427847848060374,8.357503919234844,65.61322000187612,-80.11054008359767,90.0,6.000000000000009,18.137097433288606,-2.497360378596834,-16.521749243479714,3.048110827816474,4.836796975139192,9
6.679225255753675,72.28340090751493,94.35497390174723,68.0370625841522,-48.73393052958697,8.670193686592924,75.62728909952578,-82.86120113785903,90.0,6.000000000000009,17.57581099898309,-2.3504895018283563,-16.462795593424765,2.881782429027588,4.467814029868318,10
8.612741559855532,71.16244904869306,94.35497390174723,70.42930694683062,-58.239999183396954,9.07506526295284,83.73748507119474,-85.59095219462728,90.0,6.000000000000009,16.947654908422216,-2.1837549160031586,-16.377122902202952,2.774114420983269,4.145785757281949,11
10.642762391804037,70.08177051035612,94.35497390174723,72.87735957917485,-57.41824419430581,9.555331334775646,79.5704522365411,-88.30105055634688,90.0,6.000000000000009,16.27636409345274,-2.018398897415261,-16.26808800678835,2.6477791482962214,3.8898249138871,12
12.721195385900277,69.10479837991035,94.35497390174723,75.27176317735325,-65.9736566556529,9.653439893649807,86.34832186023971,-91.06300743841301,90.0,6.000000000000009,15.64414800865552,-1.8616405784910486,-16.223079081911262,2.4394337151019947,3.668220819475217,13
14.210935337240054,69.37008707414084,94.35497390174723,77.57417455588659,-73.34550957614816,9.681398667460712,91.98312460870918,-93.8922075585528,90.0,5.743419921157699,15.042735298249168,-1.6637812207238412,-16.168555244394277,2.224325040631094,3.432523215404228,14
16.114312292289483,68.17466145250832,94.35497390174723,79.95055484408691,-69.91479269171639,9.828169585757474,85.18567099512316,-96.62582886129424,90.0,5.311510692557606,14.456195653864548,-1.4716289818544914,-16.010990447083948,1.998968948360308,3.150898176067183,15
17.958876314185407,66.89499500420423,94.35497390174723,82.38381075183806,-74.35105954441504,9.80174059940157,88.02353688342421,-99.15826292274583,90.0,4.880025450127796,13.872463595911622,-1.3088973887599975,-15.75900756854853,1.8055036456261828,2.9035261723161128,16
19.896116276024483,65.26292219003078,94.35497390174723,84.61177421410382,-79.37462731772867,9.62173929964089,91.34992734541314,-101.68158321825204,90.0,4.472336515038188,13.316838776833231,-1.1287265608994503,-15.57700216943769,1.5784956859263426,2.6787384610022498,17
21.22957301680131,64.94005556923518,94.35497390174723,86.89112836144268,-73.0173775129495,9.544527121412488,81.78170469012471,-104.11651941655641,90.0,4.086132025324516,12.76756264154813,-0.9309974847331399,-15.30445216456387,1.3496352476871203,2.398221926837671,18
23.119423698492042,63.20350632309765,94.35497390174723,89.1022291727498,-76.1609016872492,8.986417841765888,83.29715800007905,-106.59179363469137,90.0,3.7747979971545584,12.250224245429788,-0.7477344557788556,-14.998534154679547,1.12282244861222,2.179055010294153,19
24.61854491418382,61.45714608809725,94.35497390174723,91.28404435840056,-80.54239242482203,8.383696254395415,86.02895766358422,-109.08562565773572,90.0,3.8508236724197027,11.847354257284605,-0.6174575311416985,-14.745605356505957,0.9099128486593677,1.9402318448416602,20
25.12187251413146,59.56608952296104,94.35497390174723,93.37972666769423,-79.9584535246641,8.1070785278558,84.68679167261708,-111.27696599380043,90.0,4.201719059938262,11.38271426724122,-0.47868855215319683,-14.360057613755295,1.0157169696557766,1.5360745754630039,21
26.160109848255,58.3606089504851,94.35497390174723,96.14764236562156,-66.59091517558032,8.682765228383557,68.7678518611097,-113.07837586346028,90.0,4.320271685737985,11.06990553342289,-0.40541517020406326,-13.752708940543025,0.6799477354400941,1.114014938515227,22
26.66983768295413,57.932308617724814,94.35497390174723,97.3432069621094,-67.29154724912087,6.8420305808562984,68.38301135727517,-115.55167567191302,90.0,4.473211597027697,10.535899444786628,-0.18409738516922328,-13.799163432079732,0.9386048509925633,1.131272530917014,23
27.557773502406945,54.54941964908066,-5.403436435285644,99.71428765808871,-63.23393174689804,7.855821112018891,63.513614656870196,-117.01989833781317,90.0,4.760550243655904,10.113092282478313,-0.08365068779037,-12.956077182645457,0.568286124907895,0.2916006491621752,24
28.147934760405743,52.451493434556305,-4.039020717754244,101.72487632391993,-60.24579501458522,7.5464639193147995,59.716949922808446,-118.58551429681496,90.0,4.868586777892287,9.71661089401401,-0.019105537760625242,-12.521772840515586,0.4198717260465886,-0.03199154230193452,25
28.14471076524627,52.55448020659783,-0.9150673239553252,103.72959605000426,-45.53646505992028,8.004150551118407,42.77364478592025,-120.1620679169667,90.0,4.912963805969717,9.331943843332397,0.08002134841134531,-12.267156726162364,0.31851426051318577,-0.24703292676244426,26
28.045139405128317,52.675730045203764,2.309957871075092,105.64678329982632,-40.29136826614699,7.529436848562217,36.92009677275092,-121.55851478304658,90.0,5.067207801092734,8.908568593870847,0.2128536442890033,-12.056947334298588,0.24602115827712476,-0.5219804703670009,27
28.090745045100523,51.20429127818639,3.7286322941751586,107.19146517260408,-33.72374012659755,7.12568964934318,29.80990620173611,-122.78138800696001,90.0,5.170495991726243,8.405575259419521,0.3303921414233158,-11.895049723371427,0.20618131022501945,-0.7446995577962504,28
28.706159870743583,51.68284063889275,6.372694766865933,108.38983092756044,-33.60235060695408,4.900627527563197,30.40330899942625,-123.88632682945436,90.0,5.050727674332442,7.995115387661102,0.39710773312168235,-11.777397827389946,-0.0034442168799420987,-0.8290061103339382,29
28.564125033723503,50.545273495453905,7.637571566773772,109.62085232341357,-19.964267421394776,4.533258051960396,16.24741562633039,-124.9260428769522,90.0,5.094461104454321,7.691253090638529,0.4814904511193005,-11.651848669760714,-0.21286904584462515,-0.9805138619282914,30
28.184813798064425,51.08606670240967,10.639910556829072,111.01730381258909,-5.103202224572989,4.912725736936465,1.4054981414106404,-125.79764089065047,90.0,5.248147656793656,7.397970665062926,0.587561093616842,-11.44789876940738,-0.33240046935557765,-1.206647321600845,31
27.557972834912892,50.238571154699535,11.93367033551659,112.18092930522417,10.597382307572595,5.5796104662015,-14.281137171360571,-126.59334735353514,90.0,5.253283773064204,7.122339023408656,0.7223895232269054,-11.31678976852825,-0.4768053719172541,-1.3387468816252766,32
26.6888828790488,49.52055270418994,13.32350210326044,113.20438839618325,22.21767544408417,6.6179667681974825,-25.808770796688815,-127.26651014247835,90.0,5.363784225058134,6.849710312499425,0.8022165293011013,-11.201314354870384,-0.5959427520271913,-1.4486289379192214,33
26.21535474043361,50.74044886577618,15.90038108385149,114.0768259240938,40.23745295403571,6.508862701379665,-42.05513047908531,-127.85671106817823,90.0,5.227925353605133,6.878690708773522,0.917607026627499,-11.084919777808167,-0.9704714791698451,-1.5586575373003766,34
24.95570510673271,49.76455390923989,17.423836629632845,114.9973801141384,40.64141087449276,8.58606920581311,-41.35475752215337,-128.0357806963309,90.0,5.430340050397735,6.71368798448685,0.9737517413153273,-10.694783693122865,-0.986644740248812,-1.7574520072517854,35
23.642971998643585,49.57323932091372,18.701625903231648,115.7195084417097,43.92416935739454,10.52926797001153,-43.95750322240226,-128.09696165538384,90.0,5.308189230393035,6.4329478717913675,0.9781633103205662,-10.569140518043797,-0.9652145263643422,-1.7660349819087129,36
22.181081194596736,49.704249931177856,20.021901880698962,116.25649659434535,53.46485124847547,11.109949679804096,-51.33449958516607,-128.0749505793506,90.0,5.086113463184242,6.148715288811573,0.9852715021520468,-10.553819376677433,-0.999508712610836,-1.7859317639636447,37
20.60971501993341,49.87213834782109,21.469692913401634,116.64270627907361,53.7644463402572,12.788792854218798,-51.14512263293051,-127.87792706545208,90.0,4.907456853199281,5.919497639589633,0.9678226876705055,-10.531198604109631,-1.1175994006713976,-1.8559107393415604,38
18.84732683370329,50.01988606458221,23.02485137820677,116.97550329805452,52.592976860074245,14.440346252103778,-49.189347727506345,-127.40868946687543,90.0,4.895649891540364,5.680551384392774,0.9228731155485137,-10.418752817789375,-1.165363441850991,-1.9855497102828572,39
17.07462904257446,50.45047971134322,24.451886085210884,117.22171044101462,56.99802277532619,14.863580307275067,-51.059175273014205,-126.8264760620998,90.0,4.848138140847627,5.473743473397684,0.8878715359972014,-10.369318316372157,-1.2392289679522261,-2.1056450170838046,40
15.297857284769478,51.20158920952478,25.683322771159055,117.27989373967468,55.71990125603265,16.538538875189808,-48.88681902084388,-126.16908147987346,90.0,4.767902780219536,5.302645777302809,0.8786460711899341,-10.386771637109906,-1.326992854255114,-2.2182288460088744,41
13.49401461743507,51.95051114787089,26.911483316217964,117.20396171453069,58.567289401976936,16.913583312969823,-48.980177558613406,-125.29908699038472,90.0,4.732461796414273,5.128358323489492,0.8840330113711335,-10.3342845606687,-1.3923268684924406,-2.3854429562343467,42
11.745624901564744,52.778744118181976,27.997947037958305,117.10815830329952,56.30447361201669,18.63178463063582,-45.60728318772599,-124.24666950865742,90.0,4.664521914380544,4.973504571695298,0.8442573249257073,-10.236129763686252,-1.45539824843036,-2.48832285715374,43
8.969869880148986,52.316813013781925,27.80247337598877,116.95794515724249,54.80459230806526,20.59047042290555,-42.988780979884304,-123.115916359326,90.0,4.5557854681569845,4.86382092221134,0.7759366360691962,-10.17270155639257,-1.5126172258951556,-2.500995927207705,44
7.106791740120009,53.62484181854486,28.57347173294398,116.6302786161831,56.883429814319015,21.18523573848016,-42.16084145006087,-121.93651358001516,90.0,4.487882161512152,4.771050638405707,0.7063325610200571,-10.128427456120288,-1.5453976213971283,-2.5296943443670585,45
5.162810745540873,54.85269085501849,29.501727535741338,116.31763859516897,55.111568243180095,23.20281861395199,-39.19704094701077,-120.58856780031698,90.0,4.4226176621626525,4.688159559409963,0.623530801113814,-10.016196373010475,-1.5720056278057888,-2.572520090420659,46
2.1919225342039876,54.525936446520696,29.381728172633757,116.11711721256911,54.2288288366025,25.0989310550861,-36.86157336496609,-119.09822244099054,90.0,4.275129712929439,4.6314153698901785,0.5320293174063807,-9.888473740599881,-1.6054987196403545,-2.56327677648942,47
0.3590537752193388,55.95948542946527,29.988346698128893,115.44325371425941,55.373459507434475,26.037644814024606,-35.16949174325835,-117.49378866391518,90.0,4.142840943660783,4.554214281160365,0.4583584573662749,-9.774946664793324,-1.5574632431526152,-2.5426356426538783,48
-2.60865527803749,55.889063879739815,29.68179182212468,114.74623921484495,54.25313695952095,28.314499213413285,-32.99658708497264,-115.85367665007092,90.0,4.006762662346035,4.524998038930057,0.3783399382042426,-9.660211988654385,-1.5573457729051328,-2.5425960555600717,49
-5.7786547692878525,55.95064775036926,29.451916656278954,114.1663670085892,52.68878995221146,30.60069112467524,-30.27392238476937,-113.95311093933503,90.0,3.8926714486898706,4.519155181333871,0.26462106855282214,-9.457168391032475,-1.5465527124294502,-2.561337782505622,50
-7.923880404277853,57.73848568194396,30.262032982558548,113.58537375600514,52.86437033428372,31.329623429277806,-27.334344471147173,-111.74246254321338,90.0,3.7991147043120543,4.449161851789992,0.11970133637277218,-9.26185847712384,-1.4697149034108574,-2.5609979279482697,51
-10.905372377050309,58.16755572412663,29.809547858226136,112.70683111827874,52.10245652216149,33.34607342496165,-25.404160166479553,-109.44216476027835,90.0,3.6778738165597438,4.382873571911001,0.008275839299601283,-9.179450531153295,-1.4271059652521292,-2.5689376562613666,52
-13.835674079189678,58.70607962662398,29.31948271488332,111.62653719969349,51.53160870372714,35.231514422593534,-23.64701250802109,-107.10847393051102,90.0,3.660458025815983,4.385607541377494,-0.05477076988705402,-9.091804112715502,-1.4349454664600974,-2.6524707283609747,53
-17.002379606486542,59.3437254151593,29.20270429328627,110.58868862243632,51.68176493127048,35.52462616160548,-20.595107241852055,-104.63891346427035,90.0,3.755589441088187,4.420980402978759,-0.14480524413918253,-8.902462019665544,-1.4315336596626569,-2.7814832351772525,54
-19.95970873017347,60.09565410162019,28.815068683260474,109.3928629226361,51.4335006252167,37.48331897163035,-18.940060930355475,-102.13042381370703,90.0,3.651388672084429,4.42890834389619,-0.266667876693166,-8.714119496920672,-1.372272656136363,-2.7677749144191477,55
-21.923765124334103,61.806462121519964,28.858632029713018,107.82072153776735,51.66255920344091,39.389038815594525,-17.7519378118667,-99.5777111089508,90.0,3.473850149708373,4.432864107860198,-0.3703247116114126,-8.570039746758798,-1.323931270651327,-2.7164844782463433,56
-24.2914201673725,62.4878917338381,28.287418039796513,105.97101078742061,51.72354259975486,41.24256493041386,-16.370441521808964,-96.96381775151012,90.0,3.3836408789715624,4.446475906026453,-0.4858715809828951,-8.374910716652339,-1.292967469697036,-2.70609157437563,57
-26.82874111335415,62.945744170322335,27.765541997339845,104.09923196521181,51.35439095006009,43.075093068805096,-14.539938568340157,-94.16736552935026,88.77639696973898,3.3567481151088394,4.483613510969862,-0.5818925288035147,-8.105897209558647,-1.262805540322166,-2.76044102626102,58
-29.256578087419218,63.41047610376977,27.035331412503957,102.12344308926602,51.15028777432885,44.73219363468916,-12.947382846066386,-91.32291217665171,88.45049311262245,3.261755861019529,4.570197400877836,-0.6970016424661999,-7.897066469880893,-1.2867597563014566,-2.7992633035298145,59
-31.668762096927868,64.08211315998055,25.998860093669354,99.67712731534856,51.896032053181074,44.8075013255615,-10.157988005194214,-88.39200821190906,90.0,3.195477887893983,4.560089886919853,-0.8304238896014676,-7.756468099205805,-1.0955580319472478,-2.8073790689478564,60
-33.86447383029813,64.45321029450021,24.919373057448798,96.97732643722065,51.70745486094954,46.25631909798983,-8.670273401321479,-85.41564659016358,89.30195571509796,3.2172797423420043,4.600328958923362,-0.9488725688773025,-7.571103945441326,-1.0902432782662226,-2.872790180962634,61
-35.11515668235522,65.97219094553567,25.280043159134955,93.99635926306387,51.063298275200765,47.74784044457495,-6.771596987787933,-82.20147497727865,85.29560434573332,3.2945250663723527,4.789912660421967,-0.9772228510983395,-7.272524703858493,-1.2541323613575,-3.0636291497988957,62
-37.84362478671393,65.76989184965504,24.71970613099898,91.45211620211482,50.304143026711515,49.434175827755105,-4.4867811611246555,-78.85839677020606,86.573658651937,3.5258401751074206,4.777953056040183,-1.1204419893131823,-6.792531366632785,-1.1725736061802368,-3.255846049065183,63
-39.33421811613519,66.06731393740742,22.789155357526,88.45629667511655,50.67356015782776,50.708780076836156,-3.64658187126089,-76.05466183367108,84.46531351682533,3.30395731269282,4.946091162878074,-1.3095202040602971,-6.725272353282499,-1.2715965439136,-3.1277949146713335,64
-40.592776060426246,67.60448220454914,22.72063844816022,85.5174736641689,51.16105119849631,52.08036575044125,-2.613575826269664,-73.39951051902878,85.99984281576819,3.145397755308584,5.121141190202559,-1.5077582924102972,-6.54237444209631,-1.236908261322069,-3.0594275861244857,65
-42.52237335727048,67.64205774714337,21.041870917097246,82.58811914511311,51.61902180720251,53.44991933640966,-1.5382886073878608,-70.7971794364749,87.10576714377686,3.0653041176276434,5.230870888711159,-1.6227673602978403,-6.330319403062079,-1.158398883669441,-3.086932007993744,66
-44.21711989264603,67.5231341099594,19.277121495014086,79.78628536293927,51.885630153850656,54.90100859258411,-0.35613628228297234,-67.97867733431367,86.10617090190384,2.918072532356873,5.3014460398282734,-1.7367458572664278,-6.102958451171675,-1.1388107604625404,-3.0785599178839735,67
-45.91212101821059,67.39550792838371,17.470382626576615,77.20874226902764,52.29215642398314,56.38291223018694,0.7491063823920906,-65.26208881981796,84.83736166865863,2.749201493729567,5.3001452568034955,-1.8750336725278431,-5.871054590630797,-1.0758292652120838,-3.0285226247566848,68
-46.911488291628075,68.64558332699157,17.270512989495785,74.66861885728439,53.04417873349834,58.7866882417422,-0.6664863784370849,-63.12011728171226,81.1189895735224,2.673137073905123,5.328769330987595,-2.0051639852716296,-5.726303673454655,-1.0861296019566336,-2.984469703033959,69
-48.56317081790739,68.70379887385877,15.369521389533828,72.26725152396354,53.76270991766011,58.86996963924234,2.370643938162289,-61.30542225418221,80.12913580970009,2.779823420243782,5.342010172610033,-2.156248142330475,-5.5231592931583,-1.0662640528927978,-3.0378756091390273,70
-50.43837868704283,68.76388697253641,13.7032072972883,70.11908049132663,54.27967015429085,60.44854536451052,3.021342896482724,-59.62155182733879,80.23763832723156,2.9182690939445237,5.283474509160876,-2.348199259349054,-5.227498978527937,-1.0184835568924733,-3.150342495972426,71
-51.72427802739461,70.01051848427113,13.856240352087271,67.98143061027704,54.84001830773517,61.62556489971862,4.229108479642481,-58.164921031918,76.30973473085086,3.024729749788299,5.239922464861732,-2.5352215979873356,-4.9651948859738875,-1.0853560106398374,-3.241872104917491,72
-53.44675734989751,70.04437052131993,12.104731415049297,66.03270442255885,55.56779225837399,62.86525787903647,5.396031859860007,-56.82488429522682,72.49225661254093,3.1244193517028633,5.165783402397876,-2.7165443581057835,-4.652142813159019,-1.1263859922040185,-3.3318233601662706,73
-55.17687003665255,71.26279369167693,12.644219564587175,64.34471338429859,55.881951543407986,63.14296395670207,9.018190808132934,-55.436448281442054,69.25864672655763,3.380480677481259,5.089173487423034,-2.9128644135796353,-4.225953039112852,-1.1876745430821454,-3.52100281695481,74
-57.04398842257303,71.51274615213987,11.00432546571733,62.63676025636424,56.28968758282557,64.32656030636676,10.325929196762653,-54.12909237541048,66.64923861726491,3.790062403672218,5.036970452139456,-3.0628673971901126,-3.8245805973620195,-1.2999559911772935,-3.8093529566970825,75
-58.527716141182225,73.04444628526467,11.155907225022988,60.70134649385187,57.161026874943666,65.31585463535906,11.377506271628036,-53.15925419825245,66.72263965414244,4.225411423021954,4.876224512135797,-3.169716737941944,-3.4900786569742706,-1.2885797950237639,-4.14964748601476,76
-59.95798855623285,73.42924738107865,9.135365038935852,58.78922312674308,57.76821698573144,65.29190236754582,14.621355737236362,-52.55104750934347,64.22936903669907,4.642705826179027,4.735782216043679,-3.3153256451304145,-3.162601219252414,-1.3828275803814591,-4.428313941132288,77
-61.05494330755424,75.08151094463352,9.6405577044822,56.95184201316813,58.72027982120499,66.2250765001917,15.429458282317231,-52.146993813945095,61.40389237257437,4.9202985125146395,4.643753071403627,-3.45020354743565,-2.8556604128021967,-1.5027243590785075,-4.644053808659857,78
-62.13563161634265,76.2150331050627,8.87212626042984,55.028073455960374,59.64075485568293,66.22252550924695,18.39913448157161,-52.00766189077157,58.81644076888253,5.148310105042469,4.534986520799716,-3.5563455204527705,-2.6078398069683697,-1.573660071513396,-4.817915808501305,79
-63.168859114526235,76.33765276325222,5.955822159360119,53.0577071017132,60.92501634427974,67.19863075101499,18.978806794735096,-51.9509464821154,55.5875212503639,5.3061151827898945,4.393534492480177,-3.678101243663233,-2.3560319476376277,-1.636047484003191,-4.919291321538094,80
-63.871045737260445,77.43056111382205,5.244878860408976,51.01682764093248,62.212760027705194,68.19610688773388,19.52509445816175,-51.87684712052334,52.593719256836415,5.405182303998716,4.223746752775229,-3.8160128910977593,-2.1162032114021767,-1.6914607355222961,-4.975079772466789,81
-64.48496323937344,77.66440361689519,2.354766059871242,48.985780994352396,63.02687779887767,68.25753474857464,22.406118718257005,-51.87458095762476,49.892941817963454,5.591300585913548,4.077840647877038,-3.995517236706054,-1.9138147033820854,-1.819607037523662,-5.013267854250384,82
-64.9497276442614,77.99497747210168,-0.6314178850073969,46.83288138324188,64.4282243818745,69.12665183627927,22.769752067099496,-52.09519631814336,47.931871470307414,5.63644775095914,3.876132729044007,-4.214339269592618,-1.7857003354862668,-1.8656527144007162,-4.981688628290312,83
-65.27254015645342,79.1514548564037,-1.3360545277058653,44.719027032130406,65.85614533388208,69.99987624033166,23.065479313741697,-52.25979523124404,43.97508521351671,5.6565316555844065,3.6329825972035548,-4.441847531523641,-1.6765837712827012,-1.9213673551159207,-4.886702585945181,84
-65.5541049248333,79.4374535057332,-4.162748867700121,42.62762608639027,66.65832911192581,70.03537139836632,25.841905864281127,-52.32468807920341,38.80904579297787,5.839128583181474,3.3980281573727575,-4.693398989709449,-1.4961244943000285,-2.040754451525287,-4.80102726888615,85
-65.64119588811734,79.80590744343736,-7.047567721739602,40.34486243068306,67.87004459814766,70.93121042568362,26.18017773818454,-52.49858107961954,33.49129723679819,6.000000000000009,3.115707950803216,-4.9546811148935,-1.3670319959255424,-2.113995796750541,-4.674282221636597,86
-65.7567924317152,80.90123431615574,-7.570884010469187,38.07948749588942,69.08836685324799,71.808080690517,26.49475187826281,-52.67053596052801,28.800766406367934,6.000000000000009,2.7249912430292094,-5.225586024120723,-1.238206349305873,-2.1353763842432745,-4.528716118019199,87
-65.59110192158961,81.38301982805744,-10.285046470444062,35.91656627828554,69.63187569541292,71.70244196888426,29.227394412082855,-52.83722927577066,24.912485780841653,6.000000000000009,2.3786565587181006,-5.466120931489144,-1.0850993632385992,-2.3160830633531795,-4.4872815815600084,88
-65.36870519454521,82.03037111606552,-12.92477030360872,33.48727764244655,70.47423417867806,72.35700432942362,29.681959248356815,-52.95305437539225,22.27444798284856,6.000000000000009,2.097070627847513,-5.707327472428795,-0.8812141893717906,-2.5191702937014995,-4.517002776806845,89
-65.16716304297074,82.76789693883711,-15.564124294623147,30.753039212939616,71.32912157493931,72.98116428745004,30.125516861654997,-53.01392707204658,20.178493900136985,6.000000000000009,1.8098058724095918,-5.923122394588613,-0.6568627802583499,-2.6650186109150984,-4.5548076527309345,90
-65.28764540083074,84.00034918600056,-15.750504813873455,28.298822862089672,71.56936451550452,72.78173802831594,32.970920216311136,-53.07172996411772,17.834608270543693,6.000000000000009,1.5152530665443948,-6.13287200592131,-0.39251768550431904,-2.8210932525393737,-4.582869577292089,91
-66.24637943381525,84.38051199035068,-18.143232187292686,28.298822862089697,72.2672447098951,73.47767777794185,33.48453076960322,-52.93084311153222,15.20753534645064,6.000000000000009,1.1843339000222814,-6.320620139411215,-0.0822404948285319,-2.9555741065463677,-4.594699801396348,92
-67.1478474991232,84.83902004402061,-20.43337034381658,28.298822862089594,72.82063897062766,74.06181488621299,34.09235505804956,-52.78909035376693,13.637570676818882,6.000000000000009,0.8555721384726437,-6.493594287058994,0.3045754522889009,-3.132736797969301,-4.688935990279772,93
-68.16839860171918,85.39929044011984,-22.633866137315522,28.29882286208972,72.6857285501664,73.69963303630071,37.17156982378908,-52.721869432064985,13.19830092579414,6.000000000000009,0.5310640344681558,-6.651534499055647,0.7757624884321215,-3.3074878160691985,-4.890327886147567,94
-69.10094622646021,85.98456172167003,-24.82735692963752,28.29882286208962,73.07537077103362,74.0103173370919,37.85125624208819,-52.86158427462087,12.756681898790303,6.000000000000009,0.19203557070233995,-6.823186317317158,1.2444459659611407,-3.4981362636087683,-5.081594938706524,95
-69.79824532466681,86.54385000884959,-27.048070282261097,28.29882286208985,73.46679814291903,74.24945040384941,38.449757956823646,-53.297259010347815,11.998739194736883,6.000000000000009,-0.16522698090183455,-6.981735306799499,1.6627895257983931,-3.731033747057905,-5.239340722909588,96
-70.50113599399975,86.97347717781383,-29.203851413909042,28.29882286208972,73.79521398303329,74.5692544811109,39.118017192167414,-53.65697003604726,10.651316937251437,6.000000000000009,-0.5661089707757647,-7.117403059986127,2.156546817715926,-3.941451460422079,-5.362896049532049,97
-70.90348356272641,86.87177672547769,-33.64299401583899,28.298822862089697,74.06247280326275,74.88180028930347,39.86403047552536,-54.02929852451379,9.404330441000036,6.000000000000009,-0.979495079066379,-7.318355122403786,2.7170125403562926,-4.161477238526903,-5.423224858258375,98
-71.44665629399245,87.24797599272397,-35.65901807283262,28.298822862089825,74.2732510661578,75.00027734387207,40.609675559785266,-54.68572719071225,8.865608306380919,6.000000000000009,-1.3378807321170043,-7.5494655762755025,3.2771611598370405,-4.472189219691808,-5.496818117613785,99
-71.94705584658844,87.59838710615654,-37.6564792208201,28.298822862089924,74.43985118904499,75.0218528440498,41.34129807069746,-55.422694655783076,8.501907632669514,6.000000000000009,-1.6769235899498092,-7.72031515994025,3.8512961863629473,-4.790249632728149,-5.606943735235575,100
-72.53542315048162,87.84296813024876,-39.67180447372203,28.298822862089697,74.47639152398763,75.05451603627257,42.07767121861235,-56.121508447288406,8.054288409779476,6.000000000000009,-2.0457644087602245,-7.893828771449176,4.414494222046903,-5.0605648619998655,-5.69190446608754,101
-72.67865427881841,88.03073809634448,-41.60306225328798,28.29882286208962,74.25686833691604,75.21505990748332,42.89035749620169,-56.79374233418736,6.9492121305534384,6.000000000000009,-2.3774776874815027,-8.116396212282536,4.975841993306934,-5.416305178681006,-5.684130132700219,102
-72.86222955972076,88.11811544940012,-43.51479884436509,28.298822862089697,74.02506540644484,75.44022491604586,43.73376483572776,-57.462733662869404,5.694220918442207,6.000000000000009,-2.693421873382988,-8.325176383639345,5.5619470694320166,-5.750444415460768,-5.644226596298685,103
-73.50067053888975,88.45781548283784,-43.105549874314534,28.29882286208962,73.92443268422912,75.62395459859789,44.48787735221764,-58.229066972847214,4.443344584115859,6.000000000000009,-3.050660039941841,-8.5013433065256,6.127653205443281,-5.979676344090268,-5.566033098219242,104
-73.97468473883508,88.58162695453194,-42.57448611310625,28.298822862089697,73.69433297339917,75.86154683598801,45.33859593467578,-59.08270835577635,2.9198121177889074,6.000000000000009,-3.397346891890438,-8.727786725675905,6.751808441858265,-6.252371578387843,-5.3994768783837195,105
-74.15191794933266,88.52716994297728,-41.96290252578239,28.298822862089697,73.40240442942078,76.11600788088506,46.19086385162976,-59.9817245844782,1.3680938823523119,6.000000000000009,-3.661495427531671,-8.943766342340794,7.376514225611991,-6.592821714347982,-5.186323438064995,106
-74.50808357311259,88.88736220821724,-38.8247818381601,28.29882286208972,73.21406281626749,76.29021958575753,47.1260963031047,-60.83750400827408,0.8266743392384996,6.000000000000009,-3.87515982624959,-9.134778354264,8.114012192393474,-6.864377471213359,-5.036489760353659,107
-74.82837208159049,89.30787147676479,-35.44556423129009,28.29882286208962,72.78077562500458,76.42676251234181,48.36208018163814,-61.80095309624572,1.1962771462761657,6.000000000000009,-4.094928499152659,-9.419898469789583,9.041888709789028,-7.106294409311249,-4.920003783228064,108
-74.50877905249138,89.02104086781938,-34.6516428660422,28.298822862089697,72.04096997739579,76.71617396883545,49.33704482849373,-62.715127562626876,-0.07755062162941487,6.000000000000009,-4.328745376326344,-9.730103582132044,9.676843865323608,-7.372694915061806,-4.638449188018074,109
-73.82157014250991,88.58122824492902,-34.16470968709862,28.29882286208985,71.31932218673862,76.87640557442813,49.85901317598349,-63.760979670443454,-1.6818477549438868,6.000000000000009,-4.538595489134415,-10.0081794189526,9.9375534427735,-7.621611917431958,-4.308068379115381,110
-73.11503952389675,88.0724605718235,-33.680563592316226,28.298822862089825,70.5875511628564,76.98471480438133,50.353242687368926,-64.8725400974408,-2.5708554628493188,6.000000000000009,-4.72144056786634,-10.29920249166515,10.16128328037003,-7.8068160826887,-4.006620841135851,111
-72.2808351524761,87.4239140362508,-33.24613263312935,28.29882286208972,70.77182970198547,77.79572919736668,48.406401110506195,-66.03110507046686,-3.7395814591647394,6.000000000000009,-4.881007425055881,-10.539186546034033,10.30312498589822,-7.987866741909743,-3.7165448405751804,112
-71.67804138138472,87.32160538789925,-30.477522900907594,28.298822862089697,70.0324072088663,77.68069920539513,48.67896763837792,-67.19705483767528,-4.096118496709838,6.000000000000009,-5.033182582933059,-10.678226002127873,10.428093315021197,-8.134111781154788,-3.5360819049379915,113
-70.79796536869326,86.95869981370294,-30.086811409126245,28.298822862089697,69.24755175005528,77.29841711624952,48.90220782380082,-68.46910143036924,-3.085292990149084,6.000000000000009,-5.1881447154775024,-10.78152050250812,10.542947862398247,-8.211481005659074,-3.508381282864026,114
-69.81142424981422,86.58195059911822,-29.728781773152612,28.29882286208985,68.32234337188903,76.8346747309614,49.04470317057485,-69.67484113638596,-2.0146545837977405,6.000000000000009,-5.346993034611347,-10.869121740060924,10.59123275532931,-8.246170634296128,-3.533736475897948,115
-68.55382022218699,86.12822984905252,-29.37190044235209,28.29882286208952,68.11823796415666,77.2665466222276,46.85868566949236,-70.71806319386393,-1.051837961590478,6.000000000000009,-5.450736607548335,-10.929925163182826,10.59126573945463,-8.351779506197518,-3.555330511043501,116
-67.31676213063298,85.67853166884753,-28.998343655148275,28.29882286208972,66.97779979714906,76.80140138339945,46.94738322953999,-71.82213336421164,0.38592395063691726,6.000000000000009,-5.495467791891888,-11.000098721615348,10.599260410215274,-8.445249285604143,-3.6005623526047277,117
-66.52590468038512,85.5628870261459,-26.25709841447123,28.298822862089672,65.97564179742766,76.38901199033086,47.01515933382323,-72.90628148873444,1.5380975070748026,6.000000000000009,-5.560511926844264,-11.08976473208685,10.626061210103241,-8.45491410987394,-3.581709382561082,118
-65.35974599029419,84.92881995999227,-25.829628138598117,28.298822862089697,64.71505540090007,76.10261884894554,47.165204019439535,-73.81790916650613,2.717021415046952,6.000000000000009,-5.611370853116828,-11.161659344286356,10.688226122103407,-8.517664408063032,-3.57591790735016,119
-63.9799013718885,84.26756099319442,-25.41339478994641,28.298822862089697,64.3587734198166,76.68407892583683,44.97871491100867,-74.6735803731316,3.75656800896681,6.000000000000009,-5.673732544900111,-11.235094607157103,10.70769082521529,-8.572883555059208,-3.5678935562793153,120
-62.58202923291007,83.594489011899,-25.057111298882443,28.298822862089697,63.28683939994755,76.2833039935602,44.925618180887135,-75.53817213825985,4.574609142873876,6.000000000000009,-5.802281578292378,-11.328197159469529,10.686056339062013,-8.543367086476849,-3.5140533341529485,121
-62.69684148941813,82.8358248855013,-22.127708341900462,31.75735405535766,61.9110832607548,75.94560360012996,44.905912028903835,-76.24426153603244,5.666643916196013,6.000000000000009,-5.903519088142748,-11.384748272424865,10.678703355558033,-8.584593563395817,-3.4953442303267606,122
-63.12150871602835,81.42309998123825,-21.46289042286789,36.74338974791972,61.24180044570502,76.56363266453994,42.617341876760015,-76.83150244884717,7.556976833168374,6.000000000000009,-5.93977952689573,-11.398714989333348,10.640099201603565,-8.660546405205967,-3.551038901850698,123
-63.53178358105978,80.10160027078044,-20.78354806244911,41.56244289823067,59.856311253125064,76.15333840181958,42.484203115504776,-77.37012989219947,9.699683676483422,6.000000000000009,-5.990275020905381,-11.416447706665586,10.580717212993974,-8.65257806660762,-3.608645088637851,124
-63.892439262234106,78.8626413635335,-20.124647792352146,46.429384397614164,58.71945963462222,75.61174454303467,42.20269584939073,-77.87844720831089,11.9431655296657,6.000000000000009,-6.078573611122498,-11.39519218465275,10.459384134250392,-8.614992801940444,-3.6981797966293066,125
-64.06030072699954,77.82914827017763,-19.53254148705427,51.020334348545056,58.56034315583383,75.8773426368143,39.54736252972111,-78.4956606571919,15.039689618744571,6.000000000000009,-6.165230417800835,-11.353651017593037,10.250653763988405,-8.567603190166574,-3.8616831362753716,126
-64.0162780189955,76.81369298964704,-18.991427793696843,55.44232193194176,57.45265021565828,75.07678126101574,38.97930532019488,-79.09989902515527,18.06023441440137,6.000000000000009,-6.235172410721552,-11.29271214672163,9.968503219278661,-8.513034302450539,-4.003919502800384,127
-63.78636492947779,75.837028161604,-18.466397435397273,59.731962404363074,56.45225827617527,74.21832647703157,38.32239569094992,-79.72639283447174,21.14000517158487,6.000000000000009,-6.2569295516617,-11.210252391281424,9.65669981423603,-8.480713622918506,-4.141488762776707,128
-63.9089855847278,76.09761599881102,-15.728184735708641,63.80800422777005,56.397039334269145,74.44203428124597,35.467586075443954,-80.23728310475991,25.735854783222706,6.000000000000009,-6.297555622745702,-11.099286863915033,9.376697672760208,-8.377275303809204,-4.341563694919603,129
-63.662667973547784,75.33722588947991,-15.282993643016729,67.73903108289677,55.3258769535797,73.62557205527422,34.77104254874784,-80.43826732463839,29.77207184923894,6.000000000000009,-6.357073567178128,-11.014044199964895,9.02970316836207,-8.24265004598435,-4.495865858021835,130
-62.91999194109814,74.66795203430371,-15.245345923897405,71.44415488353847,54.30055898405731,72.63264871002113,33.61436940604217,-80.58983944223884,29.694976319401952,6.000000000000009,-6.386720903164319,-10.918757305628333,8.355850946945392,-8.132777080840556,-4.550681384309035,131
-61.55442953426952,74.1369388837576,-15.587681263091579,74.86706150524178,54.36699136071847,72.53015945931857,29.7835446938192,-81.01987430766131,27.02112359339811,6.000000000000009,-6.360111093616821,-10.777993688259432,7.4221822321958335,-8.05422500878825,-4.556037004009484,132
-60.34062577679141,73.6401531131752,-15.768209855506008,78.22321836153698,53.81710855900592,71.27153885552048,28.318067988398166,-81.39407027809202,27.02411264054175,5.460221960546801,-6.375330503605051,-10.643507079038105,6.653256885210979,-7.9012810685929304,-4.5949367399937,133
-59.194895333130404,73.24017321794364,-15.823664461268331,81.44467574401571,53.91643553963894,71.27956844711196,24.844033459109404,-81.73023825082822,30.167126765077583,4.796020865306078,-6.408157561003179,-10.493088888718228,6.01318377851854,-7.746954886770698,-4.724092650873223,134
-57.91719438517724,72.86172602325816,-15.788942062506525,84.54473003955603,53.33328818051105,70.07918422974927,23.653458322406607,-82.11554656635052,34.17969332276054,4.228865559750634,-6.306952901751447,-10.365786795384357,5.411535274864714,-7.746128747087445,-4.871462509741883,135
-56.77021723031959,72.46193351607528,-15.74257348482117,87.58182932906327,53.70795462164839,70.19781906574151,20.27615258891915,-82.4601587034177,40.56233220359545,3.4394525020654525,-6.18633603154567,-10.275024797842514,4.829693577847157,-7.656728516163945,-4.958969071581937,136
-55.53503041056271,72.11020261129882,-15.76755940461849,90.36945433489446,53.69632461040466,68.96937597111727,18.960070887469218,-82.7970780258888,50.97865719930902,2.6032473046724123,-6.132595465005727,-10.179045353150311,4.233148375333285,-7.482195695240649,-5.025920230130069,137
-54.89242026570165,73.17304175092649,-13.499626991874829,93.10055320081298,53.50921108934711,69.33272017872645,15.938275157819835,-82.89431120665755,69.94907717133309,2.12091340586228,-6.130312410426524,-10.101255094909439,3.8015497216266225,-7.352290165270448,-5.1572423338197675,138
-53.98539622969222,72.66428246640234,-13.127797557383774,95.98408696902175,52.80345898935164,68.47212565620165,15.12148921270561,-82.94314612920874,90.0,1.9107608807158816,-6.1742416039729315,-10.041786310942527,3.427590767170936,-7.249273061506668,-5.223166910522152,139
-53.3244819384079,73.78061546674239,-10.865928703602883,98.77721441173185,52.688085525252745,68.90053630186891,12.130644718506371,-83.1576463031176,90.0,1.9973645925434815,-6.1951540574211945,-10.00564548023869,3.015116797442961,-7.212334918317306,-5.2832895220291265,140
-52.30478895877211,73.27737059513028,-10.404914299896694,101.37308525330107,52.202879530255686,67.97151097643976,11.270417932627339,-83.33413872727866,90.0,2.1864479172100517,-6.173421143854416,-10.01775531404282,2.6068534528958875,-7.221311542624335,-5.313633889599811,141
-51.675982177836524,74.44954214107105,-8.136848037208477,103.63770602030344,51.920259806877574,68.55584011100161,8.43914371548344,-83.50275987863206,90.0,2.4669983639125137,-6.160402938267178,-10.04328800454347,2.214975986341702,-7.225204286227251,-5.316909980049037,142
-50.83614528469401,73.96951258991282,-7.647219891701332,105.7811053085133,51.47492116828299,69.28591972378823,5.760102420636136,-83.7352700826492,90.0,2.8675054990432853,-6.101313949742841,-10.069913059556901,1.8694294886335443,-7.297492006178861,-5.310721920506468,143
-50.1876171324269,73.44526662895481,-7.135124951064341,107.95968524744238,51.106745424202444,68.65731204035758,5.084340524333166,-83.99653759571343,90.0,3.486267528350496,-6.046325312045062,-10.089122816534463,1.5740858786456846,-7.3262029615396145,-5.2579982859382275,144
-49.99805372742693,74.66373405321377,-4.8204789126289835,109.55885429077811,50.93041560139849,69.5624269680138,2.579218550427561,-84.39399162503028,90.0,4.282230001053682,-6.042048121419927,-10.122607269694482,1.3880408088152596,-7.324744128094812,-5.217731101243509,145
-49.98736514570793,74.08623100582251,-3.945270358521877,111.07188237520609,50.44256545602911,69.1454231878819,2.343494067731979,-84.76382957912155,90.0,5.076776528204018,-6.055808660784351,-10.127082997824397,1.3725621857577717,-7.365015940625926,-5.279844882435402,146
-50.45520697471687,75.29646330902766,-1.2877630008037446,112.47847522759105,49.805757840045,68.89069170278034,2.373201678705373,-84.83593194618153,90.0,5.740353063553839,-6.141364396188998,-10.151612316269516,1.4450034040677664,-7.358256823220652,-5.36679615443603,147
-50.263408822802795,74.93011805417557,-0.8028069112894762,113.62316398904251,49.5072252483472,69.99860475579496,0.0734103784710899,-85.17825480761891,90.0,6.000000000000009,-6.189819163804844,-10.16850536561394,1.296141782501007,-7.48891569976488,-5.346826690261042,148
-50.68803118094428,74.5773525520157,-0.10133931306257826,114.56302505608618,49.12798675912548,69.78145373317486,0.023290002898966412,-85.57089235567305,90.0,6.000000000000009,-6.267357237680637,-10.194823389849507,1.327155770853905,-7.557008691110832,-5.410847569872486,149
-51.176236162439196,74.29339378761533,0.4569284541350548,115.2277299171275,48.80837720633519,69.59368272394946,-0.049041722938166984,-86.03634015776501,90.0,6.000000000000009,-6.372312232539989,-10.155684304302966,1.3908382575162261,-7.637409818906998,-5.502576534859475,150
-51.81507851246523,75.80539252760813,2.7323363203531095,115.85187306898207,48.223687076319244,71.05227489662299,-1.7473821572896981,-86.27232973130107,90.0,6.000000000000009,-6.424843002974987,-10.11932257226794,1.5786323506381277,-7.826300471140702,-5.6202716842570375,151
-52.69303576778406,75.63307237952003,3.1830408836554827,116.36289666094638,47.90937920632592,71.0302258098216,-1.6280767662926432,-86.45295830810336,90.0,6.000000000000009,-6.529487805258771,-10.124651050332151,1.717241694810466,-7.930389720049338,-5.661233918601309,152
-53.567326485593235,75.64607743165365,3.240649396472678,116.62138684995068,47.84103324175443,70.87979283025042,-1.7741753011500174,-86.84678688021528,90.0,6.000000000000009,-6.734025309651807,-10.115474177233482,1.7159190872892194,-7.965072815220813,-5.679958908928321,153
-54.21899116521612,75.77726497093632,2.9689298715722927,116.58131100436432,48.085906174604595,70.65630599543657,-2.1493430330830523,-87.58688893379767,90.0,6.000000000000009,-6.9530048108411915,-10.098608667123685,1.6371865427441938,-8.045000735244178,-5.6513644269749665,154
-55.37984407155959,75.753607625437,3.1234358448131627,116.5618714521233,48.03654248368576,70.7549533768292,-2.0079996218960487,-88.01884658040427,90.0,6.000000000000009,-7.133061701508541,-10.108563873035491,1.8375606817428716,-8.195215829136952,-5.638215877722455,155
-56.42913206601417,75.76306883356301,2.9776640878840364,116.2722362071262,48.21964346059087,70.86623777415228,-2.0467015822803623,-88.40002264581987,90.0,6.000000000000009,-7.3127089523999995,-10.147274320255232,1.9354892034484106,-8.310693839505332,-5.49347777438392,156
-57.22057494496041,75.84876283063285,2.4953406953498547,115.71931833436818,48.55108405828465,72.41677945316644,-4.190927164952518,-88.9003722639996,90.0,6.000000000000009,-7.456738439014198,-10.164686684073786,1.909867069503686,-8.477309951254139,-5.291282235268868,157
-58.25046217876418,75.9594431150423,2.032121503401596,114.99648858125693,49.11717986532327,72.53834161364064,-4.341204855857635,-89.34194274906014,90.0,6.000000000000009,-7.596339736090006,-10.16083262994342,1.9973026382487231,-8.617670876384613,-5.115316070166207,158
-59.480275035657286,76.08016685419419,1.6536459086576132,114.13965999143947,49.735690996280375,72.74369330018459,-4.314857014530179,-89.69610192322007,90.0,6.000000000000009,-7.761130324356545,-10.126269790807683,2.214235048900308,-8.72022055513882,-4.988120928252025,159
-60.79163780603929,76.2533671673881,1.2644009426761715,113.19226204482635,50.39041786261184,72.98754267931528,-4.1974484324326715,-90.0123945567923,90.0,6.000000000000009,-7.926503401622715,-10.05818334979804,2.4929541876140497,-8.842930384742024,-4.904310159942456,160
-62.068024093881554,78.3050526118263,2.390858794953651,111.92891076229068,51.06310194501516,73.18293497399259,-4.079362551249867,-90.317447449081,90.0,6.000000000000009,-8.09394157813463,-9.994661001072837,2.754208729517751,-8.932082723024115,-4.8507006331527895,161
-63.29985294921508,78.51392842071655,1.7969133023391233,110.48974956157593,52.061730807235655,73.44461823847469,-4.070155438039607,-90.70159418455559,90.0,6.000000000000009,-8.307323766875541,-9.941621091401574,2.993856629182948,-8.97862710449984,-4.677956924823852,162
-64.42314176440377,78.70704310593891,1.1972527886349205,108.97375807631941,53.26743146308158,72.25906222742705,-2.1803370471225394,-91.07402574321084,90.0,6.000000000000009,-8.54779510163591,-9.887980722034154,3.2591249285074424,-9.055846766976954,-4.459847437916893,163
-65.31542869184437,78.94042598771952,0.5841074306818813,106.5611197408804,54.18249691473011,72.70247543729003,-1.930407851858915,-91.13630909184107,90.0,6.000000000000009,-8.768090912230683,-9.806545137242693,3.6101641099735216,-9.17463303145229,-4.27061090186153,164
-66.07019064864211,79.18137354016844,0.02739457494016677,104.19896822046508,54.955922441843214,73.20321054195756,-1.5914640666681312,-91.0880059702815,90.0,6.000000000000009,-8.907627940817806,-9.734709151024058,3.9761227569179103,-9.372497136558977,-4.067856579078829,165
-66.8037787395932,79.44168505385409,-0.6838285775571078,101.55680242998714,56.44439398734421,73.56153180795339,-1.5251963329680898,-91.21380025422337,90.0,6.000000000000009,-9.109291847967011,-9.618984169761053,4.2700329694571,-9.4032816918514,-3.8560436355930316,166
-67.41554339312577,79.69856010338303,-1.3023907361362315,98.5399377441173,57.78051179971203,74.02045634268869,-1.286892657337497,-91.21773644996841,90.0,5.804779565870459,-9.302200693171516,-9.495705695643194,4.626410230748958,-9.473117787145917,-3.657190819540888,167
-67.69864135667353,79.92726348178427,-1.925528061131949,95.06061448625289,58.56488937436756,74.64513925621381,-0.9089353301874339,-90.92168949180225,90.0,5.431290220492213,-9.422230051815015,-9.400562779759628,4.959228585209897,-9.624792481821494,-3.391758981217223,168
-67.80299597223474,80.1358803144022,-2.552536563622631,91.31587727006561,59.5330250192684,73.69854406026097,1.269393165059734,-90.4907708800209,90.0,5.116102179590217,-9.528400747450249,-9.297749277246242,5.2892426930781635,-9.747837195915885,-3.086034984017288,169
-67.94520492147451,80.46480449459406,-3.048694059842915,87.24565153674898,60.82450496682952,74.08577438084095,1.6249235231059063,-90.13006224040191,90.0,5.074235058113663,-9.679639657484143,-9.19854534336931,5.713087488251065,-9.779208253379576,-2.8924508875722728,170
-67.99045813018353,82.2790570674074,-1.5210893929444655,82.84973005195474,61.91205146528524,74.46810655574096,2.0774200415825463,-89.74183291256237,90.0,4.972281240584085,-9.805124725192123,-9.104370339084046,6.1599746299803,-9.855059520961525,-2.7443793759185815,171
-67.76616537955537,82.67761986352352,-2.1083476545510536,78.17525603103371,62.985593546087806,74.88079379105008,2.3790479747916424,-89.31027352637703,90.0,4.778438704527481,-9.839705284950833,-8.85294445276651,6.529616515069161,-9.977461810982364,-2.6562327430755843,172
-67.50917077796018,81.66295165003638,-4.791211856413137,73.30210281422204,64.37526896920497,73.84680190997571,4.466995711565477,-88.76790090917032,90.0,4.662331684196339,-9.87855894275266,-8.707953082328038,6.802734498902602,-9.941164990225895,-2.3724956058449034,173
-66.9874229774526,82.03593187780744,-5.393208499614642,68.0372469061474,65.69041387455718,74.23267188237917,4.635418106000372,-88.31242648130163,90.0,4.382286987560384,-9.894105885856353,-8.562533682348205,7.055858098098512,-9.949060953638625,-2.156062481983413,174
-66.05767359321973,82.57724189368804,-6.077524130572415,62.02015795670932,67.0458373489752,74.43856033998888,4.659322526286797,-87.96275418431394,90.0,4.06155758493426,-9.88845661724747,-8.402767773292444,7.231708191659303,-9.94351355232649,-2.0285123610100246,175
-64.44295432660677,82.17426406716395,-9.009374550543754,55.219654782800845,68.59512264182709,74.55160746931274,4.5375770781323705,-87.7691710498101,90.0,3.774248771901663,-9.796030103635603,-8.248183296806067,7.329805047900038,-10.005403650313516,-1.9092039036544501,176
-62.923336604307494,82.78632610647817,-9.58180192222436,47.96766352748483,70.17624815107277,74.7700943581449,4.599190069880397,-87.52504816985872,90.0,3.676959724250682,-9.711429910051203,-8.104723390994522,7.561393556513408,-9.999255482433831,-1.7429374215473372,177
-61.10412713764191,82.67534200066227,-12.303404285159548,40.17731498408294,71.6361502496673,75.02892562503686,4.841850041189243,-87.27326578539181,90.0,3.617383707981332,-9.68563521118046,-7.971912541781426,7.919825063830716,-9.941570260879978,-1.572103211768276,178
-58.736755456377665,83.06323612484277,-15.116942913306247,30.90472818500674,72.85480300780746,73.72887632829439,7.012285902897999,-87.17470623190624,90.0,3.3901771821305,-9.680918519474984,-7.833271101172991,8.269100594815733,-9.923451670981445,-1.4534538358062867,179
-59.04617904395432,82.90139126611835,-17.625934903857996,28.298822862089647,74.2294411391985,73.88313640362487,7.148260315413347,-87.24491962748623,90.0,3.0762875500940177,-9.651932850431256,-7.649713980835628,8.575304696691223,-9.946930304496194,-1.358558150238299,180
-60.32194382944351,81.79782360792798,-22.336563637347442,28.29882286208985,75.63768939410484,74.10344306437577,7.349406039147303,-87.2137283775392,90.0,2.811302576141615,-9.618715409468319,-7.443111490591864,8.942401764363604,-9.932285601782645,-1.2146473071914865,181
-61.890612326815905,81.13156651299943,-24.481098617704248,28.298822862089697,76.9773795999245,74.2847471400659,7.733010142069242,-87.17003427086144,90.0,2.7006834993105606,-9.590460868709684,-7.244591381972499,9.477636577139952,-9.899405712097806,-1.072751673121954,182
-62.329502818659975,80.51649698724128,-26.413195386469937,28.29882286208962,78.24404669813921,74.41144465956457,8.27236586545349,-87.28049949281476,90.0,2.674599023731318,-9.586038309461962,-7.037536150867573,10.16298871839971,-9.8802687306995,-0.9587686256191567,183
-62.6404942517367,80.4389013386048,-25.87720566615098,28.29882286208985,79.21423886901728,74.64381298388163,8.98486866276209,-87.43712649162897,90.0,2.654486248851169,-9.569202299941741,-6.857967196747644,10.924932665806267,-9.928324127745611,-0.7843967501728336,184
-63.39026055039619,81.03394611199072,-20.47790601343157,28.298822862089697,79.60486859815633,75.16748235527994,9.950859446843815,-87.07362690198809,89.76641726589384,2.5360962956511353,-9.579843324437473,-6.720236276889657,11.753948345108956,-9.940883317344625,-0.443803207250233,185
-63.79848996862404,80.93150374984138,-17.36818957558791,28.29882286208985,79.9586140458191,75.7914427153969,11.034940523358307,-86.87383589595262,74.78720240574205,2.3935181167179564,-9.624546598412762,-6.622371142310058,12.65032597495455,-9.936797940115655,-0.00841961418002686,186
-63.926292607540304,80.26342777181999,-14.151115981818952,28.298822862089594,80.56785632240255,76.70405617815287,12.259962047569575,-87.14074707433586,49.611742306695476,2.131723929729682,-9.585158110946173,-6.569603448087847,13.60795864993519,-10.082557987514793,0.6828859990600777,187
-63.934239326229076,78.86853120396856,-13.444256453164936,28.298822862089697,81.392416950985,77.76897955226104,13.406997258858617,-87.1073991468368,17.715621307215226,1.92692247723312,-9.577182969476493,-6.448256606509774,14.50491523188939,-10.133162871165545,1.5172560847051142,188
-63.93904686550565,78.1112445475756,-12.917152131564073,28.29882286208972,82.274183861317,78.2872852723174,14.189335243203963,-87.08956414820895,-0.5982110221296768,2.124084215965476,-9.61705816030261,-6.227904370259873,15.271547117256748,-10.073929761409445,2.010094612589887,189
-63.78052939171389,77.87334887982365,-12.534400503020324,28.29882286208985,83.25325162543956,78.24794318355099,14.602524184825736,-87.32944108469371,-4.555878772748031,2.3740832935556475,-9.629713583638804,-5.974806970449146,15.89386523852353,-9.991632592330504,2.1880678077065245,190
-63.60982879098611,78.34558149548428,-9.857302536186117,28.298822862089825,84.07974834672645,77.9710974629383,14.82182697927565,-87.55039919945754,-3.4690929301901217,2.7020690951854758,-9.540717718795488,-5.665553526875678,16.443621359149112,-9.947541405712943,2.188179124173426,191
-63.3704412774539,78.48384424719204,-9.782726558581576,28.29882286208985,85.47403170987803,78.94063364102996,12.736946834647757,-87.70337887806875,-2.4417012374014195,2.9181587335848516,-9.430590235973613,-5.350298226271765,16.785354313503635,-9.808112913813959,2.105241939310652,192
-63.03782443981931,78.24553946457335,-12.119184948482005,28.298822862089697,86.52741652371789,78.28631739362274,12.504815758188505,-87.87281701893914,1.4478072324656137,3.0554600743307083,-9.37798068326274,-5.096721211525817,17.0585929112116,-9.588201198943695,1.9674423505245213,193
-62.693975636629936,79.0316447794733,-9.671412753249742,28.29882286208972,87.43110449183843,77.54899826457647,12.241936066730911,-88.23174021396987,5.668690581886132,3.42709281630299,-9.305463095156858,-4.825911456273743,17.34496626621971,-9.47322526158294,1.7663780721574684,194
-62.23849286374312,79.15672577552,-9.635005038495684,28.29882286208962,88.53787710116542,76.80879588810318,11.91046094082391,-88.63957633151712,6.948333589939917,3.7338273356092953,-9.206360029167056,-4.591161889742341,17.57848315909466,-9.33633521137902,1.6232270480293403,195
-61.929178849722,79.25598826564824,-9.525107359101094,28.298822862089697,89.4956362806763,76.14335804027218,11.708269698152321,-88.85255989051804,7.800082376348335,4.020236575434498,-9.122224137563578,-4.409666385996272,17.86449401538492,-9.170721617394838,1.5282717777522465,196
-61.62239866359624,79.42208437627187,-9.43138646717128,28.29882286208962,90.58877663477232,76.92144348805859,9.508063846679883,-89.07431279132216,8.878822938357985,4.408671486836632,-9.03541664783852,-4.214930654120912,18.132902661441754,-9.046177199399908,1.3909664925559064,197
-61.25771330537856,79.64506218293263,-9.448505387984456,28.29882286208972,91.54567798192377,76.13743278853123,9.080280454184948,-89.3964744888331,9.968806283515665,4.764999786361541,-8.928217399618404,-3.994037851443027,18.2894277793188,-8.904891772452011,1.184427402715347,198
-60.71062075998641,79.25523076686417,-11.834674250812471,28.29882286208985,92.37831165323252,75.43950482759108,8.702405046559617,-89.6748731188387,11.744542156407825,5.074438573377784,-8.735955485102858,-3.7721184035508624,18.444914191906058,-8.827476127886598,0.9755866283228947,199
-60.54683394982311,79.7600780689,-9.417881312774085,28.29882286208985,93.4763164797412,76.33993146830329,6.498847581796297,-89.86565053976945,12.855667252133516,5.160284592256317,-8.539618455001063,-3.581929961671852,18.654998211459436,-8.671023954453691,0.8714592083748695,200
-60.33312500309585,79.60886560181234,-9.3743525687827,28.29882286208962,94.37931127586424,75.75866603641205,6.2204061962899395,-90.07880148195548,12.172106938530632,5.176852588505466,-8.388469933849391,-3.4085550654838834,18.87463655784991,-8.486552639983616,0.8624967415676914,201
-60.03176891546564,79.43113951706577,-9.286833530200962,28.29882286208962,94.99002006155922,75.19264989552815,6.007482614057581,-90.154001365367,11.540741695034985,5.279921321201185,-8.214754341110588,-3.257386118025494,19.115436031548533,-8.372210458697968,0.8337401886109168,202
-59.67287051118786,79.38026103055554,-9.276198761340735,28.298822862089594,95.7297162650577,76.11393578228069,3.802057652032217,-90.12513151900951,11.786597664454751,5.350242281172395,-8.022889579637779,-3.099037228751212,19.26604165426154,-8.246449544928632,0.7096432034947074,203
-59.30288722184531,79.316566087098,-9.335037912412208,28.29882286208962,96.25956919647886,75.59997041396981,3.485065823749072,-90.03206445870251,11.732392344437864,5.424631105993394,-7.79641443241813,-2.96272122873131,19.349161343976665,-8.110454813904063,0.6100818224453123,204
-58.89953250591453,79.10964606014423,-9.402311291334257,28.29882286208985,96.61633153940052,75.23601319878455,3.258849917763739,-89.84183767763285,10.689797457383339,5.488992900057153,-7.508508898579743,-2.853030579395893,19.429956657434104,-8.019640686746396,0.5868628461347916,205
-58.64611383424302,78.90662567970442,-9.42892136459269,28.508244686786192,96.94526012120637,74.89187293967879,3.098256072852142,-89.56160360523725,9.838795242766617,5.47035351948581,-7.247535065480069,-2.71841811559254,19.54800390241061,-7.882350176695739,0.5446502889024093,206
-59.07435768086263,78.66699860548074,-9.253571209295238,30.072962821907918,97.21655107522504,75.06787148619833,2.225304063738667,-89.32223168715382,10.390046383618882,5.481183444776666,-7.0091828318620095,-2.5685783798024704,19.72691727013549,-7.73125329271573,0.4286828364621704,207
-59.50605817690255,78.41448723767381,-9.082405929697062,31.587956474918624,97.4053790390921,76.0614854403598,0.2808066876482262,-89.05790842136771,11.226005821747998,5.484390805170847,-6.739664016048858,-2.434073499731245,19.884626870217986,-7.5930051411390584,0.3094828066206953,208
-59.79694323980781,78.1661124301422,-8.975797141944845,32.8676078182383,97.62931745668298,75.6049883757282,0.19739705547505693,-88.95988295352612,11.67914080392183,5.459431062318675,-6.427207965949272,-2.327443237349986,19.985503452890946,-7.475838159805162,0.20355855404054998,209
-60.1379214370609,77.83605768691197,-8.932966491029784,34.26716537386603,98.08405471892169,75.24259002230588,0.015132673409847482,-88.94804267795908,10.699218032585682,5.326160803138586,-6.135031361543315,-2.230798759130658,20.023970753246974,-7.324764355573862,0.16902184766465184,210
-60.643647926117666,77.5001669630999,-8.787576815704794,35.804231290991744,98.27258348529952,76.40873159809601,-1.894572668987792,-88.82242751220448,9.700979292529466,5.208243550089253,-5.805303957145156,-2.1998843691643253,20.108092105676814,-7.199176756772691,0.15743402663398676,211
-61.01052277308921,77.24864976698883,-8.679653392524004,37.12217532593844,98.30349249557598,76.02567141145778,-1.8898425856431624,-88.58822473501692,8.707966937463954,5.16030050451971,-5.418668472732884,-2.1869044505408763,20.16990910718519,-7.1156735828235975,0.11971201148803506,212
-61.37352090239494,77.05212245212647,-8.607885107614889,38.42736788047936,98.37638165708601,75.56762201029038,-1.9358985633632495,-88.32545607493867,8.64723216160624,5.085248862205528,-5.032529204371801,-2.1056353149974165,20.22391818080508,-6.9994496726935305,0.01734883130350672,213
-61.79351508044407,76.95896628675162,-8.518230941778274,39.60093589996216,98.55162618613521,75.08365220114469,-1.9810110015689617,-88.25631988331406,9.760922401393263,4.970071174046285,-4.630747388002374,-2.0205372365278143,20.28620573953753,-6.857772635233409,-0.1479988994769328,214
-62.39483130653347,76.89747721560371,-8.388934874172294,40.81819716368732,98.64548692068949,76.11183234595785,-3.8769274500834476,-88.20214285705727,11.477970257793205,4.811172056237229,-4.257898874025025,-1.966131044769512,20.345683595628362,-6.674415840753645,-0.3101819402498332,215
-62.96925450124504,76.88935051669553,-8.254181669615422,42.12489118686049,98.63496722387949,75.51620471022191,-3.890513028985545,-88.08650523336718,13.424749423748791,4.726864861728394,-3.894587254346981,-1.889790453432922,20.40654526170617,-6.522885198008774,-0.5221368252683106,216
-63.471472643972696,77.81527393108102,-5.922704071631835,43.23119970044622,98.72670952139586,75.01175345976628,-3.931724130394531,-88.1390553131997,16.03813846385526,4.669023305920068,-3.5121075759860827,-1.782124535430674,20.408909249478576,-6.372066813515317,-0.8069860994417889,217
-63.95661068058972,78.08125672452705,-5.921804848579975,44.27878929813651,99.07963891823513,74.2223909827714,-4.194755763381256,-88.50040444599682,20.714992822881047,4.636825716614395,-3.1553928826480244,-1.638417370618765,20.382435506529173,-6.173133172318655,-1.1757721851688425,218
-64.24087476141341,77.52453269060506,-8.252669846997069,45.281727017934124,99.27927314704583,73.45264649030788,-4.428158549836023,-88.7492149740546,25.747421290548612,4.656883094888292,-2.8199077235815246,-1.5054465519668083,20.31901442188931,-5.9729260374071425,-1.541669101382282,219
-64.19702268796436,77.91556185304346,-8.585876774323088,45.924113478460555,99.52748729156555,72.80649294464853,-4.8382094073787725,-88.85142080359311,30.364189086312564,4.691907086310124,-2.509809710648665,-1.317285941309276,20.059531793993827,-5.762493206437879,-1.9467398710743238,220
-64.19765443383928,78.3244574779699,-8.999114052006046,46.475812237841716,99.72259142587332,73.78203672000929,-7.173444131318428,-88.86501404899464,34.34366325589726,4.696893611709535,-2.253889109418176,-1.1321819717292787,19.718331027237493,-5.502721054145722,-2.321561794158421,221
-64.4113636034309,78.71463317058013,-9.263261653078995,47.09570959710095,99.6806071068794,73.29132201879332,-7.393184813127194,-88.7993980589112,38.439655224108435,4.895530342674244,-2.033951405745651,-0.9574505115783633,19.47184729301174,-5.264915318718192,-2.70389514073661,222
-64.38458587294767,78.19179635873894,-11.910024926754721,47.781304502913144,99.58438989419909,72.91218320105854,-7.634756460366574,-88.79579890658887,40.44864474338533,5.049276353592853,-1.7793769330736955,-0.7546552585931802,19.149343041238847,-5.100510196856763,-3.0440386126615735,223
-64.39263468684074,78.54965433930967,-12.486421805957704,48.38196849980548,99.91157349351795,72.64416412139565,-8.168658945469431,-88.82782487116813,42.49188477527834,5.047300104801798,-1.5087998693555316,-0.5104774138618124,18.670230135267136,-4.899484276728965,-3.354770380524413,224
-64.43367818199872,78.97254560482403,-13.026396227254502,48.804800419941216,100.00952978158023,73.84196088813295,-10.48351500021899,-88.96099984650309,46.92068913959715,5.139836404221808,-1.2361771063439801,-0.2681561666753342,18.201202685155938,-4.652663562094936,-3.729010692542476,225
-64.54571331724988,79.24543523818161,-13.516787811200844,49.2756531825175,100.32964019298895,73.7378634431558,-10.880877694601303,-89.19680931606952,50.30225572687472,5.2020363297443035,-0.9874741861063926,-0.0802387970072536,17.749112606197404,-4.392417106105591,-4.000745165509017,226
-64.48605614440022,78.61058363155352,-16.31930866955512,49.9775883909164,100.60720078096594,73.61262287899396,-11.31943027734879,-89.44470475624637,52.09205965604848,5.265135799103222,-0.756630716861211,0.13472150527292434,17.279673988575553,-4.1784324232773296,-4.2375571768650735,227
-64.7162867431618,78.9142927544752,-16.820163366326852,50.65183025995916,100.891264996463,73.3768126233628,-11.825257473703775,-89.64020409213454,54.79566898642692,5.421129846879557,-0.6129063390906924,0.3495093433635703,16.795449013502772,-3.906624204800059,-4.524836405050902,228
-64.68587056219029,79.02088364824272,-17.286441155105976,51.14830206272443,100.79577999763983,73.2878743570873,-12.163253415033832,-89.62358788131512,55.37608921990009,5.60225696414454,-0.47158568319121547,0.4884519848680721,16.279689613400652,-3.725736702095087,-4.735816198308608,229
-64.46808349519088,78.90044693602438,-17.78169578266807,51.67762088231115,100.27397722215034,73.41147654499603,-12.298368280674545,-89.41383021161492,53.45356829901819,5.653899289889038,-0.23135354477244607,0.5725480239429754,15.706612376272675,-3.6890240095327664,-4.811499697144742,230
-63.99020376556608,77.77623984302215,-20.638427150216785,52.31726080994765,99.88961979490905,73.66034194136867,-12.513067290448687,-89.12666828910349,51.74564495260169,5.488828623984282,0.026833822265437603,0.6041286303135742,15.074420304165834,-3.614894907505929,-4.740127484928769,231
-63.39869332005463,76.71401745976684,-23.54161281304547,52.82544081198605,99.90248096701862,73.79741262162433,-12.9890980435936,-89.1774685817222,51.10363760237917,5.399635028674076,0.2311991479488891,0.5842492541885272,14.392885414547955,-3.482599000953031,-4.651426787871618,232
-62.92320892001139,76.58068467941307,-24.141952105033628,53.10370007447091,99.90352086760602,73.78052706350603,-13.53176676281231,-89.42514049987034,50.11701271006563,5.401700510734004,0.40866025006298906,0.5737676829015517,13.706335480936227,-3.4078058857718982,-4.607621214393432,233
-61.97261181080454,75.49023590546186,-27.000107852322184,53.4314699806726,99.83631299512352,72.24226840470791,-12.08325685073521,-89.47371704832007,48.35350453264946,5.351489530692044,0.650981744776339,0.574902530297479,13.048884909021375,-3.4308114219295507,-4.5687300480589315,234
-61.60249429404246,75.22890628730428,-27.4688817318268,53.76488670671456,99.1391495899699,72.1641441413072,-12.205172585787052,-89.21777456858057,47.831836020984774,5.279757776017871,0.9246219544041533,0.5584755773507649,12.428992998213499,-3.394327299603038,-4.529557818417661,235
-61.21397233198501,74.98792637579945,-27.888204304426274,53.937314113312645,98.19868872338536,71.96591716984774,-12.196061207498193,-88.81228745468829,48.49034462405111,5.275440567628619,1.152825727489244,0.526970941542372,11.837290884187992,-3.2937359500797574,-4.513735115036271,236
-60.140317300838774,73.8905742514884,-30.64159615884955,53.99879058428016,97.25913439938651,71.85813150798433,-12.393500363941982,-88.69660520364518,48.39618446099763,5.29060939505272,1.3334830692306248,0.4799243921044302,11.252119796092654,-3.226547775379271,-4.485389486550963,237
-59.53489260545682,73.6535883665956,-30.96650831070721,53.912108201335975,96.79635504891418,70.49339623014808,-11.225136856428866,-89.05584502961457,48.334467491415595,5.366660049609169,1.4596030925748973,0.4167155966019713,10.716746584569492,-3.139467539897974,-4.4913415772310685,238
-58.358562369888915,72.4224874612984,-33.580934064449465,53.8108396699072,96.12499235368696,69.17498066311926,-9.943162739834856,-89.26381685988927,47.71659501413032,5.393612102323994,1.5144285214448514,0.354507565518513,10.241312782833583,-3.036071159912972,-4.458203409590199,239
-57.64897749283919,71.91198585752008,-33.71202580591412,53.69465469596134,94.98369866986131,67.81164805988813,-8.5281384463167,-89.24003288685407,46.826410029791965,5.525375869364033,1.5440320798939255,0.3547398470471948,9.862383878264636,-2.97944278347204,-4.489202937238093,240
-56.95661218527709,71.23692027501777,-33.645819780642846,53.59980871068566,93.35494706591966,66.46041919086635,-6.896457437558947,-89.1459852226023,46.52318764728513,5.785002129485525,1.6378681270182676,0.36325419177413437,9.616953129104541,-2.9938659117466675,-4.56789926311913,241
-55.65777953855482,69.73448963765307,-36.02748785661285,53.41090203838435,91.5862714788759,65.2056681483328,-5.212548075318339,-88.97928122188023,46.43833990998029,5.896059540083353,1.7829422465041536,0.3468456367461278,9.34565863972538,-3.009427088383966,-4.589306648657052,242
-54.90800909683917,69.15175914928311,-36.136486347904736,52.986443993801934,90.10841457719046,63.91625006507799,-3.6184089050332657,-88.72489547712453,46.968518286066384,5.8767192564573545,1.8118391199244517,0.38364525185136994,9.025426036784925,-2.8560510357753457,-4.613709851792036,243
-54.24156092471958,68.39121257519098,-35.97316570347236,52.57321575532317,88.13012725370346,62.636585529336486,-1.7311220791852044,-88.45209588562953,48.271783037889925,6.000000000000009,1.7587759526800508,0.4250796392376057,8.88452998533943,-2.715613163159723,-4.722201953300263,244
-52.67276184644848,66.71546733270468,-38.263596779670216,52.07086094338581,85.60510241481246,61.531606429274305,0.32392992270104404,-88.00860460242843,47.53509220279013,6.000000000000009,1.776837767797226,0.46181910864992454,8.747161501681164,-2.721566972895615,-4.785168640717484,245
-51.61549275164032,65.79253650621447,-38.207028436098696,51.327124246927006,83.08871549623473,60.545923138474926,2.421315285400317,-87.42997444246983,45.328417329763525,6.000000000000009,1.8184230710467086,0.4748876019301329,8.572510381673002,-2.7189577967220084,-4.753842287626782,246
-50.77105674039654,64.76707713980427,-38.02934951896095,50.623929468007674,80.63993225181393,61.09755237908355,2.749853164845285,-86.77434911430545,44.37271397774157,6.000000000000009,1.7860036073834413,0.4853630866889751,8.49318302134162,-2.656831751510723,-4.729892846261421,247
-49.66130335078053,63.74152741539949,-37.83695973021006,49.70290592651092,77.95754239892612,60.199725481559824,5.111180058209949,-86.08192794666355,43.6690890369757,6.000000000000009,1.7689741195652242,0.440498822396897,8.440072985709607,-2.658846735450859,-4.681260951886236,248
-47.7519903892626,61.9983086108702,-40.18003083589904,48.61165372365621,75.06838394305818,59.35308889025987,7.584700999548921,-85.2497528596205,41.96783343359247,6.000000000000009,1.7839032699583866,0.3796388479851084,8.420858357766061,-2.7096121782871654,-4.619664496943896,249
-46.73028410380511,60.86471039210675,-39.89665511539509,47.602885624976956,72.05306093793783,58.62056683577691,10.22738373427286,-84.38595673338192,40.66782111844729,6.000000000000009,1.731680907583793,0.28116564608450323,8.458902247127996,-2.6749588686407786,-4.541235046506829,250
-45.558587624426295,59.70675641747238,-39.64048337164682,46.52541235300415,69.29871486865409,59.421211160200365,10.829433376534174,-83.54613046633015,38.912685937571624,6.000000000000009,1.630850446199561,0.14270049218804395,8.49380071390824,-2.642633270442964,-4.412309171017052,251
-43.44191394133773,57.846896388443085,-41.97507989791073,45.38050610272145,65.88656529267688,58.911048726373366,13.615243678057452,-82.64575250736144,35.91375673863789,6.000000000000009,1.6826669342134664,0.019325716039294685,8.555166054034364,-2.826515230734498,-4.308070208345276,252
-41.825577930611225,56.84089077408272,-41.92160886917617,43.836837020139306,63.02836937445982,59.76331021999958,14.144024206034926,-81.64318492417434,33.97310245657738,6.000000000000009,1.8379832962478566,-0.07024872544730698,8.565433985268982,-2.9783494352807436,-4.209789523053156,253
-40.347452689729224,56.00113659894551,-41.97898326302038,41.98721391085412,60.43383380913578,60.619671498337546,14.677783213279056,-80.41949868019404,33.78576903340241,6.000000000000009,1.9164555248861865,-0.15594294312901472,8.576083901809827,-2.9204240076687182,-4.110047177149091,254
-38.93107544762012,55.11339790816556,-41.93615990326637,40.25197252330621,57.201030962435496,60.20959081431205,17.523821759061587,-79.05005048004081,33.54752290962411,6.000000000000009,2.0107995208305423,-0.20331363489141857,8.64305772398854,-2.919274321786743,-4.100880011168371,255
-37.55792942125463,54.40979510759369,-41.91768806773692,38.25609085598034,54.5220065051355,61.00757307860465,18.1191080212886,-77.74882618198444,34.64971509031386,6.000000000000009,2.0871474956597926,-0.20020316713420608,8.704359810010871,-2.876136242492448,-4.215116542062996,256
-36.12943021310737,53.7401935385796,-41.94328209187359,36.044199126860406,51.75288181619105,61.998431585437004,18.641654348980065,-76.17700003886407,35.84016369038791,6.000000000000009,2.1682449513464435,-0.20011761704347772,8.799361610263082,-2.8413736076484684,-4.32791670021643,257
-35.05469159595369,53.54360596341521,-39.52232973608295,33.7110142221805,48.6280865831338,62.473266611335504,20.246086496065473,-74.3360639120579,36.496150682404256,6.000000000000009,2.3325370327145123,-0.17792996975831632,8.885191838744811,-2.8754273152185235,-4.433936703884048,258
-33.39536090134928,52.90250120951526,-39.86115340709097,31.233698829191095,45.75720523021015,62.978715591270394,21.631335949899285,-72.41652494052998,37.385064849136945,6.000000000000009,2.488671558279847,-0.1462693016433186,8.928733403019338,-2.826386883133562,-4.519833612820752,259
-31.83315301461969,52.76562973030397,-37.85466492718274,28.383517435716556,43.08782384453305,63.51933513948458,22.847413823160657,-70.44755080446565,37.90969948715331,6.000000000000009,2.623621603761013,-0.08411806944969463,8.988601236446751,-2.7721602568140122,-4.617715028589284,260
-31.68690302455491,51.82995659495554,-34.9705774065368,28.29882286208972,40.26315056111331,64.22041422557616,24.215294169184556,-68.19028949566643,39.215116313028034,6.000000000000009,2.7790696056259945,-0.009612009264820455,9.119196970013805,-2.7387255195019082,-4.793408160658949,261
-31.59136003095087,51.00762915968893,-32.225422152393904,28.298822862089697,37.56935185395495,65.06947786387012,25.464531327460364,-65.48774793580193,41.15106127401444,6.000000000000009,2.905091792835212,0.08259441191078462,9.179212322900066,-2.6249917734916925,-4.92289941789701,262
-31.304885614027725,50.277087288366324,-29.597479821881205,28.29882286208985,34.865552922238486,65.91345320334692,26.65229719233651,-62.68502719537407,43.013973982072855,6.000000000000009,3.0419524187917237,0.16169754630052774,9.204216929004213,-2.552032472394875,-5.083318109669449,263
-30.869851869867315,49.52432043716679,-27.066393495162348,28.29882286208972,32.29062785810387,66.82996553485842,27.782600078037685,-60.00599341786493,43.53219791020005,6.000000000000009,3.211526077678796,0.0938056358294971,9.260678043861649,-2.5202596785752367,-5.102605813287408,264
-30.616612562596707,49.00416420400333,-22.03971181544807,28.298822862089825,29.677124631164933,68.06754600795516,28.899743514288936,-57.01675973518453,42.15324433948343,6.000000000000009,3.4332134200972524,-0.018387691778131387,9.403511320232484,-2.5757341324556187,-4.992381132471752,265
-29.918659559847406,48.222334383810605,-19.87220988719674,28.298822862089825,26.89087380499849,68.2554229305849,32.08098426913735,-53.942650437421634,41.37859638146493,6.000000000000009,3.6573143442389813,-0.05962963087607918,9.425119270239351,-2.5656476788798876,-4.885136235505295,266
-29.5191284406653,48.26241575767281,-15.29424507826015,28.298822862089697,24.9412789514085,69.07138305555958,32.673374821123964,-50.91046900671729,42.69086038321148,6.000000000000009,3.8113651132577915,0.05175874760411191,9.369532487411872,-2.441015447209722,-4.954157440354103,267
-29.020082471591778,48.36546280399508,-10.723642278738769,28.298822862089697,22.447718148799897,69.05001152681542,35.69704399135694,-48.06628466570243,44.19299585550772,6.000000000000009,3.9502170394008402,0.11946002024750758,9.323956249648885,-2.356947543300692,-5.0483495027880405,268
-28.358321854529873,48.358307770331784,-6.19948311026361,28.29882286208962,19.851135486620105,69.22832896476068,38.80252769446027,-45.14877020625481,44.93443110652799,6.000000000000009,4.155194127891452,0.0430493836253944,9.310772624074094,-2.363443685314684,-5.034398011836196,269
-27.254123864643333,48.06020963003964,-4.537182545726722,28.298822862089697,17.647787413134104,69.14090937689505,41.63257967939966,-42.54109971399111,44.89646064451496,6.000000000000009,4.365000822107213,-0.0316433366395826,9.169884808309412,-2.3275091920064273,-4.9181136461682,270
-26.1187371395434,47.900750080112914,-2.9616520825324293,28.298822862089697,16.114187280730036,69.5091200502279,41.923484650930284,-40.16115025753945,44.77563612870535,5.954236547773033,4.546675407856093,-0.08430732294423772,8.972094072233666,-2.2554439303235245,-4.8184253248803905,271
-24.839191606622578,47.92588771479538,-1.5534089434151068,28.298822862089825,14.274107942775116,68.97028398086435,44.57364002309853,-38.29965889241767,44.266822897272185,5.7956965679110395,4.6925587232747255,-0.1263240568540546,8.704814959557007,-2.1552725220321243,-4.708808570783545,272
-23.52652725088052,47.4263202725596,-2.4602822185743283,28.298822862089697,12.376813001063972,68.27764910992136,47.27988033546956,-36.79274952021789,44.025710698598424,5.713376357662755,4.8248683398532775,-0.1807282875472744,8.46667691618419,-2.0922458140048747,-4.637535804451452,273
-22.018973220061806,47.079701765042465,-3.5031625810165234,28.298822862089697,10.473281984248478,67.31131771729943,49.990232243043835,-35.81956329309673,43.8772187251764,5.698764157720653,4.984263136204717,-0.21493923106096183,8.142112774266199,-2.093558406522973,-4.598015328807506,274
-20.65064826508354,46.87686096239668,-4.4879997548176105,28.29882286208972,9.21176685647195,66.62088531041846,50.21431368440999,-35.170754988079594,44.396114028683634,5.67089204291649,5.13107105411487,-0.270350080544309,7.751000277871665,-2.0383269798093053,-4.56817232639223,275
-19.092341033884054,46.7997774641963,-5.692884203063004,28.29882286208972,7.525292098048689,65.30151318077424,52.89843420668174,-34.74309602158671,43.980117016903186,5.504867187905056,5.250660708634981,-0.32967481340626337,7.292996747275158,-1.9443262008473847,-4.444713157679422,276
-17.228998829217325,46.34030286502733,-9.52045009700378,28.29882286208972,6.42091214919659,64.30995258867715,52.9873094243675,-34.323315711300296,42.84392923240432,5.2951493174230775,5.3697349909353855,-0.36008974367121316,6.777793314596462,-1.8662054441639702,-4.269487266711872,277
-15.311582785888508,46.62158664016801,-11.061167393433477,28.29882286208985,6.310982925273868,63.213076539594624,50.30341136672559,-34.81582451112063,41.395110179444146,5.040706059849194,5.382516051221048,-0.3643163361426164,6.18553573622485,-1.7057451880189125,-4.060302689227497,278
-13.24976391752053,46.62993248222111,-12.593098390386743,28.29882286208962,5.326799127898616,62.14188284561872,50.36123986906877,-35.02082678545087,38.83074239693886,4.929120127709733,5.51593906440978,-0.3838221218017588,5.723361197473473,-1.7193253603390828,-3.86048768056441,279
-11.217787962171217,46.731515363486416,-14.22272101491286,28.29882286208985,4.67398521483186,61.091371549868256,50.33159546803103,-34.87702110072355,36.676636600689314,4.639800055562549,5.614195269870858,-0.32566388354059067,5.255594033173248,-1.598958325272787,-3.6619859123771095,280
-9.388108002453073,47.302590154689405,-15.553889542384095,28.29882286208962,4.352888303381232,59.80341769700481,47.92852188809822,-35.69724050617301,37.816089283905235,4.720774896702731,5.860085676658629,-0.2968212779733613,4.580988553027045,-1.6466485468332008,-3.6374596706821976,281
-7.803659490771534,47.51254292637759,-16.778712476845012,28.298822862089697,3.8205593557853077,58.47136259393085,48.0329498131562,-36.40730208824201,39.395134860676606,4.533679063886444,5.974382127721086,-0.2764293660443232,4.124421153126812,-1.499881615213034,-3.551862128583482,282
-7.866350409715888,47.770831878507735,-14.39673594941945,30.767601032479874,3.5579814318571787,57.76271593718885,45.691657569043976,-37.16552643604346,41.067744360520656,4.535022681695265,6.050025874958255,-0.26076391075977,3.720129586903683,-1.4223586447182286,-3.5498431492261275,283
-8.234186718383244,47.26282790604015,-14.093209039822916,33.989629956633145,2.7981979530690104,56.5520404435327,45.93167226590207,-38.43882380207427,41.9140694961518,4.604605434312232,6.041171358924838,-0.2636289810164981,3.3541316590294983,-1.3372297604854615,-3.5547238969618196,284
-8.540725655120216,46.64711430274462,-13.833369995256797,37.48107679911822,2.752719699605235,55.799839855242595,43.39666871652251,-39.9343418491079,40.93337685963443,4.602055208795072,6.037194456746994,-0.27651755069983913,3.0115629144468583,-1.3060157051314802,-3.473648133573409,285
-8.53399058507515,46.1674497689284,-13.813655260598702,40.78854418517724,2.9928504403635094,54.77373708818512,40.68029456568298,-41.84399664786662,39.128761786170365,4.573035740851371,6.052639058792306,-0.31920468705414834,2.625628151683049,-1.2836962270241057,-3.3067122400464095,286
-8.746653161745899,46.379982127051605,-11.320379009349818,43.86030874932585,2.6833421162746616,53.206577476812804,40.61443741617477,-44.05917032736842,37.68783415773448,4.652404299066849,6.065250251353538,-0.3773124186864973,2.2859486918229504,-1.2554514449568523,-3.1776535022116326,287
-8.960047689474548,45.5949856881524,-11.054904580511712,46.897955425461106,2.8996052894152227,52.65976216041925,37.99256098613253,-46.146501368768455,36.279417043597206,4.869849057277938,6.002366476924251,-0.4156704574239928,2.076023450105124,-1.1839493701924635,-3.1325123165408044,288
-9.176159041657243,44.5205324736598,-10.648313362242705,50.332982271407786,2.883668431384279,52.17317740157722,35.412739098161865,-48.349869146234944,34.66042611467066,5.139499882855432,5.898554321464155,-0.48690815579553515,1.8997560634506776,-1.2271712963814987,-3.0617250854519775,289
-9.139061049135849,44.79799416967541,-8.307749307476152,53.38135526513371,2.692619519044754,50.46708808100323,35.13909777341695,-50.95228104311175,32.614718798002095,5.221382910368564,5.775967674639213,-0.5478760284251412,1.5740026755981857,-1.2160043686148643,-2.873300458098924,290
-9.040713276807178,44.01126401107937,-8.226721463644655,56.48898623547118,3.2035778021092005,49.740232916748994,32.21722353836808,-53.416552004675886,30.726514439964046,5.30077804275159,5.643143413100534,-0.6231845408962043,1.320078338272954,-1.1944840325693606,-2.690852102246992,291
-9.24640518438802,44.10898569239438,-5.713510734001068,59.643390270079855,2.88490261440115,48.39122751951415,32.07179572633291,-55.71592268588158,29.129148801661515,5.498154273263072,5.5400621061334325,-0.7221260298285805,1.1176351711178303,-1.2122158292702776,-2.5305463451896366,292
-9.224713894850888,43.14045441395856,-5.566949167981053,62.69952162350106,3.2349088225294746,47.85094038951653,29.27609917747422,-58.0714963601388,27.654476286278037,5.653091074489571,5.485964084534853,-0.7816872830319188,0.8755574683056707,-1.2610349286561067,-2.3935241595521384,293
-9.193274246563629,43.41037771768055,-3.372305730418274,65.61211029040335,3.7480120804386936,47.16292292261777,26.406669812533654,-60.508741414115505,26.0818064517812,5.65537584352128,5.4927569196512245,-0.881487340360569,0.5910990861454849,-1.3078970079630912,-2.182991761774638,294
-9.314876727306318,42.57531503610748,-3.2276291302682085,68.33901311986077,3.717798718238169,45.57609184456622,26.16257081314146,-62.974827377474085,26.464886329603008,5.568234010095384,5.441154546065007,-0.9357452839267547,0.32882397363746224,-1.2349851738403825,-2.0685441669060616,295
-9.634305522757582,42.758345042483896,-0.7799171110130678,71.03311997949014,4.121969358304571,45.49660793259203,23.488118654863413,-65.18840322932353,26.40479723116472,5.644515943757996,5.323307798161772,-0.9763918116016737,0.14870270227766738,-1.164106632882857,-2.0215623094238446,296
-9.480897207170804,42.898159848344925,1.2828624521540304,73.62252353622918,4.6458262432484405,45.616750735342876,20.665923603181277,-67.48423499335192,24.4230135550896,5.703639447297525,5.206225745627322,-1.014752893293488,0.030641105504864655,-1.1624731346439598,-1.8931690093400635,297
-9.439924615116327,41.47146028748437,1.4081539303720778,76.1376585802293,4.398893818034955,44.76568364897327,20.535038997132435,-69.69023088427068,23.235761255648722,5.756604520829905,5.076398058283253,-1.1006955677784571,0.004856258011191294,-1.1448577742330874,-1.7760157994519705,298
-9.087125597467299,41.339106955093804,3.3327106529857886,78.41632948282883,4.687694958619949,44.96893415797607,17.95797002624621,-72.0362651125263,22.468388376290267,5.945281891935395,4.9883958408501465,-1.1730364517888088,-0.06182802999178894,-1.1869722221993144,-1.7064615385778241,299
-8.942241594882,41.0452770472542,5.2332373584723095,80.78188739243213,4.42423921349613,44.27180687980064,17.916106679111937,-74.2168385273198,22.8893305392635,5.959713631765709,4.912583869351631,-1.2337468887285556,-0.0386140546075927,-1.2022493794542075,-1.6767537541591142,300
-8.955342141360141,39.9196742630095,5.80406460247574,83.0700369387593,4.745108293916615,44.84931520534345,15.439192719451894,-76.33175664037039,24.01521292278416,5.8777715915943975,4.835601072148658,-1.2740351544575803,-0.029765941513328637,-1.1923177070286584,-1.6405777061544258,301
-8.535433051104528,40.277528265386685,7.998820217108583,85.23447424923128,4.581057390092845,44.04996555247896,15.293463485020842,-78.5438474873445,23.85745047685925,5.847041558600867,4.778609908533617,-1.290522431114848,-0.06739364572699243,-1.2189240129007322,-1.5905774224258986,302
-7.97169483336659,40.68376955536742,10.013025269162242,87.31889152988558,4.685667927427766,43.521375378111806,14.691302751790646,-80.75113068387725,23.421454867906014,5.7408317303894245,4.6989620366072735,-1.3244611049037263,-0.06921628995562369,-1.195179081593311,-1.519446141305205,303
-7.872841620418569,39.65252596598579,10.576773277682694,89.38465972543919,4.76814409507006,43.36015123573354,13.811214432444853,-82.79034097987926,23.893984445659974,5.62136077222887,4.579892326306158,-1.3937674872030907,-0.04524884795759309,-1.1552054224856232,-1.4498750381180325,304
-6.983059874089841,40.15438984650231,12.377957416097269,91.27160141150532,5.243521522152714,44.57316109619527,10.589509856490116,-84.81692984140054,22.997435696767937,5.5992242405358015,4.544626756195342,-1.4547917062132358,-0.06719096648680872,-1.2393737540463245,-1.3387102270476683,305
-6.536801986151841,39.20148542507383,12.510313051659335,93.06102305050386,5.611969334774302,44.44974342744753,9.580352053498718,-86.86843288779131,21.36307707274646,5.427685660152622,4.481472223227658,-1.5027981286209477,-0.04430487516938347,-1.2265676226515034,-1.1976696192604805,306
-5.747197548098331,39.88517311209144,14.28114077106371,94.88100453116292,6.022051868855124,44.395078336920015,8.66482095330933,-89.00455664166356,20.832954757586933,5.195085213459581,4.2521210252188775,-1.5717423695927657,0.008485161298867621,-1.0953392219819034,-1.0873657569751658,307
-5.7288457459132385,39.03620130592321,15.125780414876902,96.81713777057755,5.865019913624424,44.492244608753964,8.051434009309208,-91.13272086779003,20.874723893923974,5.3420248177980225,4.0445197125963395,-1.6295933760401038,0.06803668802938545,-1.1397048674568815,-1.0770057797123171,308
-4.823990995971698,39.76763202498152,17.013413395304216,98.62577811208145,5.850344663555056,44.56897888581695,7.333484207015981,-93.36145328546786,20.167324987603955,5.494684081658641,3.9610170135232443,-1.6556055342250213,0.10673843689811068,-1.297528651802818,-1.0535392743569467,309
-4.816324126106677,38.947197555759345,17.720694756190476,100.38733928968482,6.098646392410976,44.761823142333306,6.746395188484359,-95.46482289753651,19.569445605410948,5.348217189033923,3.9001644718361,-1.6975928088587091,0.20711404562874658,-1.3637758202278603,-0.997641762692381,310
-4.082833451916345,39.71407387254566,19.617491142050852,102.1733256025685,6.451854827089437,44.99807935905586,6.2547488621807315,-97.46756495990421,19.76724239261001,5.1702906405927305,3.8541324207004584,-1.731659595361379,0.32914351408882914,-1.4106157737027272,-0.9539810215842189,311
-4.512941148169524,39.043812956137046,20.674065984441192,104.1464237693939,6.915130372214877,45.22747581414152,5.842051924171902,-99.47774831392519,19.60602830514623,5.090974732438918,3.799184570971622,-1.803286322169229,0.4412767849137268,-1.4365194033596378,-0.9058385341223033,312
-3.8642764073705846,40.217848881993646,22.43022073014936,106.03700163623499,7.642419408895474,45.296363494785915,5.1517306766245685,-101.64671343343518,17.75666742251289,5.072192923030892,3.7039044482243915,-1.902989271422502,0.48589632194811216,-1.4670487957538323,-0.7729351171877971,313
-4.18291718931995,39.8449209684572,23.239342526223687,107.76660602703699,8.332487567119339,45.38858644642249,4.461531138090398,-103.8547592392858,16.826071468595785,5.028253380724386,3.573934185694538,-1.9771475142884356,0.5491663174211652,-1.5043428652548907,-0.6687793593150133,314
-4.93204361838597,39.35735980084526,24.63036276205724,109.53941790953942,8.973956530304818,47.416658114643035,2.449175298652604,-105.9467783530159,18.650784626141174,4.904310350351935,3.439155589176007,-2.0187786131548418,0.7022524986369624,-1.515877902174197,-0.7021036996379638,315
-4.778026194465718,40.597791815959994,26.96460104854552,111.41948945405612,9.555597454037702,47.81606409570618,2.494449337104784,-107.9229589389472,20.998291990791866,4.756284570160275,3.2996931240425287,-2.0771302357106767,0.8647141417920651,-1.5026252258831017,-0.7559554270561956,316
-5.733559904489373,40.421312403686564,28.412312432535078,113.27565355368161,10.287885627988974,48.10818472422549,2.3684701145044835,-109.93125019858417,21.590637239134004,4.721011764089143,3.1451939730755476,-2.1588565970802365,0.9951698824804379,-1.5367208981079967,-0.7464191909608768,317
-6.566306748524229,40.296177160745934,29.76340567055513,115.0384442928023,11.031392355165579,48.3368588856377,2.1176639507026698,-111.92214833204804,20.654313755887387,4.7420632383337455,2.992822480268012,-2.245721461907187,1.104274285135111,-1.6248584586395718,-0.6861584144039163,318
-7.437820719657774,40.439849694946176,30.88943480041647,116.68557589039665,12.062082244703864,48.5232099632758,1.8332217386438023,-113.88938352019572,19.29411128668542,4.695419252489393,2.8722259648124013,-2.308826398784763,1.170396130001475,-1.7062034920270963,-0.5996640983766,319
-8.608256475698692,40.831891119766965,32.12731483915938,118.2768591814739,13.118118691479495,48.8124321326465,1.8905312966524443,-115.72958902109548,19.729668494937112,4.617837494887428,2.763884961135784,-2.351401938231341,1.245398901237644,-1.7644424254914242,-0.5806163269303176,320
-9.896096365088598,41.229611144085275,33.55240750291142,119.85507787752722,14.09948389824778,49.20053334349445,2.2386424481016696,-117.39914763052585,20.62137008082409,4.499269416190042,2.6219952595289264,-2.432578423147933,1.369116261980617,-1.8102307155982982,-0.5725588227112326,321
-11.006635230178833,41.807913240109045,34.64235304654729,121.3575829551891,15.426515137776049,49.48292070881487,2.371678805973649,-119.1417349515137,18.682681706355723,4.436150727484019,2.5150294748449658,-2.5349382012779467,1.452901254492802,-1.9143384213969936,-0.4733235722771081,322
-12.351865894807856,42.75923895214741,35.68038461033225,122.81735959400733,17.09637221916593,51.540707680932655,0.9211425087731604,-120.8446608659859,17.641566686539758,4.330642820812494,2.4516699960367876,-2.6432184661422626,1.4951656771675204,-2.0050074688721344,-0.38121881584869555,323
-13.798199908671531,44.07739823834041,36.55780632994165,124.15038859679701,18.866094958372724,51.6773802718065,1.1411537720791753,-122.46509258163935,18.417752303446942,4.110158534084022,2.364237086099693,-2.780878104099571,1.4648299682956711,-2.032059553157134,-0.28688098321505795,324
-16.76678994647173,44.024110354014134,36.886848505585654,125.4437452828587,20.70855352268021,51.8487690152676,1.403179135439916,-124.09970140757407,18.839391651973948,3.870024768652799,2.2763693925978528,-2.889530484210339,1.4350698308909857,-2.0901646977570674,-0.19340495473044422,325
-18.258741773232988,45.61285664833183,37.68435053208008,126.66754358548937,22.67732830670769,52.14831188507588,1.9748347609964432,-125.60456889506526,19.356508536614587,3.694734628154655,2.1595996431683937,-2.974351163536816,1.4591864460691284,-2.120634665254469,-0.15341056652087157,326
-21.350014106024148,46.012405821807576,37.903962999287764,127.868772574154,24.71768156055104,52.4194959349808,2.674182683674003,-126.88785840668356,20.112354958829215,3.6632503755037433,2.0626007165789444,-3.0689674960489,1.4328402211978541,-2.18229979369803,-0.12433767261741076,327
-22.88289398038961,48.24408294370699,38.395678764666066,128.95241212740308,26.824932049554896,52.584218372174796,3.3373298541430936,-128.0468470746208,22.76910001348437,3.6160424372275464,1.9636245695393917,-3.1733677729195566,1.3639315116434285,-2.227942421525419,-0.12769749889404172,328
-26.103515710307004,49.245078920209245,38.53911745905845,129.87307976722892,28.93917347791477,52.85613392825534,4.271074138283252,-128.94740873968632,26.36018763939364,3.574558122005329,1.8315044887658438,-3.2586331607586834,1.332978326707659,-2.246264077820487,-0.17742635798543827,329
-29.07918353981771,50.474912111704896,38.23850604154014,130.7485752169156,31.092411940686187,53.18677261878751,5.323979267409595,-129.64921309173712,29.159403278579617,3.562464524756694,1.7104142200665517,-3.322881813666129,1.2580307575210488,-2.2997448128262845,-0.21932657423929372,330
-31.429144600196395,52.0383391134145,37.09006700250322,131.40344492358622,33.51909847565221,53.16263361040295,6.437029496924636,-130.17324365487997,30.32542973683484,3.4392321483572084,1.6416580054029644,-3.3661111854109294,1.0930460348473447,-2.359801286852759,-0.19087558125714396,331
-33.292962063954946,54.22105741303993,35.78371551279564,131.80908722139793,36.28175370689069,54.592939771902,6.300569528544985,-130.42496572992147,32.759177229234055,3.269241934429563,1.6399453128281996,-3.4019532338790905,0.902290593347403,-2.4397199215831322,-0.1587218954062637,332
-36.474155497984015,54.95287112808416,33.39592164042882,131.96952238143453,38.948880952939774,54.065935206803765,7.826689286406872,-130.5296968890455,36.686543761692114,3.0179228803992832,1.6202442027085295,-3.409068676589673,0.7082277032169186,-2.4462202332003966,-0.13134780359194867,333
-38.50855616280706,57.16756232956601,31.632275991270227,131.96835764896983,41.80798222136076,55.45377278285961,7.940794923757986,-130.48372196752058,41.55428137957902,2.8292306250989,1.498068431973805,-3.407072111055521,0.5863282539025082,-2.369535972120278,-0.13965595902570793,334
-41.58152691213864,57.74336506851548,28.67458775962851,131.7793760255434,44.13280977340323,54.69123606082117,9.711792469365745,-130.32553816515366,44.56505397510169,2.827311630672295,1.3679603058086696,-3.4002925561321757,0.4100500204253636,-2.3650754525210727,-0.1783881435976435,335
-43.32678516763771,60.08023078248828,25.96679400624794,131.37805785851083,46.79060963193984,55.64148586735873,9.747941392061891,-129.8507437480193,46.885980122251276,2.858664459992133,1.3174346711615401,-3.3676547741959952,0.1036729333498617,-2.421762845443313,-0.23584747631882708,336
-44.86216644086103,62.26884373079648,22.69466391456812,130.7533782511435,49.729512825938365,56.5404132675206,9.654767888460196,-129.052656612015,49.22187280201779,2.7697711602859525,1.248538010450355,-3.312190919200461,-0.3048133810835583,-2.390965207381532,-0.25294859846557305,337
-46.34703564532485,64.13732218524007,19.266096649405508,129.905288674149,52.31833658524938,55.46432618472292,11.213678907812419,-128.11564527046966,50.99405827123267,2.785135350460083,1.1557915886873673,-3.259963112528617,-0.737696887039326,-2.364560540900672,-0.27978370222330956,338
-48.11416548652084,65.74716716412482,15.978387969974353,128.96172366011916,54.758197601577365,56.14681007174952,11.286488511123016,-126.91702636961648,52.972372077629174,2.9648080224078197,1.0553141263521457,-3.212822618696221,-1.1247841210224638,-2.3852807309447384,-0.3880549348679854,339
-49.92307241554693,67.01864028740512,12.689449867554057,128.2398940069101,56.7068057508314,56.768121524198214,11.514161704969219,-125.52135674892342,56.47217300875835,3.0945362732300365,0.9476000823450371,-3.2092804060983173,-1.4592596030053386,-2.4569871220606503,-0.47043817461428183,340
-51.84247391948275,68.17718325827596,9.156212995430819,127.52543448812239,58.886252714102454,58.27528124798142,10.764513142351577,-123.84552104126654,61.873498667576555,3.166308900370414,0.8211036732702574,-3.2117462086173774,-1.7898614939245197,-2.4192479230939647,-0.5718619031949573,341
-53.17569081003731,71.02144263616479,6.6708583898594425,126.59543218980392,60.72338929038218,58.468985387069445,11.045115803246766,-122.0552514357955,66.4054423500552,3.2115689013980715,0.7165245807477862,-3.2033323841338572,-2.1718933360366925,-2.415913031141319,-0.6802951186099113,342
-54.76047702350219,71.65161168552297,2.9450838276110827,125.65321566858876,61.94937429472097,58.71625992418187,11.579105032641692,-120.06170350098785,70.49331766903055,3.376915654822657,0.5933078038454123,-3.2488667361362724,-2.4483241116450407,-2.428583327347137,-0.8166584619080293,343
-56.090440169319784,73.81784769030305,0.8806975753017627,124.94539656417211,63.045358990418784,60.72234894209257,10.417724871894764,-117.99702564916346,70.50497550312716,3.6957065367316217,0.43095516938851447,-3.309615534217467,-2.6143049403271865,-2.496888389218631,-0.9886507158005428,344
-57.57269090961646,73.86411043259442,-2.487474949477335,124.51699236746455,63.5512646240478,60.82913371616157,11.023205271571156,-116.10630437909947,70.77768616923211,4.146378510548541,0.24776349685965623,-3.3302025708257323,-2.7003743685967088,-2.5935695893269943,-1.2649741328628339,345
-59.208491932962076,75.600361649645,-4.137635928955836,124.13405777415312,63.82998063069791,61.0439877966156,11.720448878278903,-113.97170497702285,72.16304581266633,4.420109986679157,0.0535728430231668,-3.37936543609967,-2.74229418129553,-2.612453587436791,-1.462705791246582,346
-60.39837627314146,76.91602250387436,-5.8360971319088035,123.81296283608283,63.25608654537666,61.49025915004282,12.606612164962335,-111.51181535648246,70.96575750172013,4.522751613508883,-0.08620139603728552,-3.3906164477321896,-2.706794256348437,-2.7309758496788943,-1.5656087764225477,347
-61.1217152580813,76.26427498351015,-9.069366946475245,123.86633699675953,62.62703502723067,61.976083679294646,13.353871015527542,-109.15380041388876,68.64268874787669,4.5004859808877296,-0.29985304833271204,-3.2993713310819053,-2.610833098419951,-2.8355386599309926,-1.6496311732131002,348
-62.13659515867579,77.46699021231751,-10.532110821583842,123.88656892056025,61.7922860776205,62.30141819674576,14.046177398622037,-107.00369661484267,67.1823097104065,4.71039163753634,-0.5387202739020099,-3.211685425731544,-2.523303110297848,-2.935372740330732,-1.824741031599378,349
-62.91067994474361,78.325779557867,-11.740142216886639,124.0837010954847,60.713364378377115,62.915026429714494,14.853556430652073,-104.61584673914784,64.72659841365177,4.696565717546283,-0.8034467577626122,-3.1146352188106783,-2.33230147740759,-2.9900703454442823,-1.8315619641628649,350
-63.068485027483135,77.24979264833757,-14.396401386436796,124.49213305980848,59.42863271268765,63.55039083876599,15.658784039093005,-102.20317493651955,61.94456418828186,4.6407232732371275,-1.0880600680801258,-3.0154128060503558,-2.1201331299967627,-3.03033236235205,-1.8265774102890502,351
-63.327777698776075,78.0849335292669,-15.578096521997063,124.79726596774408,57.46523638615866,62.4728043454218,18.22353206528288,-99.94117062392162,58.04394605136004,4.58489020998006,-1.2206492281717682,-2.9627903464267367,-2.054224890022921,-3.221068645247451,-1.7625901768596839,352
-62.86802697416862,77.03888386333035,-18.418449772567953,125.02368491372621,55.93293058858273,63.09665047066075,18.73774736802791,-97.56150993036076,55.04798944824656,4.352044521757528,-1.2578579907142322,-2.9464064249121895,-2.0247867297839153,-3.3991166188828212,-1.5685903481073094,353
-62.77599944770688,77.55522244314744,-19.419796669761634,125.44008898900022,54.5509280663468,63.789649044399944,19.184735585523196,-95.15741107747945,52.88427144359322,3.9635079756579796,-1.4099970767647758,-2.918169706574378,-1.980379350745236,-3.407050666609536,-1.3123019844795936,354
-62.42741783363191,78.09988000926326,-20.475423484907257,126.00020790192646,53.19640428712468,64.31514973804394,19.416906596697675,-92.9200199730256,49.31235730740409,3.675500168198004,-1.5532297268011703,-2.878771157159323,-2.016792902112112,-3.45500346564089,-1.0669582377692777,355
