JMW9912/AVATAR/Dynamixel/dynamixel_control/data/csv/poppy/.data/waist_test/2DoF (2P+Ori)/old/0422_2051_WMCA_Dance_2_dof_waist_with_adj_poppy_smpl_motor_degree.csv
theta1,theta2,theta3,theta4,theta5,theta6,theta7,theta8,theta9,theta10,theta11,theta12,theta13,theta14,theta15,frame
59.97494126123316,40.12393414346157,-77.83781093625798,62.85962355253473,-48.20155463501463,33.04621509967782,69.37408848215136,-83.3544757704676,-90.0,0.9667164697170199,-6.960736768844729,-1.1823844231307301,1.1562913723494652,1.961819866963327,0.06859205493716197,0
69.32235615208391,35.24571325554247,-89.69648723972415,57.37605023663332,-62.24014509605961,28.583321617039648,85.95887593590544,-74.90130368992389,-90.0,0.145711427194577,-7.404619301658937,-1.2761731369240281,0.26798536687652996,1.2068962213312047,-0.27668104506582764,1
71.26079653613256,36.361509806851444,-90.69519286337051,54.567104061469806,-62.231030330172416,29.971070676418716,85.05274636474435,-70.79673697416318,-45.71173820005888,0.24168950017962393,-7.6439610067800485,-1.0561382660419814,0.572303287118047,0.7493030869893628,-0.19157802595489748,2
75.84733508798044,46.29164810952314,-92.74127700918801,40.52234084213863,-68.86438807651045,38.30842379802011,87.79721271473166,-54.72155492267992,-86.57299366816366,0.6955632081829214,-6.486428837149219,-0.41366136349582155,0.8572203085498816,0.41190624213186683,0.2666677299516857,3
78.51884826866062,56.43968187318128,-93.51082206454682,28.298822862089594,-72.73788519283943,46.11955785097622,88.76233304939153,-42.41861179255498,-90.0,1.2426026132057344,-5.764445795882351,0.3666783867380927,1.1041154587508608,0.7424157274778522,0.7132197320259185,4
78.78654964159966,60.496579241911654,-90.28869178667475,28.298822862089825,-74.06129900531742,52.81469455918997,87.93352291032713,-33.37562118971568,-90.0,1.5570903515378283,-5.51279609935946,0.9662003353997483,1.3644144804083984,1.1558187857339048,0.9675783571785872,5
77.46674973532176,62.38962027769663,-87.64472391996024,28.29882286208985,-73.13848301979482,54.948380495900025,85.74739058600028,-31.49078193018399,-90.0,1.8180348780020696,-6.309001027817903,1.3907130690360106,1.1034861691478273,1.8033970094552672,0.8963010436822719,6
76.95513925606603,61.489753430037155,-87.21954658901751,28.298822862089875,-73.28109896737516,53.56150421238387,85.06021589393929,-30.97642593402771,-90.0,2.051745958125283,-6.795187709597638,1.3243098244165257,1.1756856063520273,2.0446943505308766,0.8792440155395634,7
76.14755659582909,59.56629915028534,-86.4667590097586,28.298822862089647,-73.40422447789174,50.83644721724772,86.93716169469114,-32.76804312006537,-90.0,2.3748203168955127,-6.8605777991974115,0.9203968325690737,1.2054589273227831,2.2953323341959684,0.7151201573969467,8
75.49198635333968,57.8040322495977,-85.65451849164711,28.298822862089647,-73.64124728760527,50.34439265410411,86.57175651634518,-31.616180645916767,-90.0,2.585037175457651,-7.001409238707088,0.10525561628494537,1.2155321421984193,2.243806988770991,0.5663310751242805,9
73.79506805196897,56.51677876241176,-84.61583248114061,28.29882286208972,-73.44182884509499,50.10556249218564,88.69232994709199,-31.41296452642996,-90.0,2.735183679756486,-7.118541381835103,-0.7712757181995323,1.247890040429915,2.2614989503248863,0.3995862088581124,10
71.64139854345629,54.8333111111135,-83.22422295038899,28.29882286208972,-71.93980200719649,49.18168950047888,87.89057644302879,-32.263506182917745,-90.0,2.7450321523009693,-6.674157592217441,-1.5629537405464358,1.215867053783428,2.122932016061456,0.18137712256146712,11
70.40197073081401,54.37479171017457,-83.133624579943,28.298822862089647,-70.59028509324655,49.77659368441532,87.44695588365371,-32.03939084788015,-90.0,2.785665424923035,-6.452533672874812,-2.1230166637897643,1.2613247165268764,2.160775391959248,0.07552854852835486,12
69.10310686362969,54.375549401766406,-80.33857105035247,28.29882286208972,-69.70811786108928,50.69094926048815,87.320428990759,-31.780598193416584,-90.0,2.7334342024881555,-6.142567701107502,-2.424407917005438,1.3521131256919856,2.070233832345108,0.050710163006969546,13
68.70281125423364,54.16741398069403,-80.36022416595469,28.29882286208985,-68.0734540642897,51.35908968232042,84.39020806257413,-31.319475324331997,-90.0,2.6421683030229315,-5.664197834810807,-2.495537132471918,1.403398558836908,1.9869836721673657,0.09355065860092956,14
69.40171208966046,52.72520753943524,-81.85254648617054,28.298822862089825,-68.1156667790905,50.489886665707466,84.43428333327084,-31.899427093223405,-90.0,2.574307657551056,-5.402304216920441,-2.616915345131866,1.2020212730228628,1.890729904018463,0.11372248730052092,15
69.64120128609653,51.10279824431978,-81.25931047309597,28.29882286208972,-68.21046116975587,48.792397207224596,84.2392213887447,-32.989346551507666,-90.0,2.5816157634544847,-5.129563263565711,-2.7013719246725216,1.0477196643175448,1.8155712051767758,0.21429918699156625,16
70.69355846162138,50.05339023398268,-83.76572544047391,28.29882286208962,-68.97164166840255,47.56056869007869,86.88413031186299,-33.61181076561508,-90.0,2.567609987017951,-5.021869851619906,-2.6816919521832454,0.9211536860658203,1.7633613341397874,0.29587982726153156,17
72.49071180562082,46.19621994499843,-85.8399285815678,29.65448369236681,-70.27872015801864,43.49881753027889,87.50742565524452,-36.015782919131865,-90.0,2.728655581431052,-6.678540096556317,-2.95630312780622,1.5046663775715448,1.9197183904617747,0.6155430198892775,18
75.15020821339645,42.32531089202131,-88.24305455083963,30.98542112791773,-72.49039278746925,40.34004822752764,89.24268049505203,-36.73794221879064,-90.0,2.906514721217826,-8.213977336857354,-3.3251321627170345,1.7223288285658562,2.1097305995834335,0.8549281125057536,19
77.74232980783964,40.28691322194895,-91.83074339486795,31.049583442158582,-72.879837588431,38.83383593137562,88.32353590892743,-36.597102690994085,-90.0,3.003139175030465,-8.780739471311854,-3.4009376764987214,2.152804150863491,2.242056714061752,1.0348717927006714,20
79.8850505322623,40.3753069114228,-92.97490780999523,30.517233833129517,-73.17769581868576,38.94421529407156,87.39187276635728,-36.40648296549799,-90.0,3.2768195697764906,-10.047617291908919,-3.5588342490356784,2.615707401767705,2.4736191659398514,1.2789652447259487,21
81.45521347910584,40.93798115515258,-93.93514315125417,29.623073761349072,-72.93744601992633,39.31194453580505,86.47598463616698,-36.0401970649245,-90.0,3.4109295873615575,-10.869221621343911,-3.6401354336392444,2.9847029487682244,2.5827866143094966,1.4670220817313404,22
80.52979659828186,45.68880510976162,-92.95831708382508,28.587431238444527,-71.55814470492065,43.33665065014989,86.17573392437365,-36.55359349685778,-90.0,3.839550129157992,-11.296149854433088,-3.852966328759854,3.836782602389335,2.8716384988345203,1.8485633780869408,23
79.04295298474466,51.28606229866738,-92.41369517528396,30.56396717734144,-68.39678844196717,48.326709180088415,81.35806024011141,-41.64098631018182,-90.0,3.9368987737158365,-11.822595004597055,-3.9457310075153695,4.506326301089933,2.853001997664316,2.016534513614963,24
76.54113727360823,57.222341353580966,-90.00208140580816,38.24930645975836,-66.1245522962651,53.69553819644906,77.1970154161987,-50.76089175770864,-90.0,3.8383858283284367,-12.08571899880124,-3.8542331085323673,4.525834808378341,2.683518671210447,2.0043806320101263,25
72.78869106458922,59.33357976961754,-86.69749198494469,49.67316527833602,-63.70760324928828,56.0361842359794,74.81143171320821,-60.38402294013653,-90.0,3.767921942932958,-11.252219191007685,-3.4622872969997367,4.214151532175263,2.5430362246005322,1.9202749210586594,26
70.77905507992116,60.283469375832375,-83.66952932767207,54.01073041572723,-62.36019708170782,56.78512879644112,72.1874508819225,-64.16486387862513,-90.0,3.7324862468910456,-10.741192395362106,-3.091157749685446,3.9405006028360767,2.515345979293129,1.8302168022903917,27
69.21257430702202,63.09179573378688,-83.34640060866836,62.84048720408579,-60.90929384460587,59.93738887085983,70.2970503858686,-72.62279986392701,-90.0,3.4474327575287003,-8.69056883848645,-2.581098867794786,3.6125737862436518,2.277412164512951,1.3751800608078701,28
67.0699735147933,63.61310826853086,-80.08778364407928,72.42817559571256,-61.72449798046137,60.07868577814132,70.97024275491316,-81.9509253651585,-90.0,3.333970830899855,-6.564268659072002,-2.0837505604162705,3.0145544718887796,1.9906447838672734,0.9600064389793324,29
64.5853436632295,63.530834084982345,-76.27075101184441,80.15445598757549,-63.10050997282298,59.640217274313805,72.1524539104119,-88.67242455715144,-90.0,3.306127304936394,-6.237967004713985,-1.7482813026852364,1.876966103707098,2.04883233279183,0.6802023488692348,30
64.3434878157655,61.01745838223799,-75.17875627699595,85.56482174343479,-63.43156796267603,56.21093734222202,72.20109134084488,-93.64170689072687,-90.0,3.0865107310214133,-6.665779746313002,-1.4167028762257423,1.1482443694575397,2.124891381492722,0.4615575233787412,31
64.93201939714461,59.46682721520667,-74.50511525948598,86.58675330478825,-64.32592576695434,54.03067544473105,72.10002242016071,-95.31004172016264,-90.0,2.8554458642434515,-6.643397613572677,-1.2068736555061907,0.738667896045331,2.0402817611155055,0.37495657168002916,32
67.57690576247008,53.59529041849497,-75.51976061012184,85.68061085188789,-67.16486362414788,46.97392690530818,74.38561778791082,-95.3827089391988,-90.0,2.568242426114827,-9.13810548403796,-0.9178766826289833,0.14589982320819384,2.3577601191909086,-0.13540287177024599,33
71.343538627774,48.317086667356755,-77.07092232670105,84.35894272840771,-70.7102042818449,39.49696593924738,76.7989345479613,-97.63768440068738,-90.0,2.6356451000422556,-10.54066297201937,-0.6764704528286175,-0.12832008476703943,2.590865349684102,-0.9674231771440251,34
73.59399996268226,46.90568789212569,-76.94516229412386,78.12307206082973,-67.7782137056578,33.630592469515236,75.39189791272199,-98.1761196761108,-90.0,3.5403830064350474,-10.912587302168632,-0.4680947846346382,0.33559249012706854,2.493756067112874,-2.3789625496974254,35
78.39602426568167,46.70007484067832,-80.4909947990424,70.97868634658958,-56.803590270630316,27.55514064335597,67.9034141180014,-101.09023863819795,-90.0,6.000000000000009,-11.205066285730801,-0.3732871024890971,1.0613554315960025,2.232549157435209,-4.599756026809426,36
79.20834574834193,47.797601920985365,-80.61321547303676,66.56049658521026,-45.076055628576476,25.884924893852578,58.92404105423138,-104.92845635377525,-90.0,6.000000000000009,-11.525116786446592,-0.36760479451018674,1.4282516895588018,2.1388233947784334,-6.019343023192254,37
79.2606526892157,49.729119627028,-80.94547393471952,53.319535986865624,-13.105252508902492,25.86160625658986,35.03405387090827,-107.82323519492368,-90.0,6.000000000000009,-10.039137685119451,-0.6516018013756923,4.3885126673549255,1.6950277806911929,-7.963472496605881,38
78.70344391117715,50.6812466553541,-82.51504242335996,46.134176838158474,13.636349758833282,27.79627833186072,18.81705464349815,-113.72468325010051,-90.0,6.000000000000009,-7.913357133617782,-1.118080839029839,8.358832063286654,1.0653765328040732,-9.159993611736706,39
75.05530539567708,49.36818619257285,-80.85560219694355,46.91651371308854,33.88024960016593,33.02993082551555,6.717167814271241,-117.848221971014,-90.0,6.000000000000009,-6.448770531317514,-1.3388292737631846,10.312278669789112,0.5774266673708421,-10.152092104279836,40
73.37020506671159,46.9485773603725,-81.76211167231209,53.47741636783394,47.821449127979754,38.29462166143921,-3.5904907399779127,-122.81897698073392,-90.0,6.000000000000009,-4.741322885096432,-1.5445550091159803,11.726637016391885,-0.04994145903688023,-10.950572455819874,41
73.15034684800699,46.27690506317943,-82.10962676050302,54.170792985411325,51.04225183311526,37.81247446766891,-5.924310145787347,-124.94940676101282,-90.0,6.000000000000009,-3.947112124387869,-1.3269243080820055,12.075056693011623,-0.26535711674281504,-11.48054628152407,42
71.48454856073927,44.57592041291826,-80.71756716146555,65.55582529185538,62.22520408215563,42.23986412651401,-12.760791396332143,-127.4187902489766,-90.0,6.000000000000009,-3.324446479768297,-1.299111819559088,11.545924811148524,-0.37388902550195297,-12.388666972545849,43
73.57379137782227,43.707136811309425,-83.64971594346275,70.52056395559649,69.03348980178258,44.75072387241826,-16.440143952445393,-130.10626682930626,-90.0,6.000000000000009,-3.4050367117591134,-0.7518724925379517,11.12441912572795,-0.338929387292651,-12.743527075035187,44
76.4867533153304,44.25630222579552,-86.1591410748971,71.80434844222005,66.37636975313511,42.62386631238562,-18.540552960561087,-132.39065694473587,-90.0,6.000000000000009,-4.2763774778997785,-0.3546710106508636,10.091490318029868,-0.14880737911187014,-12.498271724077695,45
77.46214000298146,46.0733657074416,-86.16950143775823,70.38873139859021,51.895607706926,36.68958954154296,-14.980473196851499,-132.93686665699414,-90.0,6.000000000000009,-6.1242648424177855,-0.06491746205268813,9.775816533757453,0.22273150945923503,-11.063044833387842,46
78.61315537480296,47.17182401124965,-86.37940149034985,70.78559888540177,46.42739566687435,34.82282513880928,-13.088261845004851,-131.71416502481344,-90.0,6.000000000000009,-6.776430777407095,0.07808775037794902,9.601467980582475,0.37914220184804404,-10.454369411092834,47
78.45735408878406,49.812677100498384,-88.98465283465204,67.29594241648739,12.490841890588495,28.13811979835922,9.572898798337773,-126.8908908326096,-90.0,6.000000000000009,-7.680506313141635,-0.14787966782915868,8.85351891497467,0.8705472609747625,-7.978561941190934,48
76.1903432881865,53.929250421788815,-85.90110839807873,65.09523137524522,-17.714031207627375,31.073741043896906,33.013005936694476,-117.90867725319781,-90.0,6.000000000000009,-8.286899920124364,-0.5059987449135352,8.161153395269825,1.1633819423344245,-5.5329255036275775,49
72.90179973109966,58.83391955779479,-81.84711799611311,62.15432311493433,-35.852433762631456,40.727888088629804,47.376787036359616,-105.74718974813858,-90.0,6.000000000000009,-7.667268351315437,-1.0563007890129332,6.443693619041081,1.4538568285219164,-3.756886270343405,50
69.92377549395242,65.2818872197193,-79.33557932642536,58.698548807889765,-45.344947877337816,51.82029930402909,54.66964324499573,-94.08465069462268,-90.0,4.852677770733642,-7.097126273190488,-1.5917034492465998,5.787368096207882,1.8237177252943553,-2.098258888699118,51
68.23038966664026,66.81125278030194,-76.48322865514294,59.6426386533525,-47.01780454889279,55.8126691601891,57.032092765625656,-89.81531454885425,-90.0,4.371691773575046,-6.874486922914613,-1.843104924454346,5.329478574678061,2.0467560875567745,-1.640369236626992,52
63.23101930817292,75.6687702141245,-71.26571497261209,57.12713753047999,-51.25479938503285,68.27759085863242,56.73052926219023,-78.25828655481602,-90.0,3.4215241429451058,-6.1518711795186665,-2.048440522220071,3.7947341354339312,2.3994890631000096,-0.43602275000608426,53
56.39785138581144,82.49612244491821,-63.80543914747418,58.22282789549163,-50.10761269863434,77.21956896086043,55.4639977681661,-69.62358445080982,-90.0,3.6075105178095237,-4.783619242825444,-1.8420296036054336,2.024815324676831,2.9640891830841314,0.3066157954252058,54
51.79870372990246,87.65852923222039,-59.69275414278935,57.78046966528987,-47.91345458935901,83.6816288290549,52.63676472293602,-64.05778236106926,-90.0,4.003866243463115,-3.6264284996247866,-1.4390088831304542,1.2300635834519882,3.4129769414257165,0.6154511825933691,55
48.294657689893626,88.05898808243843,-56.014906271848304,58.55623633405971,-44.21641383981996,85.5365671796272,49.64072487654304,-61.447984196809756,-90.0,4.33892274057073,-3.8328482998601308,-0.8302118602352296,-0.5740383177489161,3.8954112537840495,0.4919066897925924,56
46.37620443411749,88.50610483065596,-53.49450794133591,58.24321902626484,-42.78995989664305,85.95549497476193,47.53556047613137,-60.98994488040751,-90.0,4.410491843108878,-4.022493838586894,-0.4313737005970211,-0.9647898662972165,3.8910656892942375,0.3328869449081576,57
44.23003315540302,87.14707801163688,-53.13607584359702,62.584029630836966,-40.72147203837014,84.23153382049144,47.539639620772945,-63.91205903682097,-90.0,4.346755864971237,-4.768343441082881,-0.06426146598792633,-1.4916831816930765,3.910562281871895,0.19013070101098756,58
43.73606717571765,85.19729840293343,-54.55888024936883,65.45264080394246,-40.28410065695712,82.11350997123706,50.055094492481594,-65.65537561695128,-90.0,4.101525418671067,-6.303086263091212,0.4675330766587082,-2.367860374278837,3.824210015427672,-0.08630897307966323,59
42.62902801948972,85.32263900249754,-53.74411634706529,65.76704276455877,-38.440765358466116,81.42207661147134,50.506251957801574,-63.9812376610677,-90.0,3.7862748839487828,-8.119049616298838,1.0165723702999923,-3.477574404764653,3.7683093816440945,-0.5279052123604492,60
40.2961856246206,84.84380682406722,-53.22979837670089,70.43981126123396,-34.571703940433714,80.43098901228015,53.04912622148992,-63.776292457255444,-90.0,3.7268192633020045,-10.723549226875258,1.718444564982818,-6.975808976833264,3.662784099924776,-1.7621305880006117,61
38.75789246672021,84.83307421279342,-54.28976312090376,73.16391842888741,-31.33070949016649,80.46571574231659,54.1859290735991,-62.62516268641029,-90.0,3.600565220180386,-12.506451782951952,2.3942567883542045,-8.792570052606168,3.461607963906822,-2.8595666230926096,62
33.22313726070155,82.903965534138,-55.316807400048376,76.97194442540972,-24.579094755607812,81.37379269573495,54.93032588986096,-60.101270042055546,-90.0,3.0946779701789002,-12.983644095018906,2.640076992388284,-10.074288725540875,3.437094037724941,-4.101731437625214,63
24.139399044821918,80.20491484825183,-54.99450905195457,85.68616537877305,-15.203423997848798,80.52748407114535,54.44278229525174,-63.412979966507464,-90.0,2.517053360934151,-12.21183549330806,2.745979142974595,-11.221232207907898,3.148557114151814,-4.589511952380963,64
16.537085557141673,76.90857666313742,-57.14858079034406,93.69411607684216,-6.57898499955862,81.0030005859771,54.073216148159844,-63.95964680907272,-90.0,2.1308593770952213,-10.914051809414369,2.600109421172857,-12.425987040853588,2.8079005360763034,-4.6655941670058345,65
1.1643921068933456,76.22826450150203,-54.626219968150615,102.6106242748721,4.59077122907135,83.87633406287496,51.77618778756747,-66.98814886161568,-90.0,2.0479944244901165,-9.145232660737353,2.0211063787626373,-12.922411708348028,2.5026348237246614,-4.081837532369118,66
-5.269776805377189,76.52181303161446,-53.451315409596226,107.95846014880657,7.940497692962227,86.60653419503365,50.65117748819194,-66.90932464585627,-90.0,2.510917424868529,-8.05944815526225,1.6644464757215645,-13.31698424354135,2.109280149010614,-3.756477882408316,67
-9.799391118898736,77.3770586810513,-54.122263126645215,109.95501264672117,9.188300269954397,89.629445166792,51.728593157668335,-65.55610919211315,-90.0,2.997988555315815,-7.004642037099956,1.126755770180679,-13.863058989060889,1.9669003340476647,-3.3959144466098174,68
-16.412027782065902,79.69796887714358,-52.226210724094734,112.91533826770936,10.146679205833415,91.8880497668913,54.099334436694235,-69.28299291281508,-90.0,4.055746367063338,-5.519555233765664,0.618162973536386,-13.367285138164425,1.8297282559557044,-2.3613846570978976,69
-20.717588421433025,79.47811722219197,-51.19031728123505,116.27861803939987,10.126304771755281,91.99989751485599,55.3687749891548,-72.96547269864035,-90.0,5.061715529487603,-3.9097938223999495,0.25814412201068165,-13.331431494890843,1.6425530998669164,-1.4312383853025945,70
-24.740676233963704,79.01032974075075,-50.86834167816069,116.41063804817392,12.53066389045128,92.32982213411663,53.299608937431465,-74.05860172221993,-90.0,6.000000000000009,-4.250986885348433,-0.09595323329632859,-12.830504766433553,2.021683840655858,-0.45829283492215406,71
-25.754416233665996,78.54264245749242,-52.00079907297714,116.82141531969987,12.274230039055515,91.4610473341502,55.50241125623719,-75.1313152106644,-89.02764484596099,6.000000000000009,-4.659323607035817,-0.26529868256898453,-12.274697550254176,2.0164428048090617,0.0910920422477779,72
-27.41329108825801,80.03141323792312,-50.85433236228998,116.1275067966685,12.798864279053017,90.9289033905277,56.148816560075346,-75.9436594636294,-89.17985959990948,6.000000000000009,-5.764482017897068,-0.6128422860215104,-11.12879683591462,2.385984188904391,0.31534280040771406,73
-26.95548647999279,78.93419500079708,-50.47740129990462,115.82283914010071,14.667816493663478,89.85113159955183,55.65170256816901,-78.99744169330694,-90.0,6.000000000000009,-8.328415786426376,-1.3368943729113358,-9.361514136297949,2.839624530951917,0.5052504099667459,74
-27.104004050220144,77.73793098816857,-50.39254000077864,114.444307069754,16.004219096882,87.95995357469795,54.722413769420555,-82.17570583565302,-90.0,6.000000000000009,-10.889729403932309,-2.429059939111893,-6.961444826445872,2.943314429263634,0.9755565510840744,75
-26.156683613227344,76.72931231637922,-49.76627387383649,115.81640010600512,19.812837365745732,83.86636010720869,52.74545239650561,-94.11349498103992,-90.0,6.000000000000009,-11.758248197560535,-3.7202568668184925,-2.475097410474856,2.375154713613958,2.1597022932092145,76
-25.132231183030065,78.18666719067497,-50.722555207308,115.06639876754446,20.65098023077873,82.31118573577099,53.261524511856756,-99.93311308653134,-90.0,6.000000000000009,-12.209566565140566,-4.398215201412769,-0.17864698592467934,1.802514860308497,2.6261510210844428,77
-22.97031276022331,80.6680843025955,-51.45164829748497,110.0995701614445,20.553871604783573,83.74689758076471,54.69100776625541,-106.30573950774759,-90.0,5.914754795985672,-12.45266230722795,-5.177673144148812,3.357158717797686,1.4511429206950592,3.3198542614471975,78
-24.28069927260283,83.22932314020461,-50.829200075773265,102.94659588835005,23.072034710646516,82.45293758243065,54.85946967292009,-109.64693559068849,-90.0,5.318895273989756,-11.772110583179359,-5.530642147465304,6.701615324391072,1.1487421687596384,4.136116927560691,79
-20.575049962244766,83.68945213211562,-52.73517748813465,89.29340911296812,23.033569556632802,81.4030841054363,53.87766326515221,-111.59699655876454,-90.0,4.4360922988883225,-11.946290722274892,-6.055628479873917,10.545913622011286,0.7320593589625457,5.13367570828799,80
-18.795250699092048,84.84173818397058,-52.95481200469715,80.62719382387093,27.175005468996815,79.35197951568283,49.60931572014646,-117.97316819100773,-90.0,3.073592061813716,-10.815669846207934,-5.856410184585115,15.207073025824577,0.3353795615914072,5.966771073636422,81
-18.207615653544316,86.35611940300647,-53.34421210252755,74.37396097854582,28.737195592782566,78.15316978832517,48.292435747705824,-123.15375427296198,-90.0,2.1693732701411816,-9.787660777831476,-5.391998747049786,17.61277597677733,0.3078014122980138,6.029150559745569,82
-18.038227254161924,87.49045013866353,-56.77880750648641,75.35986819308519,31.05345754445741,76.60191656499451,47.518331231286005,-126.54572233916585,-90.0,1.5731100273010277,-8.777894025985928,-4.5262570411015774,17.675377093319494,0.16070652535036675,5.443309260929981,83
-19.636526772901508,89.1049407688365,-57.919919406470484,76.80288622154906,34.466856286154155,78.03633877836016,46.4241049931595,-128.16132973806967,-90.0,1.3400666357540267,-7.414234668413816,-3.8597088626006064,17.714360441273445,0.007468975748770902,4.831226697884654,84
-21.7255018423627,91.1094273885087,-59.02527873072175,79.10383560474949,37.05988704602847,79.81426584092905,45.4649970588634,-129.10280684234996,-90.0,1.2476551825129125,-5.919486689235198,-3.2530825941459853,16.83045887711075,0.035068039496242064,3.9099839860169574,85
-24.15467508669033,92.13809452343291,-57.72712360006886,80.43616309565262,38.2776591309476,80.70879946999186,46.11161112016203,-129.63513703378104,-90.0,1.3222335519995845,-5.373287005730486,-2.449752820863365,15.690661858390117,0.5697908170745737,3.402122116120994,86
-24.499693750536593,91.84251227587485,-57.76908387761761,81.79838141073499,39.979789743329256,82.6293304057114,44.59435033890232,-129.69019818579005,-90.0,1.297511242390404,-5.102162587408235,-1.8949217974270691,14.829606743918191,0.7907745363244515,3.0674401767539496,87
-25.333076875716703,90.8008366806554,-59.131349164272294,86.20598009152737,38.528550659583644,81.90295882071082,47.73698811252068,-128.7478084071864,-90.0,1.403514133872311,-7.00581148295486,-1.142236392959711,11.715245069359995,1.3613260925154589,2.4960464402983686,88
-22.73163281725882,89.70853331849122,-58.426430972310484,84.12380197772312,36.85586708764857,83.12141773059106,49.02851764356709,-122.90414802993487,-90.0,1.6662983218408023,-9.672799140262953,-0.24446360276190326,9.112980834757893,1.7949225068491608,1.8485279532098609,89
-23.918590355019123,88.50116037243791,-58.66303240140493,90.81985062515753,37.24242991001973,83.34708032366369,49.58970354766749,-118.67424531626403,-90.0,1.9549729463001515,-9.83327140832244,0.7655354317949092,5.82631046496176,2.03444085977805,0.699586856981756,90
-24.023165772447832,88.76897937160847,-59.46215976195768,97.19674402245656,34.215777442242846,83.55824393902655,51.76252109988917,-111.21936404610433,-90.0,1.978753800815156,-10.455479812832856,1.6134005601004735,1.746245678485853,2.026301784180342,-0.33045789245911983,91
-23.258152085456185,88.5387805238318,-59.331171636041624,99.90322210340966,33.6126600540462,83.9163936830304,51.61747738261922,-103.81173480483821,-90.0,1.9127023511457864,-11.140874670754368,2.212037967546874,-0.0072288513679055685,2.04894564954186,-0.928603793620366,92
-23.54823805460271,85.57455047060988,-57.18610797494093,100.44044542272061,31.067819234761043,81.93634526129159,48.87253630001871,-89.88734698700316,-90.0,1.663945899471474,-12.072213113367955,2.508937300759731,-4.693714017374472,1.9115743675162467,-2.25109861092718,93
-27.232754534727864,83.83464264434156,-55.06794482274039,104.42402976117222,29.792292495914918,82.66115772209102,45.70228893895569,-80.086274568653,-90.0,1.539218852585333,-12.681795022497335,2.867419017486331,-8.52107920050491,1.6906289875354472,-3.226942567205743,94
-29.26565445041695,82.22978028361227,-55.276549369909084,110.07928597893923,27.640742439106557,84.32650746628774,46.693362462456065,-75.83483418283599,-90.0,1.8259451434728724,-12.720596894957314,2.7483299324360817,-10.498637674656042,1.3056996463361508,-3.644507991488165,95
-33.23238948211476,82.72968606177545,-54.611020945755264,112.93234230255833,27.04733788515664,87.63184129928426,46.19313171529659,-71.91765587147141,-85.41983579002918,2.30543170777332,-12.294530809250917,2.310893309487235,-11.528178570482854,0.8838570205546328,-3.7607688520658957,96
-34.716939020948494,82.50157477454351,-55.31888985228431,114.58671295458667,26.18172322038406,89.00775481690668,47.007989271967844,-70.88435124605839,-84.2836438611886,2.6633738387365855,-11.884910469286645,1.858950399420629,-11.796082586782042,0.6811183270716555,-3.6164370962112313,97
-40.901438593851,81.31523414550138,-54.97297071831741,110.6646233632582,29.410586010477132,90.32183539488722,45.04236033981974,-67.2273767641507,-85.86545231759322,3.1008662990706863,-9.207549129007333,0.6955256848959349,-10.870759908622524,0.3206802778693096,-2.506637796917014,98
-47.42106980608388,83.43595518737386,-51.30462299239827,107.6704276607179,32.584532667884034,90.95314906798397,45.872174547865676,-65.89073352879744,-89.06748029321734,3.8138503553151057,-7.430593620448383,-0.3581580063988149,-10.345203153776568,0.40520630212633485,-1.2759160750589336,99
-53.8508595194177,84.06498399965409,-47.36974840741244,106.56235313775613,35.43170051297025,91.05983851327075,44.01876808497714,-68.84828028710703,-86.00207463519585,4.898159517941038,-7.505291293506748,-1.1831125685985924,-9.902582222467817,0.5271757764321924,-0.07679286905591352,100
-62.57255056175342,81.42742553365315,-38.559560224603274,111.87834572963828,41.59666930478618,89.23372296771558,40.27233433991275,-83.04719439554795,-82.03152899361558,5.98303596077893,-8.288183659453876,-1.8701963645888378,-9.316143880778332,0.48475534025774336,0.8810873143404216,101
-66.4306074940182,82.08030242107237,-33.6899830822839,113.80878131868826,42.896555956156995,88.32873524752681,40.693936915933904,-88.005551456801,-77.38474942531313,6.000000000000009,-8.977478027790571,-2.222616185063045,-8.91399322126421,0.2908306479628604,1.5300062426506282,102
-64.0938414410276,73.4193058323279,-26.987375521321336,121.19748758263167,51.47646671130777,77.69230839803947,35.79604986177962,-103.0434585901473,-77.2524186766901,6.000000000000009,-10.596960213389028,-3.021601603625906,-5.324084809889769,-0.1251583816422432,2.9616629567199073,103
-54.125560375791586,61.40958791297707,-17.405818830365668,123.75895215476403,54.07317961302349,61.34249862418249,32.52993095694559,-113.73617689843967,-81.24226945551041,6.000000000000009,-12.969279082506343,-4.186441300652025,-0.8977698118756678,-0.3116060043013519,4.121766716679485,104
-38.84914912540148,47.61756325823435,-15.694092853700761,118.5063817525726,47.62916402815586,47.606686072982654,29.632541797966933,-118.4656588926989,-85.69573032641269,6.000000000000009,-15.158883792216335,-5.242171189792872,3.0752004437103686,-0.6297952969871077,4.399301606102164,105
-12.347951533639378,29.339176310673153,-30.06749176313088,103.07494736576882,28.837218222196913,31.01049036865291,33.230957017395916,-112.50485289422687,-90.0,3.933716185302318,-15.307302641487125,-5.281788707918522,6.060043999196618,-0.5948739449914663,3.686075794799599,106
-0.8463666721270593,27.71404766492519,-37.17686905796389,97.72949446598145,18.20523952689531,30.195635632710616,32.63995671890623,-109.36458006914879,-90.0,2.917280616013983,-15.803705276830902,-5.333178086620214,7.386631676960108,0.024296473826913162,2.9765485071318434,107
25.94350535336197,23.448104923271288,-58.84363462125339,89.24874587687138,-4.606612971339167,23.84964781977496,44.61285906635854,-102.36854987322543,-90.0,2.9237469199053163,-15.265560010774415,-5.003496842843226,7.272743749760513,-0.06861461443556931,2.115184327649482,108
55.026456576024174,24.960170363510972,-84.41935416379896,76.87565510891282,-29.835895408364344,23.79939215920687,60.8172267407574,-93.30144727396562,-90.0,3.1854676538887303,-14.31956973810275,-4.5951793204269045,7.064826738810428,0.1427771490110274,1.404400261365575,109
67.4470295331055,30.418809116064104,-91.00224942222266,60.04898914378807,-46.00545354432659,27.477214425326057,70.74505052641757,-78.78414466957237,-90.0,3.4654424869775062,-12.76096715109678,-3.9452712951262,6.601209998359543,0.4691963797400848,0.8541284510119768,110
76.24159007752668,41.48068146675369,-98.4850172851639,40.45988456802048,-62.824908446365995,35.684134249524924,81.94318169909108,-55.16482545041326,-90.0,3.723673809983685,-9.882076940952713,-2.8155067386962354,4.695492107184616,0.5282475294390327,0.15293761809413817,111
79.09493252119996,47.2190600870848,-100.00995158536793,31.430767495849935,-71.30974708691183,40.34145598260485,90.0691718453374,-46.144632975732144,-90.0,4.004686610349064,-8.644530427166071,-2.3712450783871026,3.332942751275158,0.8781417705218887,-0.21868832829943888,112
80.31440224031354,50.3089297888288,-100.73636722964699,28.29882286208962,-74.10211682871433,44.54217482960107,90.94153672679116,-37.76173253599,-90.0,4.213680128171407,-7.511174267126088,-2.08707402219931,2.4119569618392016,0.9003500766340704,-0.2510832601726218,113
80.90867618851703,50.74167362192803,-102.33812427180278,28.29882286208985,-76.23471579240119,46.714606967602606,93.6847476745045,-32.299277027917576,-90.0,4.448042854034753,-7.3284918363317795,-1.64648940163361,0.9225359165840972,1.224051678322381,-0.2453056345877762,114
79.00589000044681,52.32635192537221,-98.30238677777378,28.29882286208985,-76.38816577489104,49.400230608629236,95.18782963843144,-28.642036882472233,-90.0,4.588685986285539,-7.6579571236142625,-1.0121525526114767,-0.2098006207101411,1.6141479446269158,-0.3275989556496861,115
78.82563550138539,52.843181491814775,-93.47796421462228,28.298822862089697,-78.94178254113913,50.483268636620345,95.18407316686873,-28.298822862089697,-90.0,4.686358233814116,-9.738598435101263,-0.3065749814804699,-1.9191133687253292,2.093048376378407,-0.6335532599081244,116
79.38980957227504,52.68895869473882,-92.39149661447972,28.29882286208962,-80.96604305788921,50.49985085938464,96.49414868571799,-28.298822862089594,-90.0,4.603932823913754,-10.785845269804264,0.11656005939709121,-2.723168232895675,2.101949753204068,-0.7707011874942341,117
79.71213482212205,52.216404643820184,-91.47409887093514,28.298822862089875,-82.8701414243834,49.87299037012091,99.87321578842547,-28.298822862089747,-90.0,4.6911920211831495,-11.778368741614658,0.5800662517910754,-3.242703970797426,2.3207525553748503,-0.9397143751148038,118
80.15806577767397,50.565138517281106,-92.90851740087801,28.298822862089672,-83.61271182967268,48.276275242329795,99.75107459257981,-28.298822862089697,-90.0,4.6567468456486,-12.648739050107352,0.7824356775467824,-3.585088360462234,2.417519731973555,-1.1087398100916876,119
80.648469020894,48.23731451097257,-94.22188366985655,28.29882286208972,-84.5654299331209,45.49761626419736,102.54590471815476,-28.53121626702752,-90.0,4.600193643585641,-12.790289130231567,0.9647983737949498,-4.299879641900505,2.4516586025135325,-1.3998431177497621,120
79.39101762183871,47.1672637498573,-93.12075317972457,28.29882286208972,-84.25921943487734,43.96498142614063,104.74404098387832,-29.288162358122946,-90.0,4.38742579310663,-12.463107321105706,0.684443390751187,-4.581104256328163,2.300553811326353,-1.4165119578042809,121
78.91557662692594,46.21285240026902,-92.55888856965254,28.29882286208985,-83.62549531724925,42.49828426407666,104.66018569431829,-30.119673064337775,-90.0,4.2836845652174675,-11.890332013183132,0.38290214623750324,-4.998284935905545,2.2378125295124454,-1.444564041916701,122
78.77571835929322,45.44739626508267,-92.76213515874153,28.29882286208962,-83.44368756445726,40.79159363915467,104.99999999999999,-31.058357727608033,-90.0,4.198355378494101,-10.865227345361719,0.061823900281959554,-5.047982245891254,2.0013080474385676,-1.1924532233357326,123
78.78898958416563,45.147341821280115,-93.77934713132328,28.298822862089697,-81.72005007357575,40.37792385884038,104.99999999999999,-31.292778555266356,-90.0,4.236087299620224,-9.255352199538613,-0.24008797823124278,-4.837753168822951,1.8253672404545285,-0.8552688821514598,124
77.9082867322285,45.32003393354578,-91.899028467728,28.298822862089697,-79.03906047085687,40.46685415624447,102.83047851497966,-31.282428672712424,-90.0,4.30063864332328,-8.017253690050307,-0.4858555275106341,-4.428588899961019,1.6872502238413452,-0.5047447656175756,125
77.09677980159118,45.567692074747285,-90.66636045386176,28.29882286208985,-76.26932433060696,41.24588585311058,98.64871744019611,-31.190052897611253,-90.0,4.350267524472166,-6.613775875573409,-1.0080059279769924,-3.360401744948782,1.4114353540942963,-0.13586296632361983,126
76.57415454159535,45.44805381086141,-91.11971055302249,28.298822862089647,-73.66022831597003,41.2369794720294,94.53574053444552,-31.622142666654632,-90.0,4.470499380483284,-6.010362485769744,-1.3015718141199142,-2.848215051931503,1.363503373065834,0.06307000279886074,127
75.42694165629706,45.16763438983639,-88.64356487255263,28.298822862089594,-72.37127786191746,41.110271571873874,93.34782801999587,-32.47175279799781,-90.0,4.664883470059734,-5.94932584769043,-1.5772226290456888,-2.1873990419696696,1.4936366979656865,0.27811454064180996,128
74.17217266855397,44.21466310719486,-88.13945747492616,28.298822862089697,-70.78596344922741,39.72714927657403,91.10057502546722,-33.79350053248522,-90.0,4.955912830151046,-6.684034640444748,-1.9388085128478532,-1.4071103360878,1.8555898252749856,0.6135575391263908,129
75.56580280300494,41.34155086334169,-90.65034469527714,29.56732959620764,-70.95808345260743,37.446442557776614,88.53933706376777,-34.99636831164594,-90.0,5.077918919045652,-8.48866020728428,-2.3351343113779093,-0.43531618720722065,1.956810625805977,1.0688038631346897,130
79.5829764244549,38.20774381601453,-97.58473969194344,30.874090698457316,-73.86053769641501,34.528938397153716,92.68602334081523,-35.88315761028081,-90.0,5.405375163724346,-10.024357862172081,-2.776060911932046,0.6633056025074086,2.1237830493655085,1.5544831533498298,131
82.59115511170938,37.02933585889943,-102.05254510048219,31.0720637365246,-74.90938899580794,33.304440835969224,94.04977185829873,-35.955427849819316,-90.0,5.5101205710325685,-10.957660767052198,-2.9744808881605547,1.6684506913201254,2.1569864978282136,1.9477170335747866,132
85.68001177771619,37.09317820173776,-105.00000000000001,30.725257780767876,-74.44021556332937,33.258901767606666,92.10885608436895,-35.76135362363598,-90.0,5.623732729759804,-11.92648197334894,-3.096323305579145,2.824402887411553,2.2652871667493084,2.2923986977943094,133
86.78207956921787,38.441126154312755,-105.00000000000001,29.85461552783822,-73.01163092590555,34.61101058981421,90.03653732440428,-35.36514220221767,-90.0,5.565802681606787,-12.74714464198995,-3.2527277528637253,3.776030653142955,2.288673204927774,2.5614420816481673,134
85.25594425571907,40.97585108031799,-105.00000000000001,28.811609975371635,-70.17577861375001,37.20401577470951,85.62607825688605,-34.974687849151124,-90.0,5.562783730464836,-12.782704131316553,-3.3567349104925097,4.617833046491236,2.287436316764467,2.779665926252537,135
80.50632509887741,47.60567289924364,-96.08074252422173,28.29882286208972,-68.24395694598601,44.57262891550219,80.41109682665756,-35.31364273873799,-90.0,5.53283962339736,-11.883604608754604,-3.188540559612014,4.719236293631753,2.2702956691859137,2.5807479073469546,136
78.04480591086626,52.892788594065074,-92.11870483371949,28.298822862089594,-67.06170896092438,49.276099576496456,77.70096803502118,-37.2566742260909,-90.0,5.395017850556692,-11.243056774028194,-2.965561217462333,4.665471451415153,2.234510469160247,2.2876495585929835,137
74.51382939053639,59.24468490499012,-87.1572695529329,29.70904604135444,-65.04871259531971,53.92648844468746,74.60316920904557,-42.34190199190447,-90.0,5.030562798900173,-10.418061322150985,-2.6103881277219645,4.17497603562168,2.0775553814763894,1.8138869573654177,138
70.0831702789446,62.20729883186838,-83.6199808298856,39.67937912513166,-60.69020765667653,56.95482050987925,69.85738760590574,-51.32027602554523,-90.0,4.666529853412976,-8.968652566634812,-2.1655414722247337,3.739296860356999,1.8453937841443468,1.2780011638877802,139
65.79458377383476,65.04323940034236,-80.06586372529736,48.961917845634204,-57.842636872412214,59.56064143758186,68.29258320809106,-58.40386815004204,-90.0,4.3018569632385395,-7.410544956693608,-1.7823413118461713,2.960235677887224,1.6256191080747957,0.9226377878335605,140
64.71801214447308,65.50017070353158,-79.38117881193726,65.47553710570544,-57.57157083028658,59.72907281947393,68.95220137349138,-73.9479226648966,-90.0,4.215298740908661,-5.747899431204985,-1.2257257444495768,2.149261957938616,1.3498473533418884,0.5944757673938004,141
63.05580358872603,66.28310516293645,-79.27815697341205,72.13674624575933,-57.394342208019225,60.18250893978334,69.30940270165524,-80.3257716112251,-90.0,4.28286256246436,-5.467624726145274,-0.9474678144602616,1.8240894680190278,1.4452209280904527,0.5799234891395049,142
61.59412756710455,65.34486325505812,-75.98511439599847,79.50178171199269,-58.37411061617583,58.47140133107375,69.6232024594596,-86.53683563234986,-90.0,4.439689208577845,-5.881126081239702,-0.5229745949648352,1.0457192432527957,1.7143366401822657,0.5089573303842058,143
62.58224153001196,64.15803364778445,-75.23064152092297,81.54769658000582,-61.58287672756803,56.03072019644818,72.62795199869588,-88.3308017327461,-90.0,4.316508444429867,-6.750974566340936,-0.22342988159371177,0.400673096817423,1.8711774354727262,0.39134309858431376,144
64.06253273875957,62.09954578012718,-74.46244595752988,79.62961463400926,-62.734349529358276,53.023134930627535,72.35407086565344,-86.9145712455856,-90.0,4.1725099862670225,-7.686313636455333,0.08807983045352064,0.013084870360091887,1.9893506848306253,0.20749709978492942,145
66.95514527408139,58.089668852010355,-75.81338099183776,73.91923181883494,-63.153007823799285,47.9306841054818,72.00776082951467,-83.11104884192014,-90.0,4.222150892786121,-9.198443806997396,0.3799335757590374,-0.468964125720224,2.3074714527435205,-0.4767891790277195,146
67.99482017596804,57.20251158746248,-74.61709372064573,70.24325597607822,-64.18258124339424,45.04464433736061,72.58457772211845,-81.08353919692613,-90.0,4.319000438394325,-10.325755002909853,0.592986582670228,-1.1605300970133432,2.433691112226677,-1.1847028391203167,147
70.79270266414863,58.030389317324186,-76.83992983379152,63.25068432394345,-62.757818379253756,43.17191848310327,73.34933815678562,-77.37455068088957,-90.0,4.725284059882583,-11.410558725457369,0.6839787939857704,-1.4352353515565053,2.4239211955860576,-2.251012229966718,148
72.53717631164092,58.3820085409903,-76.8095868962395,56.21087827281106,-57.906954683506214,39.77589650778133,69.54727290372658,-76.28941825434748,-90.0,5.582653971803182,-11.915587928055784,0.5666881000654391,-1.0020357699272986,2.316513786878629,-3.4980687636020003,149
72.19434150959664,59.68906609953281,-74.4025259751924,47.7004459158031,-41.82706766224148,36.64314643991794,58.41621265343149,-77.54282996101568,-90.0,6.000000000000009,-11.015572915591516,0.3305495981725042,-0.12336750039185726,2.3301841426969063,-5.326236211078657,150
68.46655820889475,58.986518641325844,-73.75471431962642,45.24487705081176,-6.654772318969618,36.141206416616534,34.43492901190601,-87.33450433091878,-90.0,6.000000000000009,-8.669333134715629,-0.3753411752467328,3.2436474731900966,2.0809116796249567,-7.652465466115564,151
66.1903889938633,57.81874072459307,-73.93425506611482,43.380035293949724,7.119087726461633,39.38718023886521,26.50081728905637,-92.7552010117401,-90.0,6.000000000000009,-7.829641346255947,-0.9581138356055906,4.624404228095364,1.8167169014832698,-9.010741869663523,152
62.243135664037425,54.75647232986479,-72.5821488105001,49.52152266805881,21.369226941085863,42.33552680471716,16.179212901524355,-98.22213635282837,-90.0,6.000000000000009,-6.577977515889571,-1.128738230011662,4.82066297327434,1.646552983120397,-10.051082565582176,153
58.67197373085493,52.31273124203409,-69.4149841476062,55.65961328022872,34.14993711050745,44.05337130358428,8.476343297087725,-105.12292132466933,-90.0,6.000000000000009,-5.566895116482545,-1.2748928048573285,5.894109864121063,1.3253607116611121,-11.017903526272445,154
57.563539527409255,52.24247220244104,-69.28223403747924,61.00781375888157,45.45817378292605,49.3846476419422,1.5411628049037827,-108.75303893882827,-90.0,6.000000000000009,-4.947251165896758,-1.2195336843511075,6.500591878671256,1.1051360527701204,-12.20861805514266,155
58.05951443042392,50.46069107747666,-68.47900758259048,66.2666384014984,53.56369478425911,51.4292169118658,-0.9712355725068792,-115.37209027264434,-90.0,6.000000000000009,-5.929428917148428,-1.2107734723372336,6.441720694521455,0.9099703342123581,-12.869126887824683,156
61.510344485449465,50.15972630638982,-72.02834657943475,67.106256125139,56.05676510608613,51.92655252690034,-2.238182132205404,-118.32553197466916,-90.0,6.000000000000009,-6.289586057153405,-0.9562500086335498,6.5051706999586,0.7119309703950494,-13.176616993220382,157
62.54175014925903,49.029339010822625,-72.2286013636596,66.40950533368013,55.782583401277456,51.71493607838384,-3.388196235645296,-120.55474483209628,-90.0,6.000000000000009,-7.1346449152954525,-0.8343382484683943,6.68626550354237,0.8643703983163326,-12.987054882680244,158
65.45259519097003,49.07197714177336,-76.61278763855596,64.58400556747902,49.531079073557265,50.802268003566404,-2.886834730143042,-122.54538555073282,-90.0,6.000000000000009,-8.344673316708079,-0.5593348228976646,7.277637430797099,1.0448728882116378,-12.015148307702626,159
66.62041023116136,50.36422041485111,-78.20249828692519,63.24761279061557,40.35224724916029,43.531701533703355,-0.4488786777800331,-122.43298758943324,-90.0,6.000000000000009,-9.051058541095053,-0.24345279043856996,7.709241062034816,1.2291004421150933,-10.466157521816971,160
68.86765784328612,56.6507599456524,-84.09055683601329,59.2854722232077,7.541008468006566,37.92209628640531,17.752985786942826,-117.40968512373587,-90.0,6.000000000000009,-9.832238694041502,-0.44315445651949253,8.389893572822194,1.7087242285059978,-6.952420187007686,161
69.51392918432423,59.31346946422763,-82.67238381190491,59.30410631135674,-5.739956407608466,37.70528894696811,29.403061351962467,-112.33866645259053,-90.0,6.000000000000009,-10.842744903485611,-0.8390996938118961,8.760169427851062,1.939150931898353,-5.279503742551503,162
69.74822494644054,63.605028014818735,-81.1291278554635,56.56762468482636,-22.13944130992877,42.75739383676494,40.819767203268,-104.7385137193854,-90.0,6.000000000000009,-10.893000948682126,-1.2146263010435185,8.721306860525802,2.116916022659991,-3.5485502908277065,163
67.41816287062451,69.26236989424409,-76.11977525218929,53.598513489212486,-32.63186955399348,51.737804835242926,47.12648442829778,-95.31224543966916,-90.0,6.000000000000009,-10.586561270272536,-1.58310104496195,7.842471744383272,2.487649712642348,-2.073120466846721,164
65.18233669636972,75.49315256715686,-73.32194479099232,52.17014611649367,-40.015830013040684,60.636603233334775,52.38983847514527,-84.84820163819911,-90.0,5.607154824509516,-9.659762421195346,-1.7189600081758623,6.346751964316307,2.8999660059773977,-1.0157431411088447,165
60.310868240500405,83.32982893281067,-68.09672784217062,54.11385842527088,-45.66205152699756,72.2755673800835,54.95859382137316,-74.22707649327751,-90.0,5.027035670183683,-8.223169798238143,-1.6514083920937117,4.128732705273977,3.3290791905257526,0.05740018462463001,166
56.9922920227473,86.64671248995583,-63.480807837474934,55.38556383627037,-46.18732881193917,78.17043982490053,54.53650291677695,-68.62116621723193,-90.0,5.093657773366395,-7.307289927759553,-1.483883310572381,3.2402922636001597,3.6950926608703143,0.41722352032066595,167
55.09059653602834,89.8233614547293,-61.86070157473581,54.555622270984486,-45.717400914702594,82.82238640104781,53.732804073994416,-63.87406966438739,-90.0,5.1740654367360355,-6.085273272646372,-1.1184985705159871,2.367803702159551,3.987344647034348,0.5300174529765403,168
51.81050447073333,91.08755345446056,-58.16984233578681,53.50635838188618,-43.969374025475155,85.16154424799217,52.53905092649278,-60.643507411754626,-90.0,5.378372010277717,-4.7964272267874675,-0.7543968827132409,1.3716566650629656,4.303152932424522,0.4551709000454067,169
49.75269467792416,91.67346415508787,-57.23621517958595,52.31229568797819,-42.62850695311737,86.94889113078976,51.23282666587945,-56.59229936362358,-90.0,5.475033906042392,-4.234398358660569,-0.6266017203977285,0.3220821042730287,4.374151800914516,0.41095441043921427,170
45.738071412508816,89.18962710305671,-55.965657840792026,57.88701008370517,-38.424887817885555,85.98086168351013,49.857313490597136,-59.50005122246315,-90.0,5.350588636489531,-5.402108864068959,-0.11682608098492382,-1.1154784547782917,4.520928082054371,0.18227620944322145,171
43.84340950565078,88.3889933047972,-55.54797757037948,60.02805994861358,-37.65193388051161,84.37194206941857,52.27867245509742,-60.987475162072506,-90.0,5.032952569642749,-5.860108413329937,0.29958249255803354,-1.720661547551992,4.237928358240266,-0.003994105632700597,172
44.015892846623174,87.00947797362181,-56.9929873061721,64.18575560177882,-36.49657245308966,82.37051731744378,52.64083111075199,-63.59710993741405,-90.0,4.758217240878324,-7.742968939424083,0.9357577178316846,-2.9312248032869475,4.041601808706813,-0.3514214503806891,173
43.22907397770473,86.43764593498354,-55.79955094097223,67.32985730245936,-34.82746149773058,81.50667940503992,51.14128775185636,-64.71336968602265,-90.0,4.407086714573475,-10.257616905352535,1.596712867991391,-4.382943128972628,3.8824324034526856,-1.1110024298955767,174
42.347278863205226,84.65906474081717,-56.35862738126123,71.64780258649238,-31.362431276497734,79.29716225871682,51.8924172784484,-66.43572727118446,-90.0,4.325724805358885,-11.770542808493678,2.0983659402273003,-5.895986949514648,3.7674796719428114,-2.2259254899400043,175
37.82930167594283,84.59208221527442,-54.244163025770106,73.83656125089986,-26.158200096359923,81.45140459892549,51.68001928410357,-62.4423220098238,-90.0,4.04019181834328,-12.761587567536484,2.353638114180554,-8.316334110602517,3.579067432880445,-3.4465208641473124,176
34.16334415706119,83.76563006171966,-55.15707014758242,77.09712408093684,-22.275237449297784,82.30954250636582,52.73049886414491,-58.525614431028956,-90.0,3.663840233304189,-13.101748879919985,2.3829912065500296,-9.965101063292208,3.4449877357845726,-4.385911521737347,177
28.781155157736126,80.58554741136557,-56.14574879668152,84.76549390049445,-16.830395299811176,81.87426916233785,53.36803543979192,-60.293880992863464,-90.0,3.4249284472476003,-12.30565260480118,2.258657818468517,-11.266114447732244,3.3214089632538517,-5.031341067469618,178
21.429314989973676,79.01693372143467,-53.12246583316854,91.71434708316495,-9.979965295023193,82.53289917848305,51.88047838946196,-62.689153939003255,-90.0,3.1644650434493062,-10.891084431379925,2.0130287449139113,-12.442385854521286,3.1314676716811993,-5.1965841742725765,179
14.015397446112143,78.66255115593891,-51.276806131670185,96.51210359776174,-3.06467163894136,84.87840446280435,48.86040471268422,-64.43402731773281,-90.0,2.736369865630959,-10.008291054589996,1.505711450128149,-12.716069266819558,2.8366444778577957,-5.040788363620582,180
-0.7757987650145457,79.13785205875708,-49.330765240337044,103.1821724686543,6.513716126236,88.60504910433336,48.96289854924784,-69.87373235383377,-90.0,2.5209737824529657,-7.944033570599914,0.6333897976478253,-12.062751934005428,2.6707699358012196,-4.148636131171212,181
-6.899302254877735,78.81282071257208,-50.65250936947163,108.4309327541635,10.093376551440626,90.73232986056891,50.347952903563694,-72.31266641858606,-90.0,2.726329625300533,-6.604534873037081,0.17656042064665098,-12.079642626210934,2.3340996090515223,-3.66319469240824,182
-14.680521470853032,79.25609827889245,-51.400281113159686,112.8545388040866,14.779218400218568,90.6546786618413,51.42972062003287,-75.76717134494042,-90.0,3.118958637139132,-4.756797739248148,-0.3168100963484539,-11.902164638077211,2.3738896862115566,-3.0771951065565606,183
-22.601246459417343,81.49389650310228,-50.98238292143141,115.18425250829048,18.62278405650345,92.71426405251462,53.27038809306985,-77.86153454132325,-90.0,4.043464598163443,-4.2014130268666365,-0.8578646371375677,-11.920953473383046,2.43810725635362,-2.1014020996811467,184
-28.606338281068492,81.52467361923165,-48.19335506311886,116.85925654556245,20.976180999783832,91.1498646666722,56.13975198327756,-81.27389455552006,-90.0,4.97220916541508,-3.6124115103971675,-1.415838752165045,-11.46793133113326,2.488093747924699,-1.1285411645234658,185
-35.60290639279541,84.31025397955655,-45.674474969257794,117.17963462952343,25.75240889094322,91.2116105297376,50.63480430042723,-83.19813831872291,-90.0,6.000000000000009,-5.678822606012687,-2.147908541320475,-10.318300119324732,3.129395988825019,-0.1155243756702785,186
-37.84202432698387,85.41148319795448,-45.67962080218335,116.76522830183349,25.814716470131444,90.91338282142195,50.93596264326459,-84.27204353330427,-90.0,6.000000000000009,-6.719790664510159,-2.58653411487469,-9.30508199383242,3.081848592827649,0.5499050875271064,187
-39.03223953145495,85.5007665328335,-44.378336621495166,116.28690257077274,24.81138466496667,88.6185194163883,49.402183361313035,-84.59803532436375,-90.0,6.000000000000009,-8.038115646110585,-2.9182582825173027,-8.007773292691063,3.047799113243586,1.3014979530888695,188
-38.14926512900143,84.82615718730298,-45.281900571408904,115.66281440974217,25.81774738766872,87.37209341816693,49.449343788809216,-87.44149509803036,-90.0,6.000000000000009,-9.503463886462063,-3.1575044671903387,-5.7526976099339295,2.851379149885709,2.2076570274756033,189
-36.70334455973215,83.63409700143215,-45.51579007959154,116.04008974421889,26.294333804276913,84.93275265200643,51.54708356824975,-95.15590470192045,-90.0,6.000000000000009,-10.55635741221228,-3.4315980092414944,-2.571514298163007,2.2982252760297697,3.375603806295126,190
-30.486122534287762,83.6716475713797,-45.692381354704196,109.03265139636578,24.639897693949674,83.51159396226436,54.182009206938304,-101.63206663558613,-90.0,6.000000000000009,-11.50981997253634,-4.467021805541862,2.7561153707895873,1.787757449233453,4.369858104901519,191
-26.40215582580322,85.10216694320933,-47.999589323766976,103.86633917700993,23.73240051354943,84.24394037514342,54.73211841470681,-105.48251503433015,-90.0,6.000000000000009,-11.961584150067525,-4.871970610561546,5.474689193114585,1.607034207034827,4.705839609901585,192
-24.12708002660008,85.19005909509059,-49.81722764626307,96.9845103140846,24.673080335620867,83.56705991974877,54.79021662242162,-108.1722156448989,-90.0,5.894247296847061,-11.472659307394839,-4.887465703462213,7.839993369129471,1.3395361282288867,4.790355601834008,193
-19.261733346548713,85.26750940116665,-50.51378381946496,85.57120550695302,23.570839675327473,83.62928612742428,54.147342553449555,-109.71235859307087,-90.0,4.866142750040659,-11.777354834077846,-5.014742523944722,10.702160814502713,1.1515795501940163,5.100811023787256,194
-16.556081795863136,85.60678876848093,-49.22949588820119,75.81691306246695,23.464291581138497,83.37050853803396,50.62604303217587,-111.92204976078402,-90.0,3.837060299113681,-12.000800822199338,-5.15571394854151,13.172869538468738,0.9741838819846232,5.16676987991079,195
-14.6408648318475,86.80339204739741,-48.52090353591376,65.7280285895713,30.12739514886328,83.77250628728181,47.62446532667417,-114.39192950514396,-90.0,2.8619933039174374,-10.899244138297053,-4.547502262407178,16.27421004242332,0.8004783151095194,4.6939993270203315,196
-13.732653041023525,87.81765043762235,-48.28404326455485,59.58818681996273,34.138854975080804,83.79231970447248,46.38848129110336,-116.77251249261217,-90.0,2.9310488542301116,-10.186803672140853,-4.139285543695945,17.77726444139561,0.6852359724392469,4.317804194155006,197
-16.3552408364093,89.79423889083768,-49.77196641657388,61.086934607539945,40.98613564540096,85.65729883627908,44.44339766840846,-120.99734094398507,-90.0,3.2258061066955075,-8.738493871024401,-3.3364005434601673,18.26033826202142,0.7968104400597729,3.6909371294188458,198
-19.6998056382878,92.32767820832464,-51.716270075644985,66.72849323833488,44.29596757822522,86.08147444330822,43.87166421702335,-124.5557206830097,-90.0,3.7272823632228436,-7.817432667182177,-2.7382854797244316,17.489108514364204,0.7097005348309215,2.539198053728555,199
-23.234121818549248,94.56778068978012,-51.29679622157242,69.53602189838473,49.28399606768181,87.23121156624234,41.62166289740072,-124.55328121689033,-90.0,4.275796719846678,-7.846449123922527,-2.2529595366566024,15.809652292045534,0.9711231068875308,1.5161064598186722,200
-27.83548040147306,94.08541922491058,-52.099072524832145,75.27368681548234,52.16290996077269,88.65090529633306,40.656565403335094,-122.05821096021673,-90.0,4.05658986788793,-8.92906432774399,-0.9070982797373619,12.177521365472932,1.810409392213819,0.900825909412845,201
-28.627772373255006,93.2003957545401,-53.021357458682,78.30084044836507,51.961809314928274,88.86472900411403,40.74002691681986,-119.65122120052813,-90.0,3.6706840993706633,-9.617973715596877,-0.16683627979013607,10.340323683722591,1.8866567171916648,0.4699671802290501,202
-29.755399038545555,92.71857294029479,-54.830995856526826,83.77186490856796,51.697796701898625,89.33494064025857,41.33843553135425,-118.84437781242282,-90.0,3.259642472863151,-10.270523676209644,0.45374760757225613,8.690052411189814,1.8479895905356734,0.19473945025982803,203
-29.289640619422272,91.4690135214266,-57.54328473530703,86.43822979002216,49.89592866849507,88.69286235722718,43.3183325125172,-118.45421273368865,-90.0,2.915743084931734,-10.237202071765811,0.7192490899480338,7.767703986326724,1.6406794366614692,0.10518219406416532,204
-28.646418099608365,89.83541133090502,-59.51632295877238,89.42019272244379,46.76142115609815,86.48180487090917,46.3042875919798,-116.75101971374548,-90.0,2.5888545319298726,-10.05013617015338,0.8802730620019689,6.515359196268031,1.5209006700257288,-0.04792808366212187,205
-28.806291955484685,89.46369783004633,-59.57587465330219,91.7291243376572,46.31145349557687,86.66985687632545,46.05549011353526,-115.79363766921578,-90.0,2.282083670436605,-9.91847467872293,0.835115834243713,6.004334612055837,1.3609788546979067,-0.018175542894663388,206
-26.321569084312546,86.44732446978159,-62.14368758955784,93.84788226993615,40.561670296452796,83.48696796045101,49.428038080824514,-108.10995273426732,-90.0,2.221151331508564,-9.524423900433657,1.1798704340851287,3.431006992637909,1.2173747175558312,-0.5900018002283394,207
-25.001823171629784,83.48352859839659,-59.53839790683162,99.57207942408826,37.037816360986724,82.6307645313134,50.57612117592189,-104.84677233616696,-90.0,1.8695143118073805,-9.784459356928055,1.3368121846095795,1.3877662437814362,0.710889046493995,-1.0953785075861482,208
-23.14191914618663,80.60674105511855,-59.377299766358874,105.34242721378173,34.549188690554864,82.97188247771274,52.7826741948298,-101.66329195619247,-90.0,1.4917104993912078,-8.927202792920154,1.2173173369862844,0.06652174669811523,0.2912615365332715,-1.2413354990299308,209
-24.983561088302434,78.40000181805901,-58.53945935059274,106.81968478210246,34.3820334102431,84.35668729645934,52.39042152433073,-95.15953491827364,-90.0,1.8001072529212763,-7.737768711074987,1.2397446479284828,-1.3262258230103068,0.21052921069247837,-1.1568872030873325,210
-26.262584133934897,77.0791853640586,-58.287337411743124,109.70473138692013,33.11275750167257,83.69786320752026,53.948632851250565,-92.55368317194613,-90.0,2.12781192180476,-7.104889840265739,1.1605025189766587,-2.1445528478152243,0.08281718549077748,-1.0462093481956594,211
-34.20802697156441,75.65863577050585,-54.04745984737244,105.95719062161494,35.32854735012459,85.49000883980318,51.88986574358089,-86.31801144213114,-90.0,2.8269031802373217,-6.110583489655086,0.6933430414344295,-2.5272019199587463,0.015863482352568924,-0.3912360056460219,212
-44.31342762957821,74.70159194947999,-47.479362887950174,107.20413027961976,38.458704259913546,86.57721044691498,50.8772391848349,-84.65397658340285,-90.0,3.6676894092287884,-6.036730008889271,0.21819554574812014,-3.5319286642075993,-0.050628202417356376,0.3266744035038518,213
-56.821049579327735,74.51910293616004,-37.681403615599535,111.63626839818126,46.719632700651175,86.76539322066996,45.298423517769166,-86.69797923670212,-89.02941268252367,4.307682651721283,-6.102293905439834,-0.055477852103269575,-4.89069562171338,-0.2213534153336927,0.9348332600350966,214
-68.94702830301127,74.04945779859177,-25.55381407238256,117.69421903810978,58.71943797571952,85.60312622639093,35.68068208061589,-94.08882520625814,-72.7956344719739,4.815442357035377,-7.156878086064623,-0.5178154420456313,-5.083852213314998,-0.6585307231606558,1.461334987949537,215
-74.25187431651669,77.02066656494328,-18.397788769817975,120.82225093740483,62.4015536664752,84.92656155114919,32.91764533503873,-98.81638375916127,-62.90979659736864,5.096682273425032,-7.873703335149225,-0.9587981145608536,-5.527216118721604,-0.8336639299526175,1.5619435403049229,216
-71.39669351247305,77.61719998494435,-3.281993771756471,131.36518158149116,72.66005930794071,82.57158253719152,16.64958150294712,-110.15958859778861,-54.95990332002547,4.912885917507314,-10.57496880287582,-1.8612486467844551,-2.0172942776451612,-0.8594875993161724,1.960561893832615,217
-63.43237536329489,75.7554223754864,4.352196892068838,135.79790365921,75.91750524860268,77.67021465997226,1.8430905207311419,-120.23430468487066,-42.04671534307767,3.8451684312794416,-12.857771091237014,-2.893816660975519,1.3944313856953874,-0.9148717857670189,1.706140814483745,218
-54.06520574123956,73.20676177985325,-1.263213705029007,135.19087817685457,71.76045888437815,75.04580641454996,-1.2554567026588725,-128.02519978290402,-10.969036275639219,2.5498803521386004,-14.232324473721315,-3.7420866470941045,4.103896069079546,-0.8597942897007949,1.031905325813872,219
-48.275023958257734,70.50951281497677,-14.59412549353248,131.71208568730404,65.68635104952611,71.98297075935335,6.412256551928572,-133.29660714369527,44.08399858586083,2.6822911515525774,-14.706082181364572,-4.743362146803841,5.522030389868117,-1.0220848954582085,0.007614858069944527,220
-47.92415783957839,71.22549149612969,-17.76685239835428,129.41157065709896,62.30070890744079,72.95885462020708,8.61058844335437,-136.0636557992851,59.52962224889819,3.4644829902154735,-14.973407304959746,-5.023895547794541,5.307828207003844,-1.218225392589889,-0.61908953025037,221
-50.45968042145227,76.37179814098627,-26.1409536352169,123.49744663125063,64.47288600070306,76.50557793120598,17.286301741129744,-136.41292266765606,66.48704394006415,4.974984606233858,-14.438129483696567,-6.4067214283849605,6.548971920017579,-2.052029084966032,-0.8790284104410604,222
-49.03668736177398,78.84216878894,-29.40947161840448,108.98859102160262,68.7354885619482,77.64565723936062,23.951659287544135,-132.23399676579294,69.51502766381282,6.000000000000009,-14.679241190363124,-8.167487803763432,9.066274064966692,-2.8975825216571027,-0.605075376109323,223
-47.63745371108887,80.49740150850796,-28.578348828943167,93.76196387915942,70.81339072302765,78.12156847534435,25.38119335262981,-127.25171281712946,68.85015298323279,6.000000000000009,-15.405451251917295,-10.149133327133393,11.068994730780748,-3.663098894826426,-0.143182454257586,224
-48.14699126296601,81.09601296183725,-28.88445728597342,88.36158751078833,77.02718514556211,76.60485721246651,23.732654378092494,-128.4737905621258,61.497872120556735,6.000000000000009,-16.069877700726135,-11.792032049701458,12.940541526548065,-4.966522468124098,1.2756725930423918,225
-49.98458407595226,81.63961992190006,-28.148774224963653,86.29436795890607,79.53354374062903,73.01103754242085,24.34612286443051,-129.20057500383325,59.1037242172897,6.000000000000009,-15.949197267966852,-12.705627776529179,12.85506323101171,-5.433699194878197,1.6687289386516906,226
-52.64407179880048,82.51102734713517,-27.540185830939716,69.41841983138991,82.13136795240521,72.61851388369453,26.897381151663613,-121.70167264553908,53.53830954307954,6.000000000000009,-16.88938673001079,-13.326781359342151,12.711360503200982,-5.385301554510895,3.1085101284318886,227
-54.34431827190975,84.16196109019198,-24.94347828688536,54.986223059925614,86.64039695298385,72.73290087031265,23.150864941698952,-115.01586168445627,46.59136895469982,6.000000000000009,-17.696933776370628,-13.772003814201149,13.177863281795839,-5.25003913700105,4.7648362321587845,228
-56.62517166884488,86.67396203685972,-26.518383756084432,44.42244838349617,86.83106618580351,72.99995615092487,21.381203816127957,-104.92991093251707,42.81971222526,6.000000000000009,-18.133954120876652,-13.356250988468753,12.587318567498878,-4.056858583282122,5.510921485735701,229
-60.00550813313831,87.48832162664195,-27.476649160933906,47.25840045132315,86.58095980165413,74.62559777629005,18.68710016807452,-98.51865516839418,38.63608603489919,6.000000000000009,-18.434618894086302,-11.612932805404846,11.047643357183713,-2.320406782774567,6.143749506366711,230
-61.7991480888126,87.62186824161371,-29.46608203386856,50.861466895479154,86.98892095455071,77.13100515594678,15.374645873179743,-95.03328170800495,36.02410230525179,6.000000000000009,-18.501439328234245,-10.388157243980253,10.313028485106376,-1.377565322729439,6.433337021171752,231
-65.42185767085522,84.76621894504852,-26.491720524133644,59.08764498773712,89.46118046541373,74.85132528567955,7.739035655068699,-89.32986484400918,27.45386844488057,5.986816926884079,-16.080762499295943,-8.317192368415641,9.782671637039815,-0.7580636051925896,6.654245843419322,232
-65.5787634680159,81.86733152157403,-25.83745894386293,67.99661787031042,87.7048002338189,73.15584494727466,0.8168381340658664,-86.57028454151657,23.360383015275477,4.744632647166117,-15.280543441526179,-6.226683321813009,9.134833015509955,0.37688085233125784,6.557469403966236,233
-66.94207715996028,80.10484269800206,-21.985372233895575,77.93295807705489,87.0279094970671,73.16576276012984,-5.070422187975341,-90.31842985530359,26.861580033388265,4.133861867631193,-13.92585619038518,-4.538639672708597,8.58420545333096,0.7965306689596748,5.8131546256641355,234
-66.17386366965223,78.53388964698149,-20.665776050394314,85.65754701957772,85.07433951723421,73.27306608066165,-8.253456809463605,-94.04247906031569,29.88344472891436,3.3092184712299737,-13.37083739186422,-3.2652063913580687,7.472763754583293,1.2207934220893062,5.036402614690806,235
-64.68016139054224,78.77232213960981,-21.634669072782025,86.0970137508307,82.81020855120671,73.5842301067045,-5.921239266836912,-93.82812191101787,27.71466186914602,3.037326097492729,-13.324809478997228,-3.0527798385978815,6.737074650372463,1.1961731683562593,4.717149718614663,236
-63.61484196312325,78.11548635390814,-17.51554764447926,94.9627687717649,81.03015675443586,72.52324380633188,-10.516825130115166,-99.73755557712919,34.99610382243322,2.40152274772369,-12.865742869156561,-1.931470716653871,5.643481873140938,1.2832529561965456,3.9615699567044653,237
-61.09040803947639,77.1109568000783,-18.727812935823312,100.44981896976003,76.75995439440159,72.84779477347526,-10.453046814459848,-104.6139573294825,38.45871690246909,1.6203051314264592,-12.214723105724389,-1.1320041506063798,4.402717101300678,1.2306844423826708,3.403013444648946,238
-61.873501188701695,78.09739461406211,-17.903725137942388,107.29805631547508,74.65757654864804,73.53233525980791,-9.034683829392243,-109.01611423174646,51.51302043713638,1.005070263861626,-11.009823361252987,-0.6108267529512553,2.8669952477517753,1.0831085068981121,2.826705580131547,239
-60.67134525130638,77.74233543694876,-15.1994322144181,112.83211262142814,72.02628528372516,75.62430237039008,-8.452837962149552,-112.98636580065576,79.74379192684964,0.6571615227733768,-10.326273868856463,-0.3102768259193695,1.652477532409635,0.9670389934618608,2.3661208928877326,240
-60.132152395918204,78.93524478901618,-13.022907513980815,114.79664373885498,70.64637473448504,76.92642001099784,-7.199185801078464,-113.90536162688898,90.0,0.469507191989126,-9.808290972163364,-0.3638242374909077,1.1010493930753213,0.7469152161891657,2.150490325781211,241
-59.02287429354559,76.94982444582728,-7.616518090552536,121.00921162200761,70.16229089750257,78.2500782092285,-6.763059348390602,-117.95107536998687,90.0,0.4683509823364868,-9.264921790324024,-0.12731260058548838,0.23917750973216906,0.3763715017704675,1.8588662088800338,242
-57.96009138293816,74.67161854374022,0.5575478112608878,126.81062879128642,72.04346843276079,79.21579881077655,-8.715750177184306,-123.15101445304397,90.0,0.7168352512141627,-7.815649708063397,-0.3009484545120164,0.6209147320046222,-0.08079452544201432,1.3829549569413155,243
-58.64604158290825,72.94664045387441,6.239124925457538,131.84957116204856,75.95270086249711,80.70750884446433,-9.298517612692253,-127.36506223353493,90.0,0.9067514544196863,-7.052138061034081,-0.705506621214259,1.368885616076047,-0.2490484801320934,1.0681482352149594,244
-58.86957252650616,74.01348197869359,10.79046678389513,135.10762455606533,78.58860550667137,83.36886676022947,-8.708867382251062,-129.2823562302997,90.0,0.9175608715530634,-7.7414897673282175,-0.9767670813013949,1.8894515812884294,-0.3062406518228751,0.9777304188241387,245
-59.35429605078686,74.26719211961822,12.08356101860479,136.30148935635884,79.32762722091208,83.7403017172664,-7.949391791694968,-129.57708564413664,90.0,0.8644587808038254,-8.37200120262361,-1.2166758930797126,1.548850812034375,-0.5558906078691614,0.8410391683000791,246
-57.631356115974015,75.35729028751193,0.9304660485439955,134.25165460101647,73.34877102502696,85.97010431057119,4.828295622957364,-131.16161748075285,90.0,1.1008645191448565,-11.54670970489268,-2.1168816092833933,2.040726833029657,-0.8139320753611579,0.6970819764781147,247
-57.0331406417887,78.05995203064919,-7.813338136932793,127.47699586727275,69.08097680358365,87.1810830820659,16.939728038141855,-128.0743821160088,82.60867206545413,1.9320210341850175,-14.066437600920235,-3.626888033848952,2.557461217019785,-1.1192272575631028,0.6179419835196805,248
-58.48036357335947,76.77610958387352,-13.90866931816936,124.39389416799631,69.97380497444084,84.9733861236071,21.787550075972028,-127.84941897476838,69.63050889874198,3.5942175698417524,-15.882454564189626,-5.381582887599219,3.740385268116528,-1.9767784336915173,0.727072707639988,249
-59.17381042875713,79.88539459748803,-17.95146814422666,120.65645964518386,70.04813721338566,85.57194674476253,25.26562754853036,-126.62358323775909,65.75024518066951,4.872698615815393,-17.308743145365224,-6.983997112238443,4.442468195764862,-2.528373439089008,1.025783006349333,250
-58.819183476164994,80.46555400020235,-20.837449984495148,119.84116745113917,70.42371746175198,85.54478859473058,26.362500553893906,-127.10921140511498,64.25201679955944,5.977063781005557,-17.759550761207436,-7.820500005235335,4.162132069223275,-2.8354061626208233,0.9926181998758882,251
-60.333025792233514,76.6979971271791,-20.050174358562657,110.9138515572255,78.05234992844598,76.82862207426057,20.135444714676154,-128.56663653505188,56.84069959390438,6.000000000000009,-18.814698209915516,-9.490109785512118,6.318970497021476,-4.373264478290784,2.0104509014181775,252
-60.089989415032065,76.9534247929843,-19.605017160923616,93.608045727776,80.45743379948227,71.09649755212645,17.182571626161362,-126.49616615586685,52.98644404723871,6.000000000000009,-20.4332916648525,-11.278568611519368,8.047232327555637,-4.99271410293289,3.0861858289340383,253
-59.797261199167586,79.85205319959422,-22.69134431529025,74.08168566854098,80.19453696550126,72.09449057116069,15.88541035379205,-124.41400683983117,50.43693395412689,6.000000000000009,-21.70335921595498,-12.576274760386333,8.123643340156539,-4.836337428833474,3.8263513101613973,254
-59.23010975069088,81.92499885496034,-25.69144965619625,60.45268448058205,82.26630317219633,70.30717883850754,14.395169499959076,-120.34064243461582,46.913103090325855,6.000000000000009,-21.371233292963446,-13.52661150390671,8.162437821922929,-4.696577695820547,4.583346276271574,255
-60.658617964854,83.82816205312935,-26.45248754690561,60.60364388370402,84.1832693045966,68.10156024304007,11.981113287386389,-119.07051296963809,45.9273890298952,6.000000000000009,-20.49725444126441,-13.808550842193041,8.239476451995838,-4.287341697846503,4.7584153296494565,256
-61.08484788857486,85.2812390556601,-25.931100786429894,50.299014300296164,86.35182262900655,68.60692489276242,7.300896418997277,-104.34006747672278,40.648837700301904,6.000000000000009,-19.202609514890085,-12.756142553315405,7.9972191935620005,-3.0558815773796644,5.6232511829746,257
-63.405879117498024,86.06320911398174,-26.14899419263464,49.71577663914091,86.44844533772661,69.01881868438122,2.2082391080589114,-94.1055104771224,35.309164537247966,6.000000000000009,-18.010359258619978,-11.12782568247006,7.186269792623122,-1.6397200428371221,6.102210007901707,258
-65.35594841908603,84.81319494879415,-28.174879298191616,54.13480763144773,86.50300681013832,68.88545170340154,-2.812529240153255,-87.27852502551873,30.45307493691259,6.000000000000009,-16.67375007500567,-9.310554535884187,6.585775796318512,-0.42037369651658896,6.289936960737015,259
-69.11458796557993,82.77082092001598,-25.11423244005112,64.8836637733859,86.19144385578886,71.13995637336448,-4.704480588028677,-91.03302428841386,24.59030921559802,5.429458377489972,-14.886098725681775,-6.868292253601675,6.241473234305221,0.19213435504585735,6.299880016616514,260
-70.06411145258419,81.51363503593163,-25.593000954542923,68.43825674043022,85.11059951172214,72.19685282726981,-2.032866250553167,-92.14877586456204,20.23097112187136,5.048087461958605,-14.097158241752762,-5.6960004777611815,6.305146293972239,0.4126330158240778,6.139916250618725,261
-70.82096420327692,78.36674648740929,-20.548678162210535,84.40153841678341,83.55260548877847,73.44161569933304,-4.152858972756542,-99.31155914459616,6.842490508321674,3.969692546245418,-12.074961959813146,-3.0920863209778537,4.751169579213257,0.7404094872319387,6.10323247523083,262
-69.15527229889786,74.59288165919185,-16.143563596276834,100.86473472285293,82.70473386719428,72.85547691084905,-6.8032465353286184,-104.52301531869932,-14.274045774812704,3.1586110227142856,-10.514220351651465,-1.619246312146147,3.1563980178060307,0.8824536073441178,6.378118347444861,263
-64.88700913730656,74.24932670274548,-13.64804846776426,113.10682130526645,81.49610113421183,72.53439099552168,-4.268580840959825,-104.48985687604743,-42.35809921856197,3.222118978858202,-9.487117580027803,-0.08948832006606766,1.7716748485111973,0.8783234390454538,6.729149893295659,264
-59.35447923041986,73.73411819720064,-10.699377298711793,119.90743168552955,78.60212053579598,71.75723511061547,-7.459012013021248,-107.25349037792489,-54.616830159717786,2.7236862146191263,-8.887363971889283,0.5862688851813086,0.7330831878062912,0.7935423903077851,5.943310406568672,265
-56.438816050044274,74.1885753123837,-10.580765561838216,120.24065738427669,76.14536530448831,71.47342025463273,-7.275654934425893,-107.66509331472304,-59.010842546145376,2.6819826944963134,-8.597191234244226,0.48601820179433763,1.0313375490570746,0.6311468744029414,5.544608919292246,266
-51.70569996136988,74.05975238813134,-8.945056928943634,118.0119847726815,65.89207085437934,72.44828872402347,-6.470288478306926,-111.48163601822105,-61.64048235752473,1.5048969686340392,-8.535915662474894,0.5849411125754888,-0.07388416333490211,0.7656379168164413,4.020175769207847,267
-50.1191722130738,77.18046545967597,-7.091791535789524,118.05154866121782,60.19138279043851,76.12399870419274,-4.753638637946287,-116.10172517798792,-65.45617822528159,1.0117727039777367,-8.469401434389681,0.4546509059937868,-0.27198471592893175,0.5765040165416911,2.9635477495512195,268
-50.749464723557786,78.5811857350458,-10.859447556557797,117.93953087427181,58.69466359648708,79.69978998082294,0.9961400806737446,-118.20828754566021,-63.492843606792775,0.9091510271783446,-8.271157939887765,0.21080325330752395,-0.38317288906983893,0.3030106146363912,2.167739121903876,269
-51.88244079259693,81.59026315536094,-16.527278900341052,116.76273047081483,57.40820538082043,82.39370720021805,9.050752200936243,-117.78699498722357,-61.17122896156359,1.288821561401555,-8.427795847572117,-0.11320460774050621,-0.7748139759554443,0.0803612004854731,1.5700208521062538,270
-51.74012655377829,81.67308763782017,-19.047498321567122,115.9292582062099,57.97795022296507,83.8259176976088,11.794685741943823,-117.33146866057427,-59.170468737824514,1.6925565782870544,-8.475654333455584,-0.46683681908308633,0.2968212190178618,-0.13233580602707123,1.4826906070208046,271
-53.83699880787257,88.18318049179398,-34.33811670339252,114.22096393728096,57.85100643458231,89.04505860726361,30.475537024501108,-116.07993292610197,-59.56830112697495,2.0677039387734357,-7.829992239638527,-0.7668874527611027,0.1122457624156887,-0.09369760467640206,1.0253464199091,272
-58.027379335789476,90.98106021055146,-40.02541853807378,107.90110269019465,59.71880765839735,93.41866144275282,37.699667042003604,-109.25413531783397,-52.776059231744874,2.957944373079529,-8.829235291996358,-0.6513117824286175,-0.36816599361019176,-0.13275080437283904,0.8496960249796358,273
-60.10500224158579,90.73090349715346,-43.08768325702316,113.13218215437371,60.34994483987502,93.45188159351885,39.38966207956026,-115.1865045867587,-48.79141367953272,3.661086409369239,-8.583543682413518,-0.6682907696105114,-1.1192274520032854,-0.27648346547124597,0.7596666612472731,274
-59.76844027990147,86.92383086232574,-40.567996732072075,116.60286748613342,61.64186489692739,88.78182785184597,36.20720736483783,-120.60310613717368,-48.19563030317936,3.767540391822315,-8.715774323390683,-0.45704404690171935,-1.5466017628959121,-0.013583432556244921,0.7583995288691296,275
-60.85110658941956,87.3241746013527,-37.49277199262308,119.26245714447451,63.793814682153325,89.34871561017636,33.513877211689895,-124.15756481833682,-46.309765670019196,3.9537824848439604,-9.113538949200375,-0.22685623995976892,-1.0820226898055585,0.12020444461323518,0.7839600774956516,276
-61.21043862682449,81.42469329257223,-31.69229625260793,117.43662824313613,63.24187372476494,83.61595155964754,23.383999135675115,-125.39061594678826,-54.54838823760296,3.8554853456208,-10.136778976510044,0.8157122117986743,-2.9367256372593427,0.3815434439485105,0.7772974148496719,277
-62.41859529813034,78.85207688489682,-25.809183949106853,117.42787483135197,59.693562944634294,78.87071672965213,15.171743122229346,-126.53311616088021,-61.963356735803615,5.075183539248366,-12.032009334986496,2.1651228568347816,-4.537726941795892,0.13018191369999882,0.9588352548969449,278
-62.77880392188692,76.146339892487,-25.291880624844048,117.29955857568443,58.41613915153359,73.48475987970765,10.302137372758233,-123.62684197226747,-66.66552647937091,6.000000000000009,-13.05951334515383,3.3500702855009057,-4.914074775281045,-0.25763826190367384,1.0975008089298561,279
-64.21322951930016,74.26974216168541,-26.68767236027377,121.6143408910453,59.19697388158482,70.96051596852652,7.530172678550256,-123.56617483583253,-67.6832818706042,6.000000000000009,-13.880300085167663,4.853096515697865,-5.03321875599021,-1.2145203966228386,1.6393365944641123,280
-64.50218226705694,74.74340036188794,-28.004189642973135,124.24985276750024,60.078361124553965,70.65230963529156,5.890675028046601,-123.91748306497738,-68.68070288211578,6.000000000000009,-14.086471878105886,5.467871087766536,-3.87951189298995,-1.5736366778241957,2.185312694882425,281
-72.3431062927755,71.92063393742268,-26.17603270065898,126.04146606633512,63.68929265810481,70.06388991410897,4.682596965275776,-121.43107283680133,-64.86532338363519,6.000000000000009,-14.983334034238379,7.040232112454868,-7.024277002844751,-2.678682659878627,1.5795298685906787,282
-78.19052526926349,69.83893287549544,-24.077181914576947,127.1721871359101,68.06224175452469,72.62031493617569,4.187933258929937,-115.61062641652836,-60.589305842052234,6.000000000000009,-15.163704519366732,8.581883546184127,-9.176175144929662,-3.6692448666735573,0.7912365950416586,283
-86.4511097004408,66.82014640777753,-17.768529725851458,124.56595259234717,70.5386666323788,72.27883116836692,3.4298164636412882,-108.77761196303487,-54.292242880244,6.000000000000009,-14.903901343213523,9.201882957860885,-10.37176912456341,-4.462093775632337,-0.6685677780147847,284
-92.33301633603716,66.07411236925459,-13.465158124073149,116.2112332715634,70.47338197783141,74.54601732386763,6.608095248954172,-101.80566459754834,-49.6671472391108,6.000000000000009,-14.424709229089336,9.174989696839502,-11.23836169075075,-4.406756702914979,-1.8308408211685605,285
-95.62859679054463,65.50956965576172,-9.461898974147255,112.51259067780107,71.5719603218769,76.46940348063879,8.411386145318241,-99.72650714348946,-48.178495058282145,6.000000000000009,-14.028830115780762,9.135341943028704,-11.543583958280072,-4.287178785423602,-2.0930969272225517,286
-92.8274435795029,70.25635435749825,-9.363462010353269,101.58257915043579,71.73443694784189,79.16374423455339,13.101426066750086,-82.98144860595829,-46.98613028632645,6.000000000000009,-14.043086873764812,7.33528765311855,-11.633616002051571,-2.408624562376373,-2.94403090853883,287
-91.76021727762385,73.93808393852562,-8.26894362373625,93.67544336238996,72.67501866301319,81.71293558280823,13.428769435200307,-73.38766783766829,-47.49258002694034,6.000000000000009,-13.794010160881678,5.410047871228507,-11.890471508635656,-0.7873335213908383,-3.3179213701313213,288
-90.13087169419859,77.61679213820955,-5.963653499225667,93.70095424057301,73.20001710225729,83.48140362326502,16.31958061726253,-73.6930969918403,-49.88677107435616,6.000000000000009,-13.382483002272446,3.5461203643565424,-11.54552444399783,0.4254090995360063,-3.0486876484451657,289
-88.42744487218188,77.44017930471402,-6.426233223224658,96.97497243700846,73.0141813148512,84.61917297197732,19.029234134767034,-76.70994443368895,-52.94268697814387,6.000000000000009,-12.458578925018747,2.0828971212052676,-10.834855757047812,1.0991380577017593,-2.535218884302968,290
-87.37607222965397,76.57801223675636,-7.630537200854771,96.87491761580394,71.63265467568206,84.67985314239962,22.88407368111067,-76.49442402883857,-54.35643091582892,6.000000000000009,-11.944914668791071,1.381899482507186,-10.276174773205573,1.3100949017846384,-2.1635325418500733,291
-86.62041154303462,75.9890082192586,-5.080170300541553,101.39647518970119,68.70889458295527,85.15042860637627,25.094388724193028,-80.17618511745808,-57.942048195667844,6.000000000000009,-10.96721568455601,0.4187872141772667,-9.73762753572857,1.4060069384603138,-1.635829428255119,292
-85.53698262015205,74.9805721908035,-5.240504431611893,104.48137357704339,66.51967415051354,86.95919357774498,30.693669609580482,-82.93387827688655,-62.82782758947311,6.000000000000009,-9.674165988619054,-0.2050137416428734,-8.484670143368005,1.2877584684414174,-0.9533341699149706,293
-82.97273239291786,75.17820248834555,-3.502438407176043,107.41697639662385,63.383882388758344,87.53312807208027,34.85250005937102,-82.99206529381901,-65.00182158731052,6.000000000000009,-9.16229346654615,-0.6816818408203554,-8.030357661777092,1.14764906859881,-0.9520775632491469,294
-78.5010152500277,73.36881082678259,-1.6901130463875105,112.44928515438548,62.29969374154416,87.50912595951765,39.34373364969809,-86.21601470225018,-68.59681581132058,6.000000000000009,-8.718914982382936,-1.348829202275434,-7.088324770904096,1.0383280759329094,-0.9017572970842858,295
-75.63199224844504,72.76909348267864,-3.5196440234084774,113.74861678485557,61.38387392804023,88.00613404866046,40.09304795412652,-86.33043460901712,-68.81571168561834,6.000000000000009,-8.606994758967542,-1.4956449651504735,-7.077491876517864,0.9383870085116489,-1.1179349717037848,296
-71.9306170755209,73.35405595266477,-1.4241672430729773,117.72197839867509,61.7148445474046,87.33736881305006,39.15458635210943,-91.00548216899529,-72.01575821075838,6.000000000000009,-8.705670928364393,-2.046140698842089,-5.947348333974433,0.7861139846604696,-0.8908313795500415,297
-66.65397223821054,76.54574154920144,-2.3340153483744803,121.65174311123138,62.57366532226824,87.2430282847925,36.53577444010175,-96.5233456438087,-75.64456022175284,6.000000000000009,-8.527431670893124,-2.6547146097371677,-3.867601832199403,0.5838816508863094,-0.46836230844681676,298
-63.311083122698584,78.40245730171324,-6.254226023657766,125.51828110423398,63.40772593316041,86.19744323105368,33.25931137529186,-104.51650469350137,-77.47320535051243,5.35039423533871,-8.06513591838568,-3.122374370441552,-2.197017486889134,0.1889106361978329,-0.5093197798695379,299
-64.08005020830392,76.4833933830611,-6.911486978732755,129.6968836399307,63.43546499510997,81.32512378104505,27.76521482834568,-113.310123008085,-74.90242316584416,4.456500488075739,-7.15846720801439,-3.157915372840504,-2.49011632365795,-0.28288365571048946,-1.040162981525959,300
-63.352351856580206,76.9205881001983,-7.087968303445397,131.73282437522124,63.9034744783633,79.55140316964861,23.3599625869204,-117.53843517013124,-71.8988191607981,3.8523574811544106,-6.9236912580707575,-2.998949015514195,-2.8399925374391333,-0.5661386202970775,-1.488222063918871,301
-55.623369254126715,77.67425031774175,-14.395689137739948,131.7493159917041,60.47275007770486,76.09967098043134,18.252032209354088,-124.7020671299147,-77.86897559919954,2.5286866635915044,-8.531398305640476,-2.933577715726446,-1.2608161014917727,-0.05324472139743342,-1.8607429139684364,302
-48.56446792711297,79.40418872761077,-22.221787710563508,128.01308026953618,51.66080417216797,72.89089860963827,16.453319563441305,-132.32585561495762,-80.28264851904473,0.9155288221659761,-11.104516817775306,-2.770963347610146,0.5981688505401378,0.1908584104093837,-2.5074673207321783,303
-42.87026608515082,77.74537292073813,-31.634593221911256,120.12609683981997,43.604814552105324,69.86188468316742,16.3844453189609,-132.84553511246884,-80.28264851904473,0.3016695475120724,-13.37007788609669,-2.0948650232243313,1.9781533666479862,0.21111186307763719,-2.9120919870291377,304
-37.3105226818063,74.58847267681462,-40.0875221598777,115.3752260962643,36.5490046218995,65.73620225455967,18.500063392297363,-130.56870465296078,-80.28264851904473,0.8443912309770537,-15.02638354296,-0.9073506500982772,2.1928703666438514,0.06379536437306124,-3.350728361186816,305
-33.15830039405024,72.15756615198113,-48.445028606389364,112.96391809975992,34.66877894644545,66.12310190618027,18.868884160445788,-128.37844516108572,-80.28264851904473,1.3743003616850924,-15.704968946619957,-0.31889447263285176,2.4885466186778062,0.017840281503319854,-3.8252104418559454,306
-32.07925535200982,76.80671296739699,-55.3316969332435,106.64334303129492,32.987181404067925,70.41325584975299,23.82870384592071,-118.59060736789365,14.844268178626285,0.6570100613090526,-19.44846113657501,0.9215801057801415,1.9872373107813557,0.32567942353626705,-3.110719513173952,307
-35.769036624830925,75.14394176356512,-60.4269690595894,99.46888598983392,34.39989680726149,70.22581902479295,30.62967486191018,-103.12726143191895,-35.46492173686544,1.5992947620203275,-20.410600638773197,2.56464834818555,0.09714682264233253,-0.2735115352730516,-3.2578501509424567,308
-40.0717600900536,72.68080082382521,-62.23097312287771,92.3933223057741,35.89295738197978,71.70742618996667,39.69948584489774,-89.2901937153327,-44.34668165646427,3.1455964606075963,-21.253632702167327,4.389246368178137,-1.7054682247069912,-0.8919546070627133,-3.4251804816252784,309
-43.69176693049625,71.85667573943928,-61.942812368496256,83.56907611416833,37.895399242040625,75.08056343453713,42.75074356803386,-71.48941891640548,-50.00210090526668,4.580635690466348,-21.6752956097823,6.019026644112192,-3.3330214962056464,-1.1470664846202328,-3.4575001369325746,310
-47.42921766446783,70.96830617431122,-60.53028739489736,82.58967087184547,39.20520312406964,77.46458613944222,44.59564228720581,-67.53517620837948,-52.07604181635252,5.533182813342103,-20.43154680877163,6.808320068263845,-4.259936086132083,-1.3636914088002872,-3.464280638724402,311
-59.190452392979196,63.429904921794666,-47.09841866868249,74.22335083071049,41.65889099049258,79.77173914074896,41.80087492421285,-55.031458291856474,-52.18921630563137,6.000000000000009,-19.156178970579777,7.916519542087015,-7.106056555738007,-1.9077598680137804,-3.919194067543027,312
-68.22917958751668,63.4800304542294,-30.228586415015833,69.46266111844713,45.6387625648532,82.57821995592941,36.92643782207461,-44.49473082879426,-52.00513700889207,6.000000000000009,-17.488123724139417,8.567095305400082,-9.844736813592094,-2.1408442446208857,-4.178982086963963,313
-74.82621742909193,66.7627154014636,-18.96438545882779,72.87942028064258,49.85551697537,84.78712467603346,30.91256459024156,-38.31469555261641,-46.321951641150946,6.000000000000009,-15.969962333747894,8.115897028591291,-12.404184711444508,-2.0618892762165055,-5.004675762254159,314
-80.29068555545659,70.71564881973792,-8.682163780722664,83.77145580296153,54.866968854581884,86.23804017035611,26.172269490527373,-41.40848011193661,-43.29110130523122,6.000000000000009,-14.395444753503627,6.8409517769288515,-13.978700250055814,-1.6403993003185324,-5.265963966294311,315
-82.34193077175087,71.40658396018547,-2.852392492856788,89.21086951392176,56.748270009831536,86.95419861870978,25.96497788232187,-42.74691620567014,-43.2753678752468,6.000000000000009,-13.457798254307736,6.229966383742331,-14.942229957723812,-1.1909810748580065,-5.048963376601605,316
-84.22277755019907,73.03303070587435,1.1224157715071121,103.3585646317838,61.04018586668285,85.62155583123027,28.67051303085384,-58.972224597709314,-44.58810986496732,6.000000000000009,-12.040256829948934,3.9930476163131727,-14.388802872657964,-0.41608479671440457,-4.400321757373684,317
-82.52498298852288,74.14782927727745,2.569324286133174,114.72004660965577,62.169591087715006,84.89258817606046,29.636935300019132,-72.84582615159587,-46.204754140691044,6.000000000000009,-10.90784780583711,2.108902762325275,-13.567221431122151,0.25955646862914455,-3.86084480168338,318
-82.77199621204589,75.21506355122519,1.0846177167707147,117.95621221278213,60.98418445664066,84.35484774220859,33.01887768543998,-82.44394861591842,-47.51724773561937,6.000000000000009,-9.539478353559659,0.4332991130792174,-13.183855084395939,0.8106329752708664,-3.525536688003281,319
-81.91496501959354,77.95969714522721,-2.629870451368987,117.53505995727332,60.71244591012347,86.15780727813726,36.7868781549912,-85.8614920418704,-49.86768142088048,6.000000000000009,-8.412696184855527,-0.9512880271028252,-12.049882810674337,1.2178063686748375,-3.1664842272870652,320
-81.49760867577216,80.21504078767447,-4.631326946338645,116.85509347649017,60.64675238061268,87.46172155975535,37.91228867045204,-85.6836501526055,-50.54555294573206,6.000000000000009,-7.70342227234456,-1.5079174100999475,-12.087562445247443,1.2786147438313233,-2.9072409915208994,321
-71.15327679502164,78.01429948734302,-3.408343009505359,122.47027986160175,59.67267301068525,86.30548401471435,39.200817012944405,-91.90739301848011,-56.87391842354398,6.000000000000009,-7.305529868835846,-1.9601847324707207,-9.83484578169113,1.0979038027338208,-2.3956146676729433,322
-84.72976391062114,70.76905098223486,0.41869187234606425,120.40355075878537,76.21538547708461,74.86054522375208,31.07633603124632,-100.15424349624219,-59.37304799060608,6.000000000000009,-7.9249679083120546,-2.9136929541311285,-1.8704913902993945,-1.7792409242490268,0.2245697961695638,323
-95.36326552046195,71.45048446406635,7.80688749851045,115.47388302510842,90.45038786657153,68.30189415476339,17.30185651028489,-97.63291757141405,-57.913986025778826,6.000000000000009,-8.559257291915191,-2.975420352109489,1.1800563800040684,-3.4716640944223505,2.4892303829532683,324
-96.90840442046802,74.56048081390949,8.308388706622896,116.28506378121364,97.03624841641765,72.99450481142381,8.697332178858877,-96.63861321984193,-48.674868398941285,6.000000000000009,-8.18388956631988,-2.5653866426787237,-0.7294428280685433,-4.051439395433293,2.617520815078845,325
-98.68331274214427,80.93808825486241,11.287065788010699,119.31059121367987,99.75785648820296,78.83593564403837,3.079386632093668,-101.70376193105493,-40.21430982654974,6.000000000000009,-7.991653444063252,-2.3400645057992655,-1.4673824568760843,-4.260161897509265,2.0116703481639373,326
-84.82996527279141,74.69029599031985,22.91305254862106,128.45095730735932,92.63478079518158,78.41763126325047,-4.365671789694568,-114.90565701982324,-29.983794699865594,5.589356116543825,-12.442338528859272,-3.24303364748031,0.4273525115298424,-2.568348533697915,0.9693106696512442,327
-70.3538540062677,56.75684007771541,32.072511406596405,137.81557007156923,76.00393082469388,69.24542142183407,-11.208747702498243,-132.14221990661554,-17.39565761861019,3.6971977367535174,-15.93582940871201,-3.6612367682747164,1.0536700073685754,-1.055246416839264,-0.2745147820757202,328
-62.531437241638685,39.749956730700276,31.89171934204833,136.24941835388776,61.707361883862355,57.643155608429126,-9.339225648966808,-137.9368800507056,7.747677454344401,2.094792557807221,-17.20524985032042,-3.834380949710251,2.5515222948361282,-0.21793691976579782,-1.1522378220128768,329
-60.22341626008967,37.35719746073454,29.917809450594714,135.00329809076908,58.70651201472379,56.95357911318373,-7.394068992848236,-139.9048237092518,31.88136129030242,1.8049383013185232,-18.545601935757915,-4.239239932319057,3.7649186094722147,0.08106415106093179,-1.3105762374961478,330
-53.418968876766364,25.53298398646924,26.81927453000345,128.62422510903565,45.68802417166917,46.60175508772305,-5.445548631168376,-138.26097309244187,55.201116880212716,1.1178625891653136,-18.8887080279355,-4.2599535983467165,4.432301867250998,0.34335863121433224,-0.8161286065513521,331
3.348365476262231,10.908278761159908,-24.46470472404964,111.43212630508039,12.49738650331543,25.54562708947801,13.132430518575765,-122.77149029300494,90.0,0.5328237947624843,-15.94845935432579,-3.611702501856585,4.311904255048969,0.19457504184326235,-0.2397936826348242,332
59.517878826183654,17.7634232024054,-76.63814932895292,89.12102264374114,-25.75023060757634,20.87724566687939,43.78730915419397,-101.09868414797164,90.0,1.4657523034321245,-11.880816718880821,-2.591926442670541,3.2868325282557738,0.28355760255784174,-0.7265280129347733,333
76.21993159756576,29.092482696740795,-92.4680107626493,59.955970049030036,-58.53477178018633,27.244580529659302,73.2705325976882,-73.7493509599182,90.0,2.3677194494497478,-9.058051670756337,-2.03790009200204,2.1086527403223796,0.4155405308872183,-0.9201778197463486,334
80.09684888481704,32.731809677875106,-92.062243888894,52.25491810935853,-67.39665769653136,30.019251331055063,78.39422745191413,-67.67151107778507,90.0,2.764472757369334,-8.544768096024205,-1.7275294559685883,1.2581034469144485,0.5962438989940527,-0.9902005524837637,335
84.10806819041956,38.382825162350194,-96.76329871019226,37.077349667158174,-76.54773939826268,35.161982603143855,88.62625318675241,-50.407975004283244,90.0,2.9555444278535923,-6.278135990949032,-1.124769357462753,0.11684019460902295,0.22460721883848161,-0.8354905474164644,336
85.1723135102137,45.60835393516444,-99.63807951885862,28.29882286208972,-82.3549106704001,40.64663925559959,96.13402649589658,-36.55619417645629,90.0,3.112559241047727,-5.391365677603051,-0.2562248381503948,-1.1220067436001988,0.24489146797392727,-0.4242166278191318,337
84.23305495101161,51.20466251500654,-96.83079963072721,28.298822862089594,-82.28626032224362,46.6496256066663,94.64690500251464,-28.898193684748527,90.0,3.416948604581598,-5.9239366229334705,0.6611942560467616,-1.747754784210582,0.5889695211605845,-0.19232924264623305,338
81.7100170365295,55.63948595369255,-90.66965944492333,28.298822862089594,-81.61528360608519,50.10692742101061,92.21377865614471,-28.298822862089672,90.0,3.79116189135371,-8.018018308544221,1.261781261775316,-2.0563019856480476,1.1726629046762818,-0.14399979961758072,339
80.44370297248315,56.15127791090674,-87.53631700017355,28.298822862089594,-81.94074682596842,49.505022335838774,91.83972300159037,-28.298822862089825,90.0,3.859028983099669,-8.739100556106164,1.4856774862384052,-2.005252979181372,1.1374608079049209,0.08755159575082232,340
80.72319202584679,55.70345107615274,-86.64057263582374,28.29882286208985,-83.26646549414818,48.8789914757824,92.20273822960557,-28.298822862089747,90.0,4.06930772255687,-10.116257248088496,1.63116005123686,-2.4014501098002654,1.40427643125309,-0.07245961973026423,341
80.86995019987376,53.95297461098477,-87.55234301733731,28.298822862089594,-84.97606964106559,46.90573508881082,95.0947588557732,-28.298822862089697,90.0,4.691972530085365,-11.610886027324382,1.691920500134927,-3.0274506914070507,1.8350252347461917,-0.5376761075705458,342
79.52582513654355,51.44533152668137,-84.7889172680787,28.29882286208985,-87.48424127474813,44.53750511796312,100.97555476055342,-28.617452833032818,90.0,4.911478794084296,-12.909349932944147,1.5131926077870623,-3.901353029691896,2.0166293363830765,-1.0654360026052343,343
79.22538724750075,48.93617656844858,-85.40227792446109,28.29882286208985,-88.34004235735166,41.79105216356614,103.74508250575165,-30.3268868502273,90.0,4.870982157744335,-13.427535676657872,1.3691368563193211,-4.603287298119027,2.024821208952856,-1.4473530073033198,344
78.82915344835777,48.04907240127563,-84.7075080596049,28.29882286208957,-88.50240975290113,41.65129707171229,104.99999999999999,-30.41134513139537,90.0,4.911495712313803,-13.403433226564974,1.181848721476039,-4.941783858809813,2.134203381759712,-1.5691589317310088,345
78.16673722652655,47.35854532465693,-84.15104607779858,28.29882286208972,-86.6585648708421,41.33572977828329,103.37778346479949,-30.441861794036665,90.0,4.872019079984483,-12.951742015657134,1.0132606212028654,-5.209744109900263,2.080411323079594,-1.5170233921459721,346
77.71117530305301,46.114098546829794,-84.81980302770383,28.298822862089594,-85.26299416920988,40.793725173941866,102.86375233015332,-30.559479046831054,90.0,4.408492608997392,-10.819507737137895,0.31023347242947696,-4.881205956161027,1.425175393220161,-1.0101688184955606,347
77.85270472406935,44.80697472587792,-84.29408583318573,28.29882286208957,-82.9421038466192,39.94895152695171,99.08351380459135,-31.158722069231317,90.0,4.187388763200784,-8.164857958890924,-0.39016846731266935,-3.827654160992021,0.7524269305380933,-0.37298275135788966,348
78.24945283836047,42.92174762707398,-86.04518171967912,28.29882286208957,-79.87567072969432,38.46861042478155,94.63741130103668,-32.70628831443251,90.0,4.179089862858893,-6.1664279259685655,-1.0266782661407055,-2.7754755809348017,0.44347703032122626,-0.014182138328629454,349
77.74712991936495,42.423556035071925,-86.5871840888007,28.298822862089594,-76.56777899044702,38.52266614522652,90.09299509566645,-33.52716767124967,90.0,4.1453621559064935,-5.350964057075657,-1.3761057540558617,-2.1704030733758626,0.34438093297255723,0.05071583762070281,350
76.73853237758065,40.18923450079952,-86.12873379958253,30.087549835843806,-74.87703263050105,36.836518597674896,88.5893135889751,-35.539355415330135,90.0,4.186772051164518,-5.148254160015566,-1.657217429567254,-1.7772009250956902,0.4251760963568458,0.14455679586957834,351
77.84442024389426,33.25670001457745,-88.3436044186972,34.381443670884785,-74.31522674333895,31.520269497549148,87.49226195597032,-39.54911054984585,90.0,4.2679690031682895,-6.887349090412666,-2.292166256351842,-0.4582619015872718,0.760408474352748,0.38974698427759535,352
81.8884076013274,28.55815997524781,-95.0314904794031,36.081156136056585,-77.78493174211931,29.247196869392987,92.26946561054972,-39.596365307063174,90.0,4.350719148295985,-8.64075054676479,-2.876508262198982,0.564632519093328,0.7903655234738005,0.9015160011581388,353
86.2309628544631,28.094593528295658,-100.58647642858372,35.70296159939985,-78.40662778571067,28.95505577506079,92.7770934059487,-38.84836865274802,90.0,4.459053437923296,-10.364488905301332,-3.2497731638330634,1.9292116132051584,0.9179781132945519,1.3658620165596371,354
89.90203930160096,28.49636224879693,-105.00000000000001,35.222132780137144,-77.64438891079433,29.187439139265464,90.72596431148177,-38.297292450818325,90.0,4.482585335607569,-11.314520473297318,-3.4511560363526255,2.9479589160534223,0.9707004206944462,1.7016822921197043,355
91.45722572954455,30.440560938941054,-105.00000000000001,34.23759985054488,-75.72116173017054,30.469258218266614,87.82619002354478,-37.704384954844016,90.0,4.63954372171889,-12.449327233550775,-3.7823501663762134,4.181519863550845,1.157190020587158,2.123979351880238,356
88.78695043148934,34.8178469397116,-104.69109135516558,32.85586524199706,-72.1371138698728,34.552552266430666,82.87176692964493,-37.094151157710584,90.0,4.9507095331824384,-12.956594796326774,-4.07801086657662,5.037616793669107,1.3798998585727706,2.5003873239734378,357
82.99183281482543,42.04773724108011,-96.15255273324517,31.206794744507636,-69.40397991937729,41.62470932930524,77.66152369482377,-37.23613994300393,90.0,5.109251353560588,-13.33999869354023,-4.321691209165622,5.855913512827638,1.4994476419880007,2.7009715035337454,358
77.69707504970185,48.288880187843326,-89.59645654992153,34.68913875136557,-67.50473766260323,47.466483374780445,75.1671283295677,-43.542855829021406,90.0,5.030067797672863,-12.902881258686069,-4.253134413753514,6.193700301269311,1.446333492183779,2.550105488283973,359
75.45064395743358,49.838714935275085,-86.26371813906492,38.825345127552374,-67.07339434710751,48.5821808590336,74.0965624107142,-47.87806192932021,90.0,4.887537632092682,-12.463932441455533,-4.144255189811206,6.136490360660946,1.3536147029506824,2.363769047128643,360
