JMW9912/AVATAR/Dynamixel/dynamixel_control/data/csv/poppy/.data/waist_test/2DoF (2P+Ori)/old/0422_2041_Anysong_2_2_dof_waist_with_adj_poppy_smpl_motor_degree.csv
theta1,theta2,theta3,theta4,theta5,theta6,theta7,theta8,theta9,theta10,theta11,theta12,theta13,theta14,theta15,frame
-81.97586286764287,80.33934960314475,-20.801467416417918,28.29882286208985,87.39010926293956,78.88563490813799,18.22037880046715,-53.49768680120027,-2.448152520612753,2.5919096362471996,-9.240782347037953,-0.9800611137302001,3.088577713914869,0.391416418606264,1.7404704155701751,0
-84.01173106845694,76.14015706432204,-20.969558078388513,28.298822862089697,85.50547777598118,77.91292359467921,21.485324521342882,-56.939836296028076,-25.52307503107459,4.114165035053712,-9.103037115260012,-0.6101966225978018,2.3358253722645492,-0.39420707508635183,3.22217237147542,1
-86.18524946314542,71.9525877615238,-19.30977629285784,28.298822862089697,84.69530097720009,73.88147366245425,22.192820403341024,-71.15947469558736,-38.75479874791458,5.187545357429865,-8.484203418639426,0.3815904151489264,1.390298879146786,-0.921024538440399,4.112591251258441,2
-86.85897800418236,67.56118282463494,-17.84480194208542,28.298822862089594,84.65534406348442,69.43841712463905,18.593066236678304,-90.19396526596682,-45.59327244687554,5.443727443669131,-7.6780333748802905,1.1879230147468665,0.14365713192195162,-1.0470846622041126,4.294594605597595,3
-92.38015252641868,62.991377828065936,-16.632352613674716,38.61077765507871,80.92568188252159,64.99583709134068,18.144541080974896,-106.6511825672921,-44.236054341114254,5.130902184878688,-7.102663845279796,1.7710025345968514,-1.138553280983288,-1.1625241968753268,3.8018646837937453,4
-99.09660357012035,58.22916240773366,-19.175414737013256,49.86017152495914,74.10479842766452,61.36280396980416,15.879822457918186,-118.96951856725133,-35.865704319987586,4.521105243112203,-6.191482474664,2.2789761542776725,-2.391112392515331,-1.5314372028236811,2.816631320107017,5
-103.83944473592597,52.37819541023025,-24.436624570796887,60.63992760633859,61.46523603235055,55.52080810841198,15.562269762471207,-126.68772265184052,-29.974427212521856,4.016470338880534,-5.484130237920359,2.9896103085479018,-3.8240912044411033,-1.8357470909493248,1.9758442427910594,6
-110.84599577042462,48.690725099619875,-23.37330736499139,69.57603204986523,53.61329727860891,51.741998163817954,8.896274275658374,-132.40753684680993,-23.34510924081918,3.7608685691475303,-5.046219504699325,3.996741322496662,-4.891415841787228,-2.387812715751088,1.282477937763846,7
-117.37757591518663,45.34431845202028,-21.71540242576458,76.19082530349807,46.41408042340355,44.45410712905639,3.1587030564737946,-135.17343340409246,-21.295518237108404,3.541250348649366,-4.507889221705447,4.697949085498851,-5.432609676146516,-2.812374797518439,0.9559162660201435,8
-120.65838628497478,43.906071300241436,-23.062887509741273,80.03886898257218,35.60415987012634,42.57671928492526,1.163028363868323,-136.54866751663513,-20.63370159701051,3.3215219011551644,-4.268037534172162,5.219702418421329,-6.250080342216899,-2.966964209875108,0.5377480771496647,9
-122.29127001078548,43.91471196514562,-22.596592084759777,82.78784614046904,29.944884023332516,40.851205737274086,-0.4202374499774924,-136.5667945392401,-20.421423029318714,3.1870553954236707,-4.168056966271767,5.4347687200009585,-6.481787204192115,-2.9923666127352933,0.40591908741364785,10
-121.42947616846244,45.51602988360032,-24.56679147270524,83.87421842762467,28.464606180272725,42.32610221007708,-2.0319177413543694,-136.86874666055164,-22.625917140789753,3.1548534449192562,-4.174195038734263,5.404216347028284,-6.615606055417171,-2.8102368029621174,0.39540709572388916,11
-117.14544512438871,47.06476513774424,-30.138828116218082,85.53095847543963,32.26666624043576,47.40388386989312,-4.156226357138337,-138.1976824577635,-21.565682364975018,3.1280157948564633,-4.3801733485190795,5.332219434204307,-6.0725721103969725,-2.5084193804041917,0.3863042002432368,12
-113.52318180516971,50.47036817888391,-32.25543157181132,86.52228333778632,39.899964326505916,51.864830285164814,-5.195274405422859,-139.05258578180533,-19.536397468832675,3.0416832323772818,-4.553434875458783,4.902251109604785,-4.903555096454836,-2.113690641337281,0.4522583261169984,13
-108.51072938693288,54.62151932082691,-33.48189787129336,87.23706074387611,50.46895271943169,59.30455222179968,-6.141605895948676,-138.89352177513524,-11.767996244165479,2.7416285328393255,-5.408205718487884,4.096148825200138,-3.021695323091457,-1.6904560184632658,0.4252500422364891,14
-103.79959938346231,59.767434689130305,-31.027159853292076,87.56647221752087,61.75392938430201,66.97315129602366,-4.779625775221682,-137.17755837401256,-1.180014209830538,2.7395599974412037,-6.667582520759544,2.947994690152913,-0.8733400516305014,-1.5622986888216657,0.5038268402441093,15
-101.6979653038849,64.71728444066355,-26.14984471679794,91.6715442845112,75.5736991517763,71.1462486230115,-3.361773740911188,-134.23225434423634,5.113236000622177,3.1080014365983737,-7.442036447868006,1.9419722221290663,0.4927450422517191,-1.9585120226616297,0.7082438227039839,16
-97.22165058124233,66.8648331841148,-23.747559462508264,97.93343305964342,87.64252371580832,74.87216130840947,0.21352444255362757,-128.98443478929642,3.081661214976581,3.4274932860373086,-7.564574435512368,1.303276546115307,1.2442324537197282,-2.4009257902882704,1.2134045969249254,17
-93.13879836318186,70.43284003427038,-20.009551453343956,104.54610816386415,97.5055253305281,79.07214681690553,3.537167532623857,-122.94724560825232,-4.474974187604128,3.7501580660304876,-7.3263197396915025,0.9495781399423221,1.8305838698907413,-2.8935374370086095,1.840918771478528,18
-87.39977631493154,71.5071157099026,-18.161949517937337,114.22729084974985,104.61575109077478,82.11602069801555,4.637057930380622,-118.12849058184315,-8.112094231626148,3.8694051037973787,-7.21057757201103,0.8602654310177041,2.2647545257206576,-3.360987226496768,2.3269850664527483,19
-83.54115195546329,73.7768802186627,-17.071112362970016,120.96886425794628,109.77804381893412,84.17793682639318,4.933249263356107,-113.1591373120728,-7.800520550920052,3.822896918809061,-6.826567531162347,0.8782054279435283,2.9992265364005823,-3.757192873080795,2.5133032217724227,20
-73.61011523124948,76.64831233256083,-20.879616723151706,127.06182121412382,111.05127967057528,85.00495084268891,7.335988731127427,-107.60672468419351,-3.711113891525479,3.2378212940088327,-6.524491267819216,0.772342102124559,3.8688437938112785,-3.604406050731676,2.582567572261189,21
-62.30310926801053,78.28912090113673,-23.425683280505964,134.49848496562157,113.82724857454242,85.49412260164429,6.07553906527989,-103.71286409452058,9.81412448659377,2.8300456183344362,-5.368928888498416,0.4136643385819888,4.692398772854615,-3.8518590016666736,2.356885554223871,22
-49.86172579623001,80.66032617542199,-24.84347798403142,141.1368638260036,116.18220820390752,84.33615611410906,7.012479539152824,-97.55717216643185,14.465534338740335,2.4862310295659076,-4.474342398159336,0.46519240805500567,6.023870854050703,-3.89072278118506,2.6109503346837197,23
-38.69434900632412,82.01985737826536,-25.916763366608812,145.27652683313033,116.17791990926577,82.55681326013115,9.538199937665988,-93.62316712852193,21.378231719154858,2.182496749751558,-3.8470976164767228,0.6716491223662846,6.646196494922491,-3.9799830968031746,2.582397595059496,24
-31.005288112049005,81.6388122324966,-25.299414123644013,147.2178633429581,116.88304478084153,83.11349223954272,8.260112270438677,-90.06182551735245,34.20799615332815,1.9470459462469767,-2.713447268005319,0.5476387879987477,7.615913635640221,-3.8756092588898525,2.4234117841709764,25
-29.011900259114533,82.90113511849303,-22.09080013421168,148.0,117.04569601220237,82.68441057498092,8.478313819573298,-87.0594203959505,42.23357979139083,1.7430476622025337,-2.0349550560308147,0.6095737666954063,7.104347347455731,-4.062332729244357,2.1555254860284823,26
-28.147473876620907,82.76195564588599,-21.66416146956561,148.0,115.1199073213421,83.46395732664877,9.105141359235322,-84.22925633362146,50.69834267275022,1.708883850473865,-2.1742348164253253,0.5521769179475912,8.022059267369038,-3.9551763367349086,2.1507530104372514,27
-33.4693700640432,86.57345288168698,-20.166992543071245,146.7094632775218,111.88125702182259,84.42238333926674,9.045188285152072,-85.15022459130886,45.930069839206695,1.5960472219729926,-2.832604517266527,0.49774996650313935,7.584907620363171,-3.975289191895082,2.187137454207654,28
-43.688904077018094,86.68102603887155,-23.67108898750842,143.39961421665134,108.78084375217249,84.521645886567,7.830936379475346,-88.24059603854785,37.54419595902802,1.5831031976603882,-3.3670782327706674,0.15713092828403305,6.576737096076665,-4.317177816714351,1.814217339309331,29
-58.087999151115916,86.7088940887098,-25.730189693305032,134.97396148229612,104.52897476851852,83.45285726373442,8.794422708067136,-94.6335373869684,31.481156051046113,1.733978144642211,-3.388672841193289,-0.6289809909009447,5.3660304488190365,-4.718335670790094,1.3299032576257606,30
-68.49310899283823,86.60975604319113,-29.916082835996026,123.21672844366962,97.78455453875499,82.15602208350475,9.18995777676132,-103.4121336566981,23.49133219372803,2.0251147518426893,-3.4050635625663714,-1.3597597265743138,3.5543552071986615,-4.831541907939171,0.6808886531147244,31
-77.36496927536501,84.63456852891512,-32.23620763233958,112.25081738729521,90.7529070312003,81.48960869130028,7.7997827389084495,-112.85635272144869,17.924703893426766,2.5495315290116576,-3.9975717165237747,-1.9960378732308108,2.2910208460501886,-4.979386965698241,0.2932732314998507,32
-84.67730547872839,82.91765939772995,-31.79825203847857,100.27314291494622,85.04529762070408,78.68194853488447,5.329086180499148,-121.34290204796456,15.846946599498036,3.0941585448828723,-5.076747156719493,-2.609305761643247,2.1585615798195485,-5.136190619548729,0.06468383959411213,33
-87.92871108482902,80.8364344656097,-31.509581254405568,86.04501764705398,75.63111596912425,75.08120321505731,1.542402961885369,-127.94376823105706,12.397150657931624,3.6073925408795544,-7.041581402943569,-3.3265215965093216,2.344249329880225,-5.10216760764017,0.19432063784026374,34
-92.09193609647684,78.23467601211311,-32.79150849364723,77.52280452511661,64.60772086938131,67.83373642033555,-0.8753408578683101,-136.1425986575993,7.904806012728059,4.130844149182163,-8.511189097682747,-3.9648331703240047,1.944511278204931,-5.287509614040634,0.4631266783126133,35
-94.92479463102619,73.74937818501432,-33.63092328681174,72.09245415259342,51.384865486738384,57.25232577112335,-1.7961348717436996,-138.37586736061536,0.1580428808676807,4.452506067955313,-9.50494558058805,-4.555044905488644,1.606616656327921,-5.323593273594783,1.1634144151933914,36
-98.59428637651816,69.85175716037607,-35.64963101916797,72.85263654726806,31.632679600401346,49.19590143570942,3.3321818953396485,-140.02136324375638,-8.065041616903812,4.75110108294954,-9.970286214598692,-5.3475008519695955,0.14303393782021026,-5.227757854723173,1.5834810044498524,37
-101.46612011964183,64.8318511474006,-37.68285873127145,74.71149194957394,14.401498600307853,42.237807909433556,12.34609108138941,-136.49968460746473,-12.886092323648237,5.306100058705074,-10.963508643557233,-5.8373172304795,-1.6514211487011037,-5.185863368530882,1.8053664711421413,38
-104.20238656374856,59.34581812487043,-38.442006854713966,77.65889622244597,-2.7786860927554327,35.53640270412237,23.498525439251097,-132.6393080209907,-18.409321430675053,5.861440021997491,-11.491928017713667,-6.344902702994191,-2.928052592498512,-5.1468662940222405,2.362889744932576,39
-108.36609817363616,56.966743005869816,-37.24748655066837,81.43022859834961,-22.112698570278575,30.19988322640211,38.755862305940994,-131.02077993563552,-22.978101880393204,6.000000000000009,-11.992973557399349,-6.805576900535532,-3.943977769336036,-5.065772673065332,2.891784452167886,40
-110.62974851004107,53.88478948975778,-35.381577563358405,86.78133120209345,-33.428667761652015,27.30769875106864,46.761220298283696,-130.06049341632743,-22.898962905790643,6.000000000000009,-12.118832235334402,-6.8049880773704405,-4.541298260003745,-4.965642894387565,3.2276334516485936,41
-114.53558942955517,54.09039938938225,-32.01650895371255,91.11834313058836,-34.90025052936825,24.53351433255898,48.494762887694684,-130.58304905420525,-22.29295566079916,6.000000000000009,-11.644756764450863,-6.565400123763172,-4.656242235796264,-4.873548919602539,3.5832825214948714,42
-115.34253407484577,54.16530725662449,-32.103058875371765,94.61028189365082,-24.74230848802589,21.790692296418186,41.99437595093973,-131.8324754109733,-19.603570582476934,6.000000000000009,-10.89274038869119,-6.047520367073561,-4.282392548381728,-4.765908878172634,3.6769046017986264,43
-114.26582499135452,55.71222274090551,-33.08717281541009,98.68195704297692,-5.4221137831605,23.32508818084651,26.170837514068197,-134.97353401853,-14.95135168013074,6.000000000000009,-10.347248273469843,-5.348069904429853,-3.3795441312950243,-4.616925046077354,3.4656567403159446,44
-112.18753861524986,58.786721442567156,-30.904598587232908,102.16541092370495,19.395705301935223,28.59117420936468,6.73371734554895,-139.85890202264181,-9.143145620718919,6.000000000000009,-9.933352967248704,-4.333784933802215,-1.7854456300599384,-4.587203925354755,3.4660954936293047,45
-107.93781365650983,60.11035961864684,-31.604124063307175,105.58185674113932,38.149167271870695,37.96950632131539,-2.913536399311627,-142.6466033505703,-5.811004866336375,6.000000000000009,-9.992707346156566,-3.2179986879073894,-0.5992376663157981,-4.6716894215978675,3.4490289548131643,46
-104.49342977732745,63.20837226029345,-29.995223616999347,109.87313545107403,50.914185758816,48.01097413964783,-4.693375306778442,-142.8881291742582,-4.275001258980398,6.000000000000009,-9.434407555406263,-2.4535898649855272,0.39250434305152787,-4.529285388427221,3.4680661235106576,47
-101.3729114977853,65.75908550417837,-28.34095208843903,114.51200525760657,61.68012397208268,56.994280502282145,-3.3073825623163193,-142.15772160313796,-3.6108292919119447,6.000000000000009,-8.552044151161427,-1.7966520657131433,1.3258337970656082,-4.353828358558566,3.4952205265729037,48
-96.82252624104909,67.06696274946692,-26.43856007961706,119.71535821037206,71.68149478233164,63.73162496439666,-0.07416079324034441,-139.66192348022102,-0.7532626132423175,6.000000000000009,-8.192163602307012,-1.1236543340170713,1.8100660139488145,-4.074610280944105,3.368890235966529,49
-93.22987612093353,70.06113972885639,-24.098518523256836,125.30546937782324,78.03762870005089,72.50597012152326,4.084868498477636,-136.6625865642859,-0.21740906678492658,5.489789031022438,-8.065703032712324,-0.40509588917395195,1.4540919214994663,-3.732592616446398,3.3064109542379803,50
-88.92365487518902,72.03582015769247,-24.245505673508948,130.7675179761684,85.29384652506269,78.53024618504814,8.027130440301878,-132.47860993914423,4.4831871842318565,4.98906023523168,-7.941845091183686,0.1287393619035549,1.0197448868798549,-3.6194321074153435,3.13007755252785,51
-81.91127066482856,76.28920945641778,-23.096371135475156,135.8920536659178,90.03560936917194,84.78553398272909,12.048775331319378,-125.94610976748966,8.09446557525657,4.091208326381542,-7.833496987992905,0.6092335019853505,1.289831573277872,-3.273574621266891,3.2288654170744744,52
-73.34108225284751,80.58952977917734,-21.222278299148932,140.3419794550281,93.07830099029766,89.3911574409407,15.059924366067884,-121.34055684580419,17.32183027379085,3.164212025393951,-7.417694843524894,0.7962681192111105,2.5060321750288566,-2.835051693185837,3.3308871254558015,53
-62.59706090219115,83.39692589752758,-20.910576186314866,144.3017124281898,94.72528071653574,91.1517602860418,18.560249841324097,-118.2680958751242,40.07465059425353,2.6052141545561764,-6.356065712819349,0.5931611737144611,3.343006166939223,-2.5247017149076103,2.912466933690708,54
-50.00313141579957,85.12603788309772,-16.657187336837005,147.4021195613766,98.1334524135196,89.57359799256784,19.825088227791028,-116.91200481499845,63.37338638840326,3.2158098157760393,-4.961968831084656,0.39560593794483895,5.077888995548484,-2.3125799822089257,2.3417285272866755,55
-42.54192518289147,85.83237376021751,-14.882698210269496,148.0,100.82263319502285,90.60911677435105,18.485638788744506,-115.60285353601681,71.2198206874089,3.4184867892205326,-4.299207233318755,0.5770176329803808,5.69431239134876,-2.2728668812519803,1.9886601295032278,56
-39.30597513770482,87.50032036075784,-14.627155013533518,148.0,102.82358380157756,89.53282496202436,18.582571228578274,-116.08315161579978,77.32908472636954,3.7172405448411543,-3.4395855246696714,0.3470689456278242,6.079422740086915,-2.4146340433602784,1.500867036649635,57
-37.51662993820459,87.97167282988688,-16.86160585205867,148.0,103.39285738902561,88.69735234931522,18.793029377674323,-117.31041983126235,81.56060522840652,3.918002516526964,-2.9560784624679757,-0.036302324650850606,6.392365758043298,-2.549508826644337,1.1322816445452253,58
-40.112579734644974,89.435796575924,-18.547312751243734,148.0,103.5361940727013,88.26460262431132,18.570792527272168,-118.47017984400466,84.88963275663613,3.696074194747624,-2.338362870601293,-0.24530635562814818,6.360668231611255,-2.685234199091853,1.0315595734124774,59
-44.107811841475126,91.24088021178092,-21.16284225529391,148.0,101.19009867687109,88.16463453782346,18.145887741243623,-120.58973895037651,88.0473064342279,3.4791938747226645,-1.9435227417428713,-0.60599221131892,5.804590855971438,-2.7731312510450685,0.8058929185677446,60
-47.808679902420124,91.832726378143,-23.41931700679091,146.22155823434915,98.42397453672427,88.1063517489779,17.452641652384532,-121.6507071446064,89.21201280093717,3.065800838276402,-1.635700072924719,-0.857301915548936,5.321387773881663,-2.8399749196913042,0.8772843476074975,61
-53.62890888465956,90.42099951739954,-24.365720901716802,143.3870673879145,95.77207258188507,87.14926154911694,15.548669641094614,-123.1167033180222,81.45544921383059,2.5769952061047707,-1.5636242440749355,-1.3589545121881834,4.43288699744204,-2.907153022775506,0.9801124402579261,62
-59.1102591242606,88.14703892467753,-28.923997558474703,139.47195161654815,91.87340563810928,86.23041251423653,14.108526112028766,-126.50360552215614,66.4334138289685,2.2013636513871258,-1.5157266547299826,-1.8954496055175916,3.7590762300246667,-2.9257243221846005,1.0491678738599428,63
-64.07592987736653,86.83608937650426,-30.92105451246151,133.53616312289526,84.2990014043668,83.15705480662558,14.067945132889205,-129.76063323339645,43.65850789607289,2.193729375105462,-2.2649228443356515,-2.5907723767884723,3.427906056053465,-2.9735604221499328,1.3496703478092624,64
-68.65275243094898,83.27960716671645,-31.850988133726336,126.79875583359741,75.9115685763498,79.74567420750252,10.49269692681583,-133.61738838231096,26.822351721740826,2.6095797717139666,-3.4463657162793537,-3.755819961388276,3.3020318949572887,-3.171133430542357,1.6889185052330888,65
-72.6584516985008,81.35726040947849,-30.893958981441404,117.1862799092557,66.92725295675693,75.70821145682326,10.083359337250023,-135.90300136457557,23.256248687951487,2.923540734407199,-4.485667503050184,-5.013787216121852,3.158441666849089,-3.295841144307634,2.039533421916289,66
-72.9853405349028,79.36707890796247,-27.656327647694837,106.8620358945677,55.86585115658419,73.34839403997395,11.275656697735108,-136.04842450434782,23.427985604361204,3.3088880410439923,-6.406622925369189,-5.909448620516518,2.836846733260443,-3.1195076167530313,2.310651034783806,67
-76.61454925454059,75.89149219200414,-24.037145042444795,104.91649763292148,46.07355907211204,68.23298035857391,8.373071625030462,-139.94526525124212,16.156496798314848,3.637370459693848,-6.770684171755697,-6.941277499975397,2.7570418460018318,-3.4389389783988613,2.8088493936243855,68
-78.75425705965522,73.00221935658769,-21.83209134355768,104.32073112709882,35.76591892191714,63.40463863725461,8.306738760341412,-141.9661228302956,5.229595053646015,3.788564064062162,-7.408669807865013,-7.75675597441068,2.2767284921776048,-3.4374834734237694,3.6007548168307495,69
-79.5892245135014,71.95808704995089,-15.071573455833754,103.19584727881397,22.714896435559975,63.484579732399034,11.554388698244361,-143.83056497655357,-4.333047514761374,3.915616161149244,-8.507100116488694,-8.175299850914696,1.433872309953074,-3.2387266759305677,4.282679907926225,70
-79.82323644265787,68.164129692561,-5.0744865806438115,105.56608650942175,13.892978311772264,58.36054835536415,15.829965113611802,-144.68122253525783,-15.097407030359008,4.292227218391555,-8.8501340554959,-8.482344343921303,0.7621798819996124,-3.112951347985225,5.253473231886834,71
-73.67496901174012,59.902872737244124,8.594538532641035,96.86802290077588,6.2927316845218035,61.4227595293109,21.8291232767875,-144.0002400143359,-9.095893935341962,4.338074016191875,-9.179694217283945,-8.651824508752528,2.4015622509621215,-2.749753430119358,5.7513219695118485,72
-72.41035826461425,56.957844737464114,14.69264032077597,92.17070300616653,0.43367518935007465,66.34918838507697,26.464805206867222,-144.5393110563583,-12.697183483091656,4.449060098985809,-9.313684546234459,-8.932611130943867,2.6993085565150077,-2.399084214965111,6.423863687325159,73
-71.3828902904993,58.78445870822584,19.533613079653804,100.2960253647735,0.6831810045629423,69.49020816434746,28.740533672483316,-145.23593003015523,-27.572900314268654,4.857242517124211,-9.140154919792867,-8.169359744812,1.9502546297011696,-2.0997075534189404,7.392915578860288,74
-71.48001574893665,57.57383106003965,22.9351707666118,105.57423616767686,2.3358825341522094,71.2093145615719,28.777915407043537,-145.81363458589885,-37.51269509867328,5.3780890037525175,-9.078255449508216,-7.246957891798104,1.9721702347217396,-1.9492013386622074,8.137475522935217,75
-74.22570421872838,59.725729844630834,24.473543826805006,113.60624620277575,4.656643926948819,69.79298774122431,29.765011392681227,-147.1128384915416,-44.96774907001152,5.836889916687799,-8.336142243712981,-6.5064654661696695,1.8727978013935003,-1.9799660655311278,8.538669547736916,76
-74.95072278302783,58.37661184894601,25.547070044823208,115.66413830805871,13.325376917104924,70.32809039618779,29.437746246411077,-146.48533521111796,-46.31680089428102,5.706221709273943,-7.712720396170268,-5.836064165809187,2.3997041504131924,-1.919075123151753,8.62600280968779,77
-74.10646437968501,59.65414682404626,24.283568028310526,116.69515907008272,23.658636186589177,74.88908176588325,34.01328803254959,-143.28602326638912,-51.75938549916889,5.905336654593134,-6.962132988535969,-5.11292007291776,2.4531546023617685,-1.8284237912136487,8.732583149994145,78
-69.83858473091117,58.192698834283235,17.742354276123528,118.52813381050123,31.081833795947265,81.05660896050907,46.107037866402045,-136.9447633500918,-58.52142005143312,6.000000000000009,-6.895082014724184,-4.088059482466975,1.5564290680670574,-1.7167229477900385,8.94589050718042,79
-69.13835335177747,61.100084056951765,8.256345958760342,122.1304693640139,33.53699485312364,86.0258739821598,57.374317805215526,-130.8446634993636,-66.16549197479637,6.000000000000009,-6.395215580432344,-3.675005084860934,0.25267996282852295,-1.6606993011407585,8.783237256087387,80
-65.71592312452253,59.60804653351064,6.517720174428279,125.63895122973668,35.474464169214265,87.78439552571437,60.41058575841421,-129.12320283265916,-69.14225497643525,6.000000000000009,-5.599778035516639,-3.1402544732870394,0.8574386277384637,-1.7202043201392785,8.526307250051552,81
-61.65899220884613,58.27746497986817,5.297030264298764,126.41275161532816,35.38849591275517,88.39980969180691,60.396193173372794,-128.31726568212002,-72.19703885484998,5.250496878759556,-5.181144859940363,-2.5508865389458926,1.4737102555332675,-1.7057837462990526,7.922342344151171,82
-58.90911200393742,57.53718248960847,4.249075933842733,124.14872850267508,37.601186749930044,89.44607225364224,58.83327502720601,-127.74326442728508,-76.80317106247205,3.982542764008859,-4.439478012042878,-1.952923771236839,2.1214300246705458,-1.579351049116499,7.142163690715709,83
-57.120795715167894,57.722788837617905,2.1215914223989603,116.6778123154973,40.11234129968061,91.52162532918756,58.15891290874576,-123.45018293825957,-86.4951554068809,2.8730930589041432,-3.9149164900206395,-1.16691484112345,2.6809010241219235,-1.2281425202923164,6.470575001841605,84
-57.19291069478185,64.89932718991102,-5.677700388725884,120.18057590759078,44.319567300426655,94.00111793253555,56.28147791992844,-122.28904391875685,-90.0,2.465219600834234,-3.2657654827499814,-0.58924374495435,2.4655930453357566,-1.252496381960771,5.919079452891277,85
-55.56480920695265,69.72359295879178,-15.536603164137667,121.22265571131048,45.437991996252435,95.79025869546491,58.86647455027301,-119.56172505736485,-90.0,2.4129515197541265,-2.656172043251972,-0.07524697686839066,2.1213071355046806,-1.120699468111567,5.351886057756965,86
-54.35414606283169,72.51943289557042,-18.679756331275797,119.67471570634123,49.35640973869121,97.34678792691993,55.3533577681472,-115.96423903150081,-90.0,2.342946968259317,-2.054589032595065,0.41459754227582946,2.4601603516138275,-1.0012291939078224,4.871240351976027,87
-54.50424506999005,74.22536134569964,-19.517394240974326,116.72909962918506,51.22703608392533,97.71610854189818,52.804387633601294,-115.85913304352971,-90.0,2.363521112805964,-1.0032465293487733,0.610542767905991,3.150970261202469,-0.9715624864800457,4.177476032869851,88
-54.45533399193688,76.1531192362489,-20.546262153967266,114.27525230417993,53.34998671815417,98.10337281133391,51.38776717561268,-116.92873872220545,-90.0,2.6053505739856204,-0.2841700564035324,0.6780570007693991,3.601667878737979,-1.0605818355452943,3.599065999547854,89
-54.146823810103,77.1101825351811,-23.274255505579735,111.81604535326306,55.22648016573916,99.38046442999047,50.36473453243367,-116.6868028103824,-90.0,3.1162976918377896,0.44556967103643763,0.6556337657479983,3.7016658673385514,-1.0306702468796822,3.205762439289169,90
-54.00499306594936,79.07953155103799,-25.165349128280592,109.22439264848481,54.89601918922601,99.45321752286787,50.32875033793945,-115.67539124735517,-90.0,3.4437833178998107,0.771148209554624,0.5402083579777397,3.430741486892205,-1.1569665629556516,2.872070981436853,91
-54.36975254827874,80.5561398309475,-26.71294096502033,107.85382846861955,56.542643628354135,100.41589750159943,48.77693617039543,-115.13248710630151,-90.0,3.6743784140435998,1.300280629256188,0.41216483434540047,3.353292182471943,-1.2074333474112535,2.7159077432168863,92
-54.78975753796946,81.60362554830749,-28.194409239549334,108.11080216059594,56.03259893853219,100.40401929157916,48.193680261427396,-115.83414326167382,-90.0,3.6904466043176103,1.5477006911385218,0.2801813941050608,3.1223539146922357,-1.3836571448566306,2.722643634658366,93
-54.807383954324116,82.33584498725895,-29.312456225777655,107.88673355387593,55.19131499220617,100.29245298414061,47.46052242315568,-115.09169552009179,-90.0,3.5723901092425034,1.3760962151302494,0.11866759727352814,2.6668152427968153,-1.5486128438062592,2.8100917161433934,94
-55.211958493723465,82.92745342391315,-30.657153464122153,109.10130998958542,53.37881539587566,97.99073582504295,47.7758033370815,-114.19208524727073,-90.0,3.4518371280124924,1.036205156597478,-0.11864428642889718,1.8269521883402062,-1.8131042482974038,2.9465327399250265,95
-55.25291450250117,83.35946685527861,-32.33816016134285,111.45341709162439,52.84472946469188,97.21853948824268,47.287327228767936,-114.40226890713808,-90.0,3.1500196329900296,0.34701360756011396,-0.324279806787138,0.9564087614629693,-2.1532844127336364,3.2421137124755055,96
-55.232995537206584,83.55762645655139,-33.54060848005299,113.42038940390312,50.62766333864908,95.94642788566466,49.165809679858846,-115.35013358286257,-90.0,2.8856094469615576,-0.5244985260258247,-0.610346782710749,0.024816084650522534,-2.454294356232589,3.48487600290118,97
-53.583806531326275,80.86670201185221,-33.33457526547384,112.92396202843491,49.01425708669705,95.92468880447612,48.965222039290175,-117.90161119403979,-90.0,2.6153841172096555,-1.4396720193921348,-1.0490518017552917,-0.2823132889528012,-2.734934556181894,3.7874650972337753,98
-54.405307793410984,80.82048688623861,-30.64461849257369,113.85033216471415,46.55202893164933,94.37335637725319,50.362173128038485,-120.17192193955081,-90.0,2.559019635736351,-2.3268253220798347,-1.4744030781423259,-0.8289590767504281,-2.9879828226701393,4.09485566734514,99
-55.50311249304986,78.65767646616139,-29.09329264719714,119.04402815845134,43.57374197497624,91.82766808416952,49.82674328891826,-124.21548675353932,-90.0,2.661964182137357,-2.9364360647935723,-1.879199164312669,-1.5272238023608378,-3.2083870151162475,4.266121803265541,100
-58.281403390064305,77.33804526224529,-24.606226561566707,122.91984963492285,40.65908001782977,90.12145018513334,46.19104685787302,-127.06636718391097,-90.0,3.008327891718927,-3.8370561976633852,-2.378624025773952,-2.227223167885223,-3.3360740420062407,4.487395262469377,101
-58.93403328267456,73.15226240221429,-20.077526098593644,126.7859649447851,36.441490020225004,86.27154038199858,43.61747511322894,-131.24082989161252,-78.50145789501026,3.386623818097872,-4.7393871016342475,-2.8245327925561456,-2.818071004811959,-3.5209475472402225,4.681920678787439,102
-59.3823314103282,69.64818101584063,-11.707046060588302,127.3747063451424,32.162356962720914,83.5525874081831,38.22199330051879,-133.85851488396335,-69.18238234739115,3.8977016606354606,-5.842935844550338,-3.267691101605089,-2.357820299124564,-3.5496955539959587,5.171919730799753,103
-58.914565764809545,66.53907122647306,-2.132594303466999,125.19753483584337,27.05756456126234,80.88320577501052,33.82521264753667,-136.1036330789518,-59.4706539158179,3.7732901305721267,-6.68781598147409,-3.8991418088265304,-1.645827801226926,-3.385337064674063,5.2647847689716,104
-57.28960656501123,62.92089695372279,4.2519805402753095,123.31157862675435,24.006836720274052,78.97386115006726,31.096958841149345,-137.36265845214479,-50.87318199885648,3.987606534506087,-7.839936882269734,-4.050945321556622,-1.1408316678647634,-3.222832724562066,5.518243535385987,105
-56.20291753359924,61.03500473328193,6.380237021095531,122.76523169550146,22.56189954348163,79.2508053239507,30.277930080156906,-138.0655473963487,-46.811720072675286,4.280106091532319,-8.462773629739859,-3.9457368800416623,-0.871185227634411,-2.9820220193824767,5.827995521388232,106
-54.95180629299527,62.097458169657024,8.12799536216026,123.42687802039298,21.942572327814023,80.6046410111886,30.8170946959673,-139.26294306385196,-43.19757725236477,4.321558125831307,-8.754489363846911,-3.8549327072297674,-0.6916291192980631,-2.861642462297902,5.930499400782689,107
-54.166838841072476,62.82546437232406,5.540412406207098,127.23038555069294,22.675694091750465,82.26626636585128,31.970385480647145,-140.6446587654439,-41.56179281990956,4.2688774864975185,-8.705125838955166,-3.5797596365962328,-0.7480300350320804,-2.879723243144523,5.976690692811652,108
-52.49400678185197,63.062341553329716,-1.7875638581385866,130.7612758695839,26.618800496090895,83.16269617986998,37.960037164431164,-139.1017985307949,-43.60515781255167,4.260450319639881,-8.496806825896616,-3.0919072587940195,-1.4855434666920948,-3.0064693748817755,5.920549808104235,109
-49.597137362620224,63.35636818878609,-5.035159942826847,130.85378812226313,32.36194343074618,85.94954977909231,44.23067104161278,-135.98333173799355,-46.350659146678026,4.251058097970983,-8.411879713287387,-2.3792303774561567,-1.7305142931184856,-3.1204698110277103,5.937635627975356,110
-46.78093168649716,66.0512108057114,-7.1119501112081105,130.5899165800387,38.13305420780221,88.9577569773503,48.43210393648879,-130.6253970140301,-49.96227110664537,4.509660985903586,-8.752785281952443,-1.6456676352886643,-1.7924482476094907,-3.116831135459593,5.946559103891718,111
-48.85572022949782,67.45891122986929,-11.731697114903925,131.75215361421695,40.24266099607894,90.71867515249104,47.9735241953554,-131.6140985981909,-51.02707916360387,4.15082075194962,-8.106894732277615,-1.5787417204106855,-1.1139029615398626,-3.1193804416257684,5.728666424530279,112
-48.87275149893583,75.15369710459414,-21.384253313896412,130.32788535122052,40.608625635109824,94.09265566636034,52.855233340514125,-127.1338178153052,-54.706222912911485,3.9174161578169064,-8.491991167672117,-1.1574802650237535,-1.007240710260445,-2.8168807024688403,5.360599805284537,113
-46.74663239651414,77.74329387939163,-26.42840440667217,129.10281105865752,41.91912724054133,95.84689205283625,51.494413802746884,-126.3876454981748,-52.02750263924255,3.0501417263820616,-8.246652242558428,-0.77926169609969,-0.30281283264677983,-2.591949259831408,4.8586358137701815,114
-44.8634550003835,78.95207424629302,-26.76406216969516,126.91772879982209,44.76603366053936,97.42560959363624,47.46681092240005,-126.39470256295711,-48.589745684010154,2.1385400464382838,-8.101160981106377,-0.5994072632455388,0.5534156055193522,-2.360938120167437,4.428314620691154,115
-43.32561115882169,79.19849897665534,-26.05909965822656,125.28424198282141,46.897247589952606,97.49094302411113,44.883115239519924,-127.09069241575438,-45.41429603856457,1.3297177178245454,-7.703791257361968,-0.31046486802419393,1.640578150717118,-2.2511926040953387,4.074513425261009,116
-42.82653087426922,79.92645345357342,-26.433224826266642,121.47911260405093,50.000516556233926,97.83086903569806,43.38819631072003,-125.56436055961886,-44.791937167116735,0.6319383807279577,-7.203898190527569,0.02406754163993717,2.439177027098126,-1.9844316064213419,3.7227297244111996,117
-42.603261271882204,79.03842689637659,-25.22891643234333,116.84945544659386,54.76602542355186,96.68878621078464,41.10869873323455,-123.10640889215001,21.988511895714623,0.09316696938960192,-6.6430345645619475,0.651884576775556,3.083711415855671,-1.8430988507174366,3.3431253141582062,118
-44.41895686354208,78.31882528720121,-25.14206775024727,115.26174041574727,59.188926787373546,95.83754261693463,38.74686712228012,-123.04774737215823,90.0,0.3259786647749903,-6.09584494147867,1.2786412340673161,3.4199319341947834,-1.9823508948044897,2.975312920219637,119
-46.390606989897464,76.98477508141718,-24.48481316431313,106.21502909883462,61.74050857537135,94.59587843127792,37.84948265978401,-117.43126954781813,90.0,0.5838470950197427,-5.493667391615933,1.8824460301353614,3.3056352291468682,-1.8456427228037033,2.5341060995569307,120
-49.31547055927964,76.24484080124599,-27.104304351187753,101.90208204009413,66.78336220633467,93.28246033486896,33.730343514741726,-110.4861893348053,90.0,0.6388952745427504,-5.199324567213742,2.6619997578477133,2.4346659547986476,-1.9367969120001718,2.057060919567519,121
-54.227215094750214,78.14094172465168,-31.742799767839088,101.05241405829814,67.32508441199627,92.68028741275873,29.70825955640468,-112.70186410579923,90.0,0.2651628776818892,-4.923590190222891,3.0651046161390547,1.2237206565563075,-2.0740638413107653,1.5914635917713695,122
-59.04197171443871,78.97193505172443,-38.15423627100288,98.19550566346875,70.23830433014973,92.23437461940337,22.831771977222992,-116.35339436415693,44.80319862255517,0.533916951416045,-4.804710654367656,3.3786058400969545,0.14404912858231617,-2.2332461591577544,1.2069893065732367,123
-68.23692117223182,77.94555936276599,-43.480752104244296,93.30511037238911,73.83516372281053,87.84713022973038,20.478318349294483,-118.2601530224096,13.397931958433862,1.3140692523794086,-5.336514466166501,3.7864094866901747,-1.4067648673962339,-2.831346746957955,1.0370221882152184,124
-75.61235567901959,76.4170164760874,-45.99987702533837,80.15551124545814,74.81229160739099,85.84112162928886,15.707146188823376,-111.66354473323317,2.539303669665215,2.2737084847668285,-7.230089112392333,4.088006524529957,-3.777645344785328,-3.100097482607253,0.7659492364340537,125
-81.47378634412804,73.07433468663409,-48.849187463440536,68.43408291896009,79.48390341298341,82.44096904828326,18.921189142770125,-110.12224114890462,12.691385023273295,3.4292528846582924,-7.938350709145636,3.814064690872944,-4.017355699075669,-3.760230853722797,0.8191189251162595,126
-84.56679522426828,71.80945857095634,-45.27071121318049,50.974339972777294,80.62305559620425,81.1174539075825,23.12127635694998,-107.04792254950688,-3.52637834170802,4.21684248858602,-9.333784037492817,3.8035513406411856,-4.043584286151784,-4.093075060329495,1.7280436070788754,127
-81.64910238195199,73.63426009540508,-42.72492993474264,29.163718736465768,76.49178524355638,81.08080103705471,29.39207862224153,-108.07913890488146,-18.31536638086448,4.574253240436161,-11.013700646483032,3.2195448109243805,-3.49884144185554,-3.6543718694676053,2.9692709016732652,128
-86.86829091224408,68.76099713991992,-30.879267804605824,28.298822862089647,69.9675174790525,78.59931239838704,31.828359004998614,-115.0289562458679,-43.90381153295883,6.000000000000009,-12.12040897303691,3.343019194210622,-3.939078228128162,-3.6432898531072873,4.470188775317435,129
-88.96528665209117,66.3531634206796,-22.051564786507182,28.29882286208962,58.65420997759757,73.2296898577338,33.106870675483066,-118.71569086148489,-57.32766413029096,6.000000000000009,-12.84925054524623,2.891501927020502,-3.9942159483086943,-3.182216749291371,5.36924633238564,130
-89.28246905633404,65.80183489645766,-19.38779802457206,28.29882286208985,46.23971258074685,70.64188371494312,28.694785532710963,-117.61713296506797,-64.97792278603313,6.000000000000009,-12.538525296622375,1.943977589450425,-4.119078081658825,-2.543995309830238,5.630165943950154,131
-88.59790689000236,66.41746546889031,-20.198994988117025,28.29882286208985,35.69458540347342,67.54566368740488,31.847409062973725,-115.01047711860528,-68.21763481229523,6.000000000000009,-12.22024026638037,0.7630125985306013,-4.6833306429657195,-2.0958490251681314,5.2107933767244,132
-89.09782267342679,66.98590479810412,-23.9090703956881,28.29882286208972,25.027545104586366,66.3969470782734,31.638627823074074,-109.92820201551463,-69.57984296214963,6.000000000000009,-12.638977372485499,0.11350750164130077,-6.195237381171176,-1.8342828156875202,4.3450845699401945,133
-89.37767194296039,67.91994955319548,-28.370637961008075,28.29882286208985,16.679735537980445,66.6925770203776,30.13288719174022,-102.12996960688844,-69.33596036090661,6.000000000000009,-13.150511072455663,-0.4000186189843317,-8.265352237868761,-1.6708832581095727,3.3069427338099096,134
-92.0907772464355,67.0701825421514,-31.73945420856224,28.298822862089697,8.23744425455197,65.11429538668104,35.89429493710722,-98.68835212978081,-69.61516570683624,6.000000000000009,-12.887521673347146,-0.6709883806011496,-10.062847571439365,-1.5544316953919917,2.7830297586790027,135
-92.6449455248086,66.17359566093926,-38.452112080431704,29.1011104937955,1.0799339599918816,64.77810938201654,37.603572850139855,-87.81273709879855,-67.8431227665118,6.000000000000009,-12.974895200424484,-1.109253964940348,-12.186611813890268,-1.414492260949769,2.076334224482512,136
-94.88150991900345,66.60376374804908,-41.85497228735106,35.04480896899559,-3.07507222965352,64.20685339674252,39.71759303813482,-86.29785366934796,-67.46438576485632,6.000000000000009,-13.319773529041129,-1.5567015974076195,-13.21814898731506,-1.0177616838085843,1.3736186301855853,137
-97.51976631750522,65.8644432237961,-45.51430363474366,38.98818490461612,-7.033084497036121,63.56949157318492,42.16894236667491,-88.69544271661833,-65.46321493667206,6.000000000000009,-13.455326505235456,-2.0208399999093056,-14.534666176229358,-0.7821153114144639,0.7502369225024265,138
-99.82991299724333,65.95532894352709,-46.78587802271448,41.80521285613702,-8.140497207357722,66.27516643927915,40.94007311866561,-95.03871427360554,-63.46501435085859,6.000000000000009,-13.62527451861713,-2.223594471745088,-15.743618421869709,-0.3773198242334546,-0.1336193506438402,139
-101.4786667459088,66.19059614929337,-47.49414495343976,46.47444617596315,-6.346509825106187,67.79428094541416,37.98491774312475,-102.70307130934033,-61.60550659627072,6.000000000000009,-13.822452754341397,-2.0584813241285187,-16.43710084839047,-0.18195225334591006,-0.9718869335352075,140
-102.86442593368115,66.27376615812139,-45.92643995729346,44.84733005979569,-3.8614210489180096,68.37817203498062,33.59238149114708,-109.24105596396214,-59.604519000962554,6.000000000000009,-14.215126670861164,-1.5834454175068198,-17.20900302119173,-0.21048701290030855,-1.7542959260017061,141
-103.43020428620129,66.71476679844058,-44.16942702902686,44.261037963431946,-0.468341432869066,67.289411808865,29.90666927130224,-114.07678908159394,-56.006324030913916,6.000000000000009,-14.472532293128625,-1.2202632431304008,-17.763358411381883,-0.3438737551404733,-2.482564430791994,142
-103.73383733418328,67.31518637645038,-41.703566627969586,45.79024613349364,5.00586933387516,67.19236979173886,25.431528839286557,-119.71601432824023,-53.90267608069021,6.000000000000009,-14.167919886725414,-0.7117191628449949,-17.80439520881826,-0.5081284592936182,-2.788991578516368,143
-104.25689056885254,67.315587895137,-38.3305386298142,49.95309257818714,9.682741928887108,66.60485044816755,22.71644104101568,-122.71485518444081,-51.143202360472124,6.000000000000009,-13.358753705448976,-0.20314158657849454,-17.3850671424045,-0.9070913106632669,-2.6825992752007335,144
-104.40690936275419,67.62214186136836,-37.41712562650761,56.203800964402525,17.24496400268737,68.50040349321712,18.3716485711289,-126.34194463585574,-47.43562903900062,6.000000000000009,-12.506531079448814,0.10710849532404772,-16.744791431545003,-1.3122054549890452,-2.7169876941883007,145
-104.70041553976914,68.49346196276366,-34.67299991928046,64.91312064107454,24.46840599614093,69.14184388083132,15.703113540854707,-127.65518479915269,-45.3177366573411,6.000000000000009,-11.511121045226497,0.3996328133531685,-16.793269312857753,-1.748135190695853,-2.412225635235008,146
-104.73919051454322,70.46220897957691,-31.419958683578518,74.57160809612246,33.12343511246482,71.63940492450502,13.691786896218913,-128.5440870175805,-43.108291332465164,6.000000000000009,-10.359074531910565,0.6587456960601521,-16.470303188922628,-2.135717076461252,-2.1678935561788713,147
-104.17119013098973,72.26441437334103,-29.15905067936676,85.4448675582928,41.4933707223039,74.20496606300298,15.673682634210513,-129.61888557094096,-41.875373006170726,6.000000000000009,-8.86543741964346,0.8056609702858014,-15.616578871581547,-2.728883711043526,-1.5178161046313916,148
-102.74368353789909,73.0974854717161,-25.613748828126617,96.45162028820441,51.919870576954985,77.01984030212716,14.257867614488577,-127.57566104907896,-41.53522743462137,6.000000000000009,-6.956354558639963,1.0884484099947995,-14.709668112765128,-3.2758737807428604,-0.71429860018627,149
-97.50220812455794,75.22595583946635,-24.123418118785274,107.34027810364198,61.272945974418775,78.56552496234492,17.56096819826714,-126.13579487005677,-39.46421442226704,6.000000000000009,-5.3453602355489505,0.7357367885534356,-12.588494567004002,-3.4227199589475203,-0.1420854752632039,150
-92.43258872237664,77.99872350014003,-23.539540656877335,115.00917173688813,70.83620442938381,80.48752961381993,19.203116682377836,-125.2005481068478,-38.36963006287597,5.817993456014697,-3.449238031384369,-0.09488856057760629,-11.134030817302584,-3.1919968325555903,0.112238158082817,151
-87.29962054247595,79.0321548968754,-25.02869228921434,120.3945003248691,81.95909505018615,82.12130363903275,17.128325697542454,-123.23509342712957,-38.456335252814846,5.469035557671452,-2.2645154989092395,-1.0157900296840223,-9.837209121297303,-3.1574859678103846,0.3589698938427806,152
-81.25908552337309,79.89603341730901,-23.190250372884826,125.16089917365744,92.0599386418551,81.6595184282031,16.323233332072313,-119.87446529106711,-41.1296016434735,5.365971916714171,-1.5083530796465183,-1.746725452608447,-8.420541567581319,-3.206306961314615,0.9484148547516851,153
-75.04142988193837,82.25237996277292,-22.84022905638362,128.09918847446082,98.86217745982921,80.41986572063948,16.186863912167127,-117.10116535426442,-44.31146543660956,5.349469047589632,-1.3487135834213764,-2.5660566599982206,-6.847982413356964,-3.2735617602185303,1.3261760074066087,154
-68.64946198004779,80.50008817815001,-22.130885825321485,131.28325849554943,106.65840251117541,78.82297769562366,15.550195459327394,-114.53312656366397,-46.59932209675407,5.240093100559435,-0.5209072456771545,-3.111959557611458,-5.498263034642541,-3.471789824273277,1.5719404422890442,155
-63.240597319769385,80.32075537791752,-20.279050751562956,133.52955551855024,113.74105241468885,79.78218151368536,13.704530584494362,-110.58610865757876,-50.96471120811271,5.000216367484554,0.7671203354870343,-3.540221762097254,-4.529956671000936,-3.535939802054552,1.8379550564216334,156
-59.47369317933162,80.57305467487278,-19.325001439924577,134.3332989128319,116.69561303279086,79.35213609544707,14.215732768600454,-107.56335509731846,-54.98894448619138,4.896323707848566,1.2917987236665496,-3.936281536335853,-3.6657324294677234,-3.5766742823488413,1.9590107523114169,157
-57.89433287034171,80.64593530989478,-19.235935083557553,134.53368325439084,116.97802137155426,79.5954468118037,15.138877790132108,-105.56303022659748,-58.71108052338735,4.915952363049425,1.1525378488104907,-3.8776296259718386,-3.0416960905483084,-3.607534268945286,1.9999342204517474,158
-57.94298270199513,81.28025365393725,-20.542926605129445,133.87988598520917,114.01179527454327,78.8952085260005,18.116625414774973,-105.22791518126697,-58.808975384440615,5.079447056005819,0.576585361553164,-3.4673953658305217,-2.7962387336769843,-3.687119004973275,1.9600967491361994,159
-61.78590044234681,82.12299758364115,-19.29907632749335,132.651409690847,110.73701386685102,79.81677329592182,18.36749681427599,-104.9860196124118,-58.2268295730387,5.455813670482809,0.05544780427091632,-2.548368646655395,-3.112729431071351,-3.713664684348076,1.7446646195034161,160
-66.9638305761682,81.21410609352718,-20.02275395961258,129.1496037958597,106.14537489368588,81.33536738289253,18.595574299472396,-105.47196834670058,-55.653323656741065,5.657141875089059,-0.37316233024163525,-1.6535287433682528,-3.8839959631521412,-3.6655473042282494,1.5286946075104295,161
-72.83603562631271,81.96173170975389,-21.287010905311845,121.7463413059014,98.20394563871807,80.98826082936158,21.43012107573403,-106.66171454366787,-51.35287126821286,5.497720996185049,-1.2701040686624774,-1.2179061372208746,-4.385064249723343,-3.4301285268831188,0.9115415198869606,162
-78.05760778126513,82.32936307540436,-22.579924590689586,116.22573670960351,89.02762837947935,82.47997218417463,22.79961772787006,-110.32075876211698,-46.40016602072832,5.86444325469358,-2.7527295555262747,-0.7337002651572762,-5.283955129120182,-3.2929380524430854,0.21105294707440272,163
-82.4559406590933,80.29166239336098,-24.238459001222814,108.89978638946393,78.01398004103083,82.09692662888379,26.820106006718703,-113.2330616419256,-41.34220553865275,5.8731543592001865,-3.879384520665396,-0.43398778810662986,-5.849904983846495,-2.9655994775179924,-0.6008709653795067,164
-89.19823408644528,79.017807346501,-24.223664991123997,103.29072120234176,68.2703112126404,84.15439637440353,27.262050729571026,-118.0183356343638,-34.83844749699771,6.000000000000009,-5.312068881079456,-0.025583697035848844,-6.578043443590353,-2.9241716835760085,-1.4674214705380186,165
-94.79869910864618,78.0806168330337,-22.066348868704353,99.72320753280147,61.024930181383645,86.5102718456161,26.523307847572482,-120.8318589823432,-30.425615594543864,6.000000000000009,-6.327113634050773,1.0383708805095966,-7.326846909143413,-3.0947575681351718,-2.150511895509092,166
-98.72848411400662,76.3935236731393,-22.73744757527605,97.76000231323627,51.9569895588372,87.97473488901629,28.75646644880821,-123.29447901570278,-27.356494398213748,6.000000000000009,-7.522865514212764,1.7871748014123392,-8.516515564660937,-3.020934561788899,-2.8966820030098046,167
-103.05938854170896,74.05098475372942,-23.337051297663727,96.04712905701889,44.64323040054272,89.00825770885986,30.29706371291631,-124.7355110275243,-24.29514154178608,6.000000000000009,-8.143499552053045,2.4621961601625877,-10.039810678838277,-3.007517517260218,-3.6118163612051473,168
-107.66442007663757,72.40927660615974,-24.214520167099757,93.47187950229916,37.17910047189305,90.28922314288806,28.81701777865645,-126.48969869078282,-19.31529459210141,6.000000000000009,-9.105740063212068,2.7024374365478243,-11.428603771038818,-3.068647145989298,-4.5970567843241295,169
-111.21199247805458,70.32734236970221,-24.847243624769686,91.16647962458015,30.779400277088918,89.84159143521669,28.74599710334863,-127.87676338823978,-17.01913813460877,6.000000000000009,-9.268928490294813,3.1005024370496987,-13.394973641843162,-3.1454962968260136,-5.165655426218555,170
-113.91303739302401,69.69788226964688,-23.095628487278688,90.59424267876629,26.20214004517473,91.18999521819423,26.760448185693104,-128.17096217956905,-20.238517834758383,6.000000000000009,-9.286171255557448,3.551402616041081,-14.779218170999783,-3.2544282573696743,-4.994183550916543,171
-115.4908074537873,67.91838439087762,-23.54757069096316,90.63273555721528,23.662133394614617,90.09371944159444,26.898366296280383,-128.71437030416118,-22.056696071138287,6.000000000000009,-8.767002678351494,3.9283204114813697,-16.18510998969405,-3.387957740042284,-4.747538793382846,172
-116.75841961410481,67.44888767481557,-21.4604581001823,91.72775874483374,22.96717359367085,90.16313185022423,25.680545597905017,-128.5368004024716,-23.783583472318163,6.000000000000009,-8.113423526721002,4.149215899965983,-17.36099662278727,-3.544905812259509,-4.382541555956001,173
-116.68649512146233,65.97080649640382,-21.88616998095767,92.5410684552158,22.225055337756185,87.23320192539703,25.988932455973544,-128.71020107791944,-24.08950603718227,6.000000000000009,-7.56969587677799,4.117977943787327,-18.603706623242118,-3.617551340266721,-4.193759282647928,174
-115.92972986820432,66.62142441341915,-20.46396891869438,93.95670343754384,23.9564286981338,85.42610019752128,25.567549489066913,-128.66662810789444,-23.23409748016709,6.000000000000009,-7.267054407579442,3.9242202962167667,-19.534933186836234,-3.630531647890455,-4.2073277541776894,175
-115.60182050755657,67.81452222825394,-17.977720136821198,96.57643219570542,30.617301654138643,84.58380802793226,24.01619949364813,-129.2374096643171,-22.583864238625193,6.000000000000009,-6.680240832902031,3.7348625003414644,-19.32239263995746,-3.7173139036051865,-4.055093185326839,176
-112.9011375156419,67.52361148193482,-19.51401981291364,100.18316844280261,38.26773086087734,83.03382232222971,25.645689606638552,-128.34027623109858,-20.292314177275415,6.000000000000009,-6.160047758170962,3.426889681612134,-18.046634613987834,-3.6730105127027883,-4.01298791619624,177
-109.02551266545741,68.82682049823418,-21.279700518935062,102.7159431711494,44.96435868364604,83.68593066119999,26.80304167481587,-126.70472776336548,-17.982642161714683,6.000000000000009,-6.0211414294724,2.6170060487763336,-16.739563233345166,-3.415596494983778,-4.108345832803302,178
-104.71140129420418,69.71659467087446,-22.80983568404097,105.42644133995422,52.80950077239366,83.48101681366308,26.950776940659726,-124.49313517248433,-17.344360588263566,6.000000000000009,-5.599230281766501,1.8403503937978816,-15.618487446422545,-3.2260776084449825,-3.8986273033733436,179
-98.87089486347911,70.7646197043661,-24.009827109412846,110.15631565901808,59.66717865808658,82.3504326478083,29.81661415520585,-123.23396758561401,-21.39227322703374,6.000000000000009,-5.128975747910389,1.0254770917934701,-14.371478162382852,-2.9755029578638816,-3.233662249226488,180
-91.69540568124323,74.40501936280788,-22.40478379513423,114.80000126927672,67.59749703464547,81.29177658788068,29.15167570813055,-123.11883433475813,-22.08293746448051,5.904041296520583,-5.317676009980144,-0.25601943430074003,-12.495647962788048,-2.517410858839668,-2.9036560003176497,181
-85.41864535951318,76.77744938061323,-20.541476842964624,118.36749467838243,76.14023047784205,81.31260869815125,25.904257821079685,-122.3433922943912,-24.69514015525179,5.233240547615201,-5.19862141077113,-1.5016520805316458,-11.199021555662686,-2.130294183884977,-2.4362231676121047,182
-79.92114981957282,79.35896424627047,-19.075607525087076,121.93972158830321,83.12127633289968,79.30742120046335,24.520163546761964,-121.28316730534134,-26.024099828163678,5.056577845215606,-5.709704107158613,-2.797292286007419,-9.619537422172847,-2.060800533132191,-1.9844085585237767,183
-75.80343675622046,80.29670027829927,-16.949400279642187,125.05816632561006,91.87164025495241,78.99123564133956,21.050385687251442,-120.29972212890054,-28.858463996081422,5.035314088681078,-5.785737568286228,-3.959211313828936,-8.145879240839964,-2.135279403311741,-1.23568002706356,184
-74.54069327320191,78.77653749631381,-13.518381878769203,127.2634958990296,98.67485269930563,77.11769995733208,19.102325637994042,-120.22938263748837,-32.7317587621509,5.0503108766551374,-5.28933156154001,-4.908715789411033,-7.307077019514889,-2.291847665389276,-0.47541810974658616,185
-73.54339546769899,79.9407508345448,-9.352152847228155,128.94327749329463,104.92648793981601,76.7700435048068,15.404680995520069,-119.67829116432948,-35.46162027083642,4.739625826153051,-4.482593824020015,-5.750065024571312,-6.584032794129709,-2.4770662807870005,0.027834790248334358,186
-73.04247305802643,79.09749766278843,-8.12611041648126,131.12208578173892,110.19305377552838,76.41155782876065,14.55020425437372,-119.4003899706467,-42.606365392427115,4.685541916745744,-3.3093044275333092,-5.984824572897413,-6.044609776383995,-2.846937321321721,0.7188001429542733,187
-71.92370936749856,78.31581877009475,-7.391491202213576,133.1848435755609,113.70575143788179,76.50544113523661,14.28788017931689,-118.8792178750904,-50.89154623355194,4.675212774647616,-2.3167957999576756,-5.883577500248161,-5.602811683594662,-3.236827574449599,1.3000620797157547,188
-70.75626325702561,77.58375500403241,-6.894810447766798,134.4612885747655,115.13139432941028,76.69609326010506,14.52178542528466,-119.00077825868244,-56.16928557833549,4.823857335428843,-1.700519963277892,-5.580233430843396,-5.1721849999083975,-3.713676354428805,1.679506252320098,189
-69.89130939103751,77.31643102258543,-6.85779671715902,135.26044703111344,115.43260336449903,76.63455178883798,14.960958769970668,-118.85985189178432,-59.5009113944401,4.853504860299805,-1.3077282993789645,-5.27225320498701,-4.565715992845052,-4.116165672156722,1.9249274036722077,190
-70.38624059406749,76.32244241169239,-5.808674749905172,135.52244128561867,115.34699082457932,77.90446934327791,13.442751234256189,-119.24850169042348,-59.38262054476495,4.8760127876021135,-1.181420613115393,-5.005900287307917,-3.960171493176043,-4.437482884040666,2.0636316572064413,191
-69.4364805780996,75.63638414610443,-4.639644810383281,135.41831057111455,114.07323055436333,77.41390664074349,14.169293802872367,-119.97300692158274,-56.599874686755136,4.6224686184251755,-1.2472659561470996,-4.664599104964087,-3.050156871055732,-4.615806164107842,2.027729185892916,192
-69.15226611225565,76.2147736020894,-0.8966404831330667,134.3661908752758,111.73147572860832,76.15819388990296,14.259198028282523,-122.55350049383664,-49.89842253568089,4.4321715699029465,-1.5209571814063203,-4.2693809539418375,-2.1396137940229223,-4.814750782197334,1.7718163665064828,193
-71.0438461345218,73.79480483765678,2.936662465009641,134.02113465794375,109.37926006621736,75.87495018310605,11.50401935057001,-126.37496734030343,-41.631686566010394,4.4683270294547635,-1.9243939500961587,-3.7686567885446407,-1.3784690599740839,-5.167606724374823,1.3234838548163343,194
-69.91913953271617,71.2281530896064,8.239388800415865,133.78435455271804,106.63235129511914,76.06435442143766,6.346859320915483,-130.2096627207254,-29.451131522741687,4.4370291271163245,-3.1918677517996774,-3.283982253426108,0.07611068736372538,-5.390531421540421,0.7192680124766669,195
-67.9119596144138,69.0303792379849,14.84728447305132,134.97050735772268,103.14743779912654,76.04196180223207,-3.930533840378784,-133.68616788729022,-18.969015064715474,4.520220821045564,-4.48468329379582,-2.70343081049389,1.2872099724652075,-5.466712916946426,-0.005234535728899139,196
-63.741517458401866,67.20564489986998,21.152010485240808,135.95125706762653,97.18169591634292,73.96626985406739,-14.19967792961713,-137.26798547446197,-6.927027793528853,4.5162923686326675,-5.468038673067906,-2.0091595855258273,1.7994982239060267,-5.167004698414435,-1.0150424165781122,197
-60.53540038877231,61.865207126808535,24.28896323100324,139.1000043501459,93.34229069616178,72.77585995237023,-22.846093499765978,-139.96941021037927,5.747673781415782,4.909566078591851,-7.151896091787301,-1.4372980792026968,2.1902249027950638,-5.1113043153498126,-2.2345903680168124,198
-56.39051929255138,56.31705923567753,25.24666347188823,142.2110567028629,93.16366075461384,74.06665860153082,-26.677829042461482,-142.2554849050923,21.353902132780604,5.60397688437074,-8.081143194208202,-1.0742082224785099,2.9001856869883524,-5.1462329049568085,-3.4790324930955667,199
-48.731412888154814,52.778399737242125,24.00142733073624,144.63345823515075,91.37784274010905,75.82945695067615,-29.637518009205337,-144.09151827028978,31.99534407641138,6.000000000000009,-9.160649743721148,-0.8625214802794983,3.422278563660207,-5.077925477706238,-4.6431814070010535,200
-41.22424786858262,48.229851629405076,19.558740102061897,145.41573460248844,89.78540923189973,75.90415653797756,-28.896514601472777,-145.03788813207538,39.11997310530675,6.000000000000009,-9.698872983673912,-0.4856519386643549,3.478190472391381,-4.843828677134215,-5.532918168035139,201
-36.71481275624423,44.194641231764656,16.843868076603275,145.61146252856003,88.45017321072513,75.79805411806657,-28.995712105640287,-146.0762377753306,43.40955039091701,6.000000000000009,-9.817747407865856,-0.11959907364015586,3.0826235263881885,-4.626328515699056,-6.352145468938687,202
-31.85162200659566,43.760575887219886,13.864329285174788,145.88674110231315,87.29307834421792,74.5158117921035,-27.572821989284563,-146.96412359370132,45.9034694568481,6.000000000000009,-9.737612555483166,0.1588799856863224,2.3519494529866107,-4.334194776222312,-6.988960239334712,203
-26.372425431773742,42.43257524383902,8.962222682969244,146.09177738968043,83.21248383858428,74.71613411200347,-27.76850071589973,-147.68379709570394,47.4911691841812,6.000000000000009,-9.481715493338848,0.41762566182233435,1.3440441143398505,-3.981674961585631,-7.508678368417776,204
-20.805900791901834,41.74314175886465,3.325264017683576,146.78374535193572,81.95345688440261,73.95720830647834,-25.974874076882884,-148.0,48.61632737270313,6.000000000000009,-8.794318807414149,0.6894967260104083,0.4728500536190563,-3.726192049164407,-7.732922032002848,205
-16.330504594082004,43.59990052938546,-0.9631703048356647,147.2433142040129,79.2641538165544,72.56792010777632,-24.997175376685657,-148.0,48.8458148469094,6.000000000000009,-8.070746501253234,0.7725215867235854,-0.7429875302553939,-3.4561737455434884,-7.817445297651036,206
-13.132757105167949,48.190838899438944,-4.964122157371566,148.0,77.30507110952207,72.1176048102041,-22.022842879363164,-148.0,49.806221157397964,6.000000000000009,-7.415555592816924,0.4825981163914711,-1.6138908996904633,-3.250523685145734,-7.631617315150238,207
-11.645328897700962,53.491887777040795,-8.212210042984594,148.0,73.15878079950737,71.723609499221,-18.1614070545639,-148.0,51.461697681490094,6.000000000000009,-6.715702225805049,-0.04547628322638069,-2.7592323051186485,-2.9890938473274695,-7.481410728767792,208
-11.200164121505818,59.509607560498424,-11.840428604159683,148.0,70.1716382578706,72.75320376263669,-12.312157747179242,-148.0,54.77414683509831,6.000000000000009,-5.545008431052197,-0.5031468545545019,-3.951379132008022,-2.6534364387080918,-7.284220924692713,209
-12.122553521117425,65.49287810074753,-14.932657705524008,147.68570252330136,68.52780849675338,73.52392795018301,-6.519311093171907,-146.37483818829642,59.79254218651157,5.902975593141894,-4.2704290081353555,-1.0252331802836023,-4.7794104207616,-2.2825844717935575,-7.048653239413466,210
-15.403396977848256,71.02548374122006,-17.313025645777703,147.095962454637,67.64566068153705,74.3189348322519,-0.7341213486445574,-144.46412361049747,66.65315170630801,5.086110229534933,-2.503115110609335,-1.6792373585999663,-5.411324236932559,-2.0167494228970555,-6.556767619997955,211
-16.958050559033946,77.73462408389537,-21.366404572515084,145.55233037166076,65.06477883683054,75.90416711220145,6.0641640497230425,-141.7373037467576,75.83891397306233,4.298596789049799,-1.313519358061519,-2.180710132897162,-5.822595977805916,-1.7412988842615897,-5.96638573625606,212
-19.313292105073298,82.8315707180098,-23.44720225215356,145.11407592881477,62.99724065656463,74.35834691189392,11.42123267217213,-138.9551437796874,87.06087543167267,3.248108401406332,0.0985313104715367,-2.5347488014911703,-6.982858486088856,-1.5402810944199286,-5.058360802476256,213
-19.797994641965037,85.7427032080448,-26.678403177779256,144.1146948209423,61.25923619731081,76.06300586542166,12.954841264321972,-135.74566358732974,90.0,2.4244163641961647,1.1711898719073093,-2.7986961957297707,-8.022393878959525,-1.35832927711832,-4.176032737541221,214
-22.409850505365863,90.04557434142771,-27.980562562521882,142.96501468484394,59.94154339169865,75.18192211584173,15.316370612879616,-132.18817615762453,90.0,2.0986493769175083,2.126108363265297,-3.0701244039529314,-8.8046110891053,-1.1678298366026654,-3.55865624064373,215
-24.80331249068417,92.13328615568442,-30.685591418357816,142.37180485205604,59.663655665015185,77.30301229592804,17.395995658337544,-128.31183931087813,90.0,2.045589741401864,2.885370834594175,-3.1178752663045395,-9.779051970888835,-1.087777359687832,-2.8751254699535536,216
-26.877851081146392,92.7723458891771,-32.094335446334775,142.39310887526557,57.88666919206896,77.12130831353406,19.732168356764845,-125.13863041601755,90.0,2.380291521640926,3.653887116803176,-3.216185021151332,-10.607503555695166,-1.1494570325009383,-2.0573649824088225,217
-30.51035918369378,94.96862936630494,-32.41165887034679,141.82145211150788,56.58942352879518,76.08544326723008,20.21314353087534,-119.5715997232918,90.0,2.984799061130451,4.227315980993809,-3.0858433209110325,-11.26129223755192,-1.195785147573846,-1.1515603075256848,218
-33.07305702386203,96.49107974292686,-33.01688562761214,141.7401815485772,56.5288262300551,76.9911557084359,19.789279673672766,-114.79105057958915,90.0,3.5140945952234968,4.469307380757925,-2.860519076525867,-11.983745269503784,-1.3924180052751751,-0.4917964743886082,219
-32.944920979393956,96.49226739084888,-33.79899089115668,141.58822178512747,56.04864893117692,77.98345929863561,19.87246476559191,-110.2668133214712,90.0,3.836411889966142,4.412999009984582,-2.646300871546778,-12.183126305699828,-1.5711741891060769,-0.06129895424840065,220
-32.30974778429908,95.7673100989961,-33.74570826142512,141.71625880316995,55.772364695093614,78.9823343571604,20.572319051691927,-108.25644313396724,90.0,3.853919798660603,4.061821995916377,-2.3933703439823026,-12.160661446799283,-1.7611104333051364,0.08114348158433399,221
-31.9493972471132,96.3247304539236,-31.696686028260565,141.7345827199072,55.35548760198761,79.33374185917602,20.924136993898113,-107.91312237856614,90.0,3.5249120364632964,3.351224669301933,-2.086419626481143,-12.008085096808962,-2.0609957118773616,-0.06974187366706368,222
-29.264266304057703,94.07936827240346,-31.45578542629089,142.24255454078298,55.21438137483872,79.74679160759952,22.008591274059803,-109.5251836384848,90.0,2.9940487917192113,2.4714404694075247,-1.8129218859358347,-11.665595860789846,-2.2787583765701283,-0.42709399449983787,223
-27.759472492157634,92.49345758092419,-29.556548573929295,142.42056477373134,55.2043966979453,79.54342052987673,22.487464118537158,-111.35319410427302,90.0,2.310210127441009,1.4451494504261242,-1.5029929992379503,-11.28082987186704,-2.511179556080931,-0.9139579180962092,224
-26.675195453570485,90.82469733848845,-27.667576918097836,141.8294697395983,55.75933647742142,81.05864997236932,21.768481948943393,-114.10176335023468,90.0,1.5170414707614672,0.23518321329605935,-1.2875897315981644,-10.329742507673284,-2.598830411930833,-1.4985741004841733,225
-25.360777134117342,88.52315867559955,-25.578489816577278,141.4329953947529,56.910588707867255,80.62599233480661,22.1980973338557,-116.46138072178064,90.0,0.6814904210573977,-1.000126181167935,-0.8809347131099766,-9.11547831809305,-2.7465074651933086,-1.9471028537020938,226
-23.79111221222464,86.17260936798529,-23.38191028340324,140.72211851916305,58.260396972136824,81.91842975501108,20.83953725522145,-118.53140035102932,46.3744995727811,0.26906736013584404,-2.427733864135633,-0.4767686215817193,-7.894627391842269,-2.798199041740182,-2.377942900185887,227
-21.82850632554009,83.58382366350199,-21.021823598208925,140.4664174051955,59.07827031952119,81.05604037161068,21.443443310250046,-120.50088899403377,29.489575523789973,1.1911089553378478,-4.041625653525736,0.03810038322741636,-6.666617155613293,-2.8855417354110346,-2.795486625616981,228
-19.506987894765476,79.35837821452093,-20.40056272360569,140.83479709112382,60.17125271512074,80.40657703047268,21.26027570147438,-122.88764236262375,26.283854510209103,2.0688265980435516,-5.456482755652694,0.4649750413611793,-5.2986158895033055,-2.972042847117332,-3.2003844955918384,229
-18.139339476888956,77.38372166095081,-18.578572608030168,140.67760320220228,60.5092622340741,81.40074350144175,19.652896303738444,-124.9887616030265,25.479227773176344,2.87038050589282,-6.8522700907910705,0.7236601386940916,-4.023351823657099,-2.972388952547803,-3.533688436579461,230
-16.319282502111815,73.70833846348334,-17.470205882257527,140.94434239878018,59.02043157666275,79.7121582625601,18.844683365471422,-126.7669362925423,26.55287832926637,3.6010348675953416,-7.804047850620262,0.7728079520315988,-3.5544043477721967,-2.9676496805899095,-4.020203062630254,231
-14.212698236195967,70.26611947647946,-16.771064793454816,141.36636818870164,59.30791183532606,80.1232714522343,16.40103766876689,-128.55643006233052,28.598611960040056,4.135681538915214,-8.081056986312865,0.9133641134140135,-3.1610040040073537,-2.933685456842699,-4.461853902095815,232
-12.909190139708475,67.55008946595864,-16.735137305692078,141.37018224338797,59.3685339944339,78.55272292078644,15.177039278867746,-129.883679207376,30.435721660131925,4.557406216556914,-8.181350521597858,0.942566751582843,-3.0995392929833536,-2.834096827821175,-4.864524834147846,233
-11.928415009777012,65.31166265475312,-16.678704745730098,142.2820592364282,59.10095123067353,76.88459784730006,13.819389777992358,-132.0845319634952,31.789795175149163,4.836620520012775,-7.893806206406324,0.8283605459525191,-3.6333222455223426,-2.770706072219098,-5.265929529488349,234
-12.321172711662392,65.01622697315977,-15.464457697897608,143.06661524043403,58.57322672362286,75.58662984145707,12.438697507304402,-133.18912677512327,31.318757532574804,4.8834214992079215,-7.357420576568461,0.7572929063426511,-4.196159226153337,-2.6427498071801927,-5.395534213005432,235
-12.89672665279935,65.7107085329061,-15.413437354763177,143.8220794054185,58.10504008671783,74.80237367818766,12.01646642166617,-134.23453656328118,31.499298999842246,4.872038496148027,-6.91695457268899,0.4696882722665584,-4.726216936202082,-2.5263446099134117,-5.501959590214921,236
-13.37096520580711,66.89143697464444,-16.05257314422878,144.2625007726981,57.21954955061338,74.30847149400853,11.983155671483845,-134.62112615389307,31.37109082608167,4.796663815765985,-6.633058686317925,0.11713196232589791,-5.284369584974996,-2.3719428749102383,-5.525445762624054,237
-14.562220092659873,70.64515510582997,-16.40185060727662,144.95854714168402,58.30042990620667,75.70315386151547,13.91329673692254,-135.28840107343828,32.99008420493495,4.52484288594176,-5.904167441292143,-0.1538729539665723,-5.618569767412857,-2.2364595746146128,-5.462717741236026,238
-15.140319037063858,72.64556675321045,-18.1900883327662,145.18030398666167,58.12827211636605,76.57731047791974,15.204547695668463,-134.7927015592096,32.68159881891399,4.212232976460351,-5.393560446294518,-0.39593472950757275,-6.287045483844258,-2.037592304525333,-5.432690396840371,239
-15.921883824524494,75.06232790646682,-20.397875073023727,145.5213932660968,58.775896721235064,77.75245889004917,16.653455819803597,-133.9657428576555,33.53001044951448,3.8081514475728544,-4.696777059655137,-0.6442476255615048,-7.02704361522073,-1.849406835391902,-5.379606342428762,240
-16.702669653729988,77.49821685065328,-22.630317801047454,145.45114705595418,57.874372069687425,77.53581445085156,19.373294033724402,-132.48582290735547,34.11846162272005,3.2500293557095605,-3.7725394253573157,-0.7489712886083221,-8.072657029447539,-1.5398634222003127,-5.207099900331483,241
-18.265973931379094,81.83199999394567,-23.321743122127774,144.87186187712624,56.34731081983042,78.67315997639389,21.024561139134697,-130.65645552300774,35.01252225954877,2.7413606660231027,-3.270126890481257,-1.0137451082478248,-8.80364007873074,-1.2021694544284451,-5.097527575920777,242
-18.736836375386456,83.5950408337778,-24.98775874838865,143.97782282290322,54.65409208926154,77.28703272699984,22.50273892226899,-128.97054564658967,37.95460615897499,2.149304435954879,-2.7455337546866487,-1.1608320548833577,-9.355162050297961,-0.8841555464124885,-4.898191623279177,243
-18.633149761077494,84.50518833287155,-25.815759636169023,143.8212920060689,53.66407407476145,77.81062643755453,22.094611816505115,-128.4964712058771,39.59685210986239,1.5381740949444294,-2.189061999463043,-1.1685503607217138,-10.076195520990126,-0.6585675344116241,-4.572318615149708,244
-17.591381655610142,85.56688986492203,-27.04520757291581,143.57157039128134,51.54717016796642,76.97716463850097,23.796337569648784,-127.77981678881423,36.47314027698814,1.004132396234664,-1.9006174328907495,-1.1088253972575057,-10.438846007811243,-0.5784241319846144,-4.228788566902507,245
-16.561614989504054,85.72394654747701,-27.71722175166378,143.18903124947758,50.39838072082038,77.99324213596697,23.875336359294945,-127.62812792220323,34.58815169295905,0.3560714546555988,-1.6471216013194485,-1.0333569975615617,-10.29293062188722,-0.5382962500693532,-3.816495755199911,246
-14.628455624632522,85.80007831906124,-28.147917861124455,142.95675325929045,47.94687058197302,77.04214627078325,25.29896386662469,-127.99280793962403,34.58815169295905,0.19919486907504702,-1.5448877099986733,-0.9669855897532859,-10.059921569454426,-0.5690169238370344,-3.4750231112455507,247
-12.901389128541185,85.62102793416568,-28.380649164875948,142.63769175799848,45.424106211143894,76.14701513313896,26.751322291945407,-127.98495470618718,34.58815169295905,0.6950499458496844,-1.4579293868526115,-0.8414279088173102,-9.779178884343391,-0.6000761357163888,-3.1952741559447784,248
-11.029922411081577,84.52044146663839,-27.91626516238127,141.92848518440945,44.509653682612864,76.8227141549605,26.53553358520234,-127.57456781986458,34.58815169295905,1.049325907298426,-1.3706237510809263,-0.6569868301607762,-9.154091828666637,-0.6675775411070767,-2.946618641860444,249
-8.529976344410395,81.92435714843897,-28.988815339593472,141.8361151074071,44.15119174520427,75.90710152792202,28.722023562754043,-126.72738348953509,34.58815169295905,1.1492305657810744,-1.1520853989657307,-0.519353845149666,-8.772483697468045,-0.773121638933516,-2.746574966823559,250
-8.573322900516663,80.27808562781567,-28.349994285171224,141.8104507753037,44.07391680566648,74.25085024821381,29.43526364868728,-126.53314011907749,34.58815169295905,1.264227150762205,-0.7068951336861622,-0.21425784780728224,-8.514825546433899,-1.0152199391308423,-2.2649737972088366,251
-9.857146066217505,77.37162935078518,-26.9890036373711,141.07167766074667,46.517868906413476,73.87261512115855,28.873648741773145,-126.86660789101109,34.58815169295905,1.1668116992633324,-0.345384333907501,0.019697349750582682,-7.351765421079418,-1.324095287866893,-1.9492081120363913,252
-13.41701618234223,72.16461710307563,-27.11240777201443,140.3554399400044,50.00600871648094,73.47728916201217,29.204471746541586,-126.1107391116682,34.58815169295905,0.9205904615484174,-0.19989539964077177,-0.0063855384492876735,-5.586278470080205,-1.7621560161973624,-1.6750968841272018,253
-24.235454983767454,68.14368596106227,-24.561029392828498,139.2505311860285,54.47455749062728,72.81460458515274,30.401594786497572,-124.64559817990465,34.58815169295905,0.8403837513332587,-0.44070193403865493,-0.3351872707650026,-3.9188804379017297,-2.3972589683686505,-1.436802379488582,254
-41.490916311511434,64.68711384031843,-18.11208014146,134.88854252166206,61.535639878041096,73.62257658698873,28.034144337476075,-120.09211944331135,-62.361450984483014,1.635516536234018,-1.020684397431116,-0.7689280703297363,-2.489521240940006,-3.1216299063791686,-0.9564900821345985,255
-55.40935659321919,63.148791938473,-13.896404639945596,132.67308552534107,67.04522905707279,73.14382421729752,30.040135315325013,-118.75438612318288,-50.8488547651786,2.8675939828493067,-2.4971070480160025,-0.8915389964128936,-1.5725607614015595,-4.023185869341167,-0.1295340160176364,256
-67.85220297660801,64.1593922017371,-12.454610257899168,129.0963587187498,70.52975817746966,73.98829359010868,33.33405090171567,-116.37035567499883,-45.471174738888735,3.669842923509279,-3.945086431954203,-0.9402280164580508,-1.2935627203650097,-4.685630790809107,0.37322713447190703,257
-75.25681960794783,67.599005081057,-13.002590123779775,125.16228512600075,73.01043219272152,76.1498531350754,35.23843196964863,-113.61342792153758,-38.84266134156902,4.158837466430586,-5.449986977343984,-0.9682640162112837,-0.5657517550811445,-5.299518281709671,0.634780000226055,258
-82.19900938128782,69.54571636201084,-14.325577314498302,119.61711680751625,76.53628225530218,77.05637935100515,36.927019116705914,-112.06451355801023,-28.291415319304733,4.254560469285175,-6.345171771457687,-1.0636224903661975,0.6216865344864762,-5.780661999224778,0.7924116529775127,259
-90.836533623759,72.79869445977272,-13.557624705546202,115.38474823579064,83.20449718950606,78.70027927287306,32.57570059554752,-109.74220124325846,-15.956796996575235,4.807480962567894,-7.456905597187329,-1.1550693834270598,0.9644308959891756,-6.240542214963029,0.6509556996219014,260
-96.65958694718958,75.61558488828854,-11.98126273684528,108.43817593214878,88.58528812115846,78.62374406395357,29.908266091071404,-104.91867304249539,-8.845684821098553,5.473256824126057,-8.759637321952084,-1.3787473256361527,1.6811355130254617,-6.370612004093438,0.885646471186434,261
-101.24661811325235,78.78366339674365,-11.91167810472044,101.11197652014017,92.49579964843464,80.50255399794622,24.74131124147838,-100.40076982478047,-4.50615947746627,5.535272995002761,-9.208365648481141,-1.613748317427334,1.292966391521517,-6.066503976629052,0.698026994230873,262
-101.36105539202143,81.71954517032569,-11.376594919039261,91.02591867808421,92.08818750269242,79.75098808650692,23.836680850735142,-95.41495822731962,1.0641797363834649,5.529043915227402,-10.587556454679815,-2.165109055016488,0.8294429843295449,-5.358313955469993,0.4109599161317546,263
-101.71248454390172,82.98060204255869,-12.740943017704556,79.50533504556655,93.3638672427932,80.29431293165189,20.607528894384075,-89.08222266127854,3.9478694669142103,5.09743916827156,-10.70887275678631,-2.752196946846944,0.27729546724058046,-4.5260034659295005,0.29383021290545164,264
-99.25745083301959,83.9909457108896,-15.880188757511396,73.77323804014065,93.85168202629647,79.55214421882468,20.350037805985508,-86.88835955872533,8.618809975449452,5.567102762803473,-12.534384297411648,-3.3714432855267904,0.27998207473867176,-4.465076517842084,0.3055979863428046,265
-94.46539966607119,84.93561754526397,-18.179064564922847,71.82152441511056,92.98328966257445,80.53357323662338,18.951299249497048,-85.88537480074348,11.614240818094222,5.627890590353246,-13.888290650376291,-3.8023962397151507,0.8014468723294539,-3.9662701254653676,0.4274826241290148,266
-91.89479647624904,85.92543954892344,-18.152467929590692,74.75598777534479,91.83164508295762,80.32932407605679,19.542746618321228,-88.375577880113,12.791354195159984,5.75476390037992,-14.848433316448096,-3.9461122859069344,1.232314665145446,-3.7172322803095805,0.629378498818599,267
-90.35782947514251,86.1716127233337,-18.015682002622277,79.71010277739502,92.67349087027736,81.17152664098413,17.621581947019155,-90.65637928212578,14.122872440466514,6.000000000000009,-15.587751169948955,-4.051888865105008,1.5679206349351982,-3.814628567880707,0.9056342812700202,268
-90.26112289350651,86.06590262221657,-17.497941212881706,83.13706654280921,94.81732185414205,81.90862589502491,15.77354902288358,-93.25675983260909,15.48976791973901,6.000000000000009,-15.618798996331375,-4.111670235864731,2.1530321068602993,-3.965614451785954,1.2986360603220657,269
-89.9574170357645,84.38139857978186,-19.285532112334558,86.1924843364898,95.02966269832115,81.17689522341041,15.413598964382917,-96.43629403483907,16.771012482680984,6.000000000000009,-15.3800232103111,-4.1425400301575,2.311322392922107,-3.8997430198272607,1.519835492891059,270
-89.7779985100907,85.16513780738032,-19.584623019191813,91.24545666513767,95.16486828236806,79.92819304990037,15.05939503982836,-101.17501716594973,19.38915310455684,6.000000000000009,-14.680103937346336,-4.364794073418126,2.7017990361477406,-3.9620054200403585,1.664508670120365,271
-89.91259558977814,83.40385984971076,-20.934705137610667,95.92272713246452,97.81504543065296,79.59516008117374,12.138952076627971,-106.10378572773696,21.416915263202355,6.000000000000009,-13.928529936032824,-4.739961137411039,3.121130572414247,-4.285325763742296,1.9534298832020234,272
-90.41890136166417,81.96966891648711,-19.94646340598474,100.29869934083185,99.7209059255691,78.07879015694732,10.692335216449742,-110.80653632961693,23.665604592223353,6.000000000000009,-13.579460029202501,-4.980858874901668,3.126838803328776,-4.76728080093236,2.1656018323620274,273
-91.88699474642232,82.03553445110192,-17.19687226306515,107.57231982330735,103.63850754555672,78.50338923600417,7.469752303559497,-116.41341964139508,23.61502528616451,6.000000000000009,-12.791653536122658,-4.969822155872119,3.359410094819513,-5.46002482056948,2.620550027037439,274
-91.6098288253079,81.35255675164161,-17.409838655570645,114.02442315335254,105.57841231018803,78.17547456222486,6.443137489033303,-121.46016069276033,24.1364349016715,6.000000000000009,-11.973048638786938,-4.932620562908768,3.1891844048344957,-6.0782576881991925,2.95869759821438,275
-88.74044047207582,80.0996350865945,-16.789714327121285,119.86626109358299,103.20266140924646,77.47432881547746,5.096404826720808,-127.0357636841411,26.354892105703872,6.000000000000009,-11.310041029618361,-4.999771356507565,3.020219237346314,-6.457306966239397,3.142677926971271,276
-86.79445880363195,77.84700332004942,-17.60692462819662,124.06301211676302,104.29273667778007,76.5422211044158,4.494800666433122,-131.83680785340815,28.29127980388656,6.000000000000009,-10.843216249184227,-5.295599378199048,3.566395959230078,-7.073538794949835,3.637436664648798,277
-83.49771105846055,75.75505332599208,-19.201061621584017,126.70992810122334,102.30242117311106,74.55136914095637,5.912951497504657,-134.60736982035536,29.41269991089062,6.000000000000009,-10.281651846652242,-5.354490595633764,3.8614511505394455,-7.300673784328493,4.050930687592962,278
-78.69096492957387,73.24097645216986,-17.02137338976875,127.90219935538974,100.34491522572766,74.13272497926185,5.164080809857931,-136.9574220162538,31.350112868321343,6.000000000000009,-9.75836215970905,-5.199232575834768,4.247859409738695,-7.345922537724124,4.463755498139839,279
-76.92000515454534,71.03821681036933,-14.697902882283325,128.15296586061652,99.64782186746079,73.38444061053333,4.331167156283698,-138.39023572244662,30.44041529292802,6.000000000000009,-9.047370994010565,-5.138400777305982,4.850236126597547,-7.55934564208625,4.920892995163235,280
-75.53065952930167,69.50488569126908,-14.011417630057679,127.49907210270261,96.8849914707722,72.64050478963388,6.355721777052472,-138.92852128522028,29.701421829800843,6.000000000000009,-8.557158589608719,-4.869582213896402,4.7741139582208865,-7.429718484966882,5.26066056542819,281
-74.72788146223078,68.52038528385717,-13.445676850958911,127.63606191234376,96.21170266910727,71.3526524880985,8.46286518110067,-139.31676137615344,28.438251110329695,6.000000000000009,-8.450801941601123,-4.629278810626356,5.056641311524432,-7.426520675039426,5.601310762260179,282
-73.75115761285915,68.68276071901113,-13.917416821925567,127.10403234036423,95.75025970808906,72.92116731141915,10.905116968362323,-138.495214704442,28.206833820586567,6.000000000000009,-8.388099115954452,-4.231047024573865,5.674299257808211,-7.233517662959852,5.7278166550022505,283
-74.58895328173959,69.51829840571251,-14.44757684117697,126.7803031703066,95.30211645282569,74.20024599235926,13.203637215099436,-137.48165323231757,28.272625769071805,6.000000000000009,-7.5133116768698756,-4.09763618870029,6.260355057827289,-6.929400563923892,5.625447525542864,284
-76.14938420428867,72.1791994390741,-13.088048647497084,125.47332888872408,95.48927367465245,75.36713220834231,15.372589671447859,-135.61163505934584,28.945957678507703,6.000000000000009,-7.484412596172694,-4.106764214298042,6.582301877400243,-6.635594912824158,5.508362842762845,285
-77.61853398229552,73.53884110920231,-14.141115289001474,123.09271412106995,95.49468293206323,77.16685170318534,17.710271704070074,-133.0105040258769,29.793741391834782,6.000000000000009,-7.551940390716487,-4.136143377419974,6.377186858335582,-6.224368729074289,5.197768638638725,286
-78.7055465505842,74.05804543532659,-15.367909290172296,120.88359730949216,96.29178059341892,78.85736688476975,18.685289755949025,-128.86548596423196,29.389047431998257,6.000000000000009,-8.045591009377908,-3.8926494595367727,5.627435793296815,-5.767880711374678,5.072076958113376,287
-79.41376086754441,76.36664869830733,-15.384425570289357,117.64016979118699,95.64958744123308,81.09292723081839,19.639532855417286,-124.44920262860353,27.91160312656302,6.000000000000009,-9.479473248453633,-3.36500858409098,4.7795019498600295,-5.245518058312307,5.04454774681048,288
-79.28421876421744,76.8796334006703,-17.593353481315607,114.3744730777144,93.58414205796474,83.52225443707655,19.79058565758697,-119.28385871142937,25.54429265563808,6.000000000000009,-11.629838870466505,-2.718443610337945,3.348187004523972,-4.7868187079046,4.866261339728405,289
-79.60691467982755,76.84193503775379,-19.215379638819343,112.35137281486479,92.9573289474166,85.28678662683583,19.40771963420006,-114.50887802114804,22.296731317668574,6.000000000000009,-13.716016753320975,-1.8961290087124758,2.21688497009397,-4.549657439968231,4.7187918323473586,290
-81.58884558940608,78.0889368129456,-20.668579294619402,108.58682959942094,92.18246473345584,86.08643077341611,18.95516493973455,-109.40956238806969,21.652699332558452,6.000000000000009,-14.219084284475246,-1.6675872216031105,1.3811958555825505,-4.10745111378205,4.164155829835787,291
-82.24221549682551,80.0731211411716,-22.449299441768645,106.22496082134703,90.50425052085235,86.48672391533582,18.637496559344186,-105.99191306565257,24.656025743460788,6.000000000000009,-14.699264507846562,-1.6701037331612858,0.7070756306861499,-3.767434076769736,3.4792122007310406,292
-83.83844840500552,81.6809344888606,-23.593454165694357,106.131780323661,89.92649301889607,86.03708599958064,18.233047723030456,-105.33183871253132,28.777659424455553,6.000000000000009,-14.483061369205384,-1.9319277585609107,0.2407269213181505,-3.5806744900516208,2.7993158057115646,293
-85.55174051949061,81.02590485375633,-25.24493913270757,107.62984978677098,92.53324950625,86.00944698354333,16.06224665292805,-106.85983018521475,32.9805683755433,6.000000000000009,-13.126174354874749,-2.320401560766106,0.5079231680530539,-3.712458282357403,2.2166606975886296,294
-87.66984106597072,81.0842082221335,-24.59290189828756,109.85176883208482,94.98703523968481,85.7746683607668,13.48868630136086,-109.91226116863973,36.66568779084192,6.000000000000009,-11.796941516357474,-2.8098929383442988,0.5541677840590732,-3.9822910825277424,1.6366182107785503,295
-89.36867250840943,80.99152580293189,-24.16823888475701,113.65955893766517,97.39803739886054,83.71013318585531,12.059777775251423,-113.25977816044248,40.44834409068038,6.000000000000009,-10.550275686727987,-3.201815189711594,0.3932120385651716,-4.459559394969462,0.9473450494620805,296
-89.93675066871326,80.64243022538058,-23.075046519104582,116.885246323594,99.02399689705878,84.11062409045171,10.03343732689348,-117.70014240581939,43.25867577807994,6.000000000000009,-9.120065259724447,-3.6964307471039026,0.5622794607500815,-4.829420762238149,0.5388017295901955,297
-88.89050789159302,80.54522590767463,-22.04374532932835,119.44062084831842,98.61527317336545,82.44433522443015,9.283394444506452,-121.59954773952612,47.000390884130404,6.000000000000009,-8.119056782910976,-4.284574336397456,0.6115234153467066,-5.051727440980243,0.11287587526217338,298
-86.13923078465504,78.04645500348562,-22.56658588204677,122.7461123499241,97.12110282130811,80.93822223272551,8.046215179474302,-125.48589001636918,49.36005481500924,6.000000000000009,-6.999193027750657,-4.540047508537316,0.5412734256834412,-5.453302826761521,-0.06330088204431608,299
-81.18135993455641,75.81963320905024,-20.070214280532053,124.22978901521508,93.04578802057351,77.7620145086648,8.118151310319998,-127.70728077926277,52.32783522972196,6.000000000000009,-6.477982392359856,-4.532508814103521,0.4393278016031692,-5.519199613545181,0.005107549902856974,300
-78.43814369849174,73.71495917652794,-17.770214658247337,126.54576396921209,90.9880059226147,76.21108321281415,6.00627245637802,-130.85145355184343,53.59157592730056,6.000000000000009,-5.957682317461575,-4.492919622757406,0.21105787354808958,-5.892171314987276,-0.036767685286777214,301
-71.93347566107643,70.40723735287636,-18.048988389497662,126.57520770574536,85.65945334383345,72.0070585013077,8.220006311857071,-131.35404091097075,55.7445678761671,6.000000000000009,-5.680548508561007,-4.28452172764547,0.08337793660937574,-5.834999877469099,0.16036479554400468,302
-66.77758426810439,69.23701452096887,-16.83544005516278,127.87407426858233,81.71628384562307,70.9836286984694,6.697930325729407,-132.5794484472865,56.791365100739675,6.000000000000009,-5.610411976211698,-4.16827381026433,0.15442156555747155,-5.94663604835595,0.36323216142300635,303
-62.36086503963994,68.37350882159916,-15.704414898631516,127.25856622298029,78.93123845622323,69.94116755203817,5.386525745233803,-133.55256976824663,58.357523100702046,6.000000000000009,-5.752447354243239,-4.120008407777444,0.3051357032321469,-6.011205904886599,0.41170361548882123,304
-59.87266471100907,69.38283985740235,-17.085018596555116,127.9518954991119,76.90314197097365,70.10192918798705,5.472718313007215,-134.27854215442335,58.81751340844741,6.000000000000009,-5.8220613401940895,-3.999850806792526,0.24066603106450069,-6.125170510526288,0.37021210575186664,305
-58.81016370994681,70.80976180022783,-18.786051772260137,128.00169643242472,75.96083497872303,70.08096453271453,5.467069033672842,-134.97249233245842,58.963352372372036,5.9530603407591824,-5.663256783928923,-3.9706476969736193,0.26321523185767737,-6.258253277284376,0.3463779089867814,306
-57.36068174801111,72.43442258701651,-20.447053086974815,126.92481589394265,75.51970438031351,70.28528417734867,6.02914031992621,-135.11682225527628,58.5863547792329,5.663851255515575,-5.819564537068286,-4.021182146861447,0.4423197973874826,-6.297758924470843,0.344759698378149,307
-56.74108826860694,75.06871542078748,-23.11064169813766,125.65651332669736,74.89981951075967,71.11976149326958,7.400730204807222,-134.50428703767668,58.044350727042385,5.268835564282716,-6.097906070535509,-4.10467015727692,0.3839402788738674,-6.360252325826545,0.2793516444437469,308
-54.58095434544386,76.18188460681834,-27.66612180263884,123.32505700199346,72.8846699979967,72.74294924713615,9.536460390139268,-132.79865948374865,56.53663216845404,4.807280174344129,-6.754619967435685,-4.098301459712996,0.22953456755634527,-6.2647946503675485,0.27242845799818577,309
-54.40939012751213,79.03608504901497,-30.126492237959717,120.28617354235622,71.53938382260426,72.51444457892913,13.31912879023975,-131.15480417898942,53.43103759924285,4.4801239914922535,-7.332528484570074,-4.098328614667589,0.17670947497729708,-6.217657613110964,0.22694098699809798,310
-55.77167451817284,82.25712652103863,-32.496176488984744,117.08101709589965,71.51873391545985,74.32874704191433,15.76642358243787,-129.64116206945548,50.220953863275675,4.408237925880008,-8.031514214239431,-4.244072013629909,-0.1107796668952906,-6.127309166320462,0.0409024639847384,311
-57.46695835053025,84.279652049139,-37.01374095972125,114.65333288028378,72.40899984945548,76.82224534038764,18.48075243922719,-127.41424023318046,43.9380524600767,4.287929038516942,-8.685111403573663,-4.413269389577905,-0.6559984637358515,-5.897364825180459,-0.07208488045284316,312
-59.139271820158264,88.00833377154142,-39.740731962960446,109.98335826850575,71.48683691415522,78.51446075479181,23.192014333557754,-122.30835900298305,35.424216300896035,4.008476935227203,-9.740772389532586,-4.458039173202814,-1.2681428627659181,-5.405846958040657,-0.12721291998657186,313
-60.47581258858249,89.11859047116201,-42.544937337861064,103.49452922408493,71.72592578491108,78.84336537676324,29.495462285906388,-117.3865742367282,26.55795035710104,3.941195082745694,-10.411070244208327,-4.589146316470587,-1.5057778751365432,-5.054356661823343,-0.044393880625277216,314
-62.97284314267345,90.12487655873811,-42.57241415303392,96.65270851084391,74.04867028914994,80.06727086933999,32.75429697442032,-112.84729692016205,17.190067038211676,4.294386505473803,-11.827313693146158,-4.651985205504139,-1.7700259738734916,-4.889407563100589,-0.05977181922104844,315
-65.17515400266751,90.42152915908869,-42.09376781070022,88.48728240093816,75.41195137532006,81.42520453158619,32.58968481773845,-106.53068824108425,9.74276459896462,4.857313593138578,-13.858333694398622,-4.516617757715812,-2.180414037780766,-4.790024429217661,-0.4107418987081703,316
-66.43686373617231,91.02937832077387,-41.3892625589117,78.78127626277015,75.82431175314659,82.49455654420213,32.08572037236661,-97.67363175705705,8.915785644976369,5.346206164349498,-15.598537580880617,-4.447978557855421,-2.4715290436790807,-4.502440165237886,-0.9227096181278186,317
-69.33554162105585,92.03914094769516,-39.330707195303276,74.27142975533883,76.90205404758474,83.181790732083,31.554718779619268,-93.03211015535689,5.892849091422865,5.893784367640841,-16.830782464606354,-4.330188067359915,-2.78001809767201,-4.416106549256402,-1.2854678257217755,318
-69.96913460210813,91.0119300462368,-38.070729496741706,63.25962966538005,75.64138442679197,82.8389054381752,32.66502528777567,-82.94162868541214,5.644878488837877,6.000000000000009,-17.468831963320692,-4.193753247236702,-2.9708940235707515,-3.952345704991592,-1.5567429383382316,319
-74.1721757670241,89.29263638217655,-35.25571258435236,52.39172063224158,77.59474484565223,83.91502885659574,33.58275841914771,-71.48932055036724,1.8831488228364315,6.000000000000009,-16.490847567581643,-4.103150883961677,-3.5903899960812216,-3.9243154187942695,-1.56078048702957,320
-74.80006582315895,89.19042847542067,-35.80543039962256,39.11253348034342,75.49315856265021,85.04749920308713,38.36434727982522,-54.458064606206115,-1.818268502273053,6.000000000000009,-16.473560954512372,-3.851967334255795,-4.427751552066704,-3.421551887537134,-1.5976799126843486,321
-75.49929760912403,89.06926595659164,-34.61042136352208,33.03469102562103,73.13964605872373,88.3136968415302,37.76972390108861,-38.964061329231605,-4.135749181282057,6.000000000000009,-16.661074353891163,-3.3157492535052278,-5.565968795923958,-3.001991857367573,-1.858717167313997,322
-77.67256966469844,87.84609503319169,-31.258806457708385,32.7801726329348,71.103327337439,90.406594933373,36.487379144251044,-28.298822862089697,-8.71611232719273,6.000000000000009,-17.119974280499328,-2.5898858762334207,-6.915953069308617,-2.6674037985717334,-2.0321187703911603,323
-81.2994484824856,85.98352648467622,-27.384258955255852,37.62904909017682,73.6391969987234,90.57723780615892,33.149095893339044,-28.29882286208972,-13.053097043074644,6.000000000000009,-16.73049584431361,-1.8697796519515257,-7.8769963773053835,-2.6108507885326255,-1.8971563404588732,324
-85.99368423113286,83.49686584127075,-25.426950766549094,47.56353218003045,75.39321186808664,91.0497382934616,32.391585168153384,-28.298822862089825,-16.492446099477874,6.000000000000009,-16.00217261436819,-1.1444722489799564,-8.610577314454256,-2.941727047141932,-1.6872911141731322,325
-90.21879709657142,80.5803288065242,-22.80345550287435,58.737670829118606,77.87558851520289,90.45148674288235,29.243811901220035,-34.82451128244722,-21.105446489625905,6.000000000000009,-15.838546414759097,-0.6411432444141533,-9.318145898092842,-3.4255342943718268,-1.4223271409393887,326
-94.42289443797134,77.17883903102674,-19.332874284605687,71.09659898415308,81.58762015475767,88.26912334732204,28.294530461902255,-48.59088722597299,-23.672987542760826,6.000000000000009,-15.52740457845116,0.07627056529105623,-9.919273046469424,-4.3935512405520445,-1.1570689176145423,327
-99.38462845036996,75.56003799357588,-12.720170407888208,83.81094877999934,86.11771966347007,86.75824476878294,22.49664778913322,-64.48900034482493,-26.05018551033435,6.000000000000009,-14.845989716826478,0.8922050627337307,-10.16910041849874,-5.388084922946463,-0.876322941394882,328
-105.23214585902132,76.13054130170886,-3.788438805371507,92.56497574535739,92.40085327044795,87.27593605847959,15.765395628996286,-76.4500269483576,-27.86983321770156,6.000000000000009,-13.814369309376044,1.4910434990876138,-10.138938060924803,-6.245994975996541,-0.6021082130407561,329
-108.99657710395238,76.31790163144916,2.2683558768202463,103.2847288144883,97.32919640634357,88.00000820811118,10.287449311566919,-89.33392441040085,-29.4042160608816,6.000000000000009,-12.579585867704036,1.9396889685478491,-10.49508678839922,-7.0654025275552,-0.3259461991911733,330
-111.37192946916277,77.17904113509346,5.716442609292986,112.34203587795234,101.85066067940697,88.02702450161037,8.010166019390525,-99.82815356870105,-31.391004120687477,6.000000000000009,-11.191880292136283,2.3301514819123725,-9.880458954361487,-7.685649721007118,0.019377234105265186,331
-112.3135555751352,76.61600091645492,7.135087938940455,119.9407591884409,104.41327827060313,88.7407571405625,6.425572132931949,-108.23804275208553,-34.13721817556545,6.000000000000009,-9.951755903106147,2.6263434866004975,-9.00965755802312,-8.09816941343808,0.4731484221219462,332
-112.12856783019498,75.54371484032302,8.303711344083382,126.39377511757098,106.29626478987126,88.18002903372681,6.921341555457628,-114.73233665800299,-35.94885704113082,6.000000000000009,-8.263982772975588,2.720306922603544,-8.269619813421913,-8.364830815697296,0.73457935638822,333
-112.45721540532486,74.69607341288709,9.188850568414937,131.79179995550786,107.49669868077605,87.5090362638253,6.982951917942139,-121.18035090159171,-35.56122642540854,6.000000000000009,-7.25831473407849,2.349164121650246,-8.193508427666163,-8.766942958655143,0.38669163918449295,334
-112.54726770883372,73.83093934133083,10.372308823577875,135.41538510702813,106.72436375077406,84.65197052880369,8.48311834530152,-125.68109290841305,-36.64652056619694,6.000000000000009,-6.624175730276336,2.108678575658398,-7.772145879037258,-8.911147269176995,0.14026963401180734,335
-110.59959098327677,72.14048825788394,11.048371912243356,137.3479769407931,103.93004046939639,83.34933257391309,7.796930307288524,-128.12336622235355,-37.813999230092925,6.000000000000009,-6.160849442713235,2.117821185851545,-7.395679619955333,-8.944867657252273,-0.11881958662558119,336
-108.24466755706702,71.28374965646351,11.212354193323055,138.5472925432039,101.262016961503,81.18372093482023,10.162133218716152,-129.77832115645919,-38.96393563916186,6.000000000000009,-6.186445355589815,2.134485835870603,-6.772697943006743,-8.864466320147926,-0.3205279711703651,337
-105.38988753394122,70.30883891506649,9.353383562703527,138.83981129533888,97.45963538909486,79.14299849760029,12.162089929239123,-129.97323967019597,-40.208283585327855,6.000000000000009,-5.898107625969201,2.2316338957273585,-6.595235879592967,-8.598636659490634,-0.6428758892611102,338
-101.87271108240274,69.78332836979446,7.07163161229024,138.65290235642783,94.17460406290454,78.70134242059834,12.665095491413071,-129.89117063808152,-41.09593870869308,6.000000000000009,-5.4916240702215315,2.0835908702183557,-6.309687315938261,-8.391633002811338,-0.8675837356454861,339
-95.94368010179367,68.82432292574826,1.3131717993410117,136.50598615984447,89.16796568343878,76.8524190275961,15.451553029537852,-127.41762077778884,-42.53006495481574,6.000000000000009,-4.885973086567911,1.6481642927160312,-6.2668205241303365,-7.835228147035702,-1.1037441611268777,340
-90.90060792578063,69.035110775112,-2.1809654134444156,133.85326437216932,86.13753992522152,75.98281707548955,18.880871113440644,-124.59500115486834,-43.68830131430054,6.000000000000009,-4.315981260231964,1.410339428626567,-6.111241876887295,-7.495638112970346,-1.1951493532151576,341
-85.7263550349122,67.24213758005472,-7.118136496741599,129.783106391308,82.56734030915395,75.02475782040253,22.03701990599471,-120.49899746819145,-44.3961126980726,6.000000000000009,-3.8205241308458335,1.1648362449927498,-6.1670100859301975,-7.03084379498119,-1.4479983748143073,342
-84.04519331319915,68.54181913087835,-8.201838645816961,126.46205641642678,79.71779792986081,74.27220330123811,25.250340527535325,-117.28392672204656,-43.3247407400608,6.000000000000009,-3.9577672581703895,0.878284521614662,-6.408172903425419,-6.703679571566778,-1.896197080201029,343
-82.40197357098702,67.98575730887943,-11.213883230297883,122.9276596157385,78.02011929702302,74.98775624547577,26.076497019581755,-113.08379256153944,-40.84539056402664,6.000000000000009,-4.285482631291007,0.6808515793647157,-6.706686683264863,-6.443053487145095,-2.315100052944833,344
-81.36489765186555,69.67984494215595,-12.658361667551237,119.82204225964874,77.04165314300175,75.72015373012238,27.101049849427984,-109.61820918562753,-39.2360366279845,6.000000000000009,-4.5454129577183435,0.34531134297095356,-6.726073337153587,-6.058021388711176,-2.5722818134347523,345
-80.64766001640773,71.43941143561989,-13.93303880416071,116.63579068429809,77.17345488941478,76.78718228894384,28.45166419421617,-107.07717371034747,-38.19411629885205,6.000000000000009,-4.995580981581359,0.06890498574077615,-6.348280280107283,-5.6969769260187535,-2.7142652773022613,346
-81.33176980225905,72.8264982704673,-15.465629583259785,113.16249742128453,78.32299491996012,77.82185038288095,29.0731908103252,-104.03408058803637,-38.59007846154647,6.000000000000009,-5.14498401397248,-0.23546562765294282,-6.320029400277388,-5.280090372071263,-2.6582685245709534,347
-83.31781338953823,75.55128095778613,-14.738478126173405,109.58794321945088,79.27886606531557,78.06405785358125,29.26695415509718,-101.86465398468106,-37.24868536476213,6.000000000000009,-5.744846372354941,-0.6875563165111822,-6.321119130165153,-5.010928401522077,-2.6718076992104,348
-86.31945600469518,78.45315768382862,-13.92791715981293,106.85271150888923,81.1747396054378,79.20665635453584,27.404604105638523,-99.65428294900246,-35.5524795420436,6.000000000000009,-6.511757412732696,-1.2922914533636396,-6.093682382239018,-4.924638050678035,-2.6706998084887332,349
-87.07380831420106,80.27102558154702,-14.590611903190567,104.4732744008457,82.7840354071227,80.65652394328401,26.337653689440998,-98.06475837599358,-33.48552600689541,6.000000000000009,-7.617171705465749,-1.923325993430632,-5.317140842741512,-4.761051618760061,-2.5350597443937084,350
