JMW9912/AVATAR/install/dynamixel_control/share/dynamixel_control/data/csv/poppy/2DoF_Ori_Adj.csv
theta1,theta2,theta3,theta4,theta5,theta6,theta7,theta8,theta9,theta10,theta11,theta12,theta13,theta14,theta15,frame
-98.22452303326037,85.08099439795865,-4.311110495668683,28.298822862089825,96.71309616152853,86.19261092512725,6.0695689156635515,-28.298822862089697,-44.36274582017552,1.217743553030377,0.0,0.0,0.0,0.9407846655431922,-5.394260697766086,0
-102.92226286383345,85.29060250048366,-4.174214707606565,28.29882286208985,101.34716404046647,86.54789213857292,5.436565433413573,-28.29882286208972,-40.014119157569496,1.391546291127158,0.0,0.0,0.0,0.8047609780248834,-4.020756019123267,1
-103.86003570365652,85.98797068168881,-2.830291442178454,28.29882286208972,102.46926670219736,87.64004538385743,3.187531501246271,-28.298822862089825,-36.17143211966845,1.5147464024239259,0.0,0.0,0.0,0.707577401539882,-3.7221333760196615,2
-104.07232474859487,86.21159765583043,-0.40530232045673453,28.298822862089697,102.67397335193488,87.3988591492934,3.130918927783602,-28.298822862089825,-35.072248697778214,1.5449066731001921,0.0,0.0,0.0,0.6967825822656778,-3.3344578240063125,3
-104.83112461776626,86.27877805861826,-0.42904955202654005,28.298822862089697,103.4212934941744,87.51049462747272,3.146931107625273,-28.298822862089672,-34.29902449964612,1.5726778109002566,0.0,0.0,0.0,0.6745033936388342,-2.980662532835211,4
-104.65969731238584,86.25117908523131,-0.4202321206825349,28.298822862089924,103.21507380202691,87.54418274380909,3.1571229010146293,-28.29882286208972,-34.71113875445057,1.5462505782176776,0.0,0.0,0.0,0.6598041457471353,-2.635578092853734,5
-104.44277836291155,86.24128018631873,-0.41590064469939686,28.298822862089697,103.01001128519593,87.52963457260837,3.156183890365015,-28.29882286208962,-33.48236667410579,1.5623404380497004,0.0,0.0,0.0,0.6743307378597617,-2.52351935169494,6
-103.74279016926619,86.37829535135504,0.44691292537297095,28.298822862089697,102.45799411693977,87.49104705319566,3.1542673867111346,-28.2988228620898,-32.02015371383852,1.5733903219723075,0.0,0.0,0.0,0.6972478293374569,-2.3579233379181206,7
-102.61485703673743,86.31715289403337,0.3850332890294001,28.298822862089875,101.55172112010544,87.39643545749652,3.144774771851519,-28.298822862089647,-29.901343647850506,1.6134942566088317,0.0,0.0,0.0,0.7179918815417982,-2.295288523898935,8
-101.22240683532029,86.35954702060805,0.26060836426014544,28.298822862089697,100.25012860725646,87.1871427831112,3.743048582989732,-28.29882286208972,-28.547241141521415,1.6599836926446674,0.0,0.0,0.0,0.7507954779912049,-1.9925034498042995,9
-98.3550624077076,86.02180067693514,-2.3324378281131857,28.298822862089697,97.85104001936394,86.75300369134118,5.534556989664511,-28.29882286208972,-25.971676497642687,1.6860784100117516,0.0,0.0,0.0,0.8269521751846037,-1.7245376917587565,10
-90.09397805636972,85.510182082978,-7.465572536324459,28.298822862089697,89.49743359691152,86.19114455521246,10.504096664782157,-28.298822862089594,-25.57271207905192,1.6709669133544436,0.0,0.0,0.0,0.9040108899418949,-1.5020805447095695,11
-78.31362606619358,84.71369908421428,-14.430588780142484,34.578951167202256,78.91394876190122,85.26363154585327,15.430794641660105,-37.6950254592615,-33.82262097670907,1.3390715978717218,0.0,0.0,0.0,0.9150377694217615,-0.7417142413019547,12
-64.25731422950184,82.38660344605884,-21.096365630471087,34.260276380761226,63.63425797124438,82.79241319211205,22.58209959555632,-36.48041064508121,-45.63795403856075,1.0984046731747872,0.0,0.0,0.0,1.0316382144467882,-0.574832131743727,13
-49.662577887772734,85.44393948231667,-29.063701786894548,28.298822862089697,47.77260502886967,86.3081920360703,30.99664782450489,-28.29882286208962,-40.92479247662328,1.183507694804564,0.0,0.0,0.0,1.093990327920693,-0.5054448083820869,14
-33.66814723450397,85.27329196428194,-33.812690514344936,28.298822862089697,32.434416272991584,86.5130372949828,36.08838506007505,-28.29882286208985,-60.07895072401475,0.879124329136081,0.0,0.0,0.0,1.0894408723970486,0.6192438761249268,15
-24.977011908065116,85.10831391775187,-43.57052004730519,28.298822862089697,24.007467144044615,87.26288493752638,46.028316654351286,-28.298822862089697,-90.0,0.7907365377080716,0.0,0.0,0.0,1.0824764488248422,2.642302624018474,16
-16.008412451541517,86.55586811945507,-41.31575240786097,28.2988228620898,15.333029817716747,89.07186823986386,45.19577219104479,-28.298822862089697,-90.0,0.8208320629822671,0.0,0.0,0.0,1.0911744735760116,1.5794286046644677,17
-10.02177722419294,88.98064048817871,-33.759594815135564,28.298822862089825,9.11917857267574,90.74881133746113,39.78043174013453,-28.298822862089594,-90.0,0.7667852830585659,0.0,0.0,0.0,1.0574791209127212,0.21754968016046303,18
-8.450470586939597,90.70743239837743,-28.919539317531687,28.298822862089697,7.853409090699612,91.96421869678979,34.837213353649204,-28.298822862089697,-90.0,0.7337242475446297,0.0,0.0,0.0,1.0677101013346482,0.25168195966211315,19
-6.459062088961983,92.57710696906122,-26.406959578528287,28.29882286208985,5.8388152339097354,93.27256973297933,32.12439025873791,-28.298822862089697,-90.0,0.7318771607533223,0.0,0.0,0.0,1.0549813238013683,0.6485520272887366,20
-3.960346890410229,94.26967518503862,-23.827808099200613,28.298822862089647,3.8596044565179146,94.66279183393735,29.403461678547753,-28.29882286208985,-90.0,0.6811707193150139,0.0,0.0,0.0,0.9876042851790731,0.5189777744225411,21
-1.8031148464307762,94.7529177656758,-23.442001168491657,28.298822862089697,1.5014459454323184,95.01842757313027,28.98226628662915,-28.298822862089825,-90.0,0.713922165394409,0.0,0.0,0.0,0.9900283967522362,0.46123385689798096,22
0.04481706904160964,94.90930773178424,-23.46642364798132,28.298822862089875,-0.10706820434494141,95.23352705568465,27.98288418460407,-28.298822862089647,-90.0,0.7234665082816664,0.0,0.0,0.0,1.003788849609313,0.6506547302572133,23
0.8641017545772647,95.30720036872684,-21.07514423339882,28.29882286208972,-0.9009993747796188,95.52629130494128,25.643250544053124,-28.29882286208962,-90.0,0.7356431542026323,0.0,0.0,0.0,1.0402709352170774,0.7390999145766708,24
1.0562277504949569,95.40971006699952,-21.04730928054587,28.29882286208972,-1.1416558015146239,95.51137386188414,25.689179249201665,-28.29882286208972,-90.0,0.7282964159058033,0.0,0.0,0.0,1.0903217734176247,0.7758961237203797,25
0.6407898445795289,95.37967867887761,-20.99963167049228,28.298822862089594,-0.8068900864066312,95.44039441546487,25.71532569384555,-28.298822862089697,-90.0,0.7258155786582839,0.0,0.0,0.0,1.1298434794215675,0.842945327137977,26
-1.390803036281106,95.04272995256876,-20.890107191562024,28.29882286208985,1.3154496570456413,95.00295568603221,25.66327198358744,-28.298822862089825,-90.0,0.698999950122208,0.0,0.0,0.0,1.1604773293827029,0.8686857083820322,27
-5.680601026752422,94.81852018963878,-19.113940877132137,28.2988228620899,5.281217890079836,94.48095504371844,25.02880967819257,-28.298822862089594,-90.0,0.6680432681688814,0.0,0.0,0.0,1.1999985086213727,0.5202982171862892,28
-9.369841482438936,94.50555823750287,-19.655839971379727,28.298822862089697,9.049565785755405,94.4797540667536,23.35397627709274,-28.298822862089697,-90.0,0.6836506289735818,0.0,0.0,0.0,1.2595739085752793,0.08612794331707252,29
-11.282267608946983,94.1623521015556,-19.854056954044776,28.298822862089697,10.704160992988186,93.62696165912868,26.0275728409165,-28.298822862089672,-90.0,0.7221733695347028,0.0,0.0,0.0,1.31670782072028,-0.1144265458686899,30
-17.525275813009518,90.70115100114373,-27.09478378575985,28.29882286208972,17.099662611845638,90.44480074018263,30.9365813325416,-28.298822862089825,-90.0,1.0610734963307271,0.0,0.0,0.0,1.3055257387257417,1.6518155533358816,31
-23.229546913349346,90.52289262379863,-27.113958641114248,28.29882286208985,22.826041524158693,90.35660186071978,29.79881534650502,-28.29882286208972,-90.0,0.8916223357232428,0.0,0.0,0.0,1.3622124740126798,1.3416443400273046,32
-31.524758720367554,89.04967692882735,-26.889469142955416,28.29882286208985,30.916874300006242,88.7797075807844,29.424074730312277,-28.29882286208972,-90.0,0.7440567876932331,0.0,0.0,0.0,1.3511994021939386,1.069025163285883,33
-44.14151009663914,87.28214748574233,-21.74696119526569,28.29882286208962,43.69514421727559,86.57943849116229,26.383108922501474,-28.298822862089672,-67.64227632681244,0.7025409236617044,0.0,0.0,0.0,1.3394186309486233,1.1923024577197772,34
-58.88199007519791,85.07095164803886,-16.537367083664044,28.298822862089647,58.27105022307074,84.62368313285687,20.83107005476018,-28.298822862089697,-36.072761637404476,1.2012278454573542,0.0,0.0,0.0,1.3542453173043576,0.2645648541217414,35
-75.65825278434876,83.5197806449718,-6.584854452433247,28.29882286208972,75.377437712933,83.05271385306354,10.236982551545482,-28.29882286208972,-26.992252641900816,1.573491146328661,0.0,0.0,0.0,1.3580569414393662,-1.068554345297089,36
-89.60337566582106,83.72300335102176,5.439889204004096,28.298822862089594,89.51987474697636,82.97706568079265,-0.026431663776833758,-28.298822862089697,-22.964190849402012,1.7957859427031408,0.0,0.0,0.0,1.3497415196594926,-1.7525421470736,37
-100.63939920021294,83.59678615955,18.126681211231602,28.29882286208985,100.59336130313824,83.53215455906113,-14.342527492533666,-28.29882286208972,-26.89700455414058,1.6069353274973077,0.0,0.0,0.0,1.3160450362597274,-1.6481853426751476,38
-107.28500292496285,82.44775469218003,29.72342102532795,28.298822862089825,107.67178011526339,82.64960272765188,-25.90256312735885,-28.298822862089697,-36.49973462423407,1.2271747800547457,0.0,0.0,0.0,1.2443785092385158,-0.9461838961535329,39
-111.79520080146337,78.93524856079857,37.21720300967599,28.29882286208972,112.9253533673349,79.2578843801546,-33.59783937071454,-28.298822862089697,-59.40300734241493,0.8357023878319537,0.0,0.0,0.0,1.2506545408784773,-0.29416726599360044,40
-117.78885140300082,77.61513949705413,42.611379175304286,28.298822862089647,118.47314900983847,78.3639372443221,-41.198684988711065,-28.298822862089544,-85.75818799877268,0.7143678010937854,0.0,0.0,0.0,1.2979619218853002,-0.0947221911586279,41
-122.59023828454596,76.57920793466636,45.1688250731822,28.298822862089672,123.44393322362659,77.7243141487659,-43.197162738982755,-28.298822862089594,-90.0,0.7922434401763415,0.0,0.0,0.0,1.2456664773620594,0.21934934088132435,42
-127.3468371631662,77.21887516902102,49.170211124883856,28.29882286208985,127.7764391333211,78.64656189053369,-47.80677170399986,-28.298822862089594,-90.0,1.013121678730128,0.0,0.0,0.0,1.2058784326386525,0.4230897031951701,43
-129.86781495509234,78.08436783288846,49.0133571484403,28.298822862089594,130.0381040943514,80.14112961275764,-47.578457643029836,-28.298822862089825,-90.0,1.1525622601487964,0.0,0.0,0.0,1.157932049463778,0.46480377017491015,44
-131.2636544327078,79.41992238963371,48.79844314989175,28.298822862089697,130.99263941687457,81.7195757597922,-47.32271860365492,-28.298822862089697,-90.0,1.244079030320529,0.0,0.0,0.0,1.1284200009244398,0.4740455557060161,45
-130.73579222032424,80.51801539258207,48.66101027660961,28.298822862089697,130.27897771248382,83.10112690605428,-47.066437543933986,-28.29882286208972,-90.0,1.2155826147561188,0.0,0.0,0.0,1.0877914277243792,0.5572812627648609,46
-127.41889237488132,81.98188019758007,46.144911741613605,28.298822862089697,126.87817456257386,84.33078115496875,-44.4219246271572,-28.298822862089697,-90.0,1.0391500987498203,0.0,0.0,0.0,1.0795025007968067,0.507182377371842,47
-121.73658237819441,81.54143497740093,39.22648697432998,28.298822862089875,121.53175679204783,83.68107450132219,-37.246102013997216,-28.298822862089697,-90.0,0.8301942208913576,0.0,0.0,0.0,1.070382643174331,0.12127133021084122,48
-114.9361102790473,81.46198134033115,32.05869607453561,28.29882286208985,115.29912852374964,83.10049516572315,-30.006877467427937,-28.298822862089647,-63.09266065959221,0.8923921407683614,0.0,0.0,0.0,1.0868534646876469,-0.49111552423039806,49
-109.75300343618474,83.36402290626846,27.633825040001145,28.298822862089594,109.09534315458622,84.32976302077034,-25.77483440650802,-28.298822862089672,-33.72511049204437,1.4623064615675858,0.0,0.0,0.0,1.082968786859625,-1.6691298831320887,50
-102.62364337630859,84.30770484363575,20.94167699813109,28.298822862089697,102.43232164582723,84.64520953627525,-16.975930187865952,-28.29882286208962,-22.829637365307946,1.9947028554589283,0.0,0.0,0.0,1.0913806783531497,-2.3570529132138143,51
-94.81166558793649,83.94662639908965,9.838555446110819,28.298822862089697,94.04322069647559,84.35279743445506,-7.283756392030002,-28.29882286208957,-21.46005999471155,2.160603722558118,0.0,0.0,0.0,1.0957783019621978,-1.9983136046209502,52
-79.61333051406302,81.00460117297506,-6.147589262065882,28.298822862089825,77.1843180712247,81.16730312886095,9.725622013326522,-28.298822862089697,-29.816643680277554,1.614791636922883,0.0,0.0,0.0,1.2389749667776226,-0.7546003433674926,53
-63.6466357303028,83.3465305349931,-18.522983083272194,53.689670867828376,63.39408811262141,84.03966047136552,18.26448738031278,-55.98109147222608,-52.610724626736946,0.9859530958827236,0.0,0.0,0.0,1.2367535015142486,0.4975533168126733,54
-31.587849979493022,79.15240413195806,-29.687524548145767,51.763572129272006,30.498905297194522,78.10200523721589,31.896370474324566,-52.21461342787904,-90.0,0.932368302095132,0.0,0.0,0.0,1.219044435822845,1.2288700061049702,55
-6.919029142606663,85.1978136577541,-38.40971769324009,28.298822862089647,6.183916674352003,85.17304020130855,38.605229962939674,-28.298822862089697,-90.0,0.9292059004680867,0.0,0.0,0.0,1.3066223791367706,1.0665679429348964,56
-0.3954679415953156,89.88706518480797,-29.452264414284546,28.29882286208962,-1.022989787437682,89.22843602497898,34.449290346657115,-28.29882286208962,-90.0,0.7956143279691164,0.0,0.0,0.0,1.339994276034916,0.607282215640008,57
10.43890523411939,89.58834028645991,-29.48826328027152,28.298822862089697,-11.668079429380988,88.73168436546138,34.260007664177735,-28.29882286208977,-90.0,1.304513174186541,0.0,0.0,0.0,1.3159265485411233,1.5912798802208457,58
17.289159273506076,90.48025937622904,-27.311576123756964,28.29882286208972,-18.12803702200546,89.92724870099829,31.9460031036359,-28.298822862089747,-90.0,1.4526196467220414,0.0,0.0,0.0,1.284982218242514,2.0597092128250036,59
23.997428096634835,90.96373504160886,-25.055814029896354,28.29882286208985,-24.66141451297791,90.50996826361566,29.518026862500378,-28.298822862089647,-90.0,2.1756479463059875,0.0,0.0,0.0,1.2690968983507847,2.538828393440051,60
29.44184349371922,92.29744223548494,-23.000147114075954,28.29882286208985,-29.963900697658914,91.3727979578985,29.57025003757183,-28.29882286208962,-90.0,2.375665908864353,0.0,0.0,0.0,1.2123072110020316,2.513922669807217,61
31.4662398243559,93.79731701551145,-20.901447966600255,28.298822862089594,-31.854326738075205,92.94146500528088,27.405051724644217,-28.29882286208985,-90.0,2.5505568380105164,0.0,0.0,0.0,1.2029982286164371,2.475548346053741,62
32.8607579998345,94.66680139696534,-21.107052628820703,28.298822862089825,-33.31116900790165,93.86576241814788,27.568135859658277,-28.2988228620898,-90.0,2.729814355698336,0.0,0.0,0.0,1.1991777077733667,2.7058512145955262,63
33.561407105783786,95.40844545948374,-21.26401481245376,28.298822862089697,-34.06514744455609,94.58858616497362,27.712860708981534,-28.29882286208957,-90.0,2.815621043885055,0.0,0.0,0.0,1.2118570458252693,2.8652174394493453,64
34.28239402929762,95.13881783545357,-23.63935515919391,28.298822862089594,-34.53999515798644,94.70154255460493,27.745558447440988,-28.298822862089697,-90.0,2.864183618191845,0.0,0.0,0.0,1.2358619286180716,3.0251531128070837,65
35.16464055588007,94.84246118721883,-23.57084644668824,28.298822862089825,-35.330800784121735,94.28755929851941,27.670092489886123,-28.298822862089672,-90.0,2.963654740694841,0.0,0.0,0.0,1.2665869272314159,3.3006374698362175,66
35.91408861935495,93.94848330609204,-25.811249540224797,28.29882286208972,-36.217374672854675,93.38619000104963,29.93663052899408,-28.29882286208985,-90.0,2.9980873784663484,0.0,0.0,0.0,1.3021256692510959,3.3111838015360826,67
36.157989740493434,93.68743159753144,-25.72337833065179,28.29882286208962,-36.51621079429187,93.04588886210236,29.90317720253794,-28.29882286208972,-90.0,3.0476022732593884,0.0,0.0,0.0,1.3592164016897779,3.3966113484513945,68
36.24391287925952,93.4046696377141,-25.645862487490646,28.298822862089594,-36.5609210821939,92.79428090041249,29.87449439244761,-28.298822862089825,-90.0,3.0633269321007432,0.0,0.0,0.0,1.3912931548542238,3.3573131578205286,69
36.5258190965408,92.99185997573537,-25.559191007921893,28.298822862089697,-36.65954427886054,92.3761661859362,29.798653132901585,-28.29882286208985,-90.0,3.146300761325693,0.0,0.0,0.0,1.4040970686293026,3.297519824837097,70
35.730628973618224,92.81444503833802,-25.487970448676986,28.29882286208962,-36.24699551350507,91.85796838992363,32.166836887501866,-28.2988228620899,-90.0,3.188799262935783,0.0,0.0,0.0,1.4340445076151005,3.2431159620962178,71
33.81733369866135,92.47600441178807,-25.360218875919717,28.298822862089672,-33.9693525057913,91.78163754852316,29.77571709921223,-28.29882286208985,-90.0,3.282694253399616,0.0,0.0,0.0,1.4679303830061028,3.236482959333798,72
30.687955563669355,92.01434767016856,-25.18082003311466,28.298822862089594,-31.073366369663482,91.37399978730944,29.77739101820882,-28.298822862089697,-90.0,3.3092683864863783,0.0,0.0,0.0,1.50763267287233,3.177431623820052,73
22.132730952164184,92.68064251767957,-25.17759412685127,28.298822862089875,-22.756982918621578,91.50480685136999,29.937168268515777,-28.298822862089747,-90.0,2.9567662375355335,0.0,0.0,0.0,1.5034098033637395,3.3782067021724043,74
18.44737699069378,92.29035176972756,-22.539287300892866,28.298822862089672,-19.533840255102035,91.03493515023881,27.504450755264088,-28.2988228620899,-90.0,2.9854923274199665,0.0,0.0,0.0,1.5755207980124912,3.0341618904133867,75
-2.3000225741193505,91.68970143209607,-17.27051650526037,28.298822862089697,1.208754465828909,90.2122635955833,22.669491598949985,-28.298822862089697,-90.0,2.0471764829496246,0.0,0.0,0.0,1.6156221032991671,2.6978944932139104,76
-21.25896317787127,88.56384722133394,-21.526290726520692,28.298822862089672,20.271110117949213,87.07921206482914,26.970873538094224,-28.2988228620898,-90.0,2.3228848584751294,0.0,0.0,0.0,1.628548151597332,3.6442980314268065,77
-31.48885484874127,87.87073039398855,-21.407241067516914,28.298822862089672,30.281018922265368,86.73559335586077,26.882927185843148,-28.298822862089697,-90.0,1.903895737680312,0.0,0.0,0.0,1.6812927576977574,2.5424446711053474,78
-46.57576777245066,85.69935202639061,-16.212800795559254,28.29882286208985,45.529661940032426,84.78506149046062,21.330922330749626,-28.298822862089825,-90.0,1.4787234389651942,0.0,0.0,0.0,1.6685446997077216,2.034232287492289,79
-66.62003296713712,82.2513356608714,-5.923662080932969,28.29882286208972,65.04907537665345,81.05306784346304,12.680259293436938,-28.29882286208972,-90.0,0.977747023745245,0.0,0.0,0.0,1.6577743995559102,1.0554865401825813,80
-87.26520127321771,82.00316344153046,10.879628705843418,28.298822862089697,85.93292518883776,80.8049030054479,-2.845738173504798,-28.298822862089825,-81.8636203788773,0.846909014234651,0.0,0.0,0.0,1.5709995348571995,-0.3707967240633185,81
-100.06607465073844,83.14639035718382,27.85619673719163,28.298822862089825,99.76940116893147,81.95290736931793,-19.32739430421824,-28.2988228620899,-66.4619319071478,0.8813843991831974,0.0,0.0,0.0,1.4927444631458784,-0.993746994137089,82
-107.19141451709821,80.24437750080864,42.829924706602064,28.29882286208972,107.51016726489385,80.19092800097773,-36.6040103614541,-28.298822862089594,-89.19422165136776,0.7803896266112439,0.0,0.0,0.0,1.4079886725146211,-0.2250133934758206,83
-112.0399946897018,71.66708121187742,47.122940777066646,28.29882286208972,112.72309632387643,73.41571238395504,-45.60058788598017,-28.298822862089697,-90.0,1.0362263154317137,0.0,0.0,0.0,1.346117962103855,0.9142025551974917,84
-119.36233062268523,68.50565721481789,54.98628946066818,28.29882286208962,119.72894055346171,70.89254823047537,-52.84445266238073,-28.298822862089697,-90.0,1.2827503667012432,0.0,0.0,0.0,1.2522551040319836,1.0199236468593165,85
-127.13595873298094,68.56509366526382,59.99102844206797,28.298822862089825,127.32760631998082,70.9438636809651,-57.41931812250707,-28.298822862089697,-90.0,1.548067348973127,0.0,0.0,0.0,1.1991447924977678,1.1531952209006593,86
-133.72090055491836,65.17763091431243,69.38570587030642,28.29882286208962,133.55919756673688,68.04403701873758,-66.09928117400891,-28.298822862089697,-90.0,2.150932826283516,0.0,0.0,0.0,1.1776297090456775,1.8136084550456286,87
-138.1515701290096,64.02563785427328,73.98423671009759,28.298822862089747,137.56121491701472,68.12945632078262,-72.0292071858448,-28.29882286208985,-90.0,2.5642139143940117,0.0,0.0,0.0,1.151079861841565,2.041181296169118,88
-138.57001713166468,64.46693545515257,74.18140810590273,28.29882286208957,138.05292288412429,68.72291119053612,-71.9536466801972,-28.2988228620898,-90.0,2.674576176776618,0.0,0.0,0.0,1.1732566470697312,1.9518242243601611,89
-138.3579670587339,66.95387576677284,69.6851300787392,28.298822862089697,137.74393270732025,71.76364374994557,-67.19586340769854,-28.298822862089672,-90.0,2.5954736172054433,0.0,0.0,0.0,1.1400383492176045,1.7107643729648578,90
-135.47439080579107,71.41206911992045,63.43772855747174,28.29882286208985,134.94583091811188,75.51935446311194,-59.93440200114929,-28.29882286208972,-90.0,2.323791883006517,0.0,0.0,0.0,1.14567023027148,1.4039606977935184,91
-130.31666964009563,73.58388951032386,56.1681236238256,28.29882286208985,130.66771770587374,78.39531175574896,-52.53562973670626,-28.298822862089594,-90.0,1.9185255117495714,0.0,0.0,0.0,1.1368125645849891,1.2897430183952063,92
-122.68094687682422,75.1519014578175,45.83075690676664,28.298822862089672,122.3622164689862,79.21720513813558,-45.256946670065766,-28.298822862089697,-90.0,1.306474456331199,0.0,0.0,0.0,1.213402767573508,0.6068612790986532,93
-112.39023527697552,76.8635863977975,35.693014425930244,28.298822862089647,112.83784814080916,80.44115862804315,-35.686095877084895,-28.298822862089647,-90.0,0.8780917478467788,0.0,0.0,0.0,1.1709750069272393,-0.3584125126240522,94
-106.18147478131525,81.12654800570427,30.02856101118502,28.298822862089594,106.33362277286967,83.23296614367159,-28.07422944253682,-28.2988228620899,-43.59265941883675,1.3443416351876671,0.0,0.0,0.0,1.1685082372442475,-1.5781606314281218,95
-99.08565813567306,84.68410721694111,22.768096072812146,28.298822862089825,98.55897756377176,85.70395792761178,-18.66252882543155,-28.298822862089697,-29.620871080698457,1.9832794001688332,0.0,0.0,0.0,1.1458090561946488,-2.6583545832207474,96
-91.40859800776663,86.41177549419264,9.68860299176878,28.298822862089697,90.62020349686017,87.51328486922631,-6.498046352401399,-28.298822862089697,-32.42788910372521,1.8345158102631276,0.0,0.0,0.0,1.1567961428724316,-1.9040688540992972,97
-72.53651869531694,84.72731634111997,-11.815084237295922,28.29882286208972,70.59334319505477,84.99060310650061,13.185540616138038,-28.29882286208985,-67.840839936227,1.0843244283914621,0.0,0.0,0.0,1.247886016581006,0.055630120977658355,98
-46.00918756780222,87.51448859839316,-24.40735076887127,35.018113412447214,42.87392379622115,87.28177697284453,26.766751663851675,-35.472162173114775,-90.0,1.3554291228994917,0.0,0.0,0.0,1.3485916758261345,1.2730675594817942,99
-20.66364565825421,88.04388060928282,-36.39504066264613,28.298822862089697,18.945239377011116,88.28856533803551,39.224228957416194,-28.298822862089697,-90.0,1.8651063806239228,0.0,0.0,0.0,1.3914967422254634,2.1228898629130786,100
-8.929722649947545,90.84632650030102,-26.180900937732247,28.29882286208985,7.956297556651701,90.6026053717149,29.971098889569678,-28.298822862089697,-90.0,1.4977256249437747,0.0,0.0,0.0,1.3473351292192592,0.9529046184847336,101
11.486557957095005,90.69008741663126,-27.28270197882746,28.298822862089672,-12.666940749383453,89.98124390302549,34.468816821874995,-28.298822862089747,-90.0,2.6541117556135703,0.0,0.0,0.0,1.2988452314192027,1.9119777961543754,102
17.961623744033474,90.92065454504666,-24.933432520988863,28.29882286208957,-19.013273676472306,90.68263950782872,29.661862853999512,-28.298822862089594,-90.0,2.401819393263775,0.0,0.0,0.0,1.3148918976581216,2.120722020776885,103
26.105375209195092,88.42414526026751,-27.003302591592462,28.298822862089697,-27.091426277096627,88.02150563714815,31.478847242178983,-28.298822862089825,-90.0,3.4338571222288685,0.0,0.0,0.0,1.299693163771547,3.1490365917866625,104
32.19753526381437,88.56701676915877,-24.65421795827599,28.298822862089697,-33.17940746652467,87.87759897176998,28.911961556138028,-28.29882286208985,-90.0,3.881939971546096,0.0,0.0,0.0,1.3183756587749902,3.206443954258447,105
35.70495749931907,88.48334436466584,-22.267024295861432,28.29882286208985,-36.45435796505604,87.32693160596051,28.71894227982755,-28.29882286208977,-90.0,4.208085506720784,0.0,0.0,0.0,1.2757281031772705,3.511940790898301,106
38.059047036080514,87.14113932484173,-19.572464811208285,28.298822862089825,-38.46444312478353,85.83617435023666,25.90900393226258,-28.2988228620899,-90.0,4.501707622927849,0.0,0.0,0.0,1.2624538492774642,4.104103619774681,107
39.278233603230674,83.93209600077861,-18.894378860605126,28.29882286208972,-39.98977576386476,82.0697973067804,27.630677896417012,-28.29882286208985,-90.0,4.784681269553275,0.0,0.0,0.0,1.2955481839309426,4.921272977489581,108
40.53034889241535,78.4298205233931,-20.203603617856373,28.298822862089697,-41.20863222335414,76.73579342795136,29.069371429082125,-28.29882286208985,-90.0,5.14170160953737,0.0,0.0,0.0,1.3325354842417576,5.744982337642015,109
42.51269138022619,68.63738384673721,-25.624243810688114,28.298822862089697,-43.31774685256223,67.09940419751014,32.17295968735973,-28.29882286208985,-90.0,5.596959312298454,0.0,0.0,0.0,1.3707877859217015,6.376064780935732,110
45.364892074739096,54.05302773352011,-30.409387559513547,28.29882286208985,-45.40635902743628,51.64035353241273,36.20968862444229,-30.54052167146907,-90.0,5.977828250689281,0.0,0.0,0.0,1.3810594264453924,6.885733159949155,111
43.945387112384665,38.81680726391673,-24.630091224732723,35.221855361490704,-43.22390235266537,35.06221569964047,31.968942056987256,-38.61025620133571,-90.0,6.000000000000009,0.0,0.0,0.0,1.3641957209888869,7.187816783447156,112
36.96483408147614,20.764978994057042,-16.07190952693991,40.066521865535144,-34.7866739623831,15.959334882379618,24.125822261340016,-43.7189113036935,-90.0,6.000000000000009,0.0,0.0,0.0,1.3892893871898906,7.160254211012526,113
4.408130926253338,4.957564834677147,16.02013098565756,39.96783094375304,-34.7866739623831,4.473473559384578,-75.40682081481656,-44.45521243268096,-90.0,6.000000000000009,0.0,0.0,0.0,1.3537108067612371,7.174866982471195,114
4.408130926253338,13.436116593243028,104.99999999999999,37.25855428565399,-34.7866739623831,18.226116409157925,-105.00000000000001,-42.4684843543091,-90.0,6.000000000000009,0.0,0.0,0.0,1.336746475743198,6.905224028054094,115
4.408130926253338,28.341189347085752,104.99999999999999,35.927430029813316,-34.7866739623831,33.27857628197677,-105.00000000000001,-40.70303328252869,-90.0,5.821528011931615,0.0,0.0,0.0,1.2985904778090482,6.704698819798291,116
4.408130926253338,42.292497153326366,92.21713870874513,32.75863707841699,-34.7866739623831,46.72403385759529,-90.84620098950344,-36.69478136808158,-90.0,5.024059065826019,0.0,0.0,0.0,1.3061636878618315,5.998632952661818,117
4.408130926253338,56.75701523163945,78.74151764634301,28.298822862089647,-34.7866739623831,58.28683484164727,-76.49215128116393,-28.298822862089697,-90.0,4.031061823773307,0.0,0.0,0.0,1.3896979939628664,4.692062589615144,118
4.408130926253338,68.65271522958814,63.99859797437042,28.298822862089825,-34.7866739623831,69.64911957979884,-61.44373153353008,-28.298822862089672,-90.0,2.7601547159922,0.0,0.0,0.0,1.4401989702505267,3.2052744076307973,119
4.408130926253338,79.12400441346776,55.14138127220334,28.29882286208972,-34.7866739623831,79.24980659487441,-49.499814025473164,-28.298822862089747,-90.0,1.612187736530002,0.0,0.0,0.0,1.3803858347255957,1.458486867260169,120
4.408130926253338,86.23824071988196,43.5383557170346,28.298822862089594,-34.7866739623831,85.68413626865248,-35.17118378727091,-28.298822862089697,-90.0,0.8034659526159094,0.0,0.0,0.0,1.3353239630602767,0.2354018950924545,121
-87.59422913239405,89.85480814086772,23.834821943081483,28.298822862089953,-34.7866739623831,89.30349196442339,-18.355439065913874,-28.298822862089747,-51.70018639479346,0.8606413308739307,0.0,0.0,0.0,1.386555293624642,-0.8358896913161828,122
-77.01247565427514,91.33970699557312,4.00036334538426,28.29882286208985,-34.7866739623831,90.95265447706163,-0.44058794582422023,-28.29882286208985,-89.00746993390861,0.6695906450111117,0.0,0.0,0.0,1.3241228124407434,-0.16519387142749536,123
-57.91901815756012,91.52933373210439,-5.584940795755597,28.298822862089697,57.34966942262634,90.51996005850268,9.731728684082803,-28.298822862089697,-90.0,1.0344073010342163,0.0,0.0,0.0,1.3125229184182092,0.12668611200116434,124
-39.0916742626894,94.49984031895823,-10.942582018775463,28.298822862089697,38.58928786357743,92.7813356707323,15.400580172401826,-28.298822862089825,-90.0,1.0916709704905339,0.0,0.0,0.0,1.2918764480511595,-0.43568679689116974,125
-29.543565432743744,94.79393534937184,-13.402849611412147,28.29882286208962,29.032053744681562,92.7245462548786,20.36850477315014,-28.298822862089697,-90.0,1.5335199648602207,0.0,0.0,0.0,1.2753483577426066,0.5284653547204233,126
-19.14829953248724,95.07355179702992,-23.720608712270934,28.29882286208972,18.362028709031723,93.52687377004706,29.53282013796684,-28.298822862089825,-90.0,2.254978508068524,0.0,0.0,0.0,1.273666519667282,1.1972906025979644,127
-10.126836712403195,97.04465670455409,-20.18827466182494,28.298822862089697,9.51969984147841,95.90241908283305,23.678627455997212,-28.298822862089697,-90.0,2.412533767814035,0.0,0.0,0.0,1.2879914701932977,0.13336480173090273,128
-7.150875531586065,97.750430176811,-14.806202967156237,28.298822862089647,6.686991417354982,96.67575316846953,18.372097752521068,-28.298822862089825,-90.0,2.482617996354697,0.0,0.0,0.0,1.293646907372161,0.202342563385733,129
-3.7167114967955883,99.46409456851252,-11.822770375083667,28.29882286208972,3.0468326653127855,98.18201260212237,17.721404965889466,-28.298822862089697,-90.0,2.766526453216762,0.0,0.0,0.0,1.282514082843031,0.4495077437097192,130
-3.1845349872228965,100.1366010341899,-9.385227116758374,28.29882286208985,2.48992744491099,98.83473724607401,15.263937622691552,-28.298822862089697,-90.0,2.777520666656953,0.0,0.0,0.0,1.2775024192475808,0.3378395068370713,131
-2.9081089798669115,100.10667393130355,-9.325243614635347,28.29882286208985,2.262331693206796,98.87478746092678,15.143781853158286,-28.298822862089825,-90.0,2.8681752897744692,0.0,0.0,0.0,1.238739347308073,0.513067277490123,132
-3.1245949322964592,100.42198402617248,-6.9685905665219225,28.29882286208972,2.3468675708198328,98.67178637400738,15.173690158268176,-28.298822862089825,-90.0,2.9486251006530324,0.0,0.0,0.0,1.2643171957785795,0.5484334845395966,133
-4.699935096113854,100.89747515375961,-4.893381693647894,28.29882286208962,3.798185519619474,99.2509156113102,13.128432027395345,-28.298822862089825,-90.0,2.8513142962717533,0.0,0.0,0.0,1.2959543429876095,0.6050390388758837,134
-6.375572874148084,100.80729043121504,-5.200914263915998,28.298822862089697,5.476009855560416,99.11149932069415,13.514698033582816,-28.298822862089697,-90.0,2.7400809223447697,0.0,0.0,0.0,1.3391500172227961,0.5613477235523728,135
-9.525463811120007,100.19067185831635,-5.844681998890503,28.298822862089594,8.906507388804831,98.73258942321036,11.84117017025911,-28.298822862089697,-90.0,2.4680293820073054,0.0,0.0,0.0,1.350550839536979,0.074021497805144,136
-16.975731322925842,96.91873044927421,-11.201961826922547,28.298822862089697,15.972009296232745,95.72262085293279,17.33475441158885,-28.29882286208985,-90.0,2.648473888184938,0.0,0.0,0.0,1.4004034992500196,0.9692918437219346,137
-24.751015002184257,94.9677050659273,-13.26146419243127,28.298822862089825,23.572329281126514,93.56354216572363,20.730602381512135,-28.298822862089924,-90.0,2.531942653920938,0.0,0.0,0.0,1.4260492211442348,1.1058083225263575,138
-34.70269535158541,93.84786504331207,-10.635603351403347,28.29882286208972,33.727279494353276,92.44334275973394,17.95436395016293,-28.298822862089697,-90.0,1.8929642062093792,0.0,0.0,0.0,1.42011477121831,0.9442963387571971,139
-48.82921288874479,90.64459683300322,-7.647487974865093,28.298822862089825,48.35219646740414,89.74906876389743,12.244358395471092,-28.29882286208972,-90.0,1.2563488406856742,0.0,0.0,0.0,1.4040312706208025,1.046525610126019,140
-64.37269777669208,87.34343266596295,2.7121856721931312,28.29882286208972,64.4125530233007,86.0704763100891,3.709737016135515,-28.298822862089697,-90.0,0.7636807516110748,0.0,0.0,0.0,1.3804758964004182,0.31887578485854245,141
-80.8260497999206,83.1840390276819,20.496783926092615,28.29882286208962,81.96655888296078,82.33656305513438,-14.805390385851242,-28.29882286208985,-90.0,0.7371682611622176,0.0,0.0,0.0,1.337177517687131,-0.08384109519386641,142
-91.11703391509411,74.9104757317787,42.47872303324732,28.29882286208972,93.0104713604219,74.54199918236225,-37.2213932276675,-28.298822862089875,-90.0,1.0168101009731914,0.0,0.0,0.0,1.3764411511295152,0.3753623789104543,143
-99.23001685890542,62.410926518336304,61.19962268587139,28.29882286208985,101.52628941616372,62.721698577511496,-56.50376400132988,-28.298822862089594,-90.0,1.7945438866471366,0.0,0.0,0.0,1.376394235201491,2.1095728207538995,144
-111.89593257870959,52.35837096418583,78.53843011224019,28.298822862089697,113.80738680512748,53.81536654122879,-76.16120962279032,-29.199245176998716,-90.0,2.4752371473878654,0.0,0.0,0.0,1.3683483666058704,3.4446073221418834,145
-118.11456745803147,41.75440486088777,90.6898531324434,30.264589777458735,120.07655660500194,45.4025739866216,-88.62504125156613,-36.00290826133136,-90.0,2.8986353800396136,0.0,0.0,0.0,1.3836271380571477,4.304742691859479,146
-127.79992664044748,32.30750945307864,104.99999999999999,32.658552492800666,129.38618197745913,36.05523397562602,-104.77431256176246,-38.1892670035929,-90.0,3.3169881417769864,0.0,0.0,0.0,1.4092478186233146,4.89026233578825,147
-143.03306495424084,24.858466546466186,104.99999999999999,32.303665432163044,142.00755395183236,28.547641122026857,-105.00000000000001,-38.07894910334471,-90.0,3.823290710460115,0.0,0.0,0.0,1.4425999539708985,5.178150056154114,148
-155.0,17.706327675606374,104.99999999999999,32.60110025694028,155.00000000000003,21.034608303455848,-105.00000000000001,-38.498463477966325,-90.0,4.5624360403073325,0.0,0.0,0.0,1.4352658817102053,5.760379110080392,149
-155.0,15.071612951096066,104.99999999999999,31.684575726171637,155.00000000000003,16.778352932142358,-105.00000000000001,-37.275672410675725,-90.0,5.155477715768679,0.0,0.0,0.0,1.4632493573924492,6.1796397655019,150
-155.0,21.487249109836487,104.99999999999999,30.267961145177363,155.00000000000003,18.262471549809163,-105.00000000000001,-35.94633882916997,-90.0,5.523185702825652,0.0,0.0,0.0,1.472265384188497,6.66354641375507,151
-155.0,33.94622194366586,104.99999999999999,28.29882286208985,155.00000000000003,30.800464732360876,-105.00000000000001,-30.35548941664052,-90.0,5.932118449905735,0.0,0.0,0.0,1.5173328681669203,6.907048805774658,152
-155.0,46.44996827976219,104.99999999999999,28.298822862089825,155.00000000000003,44.38263127643174,-105.00000000000001,-28.298822862089697,-90.0,6.000000000000009,0.0,0.0,0.0,1.5684130138066745,7.111409728545783,153
-155.0,57.997207129764526,104.99999999999999,28.298822862089672,155.00000000000003,56.249467497070434,-105.00000000000001,-28.2988228620898,-90.0,6.000000000000009,0.0,0.0,0.0,1.6132884536464076,7.060367383708752,154
-155.0,66.92174284148564,104.99999999999999,28.298822862089672,155.00000000000003,64.85090238768895,-105.00000000000001,-28.298822862089594,-90.0,6.000000000000009,0.0,0.0,0.0,1.6263159806866931,6.7649227707437225,155
-155.0,72.94295706995602,104.99999999999999,28.29882286208985,155.00000000000003,71.26050578854687,-105.00000000000001,-28.29882286208972,-90.0,6.000000000000009,0.0,0.0,0.0,1.6201548892020732,6.360525560115069,156
-155.0,76.85423521194893,104.99999999999999,28.298822862089924,155.00000000000003,75.11480476325366,-105.00000000000001,-28.298822862089697,-90.0,6.000000000000009,0.0,0.0,0.0,1.6215458420195663,6.215213134117246,157
-155.0,80.81715339162818,104.99999999999999,28.298822862089697,155.00000000000003,79.63437271806922,-105.00000000000001,-28.2988228620898,-90.0,6.000000000000009,0.0,0.0,0.0,1.5705900637885901,5.900773357804023,158
-155.0,86.57519291221848,104.99999999999999,28.298822862089953,155.00000000000003,85.13947342814691,-105.00000000000001,-28.298822862089825,-90.0,6.000000000000009,0.0,0.0,0.0,1.6116461448743382,5.16914745530744,159
-155.0,93.30149933766172,104.99999999999999,28.298822862089672,155.00000000000003,92.23381981216932,-105.00000000000001,-28.298822862089978,-90.0,5.737787021391726,0.0,0.0,0.0,1.614478672290024,4.341325991116315,160
-155.0,97.1225445902115,104.99999999999999,28.29882286208957,155.00000000000003,95.3569560066157,-105.00000000000001,-28.2988228620899,-90.0,5.351774515492359,0.0,0.0,0.0,1.6840753737950995,2.8971760870438703,161
-155.0,99.9205947521109,104.99999999999999,28.298822862089825,155.00000000000003,97.4129261692385,-105.00000000000001,-28.2988228620898,-90.0,4.447126397232286,0.0,0.0,0.0,1.652445932241643,1.516998189614843,162
-155.0,96.87670698846162,104.99999999999999,28.29882286208962,155.00000000000003,95.5571729889081,-105.00000000000001,-28.298822862089697,-90.0,4.390163150616123,0.0,0.0,0.0,1.643521104655901,0.6695908686682258,163
-155.0,94.52779710243543,104.99999999999999,28.29882286208972,155.00000000000003,92.90522436389965,-105.00000000000001,-28.29882286208985,-90.0,4.532279742853458,0.0,0.0,0.0,1.654579249629181,1.1606749909662084,164
-155.0,95.02254319209186,104.99999999999999,28.298822862089697,155.00000000000003,92.75555317904211,-105.00000000000001,-28.29882286208972,-90.0,3.55057561246928,0.0,0.0,0.0,1.5630434246311753,0.263565729671236,165
-56.25199771136596,92.24557624081544,104.99999999999999,28.298822862089697,56.5926756747872,90.94486528405616,-105.00000000000001,-28.29882286208962,-90.0,2.502354530386441,0.0,0.0,0.0,1.4469750134531452,-0.47299786841543345,166
-77.60363730026083,89.81078152417676,16.700412722863778,28.298822862089594,78.62809572364027,88.76710741290242,-10.838850156932532,-28.298822862089697,-90.0,1.1411870163874052,0.0,0.0,0.0,1.3760107007911693,-1.840386147712936,167
-92.36298012513012,89.96726902194223,35.69993341353583,28.29882286208985,94.01499759961902,89.13230968065473,-27.335213028183514,-28.298822862089825,-90.0,0.7134170236402553,0.0,0.0,0.0,1.3295787144130418,-2.744855810287748,168
-100.69554661394717,86.6875942894549,49.96971166613527,28.29882286208962,102.77282207842553,86.61659949736004,-41.56454965550744,-28.298822862089875,-90.0,0.7475430088623066,0.0,0.0,0.0,1.2778112049489059,-2.1841753650881994,169
-107.89196785055348,79.22106542485525,56.37894037993322,28.298822862089697,109.39007618500601,79.90734977392778,-52.85755723711448,-28.29882286208962,-90.0,1.010331405240756,0.0,0.0,0.0,1.298778468597277,-0.9447122849886899,170
-112.84606700709652,71.04959834255286,60.99832644923469,28.29882286208972,114.34850122003049,72.64506746162532,-59.941190686072574,-28.29882286208985,-90.0,1.6820539164364492,0.0,0.0,0.0,1.3037824608214978,0.15446063467161333,171
-122.65259117908914,69.56969035691141,67.57064928428925,28.29882286208972,123.65494397322034,70.45461362709896,-66.47015909691835,-28.298822862089697,-90.0,2.0798224675714674,0.0,0.0,0.0,1.291156003930211,0.2980687091958601,172
-128.92044545982276,66.86017401087693,75.80406374896417,28.298822862089825,129.29516145618356,68.06930307905603,-74.09957610716778,-28.298822862089875,-90.0,2.6057743599198604,0.0,0.0,0.0,1.2728467581954122,1.006346778709266,173
-135.17867084743662,66.05674331712576,84.08602292628144,28.29882286208962,135.3228346934522,67.83861776086593,-84.44400282311746,-28.298822862089672,-90.0,3.1277140312871956,0.0,0.0,0.0,1.2560421595528273,1.385020837719624,174
-136.910908640698,66.73689573372748,90.39804674405502,28.29882286208972,137.5495070960686,68.04737311620939,-89.39261014453997,-28.29882286208972,-90.0,3.3300820119139405,0.0,0.0,0.0,1.2746243617886663,1.4397587242960355,175
-137.865257310469,67.77111776487156,89.15175027810506,28.298822862089672,138.1623704928313,69.48759563458619,-89.38190398863209,-28.298822862089647,-90.0,3.4356057517542156,0.0,0.0,0.0,1.274798980679419,1.5784999322504714,176
-135.7595027411995,71.02117081997585,87.39808021769645,28.29882286208972,136.1940537656537,72.87027950677046,-87.10706556392996,-28.298822862089697,-90.0,3.2922837285394513,0.0,0.0,0.0,1.2825086122940677,1.4250844948283965,177
-132.53661793232317,73.13732539140284,76.45737442557737,28.298822862089594,132.96796179341504,74.58308820132528,-75.90952413099016,-28.29882286208985,-90.0,2.9750078548610603,0.0,0.0,0.0,1.3289469292698102,1.3896048893520196,178
-126.53750984991191,74.34040887723438,66.87862104619339,28.298822862089825,127.21821688898692,76.28048616944893,-66.6371292120283,-28.29882286208972,-90.0,2.5120792841970623,0.0,0.0,0.0,1.3267257488815436,1.0863768241323568,179
-119.66404480710428,76.51504741776805,56.94590143106604,28.29882286208972,120.0418276111056,77.49293821718707,-55.327004930571604,-28.298822862089594,-90.0,1.8264385007296084,0.0,0.0,0.0,1.3436830460790379,0.3377090987982864,180
-111.56064782894012,78.80495806342056,47.55116098524819,28.298822862089594,111.6337192626271,79.418617066308,-46.0328928737105,-28.29882286208962,-90.0,1.1265745324287681,0.0,0.0,0.0,1.3610440323448902,-0.5096035740384185,181
-103.22449078081327,81.27436903151953,36.63077638305535,28.298822862089697,103.24684574149947,81.25983797677274,-32.81876379662647,-28.298822862089747,-89.44185460760501,0.7745909169888598,0.0,0.0,0.0,1.3804080300893202,-1.2934527134817781,182
-104.58153365551192,77.28310416272754,15.73944254925782,28.298822862089594,105.99907410607712,80.46284693368729,-18.849661387703108,-28.29882286208962,-90.0,0.945724673697617,0.0,0.0,0.0,1.1930237224805997,-2.0603167059121037,183
-105.60118713594521,72.26051397215852,13.14258299769179,28.29882286208985,106.80640499199328,79.77926365661212,-17.108015800553698,-28.298822862089697,-90.0,1.3517542224424035,0.0,0.0,0.0,1.324587186218438,-3.704267056059618,184
-104.9173662190583,65.62229219051456,24.93177554771505,28.298822862089697,105.85406327518687,78.23962817508253,-17.329117502669963,-28.29882286208972,-90.0,2.0312840862180073,0.0,0.0,0.0,1.7005247799338448,-3.534011782842078,185
-104.8458433323918,57.66577201236381,39.09796124906849,32.82114621681225,107.56974447208137,78.46631970618103,-22.59873637511753,-28.298822862089594,-90.0,2.378898635373835,0.0,0.0,0.0,2.1164146698665083,-2.6848856222426636,186
-106.97024770909579,52.350125791498805,54.34659797802584,29.939064726096166,109.17132381948355,78.64282731167512,-28.05771274619815,-28.298822862089825,-90.0,2.541386692944705,0.0,0.0,0.0,2.951820094935858,-2.49877390693787,187
-107.92898705395812,46.34430165616446,66.52866671002882,32.530786215745664,108.95406067372826,78.17638031048169,-30.657885513481453,-28.298822862089647,-90.0,2.6892194414038686,0.0,0.0,0.0,3.662028511978014,-2.360208105391408,188
-112.61972217541022,39.38330680113214,82.17684338867848,34.086767600067446,109.76260545563984,77.70427893814711,-36.13431564271902,-28.298822862089875,-90.0,2.9828137142922744,0.0,0.0,0.0,4.427211734871988,-2.0535143319891236,189
-111.48455111191494,28.536778775831138,84.81653661576176,41.340543719189604,109.39204118661354,76.65911198134664,-36.25114268121881,-28.29882286208972,-90.0,3.233859930453608,0.0,0.0,0.0,5.5457365682015345,-1.7248756850877218,190
-111.94001576131751,20.219533132058817,91.14137200208926,43.24028153180378,108.14684084812566,75.35032663421569,-36.27990807288491,-28.298822862089594,-90.0,3.5012297047929137,0.0,0.0,0.0,7.0608855625509985,-2.104825158518353,191
-116.3005366114899,11.606977943458974,100.43933249551242,43.98892762161694,108.4265777062958,74.50543118320033,-39.14645440979445,-28.29882286208972,-90.0,3.6622384328336928,0.0,0.0,0.0,8.892007598819115,-2.0118837656665742,192
-126.98510915057706,3.9452763742345276,104.99999999999999,44.48354014398802,107.45917849966818,71.24722572403006,-39.80808655232979,-28.298822862089647,-90.0,4.073294797646447,0.0,0.0,0.0,11.829920508561651,-2.465339669510263,193
-126.98510915057706,2.3448676849911663,104.99999999999999,43.611609053705585,104.82867925603627,67.66227238615006,-42.3497210730462,-28.2988228620898,-90.0,4.268236420852788,0.0,0.0,0.0,14.982252319830659,-3.88173025821843,194
-126.98510915057706,6.555308054495085,104.99999999999999,43.39888574281803,105.4534008102477,64.05164231134167,-43.93239440799195,-28.298822862089697,-90.0,4.395555925772054,0.0,0.0,0.0,18.186233422155205,-5.121276586797702,195
-126.98510915057706,9.644905915038423,104.99999999999999,43.01937000071552,106.0953895030587,60.67186128355876,-48.10268379610923,-28.29882286208972,-90.0,4.515322659085559,0.0,0.0,0.0,21.184167699529688,-6.39153882327033,196
-126.98510915057706,12.52540435238012,104.99999999999999,42.99152017644608,105.50758896971915,56.69264368819629,-49.19613890221516,-28.298822862089672,-90.0,4.642867935073972,0.0,0.0,0.0,23.990129780832824,-7.8741083321129635,197
-126.98510915057706,17.371609767140924,104.99999999999999,42.871475940101824,104.28661057210073,53.78111817703121,-49.28413481539725,-28.298822862089594,-90.0,4.6951563502757026,0.0,0.0,0.0,25.92433985720574,-8.716908911472679,198
-126.98510915057706,21.474444578590507,104.99999999999999,42.77885912258059,103.90476445115549,51.07338875209568,-47.41845162407422,-28.29882286208972,-90.0,4.799730808074223,0.0,0.0,0.0,27.30462269999697,-9.557307803612206,199
-126.98510915057706,24.392040993709003,104.99999999999999,42.97262924461032,102.81459696728069,49.825003030381694,-47.125901487300744,-29.382155173790192,-90.0,4.916591523088329,0.0,0.0,0.0,28.148011847591743,-10.250130632233105,200
-126.98510915057706,25.168712857019397,104.99999999999999,42.96690768488516,103.2446865400652,49.09821669002072,-45.31476562425522,-30.855469039347568,-90.0,5.06343882529941,0.0,0.0,0.0,28.493008138964104,-10.67710485765967,201
-126.98510915057706,24.789333353326693,104.99999999999999,43.07752652963269,102.9173307398023,49.112683561724836,-45.176670705935386,-31.82054093876336,-90.0,5.18387972378298,0.0,0.0,0.0,28.40289074467575,-10.88118996220713,202
-126.98510915057706,22.73221942066213,104.99999999999999,43.65286870160469,103.06990206248729,49.18856520154971,-45.286920403494676,-32.32828384326497,-90.0,5.333363326340624,0.0,0.0,0.0,28.087290362467467,-10.715371853300315,203
-126.98510915057706,19.740952255246043,104.99999999999999,43.96265367470024,103.19792091335867,49.719000891282995,-45.20124276617141,-32.119259914268234,-90.0,5.450155581936466,0.0,0.0,0.0,27.315219522889763,-10.353966466505645,204
-126.98510915057706,16.457671558221463,104.99999999999999,44.633686903475684,103.071759981715,50.40690460056276,-44.90566277659413,-31.649907680341183,-90.0,5.429326530774425,0.0,0.0,0.0,26.172370792131527,-9.983047299886769,205
-126.98510915057706,10.987843483429375,104.99999999999999,44.98956660370749,103.41486402512396,51.165352992329765,-44.98362890836285,-30.2749905922755,-90.0,5.4161525581251295,0.0,0.0,0.0,24.506934375730822,-9.553876918845429,206
-126.98510915057706,5.941226807642881,104.99999999999999,44.871169327378055,102.92338171336851,53.54700207434344,-46.47990123800495,-28.298822862089825,-90.0,5.305590308278436,0.0,0.0,0.0,21.80857796061101,-8.916350898300115,207
-126.98510915057706,2.434498866629729,104.99999999999999,45.00770775451657,103.70963801323356,56.73244681009098,-46.17654165993598,-28.298822862089697,-90.0,5.149951446257643,0.0,0.0,0.0,18.70386661221281,-8.157524798958905,208
-64.62753316685382,4.194623835079215,56.518980392036575,45.830482146162794,103.62245962368931,60.2789026063701,-45.041287958982345,-28.298822862089672,-90.0,5.000535525961939,0.0,0.0,0.0,15.536678527706712,-7.291655848876772,209
-89.71890824190157,8.79101454071478,76.60859051317725,45.44366192422514,103.91484327621768,63.420042450428106,-44.16224007824208,-28.29882286208972,-90.0,4.847108615684568,0.0,0.0,0.0,12.65552410005118,-6.287007192385634,210
-89.08198896099094,13.850130486651185,72.95429545607668,45.37927075174078,104.97469307859038,67.41962838570046,-46.011119530874254,-28.298822862089697,-90.0,4.601798068667976,0.0,0.0,0.0,10.258943962272841,-5.570343205690331,211
-96.09957286533461,22.630141036414898,75.76731668210363,43.589513574565444,104.99319496628706,70.53024758731688,-44.95093830178446,-28.298822862089825,-90.0,4.479919910826703,0.0,0.0,0.0,8.164504366176853,-4.921413532857423,212
-98.96754154908274,31.72726410608512,74.22309982354517,40.383754834178546,105.1327283829729,73.82089130408167,-43.81284360614186,-28.298822862089697,-90.0,4.194578790041136,0.0,0.0,0.0,6.2436325804917665,-4.095249878525275,213
-101.8066170326803,41.01727253147366,70.2312554653233,35.39416891899866,106.15337231428589,77.0324461661022,-43.00998887161266,-28.298822862089594,-90.0,3.8256829896978215,0.0,0.0,0.0,4.525885351328356,-3.1867346051274654,214
-93.94977547999954,49.12113651783535,55.45561250987046,31.09575044236054,105.11200489187014,80.82057504368949,-39.089364108899765,-28.298822862089825,-90.0,2.9843773422022366,0.0,0.0,0.0,2.709390163670061,-3.6304738082973027,215
-92.60668277243272,59.152382324554424,44.01206982014762,28.29882286208972,102.41395737294008,82.89044713131548,-30.322869707282607,-28.298822862089594,-90.0,2.446594248667997,0.0,0.0,0.0,0.7507630234357451,-3.967821183527106,216
-93.56561814278928,68.61617731956507,38.455646606153756,28.29882286208985,101.60153966555579,84.77760489599102,-24.627888676542543,-28.298822862089647,-90.0,2.1309171792432453,0.0,0.0,0.0,-0.6875692489156173,-3.669739920778709,217
-94.35191404403774,76.31466362610504,32.88974068105228,28.298822862089747,100.21655552164584,86.44180611324626,-19.06104712466841,-28.298822862089747,-90.0,1.9849638446224882,0.0,0.0,0.0,-1.8601833554148968,-3.729239339717479,218
-97.92469701217523,82.18301213064017,32.948860296313434,28.29882286208962,100.5186388571569,88.20511035248242,-16.236530315298513,-28.298822862089697,-90.0,2.133761033939527,0.0,0.0,0.0,-2.8288108188652306,-3.803814186772944,219
-101.17219461779115,86.82526091111541,32.51942826516823,28.29882286208985,100.67890403495322,90.11716126606183,-15.771774440659977,-28.298822862089697,-90.0,2.3115530708860064,0.0,0.0,0.0,-3.303241156770064,-3.6383830032908264,220
-101.77285972679984,88.22792116087415,31.217369318793224,28.298822862089697,100.35508194121985,90.46318001818659,-13.238056809487794,-28.29882286208962,-90.0,2.352981051834072,0.0,0.0,0.0,-3.9036206019538655,-3.8589741131346997,221
-100.09053530516323,87.09604042088829,29.741976975541395,28.298822862089697,99.28652122884945,89.5191072880185,-10.95120070527639,-28.29882286208972,-90.0,2.216477408768122,0.0,0.0,0.0,-4.052156282736684,-3.961352986041069,222
-99.9156462790723,84.1337609574178,30.434452955634228,28.298822862089697,98.92669566477174,88.3462848708198,-11.183257713671505,-28.298822862089697,-90.0,2.2086186728831825,0.0,0.0,0.0,-3.9603981443697576,-3.8870602672056154,223
-98.65502635390276,79.81105886356006,33.537252391150695,28.29882286208985,98.1202116168093,86.66919478198707,-11.391973331204893,-28.29882286208972,-90.0,2.1717748562542085,0.0,0.0,0.0,-3.517306080121118,-3.5372985495050293,224
-95.47072359210028,73.85855558295297,38.39213497724527,28.29882286208962,97.89074820313554,84.67961942559874,-11.683946317702977,-28.29882286208962,-90.0,2.0102986820920727,0.0,0.0,0.0,-2.7288349998993744,-3.351659821088501,225
-92.60918110437402,65.91059775030264,42.81551636367624,28.298822862089697,97.60476725761849,82.96216248427098,-11.891560117207826,-28.29882286208972,-90.0,1.9110023334330695,0.0,0.0,0.0,-1.9231927001598355,-3.181248726231194,226
-90.0798070634577,57.5151222451634,46.4878511577828,28.29882286208985,98.69310770992679,81.9406415099041,-14.612080582411075,-28.298822862089825,-90.0,1.8171815624206518,0.0,0.0,0.0,-0.8418826869403833,-2.784025040931695,227
-90.74886457924265,51.23775374991649,54.106406159276965,31.657662335501506,100.47256531804177,80.77012759808812,-15.070614744006816,-28.298822862089825,-90.0,1.956647468185083,0.0,0.0,0.0,0.4776828511130643,-2.320980108530694,228
-91.88662238620586,44.93798208808932,59.66494551053433,36.64921209964238,101.72229659175116,79.58720776796967,-17.96797809629839,-28.298822862089594,-90.0,2.1959957831862287,0.0,0.0,0.0,2.052234880165333,-1.8926841658352525,229
-93.60861806466556,38.89144653020385,66.3540713010397,38.56400266656728,102.56906125936621,77.90413887941621,-21.020804376659974,-28.29882286208962,-90.0,2.445643637792914,0.0,0.0,0.0,4.021753339644529,-1.8504221352033963,230
-96.64587766267837,33.38197147455201,74.46779585083574,39.98788123025317,103.89444497408438,75.73357111891826,-24.411503461979787,-28.29882286208962,-90.0,2.8452496404578573,0.0,0.0,0.0,6.172911008657553,-1.770061677548784,231
-96.70374220881284,26.026700479937574,77.92865052939497,42.23770451454843,103.8792241822621,73.67810949024212,-27.41155634609531,-28.298822862089697,-90.0,3.2078346403425386,0.0,0.0,0.0,8.077596721932675,-1.8338199318246868,232
-97.69600306551287,20.084014267646136,81.21615992334641,43.35618007975575,103.7416871218932,71.38734300580595,-30.462556841771498,-28.298822862089697,-90.0,3.5395784045141085,0.0,0.0,0.0,10.330944696722218,-2.1426007991912517,233
-94.18645213161228,13.56192446216777,82.91626692555502,43.92213711088611,104.78246362535037,68.8420965915537,-34.15231074564409,-28.298822862089594,-90.0,3.6660497221720654,0.0,0.0,0.0,12.915489956356977,-2.568443509750597,234
-93.96152300394738,7.047673350845108,85.56239216846971,43.799980956161704,103.61446651660815,65.56528359860802,-36.98583041143186,-28.298822862089672,-90.0,3.9338238007379855,0.0,0.0,0.0,15.65991538701805,-3.1799235215553527,235
-77.33925601842915,1.4851724128485189,71.86110233564001,43.46935341238403,103.68534265044624,61.67917088666527,-38.176123467863086,-28.29882286208972,-90.0,4.106972966498875,0.0,0.0,0.0,18.67788117175428,-4.203473930713285,236
-77.33925601842915,3.197043301754888,71.86110233564001,42.58215556029895,104.22346164156089,58.58502235773279,-42.046138864476625,-28.298822862089825,-90.0,4.226942514803244,0.0,0.0,0.0,21.44711310781551,-5.341970687384228,237
-77.33925601842915,7.459425030637174,71.86110233564001,41.6050120670162,105.32346684799082,55.6295705299409,-46.21873296331757,-28.29882286208962,-90.0,4.41310022949885,0.0,0.0,0.0,24.020139281807676,-6.059845040835525,238
-77.33925601842915,11.127214643139425,71.86110233564001,41.953486997699095,104.91561187969737,52.12954341802251,-47.204978014859655,-28.29882286208962,-90.0,4.403357717548502,0.0,0.0,0.0,26.567350436759398,-7.485133253275568,239
-77.33925601842915,15.407289748430776,71.86110233564001,42.377030892300056,102.55998270842953,49.037814845967326,-46.660681256221025,-28.29882286208962,-90.0,4.386998188123849,0.0,0.0,0.0,28.56223118626104,-9.226667332728677,240
-77.33925601842915,19.820237450328005,71.86110233564001,42.81766131608538,101.89777779140344,46.826270661761114,-44.53638305099218,-30.640262685217728,-90.0,4.434398130196149,0.0,0.0,0.0,30.134343100160788,-10.44741000628195,241
-77.33925601842915,25.371167921973093,71.86110233564001,42.56752483497927,101.89049356770917,45.073778396144164,-42.710860891063675,-33.30459216800108,-90.0,4.581882025850613,0.0,0.0,0.0,31.077616200263588,-11.171767877187879,242
-77.33925601842915,29.424977259152854,71.86110233564001,42.35091270520061,100.51543880039364,44.09128639663675,-42.114930255620955,-35.897076435650675,-90.0,4.791699528309529,0.0,0.0,0.0,31.90317109611094,-12.08809802406761,243
-77.33925601842915,31.332631925158097,71.86110233564001,42.59039754961488,99.28110916313499,42.769225645155444,-39.243070693649514,-38.00564379795143,-90.0,5.004681852908464,0.0,0.0,0.0,32.67188666490203,-13.241506920686477,244
-77.33925601842915,31.578359280545936,71.86110233564001,42.875235930689094,99.07229522229679,41.761530141048304,-37.01268730788044,-39.21098278035893,-90.0,5.282084616346739,0.0,0.0,0.0,33.078953032212084,-13.907603249118358,245
-77.33925601842915,30.471835893423094,71.86110233564001,43.33624254527768,98.54952859534009,41.667063311863835,-36.70217059866259,-39.79017408050314,-90.0,5.504978037621716,0.0,0.0,0.0,33.10092744373835,-14.180700728930567,246
-77.33925601842915,28.040048516831355,71.86110233564001,43.99167943634489,98.67287531026852,41.76041140948784,-36.86659091675318,-40.15109608326718,-90.0,5.6825490840461885,0.0,0.0,0.0,32.84136634116713,-14.223861083180365,247
-77.33925601842915,25.8425231031318,71.86110233564001,43.87492457534364,99.16536589477884,41.95193815303711,-37.232661348651504,-40.14602663385072,-90.0,5.827554075802456,0.0,0.0,0.0,32.22067475958386,-13.877732311254746,248
-77.33925601842915,22.020131271573582,71.86110233564001,44.383930371175445,100.65703496998015,42.29737305215172,-38.35990121588226,-39.8871536544933,-90.0,5.964013603227412,0.0,0.0,0.0,31.306982114758192,-13.251330169348412,249
-77.33925601842915,17.68648533784413,71.86110233564001,44.67473025777062,101.63645233955408,43.20684190318286,-38.827344340365414,-38.96072463427877,-90.0,5.988456675543311,0.0,0.0,0.0,29.852466616175175,-12.389751152578333,250
-77.33925601842915,12.622596794572063,71.86110233564001,45.40750273606063,101.98186038675574,45.32258373021191,-41.01294545463674,-37.79275098862947,-90.0,5.9386381478742365,0.0,0.0,0.0,27.618944695651134,-11.43958398250589,251
-77.33925601842915,7.119506472878505,71.86110233564001,46.19481465531149,102.69302563811158,47.47791573384727,-40.78574753904749,-35.520986812075414,-90.0,5.778154316605186,0.0,0.0,0.0,24.725543761959326,-10.111277712396813,252
-77.33925601842915,3.081690688972699,71.86110233564001,46.17920828390863,102.50082233630414,50.48451927855318,-42.308521162085334,-32.271392121613125,-90.0,5.467377752870524,0.0,0.0,0.0,21.592378803247883,-9.269823954369064,253
-21.535275712349673,0.782607759137672,11.636903183740168,46.02338426600682,101.96257726628937,53.00391908750862,-41.094626493379636,-28.298822862089672,-90.0,5.123285277858625,0.0,0.0,0.0,18.55472491919513,-8.417273656221676,254
-75.41480693114562,3.6777027972192595,62.471555306049254,46.70165841111126,102.99685614783549,56.769292427202465,-40.62122729497409,-28.29882286208972,-90.0,4.851370467467826,0.0,0.0,0.0,15.667542367249355,-7.354162539786841,255
-98.2656222366805,7.663235642706821,82.96117536358108,45.87595527993879,103.43885015426062,60.61622489076815,-42.21324580295296,-28.298822862089697,-90.0,4.6932857079004835,0.0,0.0,0.0,12.788996777806549,-6.403523466483961,256
-97.06410027365673,11.743039326081625,78.52333005085747,45.738503475159284,105.35483388328299,65.11946404325792,-41.802821283571056,-28.298822862089594,-90.0,4.495642485613343,0.0,0.0,0.0,10.28098316922275,-5.386119468496537,257
-101.69136459098426,19.008890857079006,80.6754153103462,43.77122169496969,104.79439284616988,68.04949637552822,-38.01359686928208,-28.298822862089672,-90.0,4.299815661713301,0.0,0.0,0.0,7.992692354899034,-4.893735519554382,258
-100.68376471128381,26.738154780514854,74.08884732787557,41.843724302161256,104.18717014303411,71.77231371544356,-36.57496916454691,-28.298822862089594,-90.0,3.983156794341107,0.0,0.0,0.0,5.961746040790633,-4.512008560042781,259
-102.56443241910661,35.53253610293772,72.14587772888883,37.23062608002719,104.05417310476928,75.14282831139889,-35.38273024366554,-28.29882286208985,-90.0,3.5700892907749373,0.0,0.0,0.0,4.0709546550609685,-3.794302966191198,260
-99.09255531938997,43.08651975131174,62.98817088884172,32.52614499416067,103.9210182054357,78.61692236930249,-31.856885476265674,-28.298822862089647,-90.0,2.908077091834701,0.0,0.0,0.0,2.358675587341235,-3.7719871508930343,261
-95.13330226683497,51.32299690345615,51.54280661852756,28.298822862089697,102.415146643432,81.34550130794545,-28.229210827584225,-28.298822862089697,-90.0,2.3279695169660526,0.0,0.0,0.0,1.206500718879456,-4.029507307635679,262
-93.18262379154628,61.112929165942944,39.57668353460167,28.298822862089697,100.9499384866419,83.64833080214484,-22.39105781086772,-28.298822862089594,-90.0,1.8642075345144835,0.0,0.0,0.0,0.2528075717576689,-4.482133328600572,263
-95.31627477377512,69.79632712271739,36.889398710526,28.29882286208962,100.70269127755894,85.43062904371797,-19.352186891034492,-28.298822862089647,-90.0,1.7285406513544925,0.0,0.0,0.0,-0.5041816841890022,-4.075007558719596,264
-96.5645101238674,76.21460836537962,31.360260472911783,28.298822862089825,99.59473233326386,86.75315696495302,-16.382772234823552,-28.298822862089647,-90.0,1.5900842417571206,0.0,0.0,0.0,-0.8882601943801447,-3.95637881908088,265
-98.89406092080117,81.17719302482233,28.615248122522157,28.298822862089697,99.95319156611468,87.9496905521493,-16.1572448523709,-28.298822862089697,-90.0,1.5718999237652191,0.0,0.0,0.0,-1.1109790482790243,-4.0443189373929,266
-101.16939082224667,85.00383893441706,28.17279808740874,28.298822862089672,101.27183731221905,88.81129372866708,-16.06321686072167,-28.298822862089594,-90.0,1.486826000138828,0.0,0.0,0.0,-1.310507358306064,-4.002527884853312,267
-102.0231660033311,86.59155890637749,25.356998724858553,28.298822862089594,100.85466260752992,88.51292039182468,-13.630569413450152,-28.298822862089697,-90.0,1.3530228464968759,0.0,0.0,0.0,-1.5884140007175498,-4.040566122475682,268
-102.92866847273248,86.36575378979177,25.51853488514251,28.29882286208972,100.7081519749315,87.58141434208193,-13.90950335124763,-28.298822862089594,-90.0,1.2868206568797722,0.0,0.0,0.0,-2.2581156514370258,-4.024077814701492,269
-103.30556636796872,84.80475158109228,28.51798923804375,28.298822862089594,99.0343659892421,85.60986424369709,-16.76221781933362,-28.298822862089672,-90.0,1.3399275041527092,0.0,0.0,0.0,-3.297605834347855,-4.039812863149741,270
-103.00666350695387,82.4028884902776,31.646951487323236,28.29882286208985,97.33897266528895,81.58600627732879,-22.364735472139913,-28.298822862089594,-90.0,1.4198871141114058,0.0,0.0,0.0,-4.3996992810581235,-4.146376388025348,271
-102.54407178584542,79.11711193498432,34.99363705783598,28.298822862089697,94.94797667852771,73.82647743208102,-30.654816022698206,-28.298822862089825,-90.0,1.4567635070151075,0.0,0.0,0.0,-5.909742801813114,-4.585074051621937,272
-102.37802576579004,75.51900735873868,38.45610281069673,28.298822862089875,94.3786595285948,64.27896118160729,-39.52541773866134,-28.298822862089647,-90.0,1.5085974201920171,0.0,0.0,0.0,-8.01240742227905,-5.033259777390721,273
-102.49713857699352,72.1579206222674,39.37905053913143,28.298822862089672,94.42544439391396,55.257840199951225,-48.399915922553944,-31.71166141907041,-90.0,1.632937244496577,0.0,0.0,0.0,-10.370010870627919,-5.376010966550182,274
-103.18417378471483,69.5721755486889,42.803999604235514,28.298822862089672,99.99735485986083,49.296824212715244,-60.96001605371111,-35.82823055535663,-90.0,1.891658541758612,0.0,0.0,0.0,-12.326439198445328,-5.267879419351568,275
-102.7326106979685,66.35998137251414,43.492368330267745,28.29882286208985,101.5413045716403,41.01195504215483,-68.9961621442387,-42.140804418375126,-90.0,2.3114076249738296,0.0,0.0,0.0,-14.209203756474663,-5.765076650841656,276
-104.24438954215387,63.865890823186355,47.5930105336564,28.298822862089825,104.38121753847415,33.760151294480174,-77.98961038168584,-44.65436349974453,-90.0,2.735150608852988,0.0,0.0,0.0,-16.403464228390753,-6.169576777462242,277
-104.7321617118275,61.21604208817885,51.11775458009409,28.298822862089697,108.2130491553816,24.305596855955205,-90.04106125496918,-46.617650066891,-90.0,3.209634963303789,0.0,0.0,0.0,-18.22173003923131,-6.227408146177352,278
-105.4187077002526,58.219558243498305,55.001528988893355,28.29882286208972,115.21318317208124,16.834919727013535,-102.62106712640583,-46.89081604703267,-90.0,3.6267448124548096,0.0,0.0,0.0,-20.4055182530108,-6.606818504029889,279
-106.33206605690246,55.29834620291037,56.77396541903005,28.298822862089594,131.13062043084923,11.296388585467984,-105.00000000000001,-46.27507789083866,-90.0,3.907567101828419,0.0,0.0,0.0,-22.525696649859587,-7.560151608888721,280
-107.27659065715069,52.65148418482956,58.393964444277366,28.29882286208985,155.00000000000003,8.227790875095664,-105.00000000000001,-45.252587107819515,-90.0,4.266124478590053,0.0,0.0,0.0,-24.407973602952442,-8.07985396382319,281
-107.35547516383157,50.3020981794686,59.192934557507044,28.29882286208985,155.00000000000003,7.969362840758648,-105.00000000000001,-44.848554788235354,-90.0,4.576957776051803,0.0,0.0,0.0,-26.14510376642193,-8.470736271669258,282
-106.9698439557157,47.815191699937415,59.80722698314433,28.29882286208972,155.00000000000003,11.381821698117152,-105.00000000000001,-44.461183103181014,-90.0,4.8484964645265105,0.0,0.0,0.0,-27.68561167177112,-9.193207555798645,283
-106.58071810132111,45.098547968371044,58.051216297346215,28.29882286208972,155.00000000000003,15.743863724842683,-105.00000000000001,-44.212171415261544,-90.0,5.047634190769033,0.0,0.0,0.0,-28.988794462269723,-10.144689119665287,284
-106.13721820410305,42.766091539220376,56.01913265577863,28.29882286208972,155.00000000000003,20.921087777949165,-105.00000000000001,-43.59228212155798,-90.0,5.236451050904642,0.0,0.0,0.0,-29.706452868669533,-10.719974356285755,285
-105.24764460538974,41.0112151545379,53.44740217598624,28.527433438094572,155.00000000000003,25.670222901705106,-105.00000000000001,-42.581390443550234,-90.0,5.3653535112838275,0.0,0.0,0.0,-30.124807993255633,-11.298988742255107,286
-104.10894885944585,40.26189530168434,50.55146834074108,30.86150061138873,155.00000000000003,29.058273689829782,-105.00000000000001,-42.07868305412763,-90.0,5.472996962870315,0.0,0.0,0.0,-30.373402875029356,-12.095772562041425,287
-102.62714367769472,39.94404594232787,49.66925647538919,32.44753466720769,155.00000000000003,31.60370575206629,-105.00000000000001,-41.672619229090905,-90.0,5.564844174701588,0.0,0.0,0.0,-30.497461518887263,-12.747199081436259,288
-102.36280364203029,39.57225131921141,47.1719804726857,33.177684385967815,155.00000000000003,32.28064958320327,-105.00000000000001,-41.64147760342877,-90.0,5.700685509263279,0.0,0.0,0.0,-30.346036783508854,-13.022961156041633,289
-102.5109047177671,39.845311697617745,47.21311424119816,33.1085754681137,155.00000000000003,31.19547481331863,-105.00000000000001,-42.00558793917018,-90.0,5.861694408448077,0.0,0.0,0.0,-29.898767074767623,-12.836352580118536,290
-102.75974053421562,40.325702110253076,47.152539943380084,32.85425215199251,155.00000000000003,29.954354991200105,-105.00000000000001,-42.647054301665456,-90.0,6.000000000000009,0.0,0.0,0.0,-29.09641885338832,-12.29359126880514,291
-102.9020139605749,40.942319889927475,47.09524947240444,32.09934605412118,155.00000000000003,27.275275664949156,-105.00000000000001,-43.35049995093301,-90.0,6.000000000000009,0.0,0.0,0.0,-28.06903657040947,-11.974514145993979,292
-103.3182049361808,41.795111010762824,47.217459777735506,30.660561976599016,155.00000000000003,22.66644159688891,-105.00000000000001,-44.63125849210144,-90.0,6.000000000000009,0.0,0.0,0.0,-26.628683237148778,-11.582405524431266,293
-103.40979594923773,43.209849473882414,46.808833628451175,28.830623349600803,155.00000000000003,17.21911804319399,-105.00000000000001,-46.14681058119203,-90.0,6.000000000000009,0.0,0.0,0.0,-24.432591679707738,-10.880037407692969,294
-103.51121231515012,46.379170496217,48.677977424285906,28.298822862089697,155.00000000000003,12.397696097406335,-105.00000000000001,-47.150551925893474,-90.0,6.000000000000009,0.0,0.0,0.0,-21.666714248944697,-10.435696406516762,295
-104.36041907162058,50.72453906709821,47.874630752619396,28.29882286208962,155.00000000000003,8.06764874316596,-105.00000000000001,-48.319989478669335,-90.0,5.8646706697223605,0.0,0.0,0.0,-18.540068328470568,-9.271380965865141,296
-104.30752859501413,54.50823709771875,46.50669906249239,28.298822862089825,155.00000000000003,5.1145385789868945,-105.00000000000001,-48.771462213775614,-90.0,5.749171575041669,0.0,0.0,0.0,-15.36001747107511,-8.17293627784731,297
-104.03811421507156,58.698156215215974,44.85353489588726,28.29882286208985,155.00000000000003,1.2493487317990848,-105.00000000000001,-49.565533641877934,-90.0,5.601130611895997,0.0,0.0,0.0,-12.592536785926596,-7.18806216135293,298
-104.62484613994008,61.80392783515326,44.129240735515964,28.298822862089697,93.4578941722758,3.2410306088892082,-73.66388905415283,-49.974913989237166,-90.0,5.44806305314019,0.0,0.0,0.0,-10.009111522018546,-6.306256356909602,299
-105.94476315939131,66.41185176598867,45.63949114894042,28.298822862089825,93.28426809072849,9.695158278944412,-70.15707338885251,-50.18078481844163,-90.0,5.294184945104552,0.0,0.0,0.0,-7.6407200483187125,-5.0561469303759505,300
-105.76048622363565,69.98375364403446,44.37126462601532,28.29882286208962,97.86100233712985,19.081468149945813,-71.21789165067463,-48.66078579087741,-90.0,4.986030981299789,0.0,0.0,0.0,-5.340798114468314,-4.645400030488334,301
-105.23208122339297,73.68994744011393,42.913498500659244,28.298822862089697,98.61772318338885,29.103470355083793,-65.17653027139387,-46.841157909746634,-90.0,4.553413865671523,0.0,0.0,0.0,-3.483446525735842,-4.324630678430352,302
-105.90422866202773,77.09891746606652,41.808427700957594,28.298822862089697,100.76536896570373,39.73029479226364,-60.579222155582784,-41.63659295072493,-90.0,4.0584229525476,0.0,0.0,0.0,-1.8207116234740337,-3.2943687479117774,303
-105.89735642762797,79.91702270431627,38.437712334510934,28.298822862089647,98.54527930051891,46.76479481658479,-52.81035809462182,-36.5243797223915,-90.0,3.375624877345035,0.0,0.0,0.0,0.08312887513982098,-3.2888144203818674,304
-104.44260889751345,82.50779187451448,34.79579149078353,28.298822862089697,95.5902766544555,52.67723617931249,-42.53498478257165,-29.3345102813549,-90.0,2.624084371052014,0.0,0.0,0.0,2.07432968731684,-3.4528936128851297,305
-102.84510340603495,84.49022136107847,28.79710282697529,28.298822862089697,97.35892081941908,60.76851152302942,-37.47501016334996,-28.298822862089594,-90.0,1.8020723978825202,0.0,0.0,0.0,3.8715251136873627,-3.1753560591262207,306
-102.45596083373044,86.39911215559617,23.294944715622165,28.29882286208962,99.05704574393545,67.680201160937,-32.29886714365136,-28.298822862089825,-90.0,1.2973632351236,0.0,0.0,0.0,5.187727845462503,-3.4010536740538932,307
-102.21909186688768,87.69236024798047,17.95147841755675,28.298822862089697,98.71467090164334,73.92501523983702,-25.94215368372382,-28.298822862089697,-90.0,0.8840957562635444,0.0,0.0,0.0,5.886844136052276,-3.5336977683835866,308
-101.67360279809465,89.26721437999508,17.521887940102612,28.298822862089594,98.86493882683449,78.82003457361004,-20.020850788473478,-28.298822862089697,-90.0,0.5452013438730458,0.0,0.0,0.0,6.201812998402104,-3.7249839603997636,309
-102.62214175668001,90.25452909087755,17.32999156891399,28.29882286208972,101.52397493226458,83.34888747741775,-22.05855683835558,-28.298822862089825,-90.0,0.23237159871351343,0.0,0.0,0.0,6.1252827333366975,-3.8601296907969003,310
-102.4254938716172,90.15387344788725,17.317249279496334,28.29882286208985,101.26816506217486,83.66327375236598,-19.43023180867423,-28.29882286208962,-90.0,0.2217072140144541,0.0,0.0,0.0,5.869116845793311,-3.7921381234539417,311
-102.08884844839703,88.96079639678005,17.602533184125047,28.298822862089594,97.96972083506402,81.65608145648385,-19.301572177509176,-28.29882286208962,-90.0,0.37418451621517657,0.0,0.0,0.0,5.104429330040607,-3.909562638865128,312
-102.42684315770653,87.24055762341483,20.570440368678273,28.298822862089697,98.94173217347725,78.2814018406363,-25.30717108999228,-28.298822862089697,-90.0,0.42195594483136895,0.0,0.0,0.0,3.99263981597121,-3.9020064467111237,313
-102.32947429472553,84.35538782632393,21.312679646461664,28.298822862089672,95.46385787809646,70.40030348425752,-33.00037145547151,-28.298822862089594,-90.0,0.6905742087677293,0.0,0.0,0.0,2.624950584422465,-3.9875679649035796,314
-102.39145751494709,82.01904845884792,24.468450066471796,28.298822862089594,90.22294150932862,59.94912394665694,-38.90513166235365,-28.29882286208957,-90.0,0.9656501248939868,0.0,0.0,0.0,0.8832798959909398,-4.295642789285006,315
-102.99809893371534,80.16649928232769,27.5653883238068,28.298822862089825,90.73820741942129,52.56632273103996,-47.10289296977685,-31.333881015488092,-90.0,1.1893252199570654,0.0,0.0,0.0,-1.1503304565259154,-4.379201169361792,316
-103.51050897269604,77.46553754542172,28.435284590363178,28.29882286208962,92.99919448730809,45.88740206457684,-54.39959252545017,-37.25550967316674,-90.0,1.5738205271314891,0.0,0.0,0.0,-3.4654240248447734,-4.628166392733332,317
-103.52208085861716,75.01944962666265,31.667412101071143,28.298822862089697,94.18629195628533,39.36060333796066,-61.31742822447761,-41.556280256134656,-90.0,1.9590775541634813,0.0,0.0,0.0,-6.04475862706838,-5.153704294090676,318
-103.23322379077459,72.43878742422456,34.77865490292423,28.298822862089825,93.34051270106553,31.045293583621266,-66.0916167686214,-45.54362605557651,-90.0,2.3419899993028355,0.0,0.0,0.0,-8.456602837544096,-5.518959843233943,319
-102.76447591226204,69.07341152461372,35.37313302115655,28.298822862089697,98.79696990912045,24.027301350627905,-73.14384093551627,-47.48596715140204,-90.0,2.7757193752736455,0.0,0.0,0.0,-10.988479376635707,-5.605820833420685,320
-103.11107948805378,66.38488748136764,38.75658764236701,28.298822862089594,101.77136265393972,15.907791927767695,-82.68833534769904,-48.26476216560525,-90.0,3.196248908489826,0.0,0.0,0.0,-13.24533932233752,-5.868153084844187,321
-104.18552828757085,63.36053794521265,42.70639249801845,28.298822862089672,112.06278837541596,9.686440970219964,-98.38713747197474,-47.801033078069146,-90.0,3.5524588678521627,0.0,0.0,0.0,-15.837296858571273,-6.226906509094976,322
-104.58731042819905,60.53490386898486,46.37870339025594,28.29882286208985,139.68117605943868,4.88046329435456,-105.00000000000001,-46.771267353416455,-90.0,3.7152417377673763,0.0,0.0,0.0,-18.387090179961376,-6.925311472914065,323
-105.94129628600082,57.22363155185024,48.55006125477767,28.298822862089697,139.68117605943868,4.106690003511067,-105.00000000000001,-45.387100106711564,-90.0,3.9964025729775647,0.0,0.0,0.0,-20.667217915656376,-7.984360620923356,324
-105.90271754105756,54.69294903898265,51.958220735815075,28.298822862089697,139.68117605943868,6.9635103499153495,-105.00000000000001,-44.406273627795116,-90.0,4.279510168080417,0.0,0.0,0.0,-22.570289883607778,-8.611968794606367,325
-106.12834691122882,51.91625036080508,53.106780384970314,28.29882286208962,139.68117605943868,10.564970284365417,-105.00000000000001,-43.79275648007028,-90.0,4.537892610725232,0.0,0.0,0.0,-24.391985119325195,-9.261399352654783,326
-106.04567218490105,48.6198122846985,51.75656956693482,28.298822862089594,139.68117605943868,14.784083671004378,-105.00000000000001,-43.10528486155544,-90.0,4.786674559267423,0.0,0.0,0.0,-26.08126043465201,-10.17723681102258,327
-104.29880106061141,45.79549419948512,51.48882420379212,28.298822862089953,139.68117605943868,19.301521643114828,-105.00000000000001,-42.712522290474425,-90.0,4.96419031976106,0.0,0.0,0.0,-27.500741411508965,-11.25836811335807,328
-103.14893343451679,43.15274639071779,49.10295052699387,28.298822862089697,139.68117605943868,22.511951815109505,-105.00000000000001,-42.32046039374956,-90.0,5.047879542451083,0.0,0.0,0.0,-28.583043853144353,-12.309207532596748,329
-101.73539349145882,41.32419746627115,48.550886806559,28.29882286208962,139.68117605943868,26.334890069412463,-105.00000000000001,-41.658138501744965,-90.0,5.213640888686363,0.0,0.0,0.0,-29.191735634218666,-12.780811179825987,330
-100.7698172248975,39.80551246898277,45.72390753091822,28.298822862089594,139.68117605943868,28.474830098234637,-105.00000000000001,-41.46430508855752,-90.0,5.340497867457847,0.0,0.0,0.0,-29.49227009124466,-13.127126734859507,331
-99.96102747491854,38.916693175572874,43.04500129204023,29.782025198096544,139.68117605943868,30.836908931826397,-105.00000000000001,-40.89271863644951,-90.0,5.399022945959729,0.0,0.0,0.0,-29.65348453701704,-13.726434039318406,332
-99.16609978334483,38.67507692946854,42.55703875712696,30.89683273251508,139.68117605943868,32.35646889169263,-105.00000000000001,-40.53295449912714,-90.0,5.4895497236854105,0.0,0.0,0.0,-29.62828764663176,-13.954971462517163,333
-98.99076613366441,38.70486011617171,42.35742954834994,31.459929736439932,139.68117605943868,32.11029536318465,-105.00000000000001,-40.74446691230497,-90.0,5.620907942442097,0.0,0.0,0.0,-29.36549107206105,-13.760907127459541,334
-99.32540812839244,38.7194605190456,40.06530396043953,31.568821852538004,139.68117605943868,31.81662644395734,-105.00000000000001,-41.06806707088897,-90.0,5.7011226874949195,0.0,0.0,0.0,-28.781608665032675,-13.446239665139519,335
-99.77114239878014,39.273591090017206,40.26524474025091,31.102481550742624,139.68117605943868,29.939010493136582,-105.00000000000001,-41.89803831797149,-90.0,5.771625529031085,0.0,0.0,0.0,-27.980376444612617,-13.084290670536946,336
-99.51303619655928,40.25577006601354,42.21527459310906,30.40823108825764,139.68117605943868,27.254203493477778,-105.00000000000001,-42.75507462465068,-90.0,5.741946169192898,0.0,0.0,0.0,-27.060691721997472,-12.621327824134982,337
-100.54279501795594,41.716007962235075,42.44584119434454,28.919583363466806,139.68117605943868,22.511921865848596,-105.00000000000001,-44.964146510605396,-90.0,5.750582346800924,0.0,0.0,0.0,-25.307737798647494,-11.594786838434656,338
-102.18784357089154,44.21771119120312,43.100568588524546,28.298822862089825,139.68117605943868,16.46880222135138,-105.00000000000001,-46.34596886083438,-90.0,5.722176931825429,0.0,0.0,0.0,-22.792190988253086,-10.745851174829264,339
-104.23084001285514,48.73738354760346,45.87635773261847,28.298822862089594,139.68117605943868,10.095206870489072,-105.00000000000001,-48.517960725496565,-90.0,5.6695514697476055,0.0,0.0,0.0,-20.013818468637133,-9.74536422581276,340
-105.12508513601578,52.489021680033396,45.233648764823236,28.298822862089697,139.68117605943868,6.598645173503057,-105.00000000000001,-49.554630164667806,-90.0,5.575221705520988,0.0,0.0,0.0,-17.10655285458027,-8.655061349884178,341
-105.19507775132804,56.59246759320658,43.770236362974714,28.298822862089697,139.68117605943868,4.510650994575631,-105.00000000000001,-50.70509598027929,-90.0,5.519119414853324,0.0,0.0,0.0,-14.118647944449409,-7.536647728079792,342
-106.05822457117635,59.778966329838255,43.11574864967539,28.29882286208962,50.2861322433592,5.4210262318695905,-31.886394068680687,-51.03382344633002,-90.0,5.455746802923564,0.0,0.0,0.0,-11.529188566250705,-6.523617979601736,343
-106.83448765051745,64.53924937007103,44.42474920405397,28.298822862089647,75.73669886250418,11.0655398338266,-52.3314421361194,-51.100028782179145,-90.0,5.303040264806023,0.0,0.0,0.0,-9.045909455248749,-5.732995974528224,344
-107.73967099237098,67.71570247442905,43.5712481684374,28.298822862089647,91.78608421036405,19.55641191722987,-65.2030024309774,-49.52124932133124,-90.0,5.044390827932628,0.0,0.0,0.0,-6.7927219194952855,-4.719118636932064,345
-107.04985998877535,71.52137918436078,41.73947808617031,28.29882286208962,94.23566189894073,29.325238656549594,-59.82160202805526,-47.342728175678964,-90.0,4.654562392683305,0.0,0.0,0.0,-4.923025159292332,-4.0796513312254525,346
-106.9743905950813,74.96572181029737,40.40395276432969,28.298822862089697,97.3362246642375,40.402080809422934,-57.55364068820941,-41.726619543556964,-90.0,4.110097761231973,0.0,0.0,0.0,-3.3475703021964898,-3.5311753158407324,347
-106.86226127326806,78.25918602041408,39.18899396212448,28.298822862089825,98.92068358921875,48.859553538270156,-52.82983577441306,-33.37542752676977,-90.0,3.523361909284266,0.0,0.0,0.0,-1.565592987078585,-3.1386493508756472,348
-105.47652281789688,80.2048178929998,33.070848330478356,28.298822862089697,97.20884457537244,55.380433263327966,-43.18655193467219,-28.298822862089697,-90.0,2.8079793312996815,0.0,0.0,0.0,0.2526734243939493,-3.091628750305506,349
-104.71148074682219,82.02130405731997,27.32047023392138,28.298822862089697,98.33095174313274,63.46013772376237,-37.71301605607273,-28.29882286208962,-90.0,2.1408201634132658,0.0,0.0,0.0,1.7980222349479618,-3.1803192669689357,350
-103.20000270242326,84.22386767516677,23.835510101215757,28.298822862089697,99.22885816241347,69.50515925076284,-31.978118018268862,-28.298822862089647,-90.0,1.4791248152776182,0.0,0.0,0.0,3.175088550981022,-3.032746343897203,351
-102.11338302183624,85.3096013424485,18.363277148992815,28.29882286208985,99.00236573959103,74.52801635032475,-28.35678926710193,-28.298822862089672,-90.0,1.0354617452373986,0.0,0.0,0.0,4.019671172086278,-3.002728852879595,352
-102.58758468313721,87.02391669602154,17.952369833163072,28.29882286208972,100.6269550721072,78.83584707199643,-25.40386768567685,-28.298822862089697,-90.0,0.7694888305707761,0.0,0.0,0.0,4.5634679398199305,-2.809322713200579,353
-103.79864541500284,88.45714521035525,17.729183998910415,28.29882286208952,103.16799636791731,82.62491977081612,-25.102859140629114,-28.298822862089672,-90.0,0.5250822333801323,0.0,0.0,0.0,4.878324238525002,-3.00310901832658,354
-103.8780176834463,88.90946683064104,17.65042117004475,28.29882286208985,103.55987482537448,84.3541440989642,-22.171508414744487,-28.298822862089672,-90.0,0.5014045702631992,0.0,0.0,0.0,5.123420387257212,-3.205656865718362,355
-101.97599421270326,88.40620350919166,17.67387854047653,28.29882286208962,102.4934908775333,84.64290475168396,-21.87346850253386,-28.298822862089594,-90.0,0.5628368876131028,0.0,0.0,0.0,5.641813747644769,-3.3409691762870883,356
-99.77244143816705,88.17295542231778,12.452108818013325,28.298822862089825,98.13465313633868,86.07680523301664,-11.019247547468243,-28.298822862089672,-81.37639442285935,0.7377537267169499,0.0,0.0,0.0,4.23639262522494,-3.2621083551441608,357
-99.69709441384391,88.96950857255338,9.7289328391172,28.298822862089953,98.32515781381575,88.50034634564415,-8.757282455207964,-28.2988228620899,-60.0160477160829,0.6467760820920859,0.0,0.0,0.0,3.1953903471125016,-3.3232364661128777,358
-97.8180926234872,88.94395111910397,9.567211487679263,28.298822862089697,96.97433736280134,88.86753015035899,-6.214769996676576,-28.29882286208962,-48.53672166873739,0.5502220238084659,0.0,0.0,0.0,2.2707158146328386,-3.2398774321086314,359
-97.98353701353562,87.30658896844481,12.251409145594216,28.29882286208962,98.01931318755238,87.12521999048968,-8.433241670720054,-28.2988228620898,-52.34225303798766,0.3938676485784554,0.0,0.0,0.0,1.8873334861263826,-2.522596704525208,360
-99.39011316881212,83.89556763034606,20.369550104081853,28.298822862089825,100.80985454766721,84.47103361603912,-19.152344486007213,-28.29882286208972,-84.25643879745397,0.3661814898799638,0.0,0.0,0.0,1.6596787620381774,-1.8799932612087609,361
-99.91744134880602,77.07843578324552,29.172506734692256,28.298822862089697,102.55210504766383,78.08806645304759,-28.45575518414902,-28.29882286208962,-90.0,0.46612698092295657,0.0,0.0,0.0,1.9110882772604119,-1.5825751291676253,362
-99.75370106435716,71.22750730069777,37.69464950066756,28.298822862089647,103.64352178486372,72.68013214709889,-37.73158132590778,-28.298822862089672,-90.0,0.6549709533118209,0.0,0.0,0.0,2.3573518060292353,-1.6905732765108061,363
-100.33266797708028,66.3938537540468,43.81369972235185,28.29882286208985,105.87395947861107,68.62894389932654,-44.88149016443628,-28.298822862089594,-90.0,0.9700474655155995,0.0,0.0,0.0,2.7661507708322595,-1.6540002962805145,364
-100.44857740397006,61.71663965208663,47.11674057612494,28.298822862089594,107.51228277788927,65.43148159141913,-49.162037252585996,-28.298822862089594,-90.0,1.2906958516273277,0.0,0.0,0.0,3.0697229361002254,-1.537128253446493,365
-102.16928330748362,58.21524212349632,51.27337792422513,28.29882286208972,110.22763197921995,63.66546478475524,-53.857417229976086,-28.29882286208985,-90.0,1.80289656946907,0.0,0.0,0.0,3.2659981800768003,-1.4357678394168434,366
-104.89741200585408,55.73167749518787,58.774911812444614,28.29882286208985,113.42060617166305,63.45620953287219,-61.236525460109426,-28.29882286208957,-90.0,2.3402822654966267,0.0,0.0,0.0,3.3685707981327058,-1.5393083033380925,367
-111.21940476658644,54.4987160256869,68.8735641176802,28.298822862089825,119.50837004995137,64.15412579108377,-70.39834475534023,-28.298822862089697,-90.0,2.905913410049368,0.0,0.0,0.0,3.5486338144794933,-1.4105311914707421,368
-117.2544611364292,54.592042556341504,79.2189358908904,28.29882286208962,125.70600487625171,66.6055955035164,-82.07917752121351,-28.29882286208972,-90.0,3.303759844809471,0.0,0.0,0.0,3.959542249618612,-1.707861078852119,369
-124.19239974719298,58.85754039317243,89.34034072157057,28.298822862089697,131.21262880111993,70.83885643194785,-91.32165742124316,-28.298822862089697,-90.0,3.648310041347935,0.0,0.0,0.0,4.348844824630853,-2.2449468195770126,370
-126.93990906797926,62.24617720472525,96.35753700879117,28.2988228620898,134.33726406213918,75.2412571976124,-100.91178955246332,-28.298822862089697,-90.0,3.5882406709092254,0.0,0.0,0.0,5.035501416202311,-3.147566075440443,371
-128.1764851428686,67.39679047431237,99.41065965190863,28.298822862089672,134.45365922451018,81.15128814952973,-105.00000000000001,-28.298822862089825,-90.0,3.3783751877996986,0.0,0.0,0.0,5.816720594058763,-3.6058703627575377,372
-125.53247132076999,71.27130161068744,96.11252728874807,28.298822862089825,130.44128477122976,87.35800321899858,-101.99411907257964,-28.298822862089825,-90.0,2.883355448413716,0.0,0.0,0.0,6.568628886267153,-4.141107912755529,373
-123.28905883241987,74.72811695759475,90.10414186399224,28.298822862089594,128.2320153717124,91.97359638499489,-97.63723605227645,-28.298822862089747,-90.0,2.360162151758523,0.0,0.0,0.0,7.377889491491036,-4.682274347143674,374
-119.92565824993814,78.37013049387431,81.33490190129815,28.298822862089697,126.01124738531256,93.91795788020396,-87.95361731536656,-28.298822862089594,-90.0,1.494215468227402,0.0,0.0,0.0,7.8840637494103625,-5.903411854611421,375
-115.61662519542925,81.41730967587397,70.03289707600788,28.298822862089697,122.76492128128194,94.06864350216766,-80.22741937901208,-28.29882286208972,-90.0,0.6554638344394703,0.0,0.0,0.0,7.946461350860921,-7.018464628003502,376
-111.28329120381807,83.78327789794568,57.471836496251946,28.29882286208985,119.97057999072639,93.64777282366826,-69.94585695973817,-28.298822862089697,-31.825934191411847,1.1233010912921284,0.0,0.0,0.0,7.713642190356938,-9.135013289769923,377
-102.81398195820307,85.49121201696867,47.366300153149666,28.29882286208962,113.77142603130346,91.94808983178342,-61.852150753628536,-28.298822862089672,-13.10606778037804,2.5197001964869896,0.0,0.0,0.0,7.47393365311507,-12.177216285827864,378
-89.35596584234912,86.94232264451203,27.534805364702407,28.298822862089825,103.71529491819584,87.67907377233273,-46.440783573103616,-28.298822862089697,-4.874578569874677,3.828409656914853,0.0,0.0,0.0,8.017818887275581,-16.089816269888615,379
-72.3163597869442,90.42670681880752,10.754429776195998,28.29882286208985,86.62009145768623,82.58039802642196,-29.99243776180077,-28.298822862089594,-0.32467308629288577,4.590340316067587,0.0,0.0,0.0,8.973294302246584,-19.953144500949747,380
-60.79306976584518,95.13044346910259,-3.1407073417630476,28.298822862089594,71.90621059359331,78.8209727461132,-18.367468916183753,-28.298822862089594,3.0173066426970503,4.379636753497341,0.0,0.0,0.0,9.782592262455884,-20.037800726894428,381
-49.53967633919747,98.57995792693198,-16.974141065522964,28.298822862089825,59.05843073843039,74.79753299387362,-9.70825781459304,-28.29882286208972,6.046688914011686,3.7598504162342423,0.0,0.0,0.0,10.260858788575717,-17.911103101394165,382
-35.97535107674705,99.21667751856761,-20.911662436713137,28.2988228620898,43.90616230058833,70.23000745257187,0.7759408898534051,-28.298822862089697,8.04618307524539,3.2707526487323917,0.0,0.0,0.0,10.011989910757471,-16.205077290123896,383
-22.69155861454183,100.4488896470737,-25.698190630755235,28.29882286208972,27.53564603834846,68.30909162332793,11.068737813700354,-28.298822862089594,10.659633781218805,2.6956713205581497,0.0,0.0,0.0,9.49870963909575,-14.294490680182147,384
-11.784537990645006,101.323601420887,-27.58283220358727,28.29882286208972,14.95513335305717,65.50336331384563,20.01994001274183,-32.673055888993325,20.19266103960058,2.155938491886687,0.0,0.0,0.0,8.999396437601378,-12.578623336964535,385
-2.847352944923014,97.0269674971517,-31.211861577567404,28.298822862089594,6.238931317226377,57.93776608559522,25.799139318621357,-39.48236570308176,34.80712538558702,1.355378675420822,0.0,0.0,0.0,8.440363596822912,-10.229247312309045,386
3.893202580338207,96.08339258690928,-34.37861268311323,28.29882286208972,-3.5367215954048437,57.290362117302884,32.454111578013055,-40.060969550026975,61.1825741908822,0.8468342507744961,0.0,0.0,0.0,8.030517695384383,-8.601323863643634,387
9.164415004663066,95.82116106374542,-35.235147512362545,28.298822862089697,-10.977889313668545,55.22073669703732,36.10497773228806,-41.76440155931802,90.0,0.9201778014514164,0.0,0.0,0.0,7.610215410486097,-6.176714602506195,388
12.553715502404327,93.66343564418104,-37.0194674183671,28.298822862089953,-15.454057446437558,55.07118511648959,38.452276717679055,-42.42847410536201,90.0,1.2464384772002828,0.0,0.0,0.0,6.947724520963949,-4.147379248534791,389
14.864047031266928,91.67092460959253,-39.8415612333086,28.29882286208972,-18.151123360559005,54.84220844822959,43.08648173303167,-45.043827290588624,90.0,1.7541432492010782,0.0,0.0,0.0,6.274657038964908,-2.1715175009622834,390
15.893705988058876,90.84311945442064,-40.37371597299299,28.29882286208972,-18.018553221953,54.28363057224426,44.46095371201511,-49.150823319184354,90.0,2.2615845591162627,0.0,0.0,0.0,5.611004230882579,-0.46590743814827185,391
15.315656103265855,90.50534339199879,-40.799887278041844,28.29882286208962,-15.123909218740982,53.724098172820746,43.03634069741592,-54.64237895049121,90.0,2.6355006742410607,0.0,0.0,0.0,5.068209242734088,1.1973285696630893,392
9.395942504604426,87.9377910457741,-38.81690380538201,38.48461992843113,-8.496018378273861,52.41758127898266,37.85699870858845,-63.2259915434275,90.0,2.996970368272656,0.0,0.0,0.0,4.529230644490407,2.743897656097361,393
1.350776267259193,84.82349113771822,-36.27182546861346,49.28327443568984,0.9546374737209553,50.49744337336313,31.990078236190712,-72.82194399543832,90.0,3.2024847974980104,0.0,0.0,0.0,4.183606219901697,3.9656061542624865,394
-7.137561630074181,82.28601360678852,-33.40105319022396,58.27239933485331,13.014577779622487,49.667505595588885,23.0970712520278,-80.8918646236962,90.0,3.4056984841058195,0.0,0.0,0.0,3.94141301222628,4.903088858166295,395
-18.04550951796913,79.7223870880669,-27.475999849515368,69.55804847375289,27.030505314847012,49.24854727800533,14.469609412761645,-91.83362386069004,90.0,3.526722027776903,0.0,0.0,0.0,3.7660962165868455,5.091239269019613,396
-30.409258486286234,77.67507439019764,-24.263336383405512,84.72994799183256,44.547511790835514,52.604016644567025,4.363314265730111,-105.7751181710165,90.0,3.5416721604027557,0.0,0.0,0.0,3.4324910504479664,5.082110874404873,397
-42.41794780140783,74.73026625196961,-19.449986214532085,94.05938405731075,61.83510019295879,55.88329005422735,-6.307902969661598,-113.40410390317216,90.0,3.690736857219239,0.0,0.0,0.0,3.256935721465542,4.875792990680779,398
-51.39421639264544,73.87236648791483,-15.625673649221294,100.73923664083686,74.41215942293348,59.62510830849009,-11.578318927704604,-119.54180170125538,90.0,3.74093816412824,0.0,0.0,0.0,3.1525638691061992,4.179662676618615,399
-58.2726469116677,70.66895761221744,-12.584221188216885,106.10939005556185,85.12603335261076,62.691686294332825,-18.484764188292047,-124.51066833884244,90.0,4.018854423849523,0.0,0.0,0.0,3.046286561293639,3.8104984072289616,400
-61.54765305097803,69.68512228880967,-7.743865015071165,108.36052489062327,89.97362552197397,63.91677798149118,-24.304394635805487,-126.474327489582,90.0,4.303368944240857,0.0,0.0,0.0,3.073593531561342,3.5082042868143635,401
-61.89332689300145,66.11302405364106,-6.459463530998483,110.04614219825058,93.173862869142,62.40402055596452,-28.544658739849183,-127.68422852438303,90.0,4.589859876813759,0.0,0.0,0.0,3.010497433847858,3.2004382448109387,402
-61.360983432358644,62.844708121797176,-6.040989554431796,110.04900723442886,96.0880888559461,60.44227367614904,-33.99889389542227,-127.09322037294224,90.0,4.772465318168426,0.0,0.0,0.0,2.971197332328163,2.809606101436614,403
-62.30269053345591,60.11917287080708,-5.49006838985283,109.84098950104504,100.3911182987946,57.46773214117218,-37.64012959461462,-125.6548100655687,90.0,4.915113984779842,0.0,0.0,0.0,3.048885050909161,2.35369146034745,404
-64.49557320938789,58.24753081158844,-5.197525539338353,110.57384344153265,105.32181752371883,55.587642837075165,-41.054686975212974,-123.42016555022516,90.0,4.892835403838452,0.0,0.0,0.0,3.229099375700785,1.8120821755812009,405
-67.2134597581289,54.81008486930511,-6.055890281252443,108.86515602286201,107.77563286910356,55.5725183641937,-42.5958112622362,-120.01603136387914,90.0,4.8379429997731505,0.0,0.0,0.0,3.4039401490942245,1.2601780560773157,406
-75.91555516438167,52.01134938092194,-2.869078335433146,109.02173366343108,116.61075369071477,55.454895041259434,-47.246423259667445,-114.97543653066298,90.0,4.800405117068641,0.0,0.0,0.0,3.6958532619459676,1.0645337213146078,407
-85.42544959746122,49.512177725666454,-0.39975981252288434,103.99927767153093,121.21686094201974,57.0122161368654,-49.910530451886906,-106.12364612738706,90.0,4.688371932532918,0.0,0.0,0.0,3.9095918305556703,0.5820604467682339,408
-96.63528707371238,49.54380912809559,6.187500012524856,95.56279707073278,125.66878344359193,58.337931813398384,-52.49589946302547,-93.82636752335799,90.0,4.539569311972541,0.0,0.0,0.0,4.173939598919868,-0.298937452022876,409
-106.77601772343455,49.872980253618174,11.185539952188847,83.76691172985197,129.9636285161315,58.441050610558776,-51.69503950414084,-83.90309541114831,90.0,4.37978810833568,0.0,0.0,0.0,4.46824072582707,-1.033534819466979,410
-115.26189142098207,51.20246500549139,17.28246620612442,70.27911656627275,132.75709198038095,60.118057008719354,-54.388521081164455,-73.64962980109061,90.0,4.133622893313532,0.0,0.0,0.0,4.869768274087888,-1.8655186452155397,411
-120.30991391024418,54.869762060082785,27.95283896171482,50.13415187756754,134.64639663689377,62.027701011583176,-61.161607040433,-55.80307044807936,90.0,3.838138366584989,0.0,0.0,0.0,5.385353547537976,-2.5230210318405657,412
-123.32106684993428,58.400436680064296,44.580262340372116,28.29882286208962,136.09306492448042,62.068834100736744,-71.95207386959245,-33.20304678406035,90.0,3.653669691565949,0.0,0.0,0.0,6.032564244606632,-2.924806923677854,413
-130.40758249332453,65.87695529874051,63.02576156736028,28.298822862089697,138.36417215204094,65.98839115407837,-82.67761665187857,-28.298822862089875,90.0,3.361906753724413,0.0,0.0,0.0,6.527036455728995,-3.6803137661565564,414
-133.99663271638315,71.99515469943759,80.51655995624846,28.29882286208972,139.15278420471012,74.6504185455283,-93.49433314980762,-28.29882286208962,90.0,2.9424979187991664,0.0,0.0,0.0,6.7390276822835915,-4.391801745408386,415
-134.1118444898132,77.54949716337693,94.22078828525042,28.29882286208985,136.06046687877694,83.47132331368988,-95.62358669298052,-28.29882286208962,90.0,2.5048271630119,0.0,0.0,0.0,7.002016106056439,-4.7457845461016515,416
-134.0900137421304,79.70817880307611,104.99999999999999,28.29882286208972,133.66930037130717,89.30370157991618,-98.11437900924464,-28.29882286208972,90.0,2.2540707579147807,0.0,0.0,0.0,7.392044066241427,-4.872015674073585,417
-134.92550666582764,80.77807660640765,104.99999999999999,28.29882286208972,131.94679828220313,91.776384782651,-95.73086758288285,-28.298822862089747,90.0,1.9671691923970516,0.0,0.0,0.0,7.613963004075264,-5.397446571745184,418
-134.54958508241415,80.39792447350268,104.99999999999999,28.298822862089825,130.8338203701819,92.15644193830695,-88.3619035880832,-28.29882286208985,90.0,1.6191239243401487,0.0,0.0,0.0,7.660555528272945,-6.23034228548394,419
-133.2693824269018,79.76859955234028,100.45866400997785,28.298822862089697,128.55683040574638,91.0227096666932,-80.97254334226443,-28.29882286208985,90.0,1.1013536478092343,0.0,0.0,0.0,7.845747532549656,-7.48255814267343,420
-130.24669354609046,79.12453795180798,93.8947753891066,28.29882286208972,126.39117421496121,89.99786026016712,-76.05221835595309,-28.298822862089672,90.0,0.4998393358750921,0.0,0.0,0.0,8.077803974078455,-9.472697209921137,421
-126.1482461101365,79.60109809584829,83.2829125036406,28.29882286208962,123.6614520395751,88.49651415012417,-68.63404128989234,-28.298822862089672,90.0,1.136711478385426,0.0,0.0,0.0,8.237042504767443,-11.767751246093072,422
-119.63066266439213,79.69327776610207,73.00066338618177,28.298822862089672,120.27783287416153,87.59422777519568,-63.53395761634984,-28.298822862089672,90.0,2.4191049186169846,0.0,0.0,0.0,8.482711153729097,-14.907952738576126,423
-112.19708822151772,81.19591244551414,60.58211131365666,28.29882286208957,116.24021879399727,87.45701704798215,-55.762523844576215,-28.298822862089825,-6.136537764077777,3.8125853597272075,0.0,0.0,0.0,8.71052976725393,-18.348354235946683,424
-97.13435001120357,80.91248923517932,45.89605037873063,28.298822862089697,103.66813109565284,82.90738098309679,-42.3834767410974,-28.298822862089697,-3.790546491720664,5.474269382698894,0.0,0.0,0.0,8.823616155556435,-23.84653790665173,425
-78.70920590208985,82.99183241275823,26.127663151813852,28.29882286208962,84.2040847332571,78.20234319427118,-25.395712194566247,-28.298822862089697,-1.3040774138079085,6.000000000000009,0.0,0.0,0.0,9.629179861219143,-28.01396534387332,426
-65.58199991755625,86.72922134084239,11.816520492071282,28.298822862089697,69.97154278596194,76.84736209564662,-14.694450300250688,-28.298822862089697,0.476083093289896,6.000000000000009,0.0,0.0,0.0,10.467256914680073,-28.75245241852735,427
-55.184396420372444,90.22413707380997,-0.46629544706339954,28.29882286208972,58.98832995628173,75.39774102130899,-6.6869037694400015,-28.29882286208985,1.0566979078315528,6.000000000000009,0.0,0.0,0.0,10.875419046664629,-27.929097385824576,428
-46.52254101749041,93.31463150764345,-9.908819012023088,28.298822862089825,48.89056268569947,73.76331666989105,1.8602696208642797,-28.29882286208972,2.717006256599139,5.911035229689262,0.0,0.0,0.0,11.078408832035331,-27.062473244610484,429
-36.876002077706026,96.08627383733737,-17.065900565643563,28.298822862089594,37.98732546210957,72.81536417760806,10.145251399986561,-28.298822862089697,3.6381651474743553,5.583052616648223,0.0,0.0,0.0,10.954463977872777,-25.931832299732097,430
-25.855360479596875,98.09944137441781,-21.79248150233867,28.29882286208985,25.8816575439919,71.5200714051745,15.52573730872483,-28.29882286208972,4.747786749566037,5.007006475125723,0.0,0.0,0.0,10.733233568221136,-24.202820808689896,431
-14.936429872060119,97.72372303684122,-24.43478337169994,28.298822862089825,14.399325200321739,70.48650753311007,22.552460141537818,-28.298822862089924,7.2490671462034655,4.337827436415834,0.0,0.0,0.0,10.074567042976268,-22.322217662987743,432
-7.169193759341147,98.97240764279181,-27.545550307958635,28.298822862089875,6.3347634770963746,69.57705368755737,29.184220910994735,-30.481341300306518,9.295726533249383,3.769239799189845,0.0,0.0,0.0,9.544021137292448,-20.33439761675804,433
