JMW9912/AVATAR/install/dynamixel_control/share/dynamixel_control/data/csv/poppy/2DoF.csv
theta1,theta2,theta3,theta4,theta5,theta6,theta7,theta8,theta9,theta10,theta11,theta12,theta13,theta14,theta15,frame
-99.18544323743744,86.51774931429085,-4.6172579890574825,28.2988228620898,97.30232972449654,84.79559306232306,5.729927996297804,-28.298822862089825,90.0,1.8059694770958779,0.0,0.0,0.0,0.9407846655431922,-5.394260697766086,0
-103.95492277667236,87.09989192659724,-3.0836665109315344,28.29882286208985,102.06613989742718,85.08439845320527,5.09857998820963,-28.298822862089953,90.0,1.7743912342453594,0.0,0.0,0.0,0.8047609780248834,-4.020756019123267,1
-104.88909402767014,87.98697108384582,-0.8151350575220104,28.29882286208972,103.05229597167879,85.66967341171011,5.216307231883259,-28.298822862089594,90.0,1.6732320914782528,0.0,0.0,0.0,0.707577401539882,-3.7221333760196615,2
-105.01876304079948,87.67721495936446,-0.7467643757303059,28.298822862089953,103.28498538953177,85.95931066886594,2.800349975012355,-28.29882286208972,90.0,1.647211344647006,0.0,0.0,0.0,0.6967825822656778,-3.3344578240063125,3
-105.65116681734416,87.74276098387814,-0.7681677861696149,28.298822862089697,103.86380421699366,86.07422341707537,2.8194275754200007,-28.298822862089647,83.7686469609349,1.6290227417911003,0.0,0.0,0.0,0.6745033936388342,-2.980662532835211,4
-105.37916192412848,87.71831691981458,-0.7586761931530094,28.298822862089697,103.48671746376736,86.10861449134308,2.831930809085861,-28.298822862089594,76.58258083779194,1.667209696572828,0.0,0.0,0.0,0.6598041457471353,-2.635578092853734,5
-105.02541865846979,88.24161256788683,1.603464940796431,28.29882286208985,103.09971567674526,86.09116182742697,2.8324654356511885,-28.298822862089647,67.08970616554814,1.784653118873122,0.0,0.0,0.0,0.6743307378597617,-2.52351935169494,6
-104.13452630996204,88.1914589482163,1.6248557116646183,28.29882286208985,102.36343623434367,85.93738054561781,3.3315303385073154,-28.29882286208985,58.073213335404866,1.9858161888680277,0.0,0.0,0.0,0.6972478293374569,-2.3579233379181206,7
-102.84089239624744,87.77108916114776,0.0073893656170053255,28.298822862089647,101.28769551477642,85.83848873544758,3.373879204279179,-28.29882286208972,50.541158861319765,2.224898537850898,0.0,0.0,0.0,0.7179918815417982,-2.295288523898935,8
-101.2597855373837,87.79185693723012,-0.07380220274684104,28.29882286208962,99.79774292245763,85.77137619997934,3.4633531415917194,-28.29882286208962,43.265391763874554,2.483906064951021,0.0,0.0,0.0,0.7507954779912049,-1.9925034498042995,9
-98.2977423351205,87.38835506479043,-2.5770726653237634,28.298822862089697,97.19488106806978,85.41749106165605,5.2455403037181405,-28.29882286208957,38.290074676112134,2.7163987723016163,0.0,0.0,0.0,0.8269521751846037,-1.7245376917587565,10
-89.88751144635928,86.71690322948145,-7.731679345258345,28.298822862089697,88.60447483679286,85.00268145324833,10.255749385839382,-28.29882286208972,33.66498578342597,2.9525867925732006,0.0,0.0,0.0,0.9040108899418949,-1.5020805447095695,11
-76.89519012016342,85.90847243819552,-14.757469690593727,31.23510093483777,79.24714962186012,83.29632450356164,17.367708831141975,-41.624002096125935,37.593641107629125,2.599884520126682,0.0,0.0,0.0,0.9150377694217615,-0.7417142413019547,12
-63.4925031311323,83.0460713728786,-21.275688570870937,32.941931575139336,63.27798671844299,81.0659407317913,24.622610403856665,-40.358409374373906,33.16723346589457,2.7257090620499125,0.0,0.0,0.0,1.0316382144467882,-0.574832131743727,13
-48.95262483190039,85.89127797327318,-26.671891466478154,28.29882286208985,46.339271792570145,85.88236000085226,30.987405888083995,-30.767722989646376,22.66676727385716,3.737538154867117,0.0,0.0,0.0,1.093990327920693,-0.5054448083820869,14
-33.27980986552732,84.06315796186558,-33.60645464683635,31.34610584735323,29.764314425992186,86.24330258544084,38.55604703818155,-29.877424703846412,21.736348423326213,3.844039657836447,0.0,0.0,0.0,1.0894408723970486,0.6192438761249268,15
-25.36550032667779,83.37952574530587,-40.901458700323246,33.86381627888015,21.654040587512082,86.38069693508177,48.46403763927083,-31.88865827097691,23.418871408744767,3.4078785153400566,0.0,0.0,0.0,1.0824764488248422,2.642302624018474,16
-14.138878134491817,86.27095053697144,-38.404657575056824,28.637420552858316,11.62692518614282,89.64935702780578,47.24418527211014,-28.298822862089697,19.829297725070855,3.769608166694445,0.0,0.0,0.0,1.0911744735760116,1.5794286046644677,17
-7.020089214273019,88.0934505982653,-33.332481496967546,28.298822862089825,4.9573631197064625,91.65390484983521,41.65188828022507,-28.298822862089697,16.687595138839495,4.452256858617445,0.0,0.0,0.0,1.0574791209127212,0.21754968016046303,18
-5.0302753371079945,90.05992201837057,-27.298329321458628,28.298822862089697,3.284033820789887,92.91921662524817,36.579808865428795,-28.298822862089594,14.629427331536242,5.0006057067782255,0.0,0.0,0.0,1.0677101013346482,0.25168195966211315,19
-2.587489688127724,91.73815530521544,-25.203719100020997,28.29882286208985,0.9977416494964282,94.43007395993129,33.69172935097155,-28.29882286208985,14.775507374493486,5.180613720578775,0.0,0.0,0.0,1.0549813238013683,0.6485520272887366,20
0.3428354599803348,93.5955904984575,-23.213769005903973,28.298822862089697,-1.2035346830406628,95.68543764037598,30.481787173304944,-28.29882286208985,13.829787087445053,5.518573142046568,0.0,0.0,0.0,0.9876042851790731,0.5189777744225411,21
2.5399382039078073,94.59927067576551,-20.984158981351467,28.298822862089697,-3.796865094991172,95.85096384491416,30.50651877047597,-28.29882286208957,13.200817982231943,5.632291553024422,0.0,0.0,0.0,0.9900283967522362,0.46123385689798096,22
4.538153563244349,94.79298528778105,-21.020512688088633,28.298822862089672,-5.3917752197387125,96.29547259636446,28.177585746508317,-28.298822862089747,13.034885300521154,5.680703813062887,0.0,0.0,0.0,1.003788849609313,0.6506547302572133,23
5.617949348426853,94.69564807564021,-20.97006679074826,28.298822862089594,-6.4873697123473635,96.11826750603731,28.17077071968591,-28.2988228620899,12.976231219303509,5.680208837484662,0.0,0.0,0.0,1.0402709352170774,0.7390999145766708,24
5.848244607248924,94.77253973378247,-20.938526054912906,28.298822862089672,-6.758340890405736,96.13415103436773,28.221208021634634,-28.298822862089672,12.818524347794197,5.724245140838464,0.0,0.0,0.0,1.0903217734176247,0.7758961237203797,25
5.435916625361732,94.76222156433835,-20.89524299690236,28.298822862089672,-6.434625561745497,96.0460373278725,28.243597766882722,-28.298822862089672,12.67724122966903,5.756950124896718,0.0,0.0,0.0,1.1298434794215675,0.842945327137977,26
3.122690417613201,95.00376949710788,-18.456510460871495,28.298822862089672,-4.238257466736216,95.51131978558048,28.17678986061963,-28.298822862089825,12.78966609261299,5.72846094915659,0.0,0.0,0.0,1.1604773293827029,0.8686857083820322,27
-1.3156757633181795,94.56274702621333,-18.302519133764353,28.29882286208972,0.12755900705239293,95.1993715669205,25.739304536871675,-28.29882286208957,13.069258986753216,5.654019838228564,0.0,0.0,0.0,1.1999985086213727,0.5202982171862892,28
-5.370470148550806,94.71342344738872,-16.647562456584257,28.298822862089594,4.014565332254879,94.99950344773538,24.98131856857849,-28.298822862089697,13.021815876886642,5.515632759795271,0.0,0.0,0.0,1.2595739085752793,0.08612794331707252,29
-7.325054225199619,93.95829295315272,-19.243441462285904,28.29882286208972,6.075349707532566,94.48609799330345,25.387081620413507,-28.29882286208985,13.634157045195673,5.1804989513360855,0.0,0.0,0.0,1.31670782072028,-0.1144265458686899,30
-14.178390174583525,91.30302668289703,-24.361715836846276,28.298822862089594,12.717230216246714,90.78695774274689,30.45840671814993,-28.29882286208985,15.889725071663047,4.444109269898376,0.0,0.0,0.0,1.3055257387257417,1.6518155533358816,31
-20.009134292174874,90.90134118839084,-24.72488268501617,28.298822862089594,18.392247990966343,90.47082808495362,31.210255725934516,-28.298822862089697,13.972335320647105,4.646607053833289,0.0,0.0,0.0,1.3622124740126798,1.3416443400273046,32
-28.584854673876038,89.44686106871639,-24.488540511863693,28.298822862089697,26.80860958095491,89.06584199847893,29.51051190026512,-28.298822862089672,13.595954197966552,4.868466505907087,0.0,0.0,0.0,1.3511994021939386,1.069025163285883,33
-41.263922597046765,87.77824868675873,-21.814395376771884,28.298822862089697,39.95516012138394,86.1636762651855,26.344704934301618,-28.298822862089672,13.5634299721305,5.229399075775337,0.0,0.0,0.0,1.3394186309486233,1.1923024577197772,34
-56.56296901656662,85.68304882080356,-16.629359117332818,28.29882286208972,55.08199524121684,84.00013759112169,20.75489092507062,-28.298822862089825,12.495728231876368,5.403974864155418,0.0,0.0,0.0,1.3542453173043576,0.2645648541217414,35
-74.16867761534705,84.38536093739197,-6.748377714936895,28.298822862089594,73.15235034903021,82.13710878295988,10.081744100124507,-28.29882286208972,14.983922937670645,4.660568603656426,0.0,0.0,0.0,1.3580569414393662,-1.068554345297089,36
-88.65958669255336,84.80828269629751,5.215520951977777,28.29882286208985,88.08322913181331,81.86579471462979,-0.2446182824234606,-28.298822862089697,18.890478626868425,3.919098918758364,0.0,0.0,0.0,1.3497415196594926,-1.7525421470736,37
-100.36370045632114,84.76515646737218,17.83142942949087,28.2988228620899,100.17452511411177,82.33918598447386,-14.518634683839338,-28.298822862089697,30.159922492004842,2.365960621615123,0.0,0.0,0.0,1.3160450362597274,-1.6481853426751476,38
-107.73233794916257,83.67833724901128,29.429237958562148,28.298822862089697,108.32770592770311,81.46494313870923,-26.46074403712086,-28.29882286208972,89.6628949128359,1.2296828905803627,0.0,0.0,0.0,1.2443785092385158,-0.9461838961535329,39
-113.41239310423255,79.75775177472242,34.858883579351605,28.298822862089697,114.94430074521402,78.13972063434049,-34.78449660835731,-28.298822862089825,90.0,2.897722880633734,0.0,0.0,0.0,1.2506545408784773,-0.29416726599360044,40
-120.32646853332193,78.29566614394216,40.67696438890361,28.298822862089594,122.11821425431674,77.04724651470748,-40.95593770799375,-28.298822862089672,90.0,5.1753091073968065,0.0,0.0,0.0,1.2979619218853002,-0.0947221911586279,41
-125.79023704465543,77.29901094592778,44.52514636221963,28.29882286208985,127.63320866158159,76.85867506734219,-45.78400332389784,-28.298822862089672,90.0,6.000000000000009,0.0,0.0,0.0,1.2456664773620594,0.21934934088132435,42
-131.7045221302633,77.50818845614083,46.723299582134416,28.29882286208985,133.1904555591749,77.33506079399763,-48.125366577500394,-28.29882286208972,90.0,6.000000000000009,0.0,0.0,0.0,1.2058784326386525,0.4230897031951701,43
-134.7953214137462,78.27433446319955,46.57205362794577,28.298822862089594,135.92163403143675,78.84429331865513,-47.89315235803623,-28.298822862089697,90.0,6.000000000000009,0.0,0.0,0.0,1.157932049463778,0.46480377017491015,44
-136.21078555920565,79.93861243135636,48.63661061360145,28.29882286208972,137.14373531830864,80.4292420511142,-47.634102048264104,-28.298822862089825,90.0,6.000000000000009,0.0,0.0,0.0,1.1284200009244398,0.4740455557060161,45
-135.93285342205485,81.11646642773673,48.48627116498501,28.298822862089672,136.40074979712332,81.772828343363,-47.37849433092018,-28.29882286208972,90.0,6.000000000000009,0.0,0.0,0.0,1.0877914277243792,0.5572812627648609,46
-132.12239298784533,82.72760937335995,45.94836252878483,28.298822862089825,132.20856533000983,83.06292035387901,-44.72166678440375,-28.29882286208972,90.0,6.000000000000009,0.0,0.0,0.0,1.0795025007968067,0.507182377371842,47
-125.54705751369542,82.47601625323416,38.992071840118676,28.29882286208972,125.71141883251444,82.43554435677392,-37.550195812916506,-28.298822862089647,90.0,6.000000000000009,0.0,0.0,0.0,1.070382643174331,0.12127133021084122,48
-117.59299083212423,82.58916136153886,31.93095253700233,28.298822862089594,117.92986470452978,81.87641794594597,-30.30216369289384,-28.298822862089697,90.0,4.3399596306114265,0.0,0.0,0.0,1.0868534646876469,-0.49111552423039806,49
-111.09861522775682,84.54861409451,27.463282509853702,28.298822862089697,110.17840980698362,83.22518307140277,-26.43610493067732,-28.2988228620898,90.0,1.3854318368258594,0.0,0.0,0.0,1.082968786859625,-1.6691298831320887,50
-102.84434818167607,85.46484578380345,20.671074058874137,28.29882286208985,102.43834439548702,83.5030272260967,-17.27499001685697,-28.298822862089825,34.175917830653916,1.9740502966481352,0.0,0.0,0.0,1.0913806783531497,-2.3570529132138143,51
-94.51417241332204,85.05728921597223,9.670745576577291,28.29882286208972,93.2844521069568,83.26315085792862,-7.513974704092168,-28.298822862089825,20.94605336594621,3.1265952786137206,0.0,0.0,0.0,1.0957783019621978,-1.9983136046209502,52
-79.67175528714942,81.96722627592035,-6.369231106885464,28.298822862089594,78.46552953655852,79.89707075576837,9.170815365236713,-33.04385495802536,31.3164318622128,2.373026171360435,0.0,0.0,0.0,1.2389749667776226,-0.7546003433674926,53
-63.436540225510775,84.82559034345175,-16.497721885446488,52.74231843630496,62.86958884130486,82.36100018183537,20.22738709636789,-58.27935672710064,37.71703483690777,1.9805089511681617,0.0,0.0,0.0,1.2367535015142486,0.4975533168126733,54
-31.822473522416324,79.63296709890109,-27.252439350847634,52.997610619314734,29.361626242422894,77.65508195770788,31.75433188127721,-54.847866174366054,44.30497570618578,1.8924960522623975,0.0,0.0,0.0,1.219044435822845,1.2288700061049702,55
-6.604973798260541,83.63138427672375,-35.7221866318173,33.01300507145587,2.822938719331464,85.23038955118446,41.09659350289427,-29.752079306966102,21.399446126988064,3.3179420117352056,0.0,0.0,0.0,1.3066223791367706,1.0665679429348964,56
3.2165514084911098,89.31592951251301,-29.360589714024417,28.298822862089697,-5.851061349043932,89.63468711602206,36.9382765684131,-28.29882286208962,14.932087025682593,4.668436925621143,0.0,0.0,0.0,1.339994276034916,0.607282215640008,57
14.139948814490802,89.16603602532454,-26.991411710871688,28.29882286208962,-16.468513659821124,89.84874384135279,34.42218216474551,-28.29882286208985,16.9284602477928,3.9914041501825968,0.0,0.0,0.0,1.3159265485411233,1.5912798802208457,58
21.360826467410657,89.93408312688713,-24.80152303784262,28.29882286208972,-23.16571052538857,91.17622983558785,32.12629107296809,-28.29882286208972,16.83245926547189,3.9751631462008272,0.0,0.0,0.0,1.284982218242514,2.0597092128250036,59
28.338537747853145,89.71560452712471,-24.864294652389383,28.29882286208972,-29.889059666268288,91.4989033930061,32.08294226938384,-28.298822862089697,21.353490273183034,3.0889649257159473,0.0,0.0,0.0,1.2690968983507847,2.538828393440051,60
34.00165992357829,90.9571293867174,-22.792669323048177,28.29882286208985,-35.00511742093345,92.90744583485996,29.798776951424433,-28.2988228620899,22.384241246940896,2.954536331489207,0.0,0.0,0.0,1.2123072110020316,2.513922669807217,61
36.159454568504884,92.44464909053465,-20.69074834798046,28.298822862089697,-36.94038077892794,94.5072241438925,27.6448076224682,-28.29882286208952,22.79459470489377,2.8382572486530986,0.0,0.0,0.0,1.2029982286164371,2.475548346053741,62
37.632766893417376,93.32720054503692,-20.901580401805692,28.29882286208985,-38.44421263711743,95.4375571882723,27.807606048689916,-28.29882286208985,24.197145526379284,2.7182810037850946,0.0,0.0,0.0,1.1991777077733667,2.7058512145955262,63
38.41561039603773,94.06909445328785,-21.061341176477423,28.298822862089697,-39.238748494005215,96.1779236741934,27.95423366849439,-28.298822862090002,24.425796305024836,2.684732498853712,0.0,0.0,0.0,1.2118570458252693,2.8652174394493453,64
38.93247966671945,94.3342968828013,-21.1099396047613,28.298822862089672,-39.7119962855745,96.24662303289993,27.975741451495278,-28.29882286208985,24.260611476493263,2.6177100426947923,0.0,0.0,0.0,1.2358619286180716,3.0251531128070837,65
40.02159571780727,93.56985946450561,-23.392337979825566,28.29882286208985,-40.77113361129125,95.3361982596242,30.221934720304283,-28.2988228620898,24.50830101902692,2.5009775142019217,0.0,0.0,0.0,1.2665869272314159,3.3006374698362175,66
40.530516397501124,93.15947658700614,-23.29472506757784,28.298822862089647,-41.397326398222575,94.88214739927088,30.142127393066072,-28.298822862089697,24.360269715760275,2.439960461132945,0.0,0.0,0.0,1.3021256692510959,3.3111838015360826,67
40.75715343801782,92.92562590470715,-23.215166453630303,28.29882286208972,-41.97251443634503,94.0560968576191,32.43418907523136,-28.298822862089697,24.569006860512033,2.372913324823126,0.0,0.0,0.0,1.3592164016897779,3.3966113484513945,68
40.801901354151575,92.67431024389784,-23.144397606971705,28.298822862089672,-41.9899387887001,93.76469167428586,32.397031398533,-28.298822862089672,24.250700621273154,2.3131025010898862,0.0,0.0,0.0,1.3912931548542238,3.3573131578205286,69
41.23076077135805,91.76370086769579,-25.40264685459904,28.298822862089697,-42.00217713904333,93.34522653640019,32.323382852427926,-28.29882286208985,25.452317180647537,2.147391150384801,0.0,0.0,0.0,1.4040970686293026,3.297519824837097,70
40.37364812348641,91.66625939577757,-25.347166196924416,28.29882286208962,-41.28879866548553,93.20176401770196,32.328454231691545,-28.298822862089594,25.017507983220835,2.0579701016736442,0.0,0.0,0.0,1.4340445076151005,3.2431159620962178,71
38.329273740658216,91.41288342959247,-25.23338536831641,28.298822862089747,-39.19495216483598,92.58310124870259,32.27254758569813,-28.29882286208952,26.861802271280585,1.8776514947103546,0.0,0.0,0.0,1.4679303830061028,3.236482959333798,72
35.007793024037476,91.0451139365769,-25.066880706078962,28.29882286208972,-36.17222020456988,92.08293189299583,32.26266255495613,-28.298822862089647,27.86627177811312,1.7311682010524865,0.0,0.0,0.0,1.50763267287233,3.177431623820052,73
26.439243561242783,91.94520585864532,-25.097084537417192,28.2988228620899,-27.668364071017464,92.49268672601725,30.054687096982793,-28.2988228620899,23.608219814712452,2.2213996918323455,0.0,0.0,0.0,1.5034098033637395,3.3782067021724043,74
22.146721534437567,92.23899563474063,-20.134866447775966,28.298822862089697,-24.128264849330264,91.81066316336788,27.590473549930095,-28.298822862089647,25.727708737298652,1.872742131051156,0.0,0.0,0.0,1.5755207980124912,3.0341618904133867,75
1.468985968475381,91.52219626267808,-17.256775781959714,28.29882286208972,-3.5995276190056256,90.12291402330824,25.07862134819271,-28.2988228620898,15.278134952579885,3.110224000208904,0.0,0.0,0.0,1.6156221032991671,2.6978944932139104,76
-18.09484590448964,89.09322638695701,-21.17708223020358,28.298822862089594,16.197505843847686,86.6386016556575,27.57383525796913,-28.298822862089697,17.235196315523094,2.570843163808075,0.0,0.0,0.0,1.628548151597332,3.6442980314268065,77
-28.913826330006792,88.46201799508809,-21.505260843479356,28.298822862089825,26.962523346096336,86.23926816213302,26.812807559820058,-28.298822862089594,19.464220860910512,2.429055444745312,0.0,0.0,0.0,1.6812927576977574,2.5424446711053474,78
-44.656352878400504,87.03345585485089,-13.991567507282195,28.298822862089594,42.815102179820094,83.95662161379643,21.201277067745423,-28.298822862089697,22.076678725018706,2.453706856032703,0.0,0.0,0.0,1.6685446997077216,2.034232287492289,79
-65.45507710537208,83.20575150439758,-6.114088107532933,28.298822862089647,63.362603323143404,80.0409911689003,12.496827481484717,-28.29882286208972,28.80554819395546,2.0206489981077205,0.0,0.0,0.0,1.6577743995559102,1.0554865401825813,80
-86.66924872768121,83.19585755308242,10.624580244948072,28.298822862089697,85.22354654896762,79.59196870248411,-3.1038188312904254,-28.298822862089594,41.75386115378923,1.6634890523260562,0.0,0.0,0.0,1.5709995348571995,-0.3707967240633185,81
-100.1382152741439,84.39162601603046,27.63161723739924,28.298822862089697,100.08156094741248,80.72090565074582,-19.629624502246493,-28.2988228620898,89.60985327892033,1.1599140588309185,0.0,0.0,0.0,1.4927444631458784,-0.993746994137089,82
-108.46650079077833,81.05590723253067,40.449569223642335,28.298822862089647,109.33045797137368,78.65541313405859,-35.15300347408739,-28.298822862089697,90.0,2.481140627507462,0.0,0.0,0.0,1.4079886725146211,-0.2250133934758206,83
-114.05452524433846,72.9311950313732,47.66526715319363,28.298822862089825,115.99885375452551,71.94207510171901,-45.2015252158608,-28.29882286208972,90.0,5.624481800423877,0.0,0.0,0.0,1.346117962103855,0.9142025551974917,84
-123.09439420014813,68.78019426324698,51.93178626626949,28.298822862089647,126.85960162463597,71.8044077718445,-52.13116786803518,-35.47636449504052,90.0,6.000000000000009,0.0,0.0,0.0,1.2522551040319836,1.0199236468593165,85
-131.57742567415528,68.71598361649136,57.723805640440084,28.298822862089494,134.81529785201673,71.71728435303451,-57.741329384046466,-34.61139148530643,90.0,6.000000000000009,0.0,0.0,0.0,1.1991447924977678,1.1531952209006593,86
-139.0626599287202,64.7615427335168,66.25717901934821,28.298822862089825,141.62661977846625,70.18123234044383,-67.94310307571011,-37.22691545212289,90.0,6.000000000000009,0.0,0.0,0.0,1.1776297090456775,1.8136084550456286,87
-143.6888950659747,64.12265330541153,73.47221306443562,29.712222657332912,146.35238119068745,70.17043990977302,-72.4534341988309,-37.24838065207061,90.0,6.000000000000009,0.0,0.0,0.0,1.151079861841565,2.041181296169118,88
-145.96083079485814,65.44397267446902,70.28620541466162,32.7837241402954,147.73726964198735,71.35798357281675,-71.30464800069463,-38.95858620563383,90.0,6.000000000000009,0.0,0.0,0.0,1.1732566470697312,1.9518242243601611,89
-146.02844012738134,67.9775979622049,66.75982931637499,32.79601281707697,146.99738012493506,73.73319062907838,-67.9700107720714,-37.04206476750948,90.0,6.000000000000009,0.0,0.0,0.0,1.1400383492176045,1.7107643729648578,90
-142.05009654020571,70.93796449188754,61.17057300404812,28.298822862089697,143.5373902416056,76.20415350489657,-60.557575130024745,-33.78021494179793,90.0,6.000000000000009,0.0,0.0,0.0,1.14567023027148,1.4039606977935184,91
-136.29940826913474,73.38358200809019,54.208988749774754,28.298822862089825,137.3799646496666,77.4916306263993,-52.8735091456835,-29.107841035700464,90.0,6.000000000000009,0.0,0.0,0.0,1.1368125645849891,1.2897430183952063,92
-127.35519507894557,75.48290013171135,44.82133563796843,28.29882286208962,127.4895734630015,77.78452497514924,-43.25309324777253,-28.29882286208957,90.0,6.000000000000009,0.0,0.0,0.0,1.213402767573508,0.6068612790986532,93
-115.6816524161845,77.43999596806326,34.11298107157565,28.29882286208972,115.72215269129788,79.20009804667374,-34.60321456951996,-28.298822862089697,90.0,5.266832622504773,0.0,0.0,0.0,1.1709750069272393,-0.3584125126240522,94
-107.76772913725293,82.12139746304396,30.12864271926563,28.29882286208985,107.3660052802556,82.3560043424754,-28.607941833308587,-28.298822862089672,90.0,1.4876603747434287,0.0,0.0,0.0,1.1685082372442475,-1.5781606314281218,95
-99.47913160068192,85.62551518442878,22.638528835893965,28.298822862089594,98.607710759881,84.79483907755393,-18.8491711440689,-28.298822862089697,22.71704720033369,1.4328581295630407,0.0,0.0,0.0,1.1458090561946488,-2.6583545832207474,96
-91.28037885909991,87.44543802901993,9.460872423358198,28.29882286208972,90.51943979887638,86.49098119550406,-6.724108312213449,-28.298822862089924,23.21248425621287,1.8936643396480186,0.0,0.0,0.0,1.1567961428724316,-1.9040688540992972,97
-72.94448145817353,85.75540396700045,-12.050232907990262,28.29882286208972,71.63088996110983,83.14637487796422,15.197742194683558,-31.105819650331558,85.57187972315965,0.9554264844763599,0.0,0.0,0.0,1.247886016581006,0.055630120977658355,98
-45.80514150534981,87.83642427460806,-24.464522395173102,34.168581112262665,42.460551315804494,86.21562475147797,29.054394046382633,-37.428649408003224,90.0,0.9657864664250816,0.0,0.0,0.0,1.3485916758261345,1.2730675594817942,99
-20.437040696059533,88.39483406923327,-34.011020725522116,28.298822862089594,17.322145196383477,88.27185194327285,40.468296501060294,-28.298822862089825,90.0,1.0348932796990433,0.0,0.0,0.0,1.3914967422254634,2.1228898629130786,100
-7.220325581083876,90.43676646305299,-25.939997278954063,28.298822862089594,5.152135620060107,90.82414438887095,32.07404574288957,-28.298822862089672,36.35025190110287,1.7552889348609328,0.0,0.0,0.0,1.3473351292192592,0.9529046184847336,101
13.51203837016806,89.84312487080452,-27.13460354146974,28.298822862089594,-15.463465621890744,90.97168246816663,34.62757193105555,-28.298822862089647,79.73340531291954,1.0673745229099396,0.0,0.0,0.0,1.2988452314192027,1.9119777961543754,102
20.322415502429642,90.36277366773845,-22.397123898695984,28.298822862089697,-22.595807874525573,91.42397147414891,32.20669847512325,-28.298822862089875,48.133723763709696,1.4380912398209176,0.0,0.0,0.0,1.3148918976581216,2.120722020776885,103
28.289034033642984,87.59500561274197,-24.41139723801354,28.29882286208972,-30.549956151635627,88.96772515926605,34.06081214731981,-28.298822862089747,90.0,1.1304576816526182,0.0,0.0,0.0,1.299693163771547,3.1490365917866625,104
34.31889664011921,87.6994513027865,-22.05229086784793,28.298822862089594,-36.51943169871258,88.841886355159,31.50171575953876,-28.298822862089647,90.0,1.4565283665980577,0.0,0.0,0.0,1.3183756587749902,3.206443954258447,105
37.87244208457675,87.62000996782209,-19.661065663518983,28.298822862089747,-39.5183614895412,88.73104605646807,28.942727806424298,-28.29882286208985,90.0,1.695129046011708,0.0,0.0,0.0,1.2757281031772705,3.511940790898301,106
40.31579723951977,85.83487312031612,-19.336984911477764,28.298822862089697,-41.75923241051146,86.68960841450071,28.49251032852579,-28.298822862089594,90.0,1.9741630178292509,0.0,0.0,0.0,1.2624538492774642,4.104103619774681,107
41.35762788020393,82.63358538729162,-18.65560328314275,28.298822862089594,-43.03154455596138,83.34950690694212,27.828917731450293,-28.2988228620899,90.0,2.304127786064922,0.0,0.0,0.0,1.2955481839309426,4.921272977489581,108
42.23265230826366,77.08447372162343,-19.943884495852007,28.298822862089875,-44.317538453667886,77.5565279880479,31.684150201676772,-28.29882286208977,90.0,2.9015918615788077,0.0,0.0,0.0,1.3325354842417576,5.744982337642015,109
43.06466859311768,67.74587827038211,-22.879370184502402,28.29882286208972,-46.00228319973149,67.94147667496014,34.86312389926095,-28.298822862089647,90.0,4.013276634282353,0.0,0.0,0.0,1.3707877859217015,6.376064780935732,110
44.16348109501502,52.415981844246595,-28.827715039149968,29.49397844596341,-47.70786280702252,53.086849945841074,38.322250966780075,-29.697600290120363,90.0,5.383946548052116,0.0,0.0,0.0,1.3810594264453924,6.885733159949155,111
41.337276982566614,37.86503660892279,-22.0658007423387,35.19899567636578,-45.07047418219834,36.43624566148096,34.054684134934185,-38.119595279440986,90.0,6.000000000000009,0.0,0.0,0.0,1.3641957209888869,7.187816783447156,112
31.962891318256382,19.867486955834078,-13.580987886668346,39.17169326629582,-36.50217917886295,17.70600436653401,26.425797811688224,-43.73284865701053,90.0,6.000000000000009,0.0,0.0,0.0,1.3892893871898906,7.160254211012526,113
-11.853270855586134,5.377886143836294,29.65925959588993,38.87997084804229,46.97387594559601,4.002372033638916,-54.129967740160225,-45.510552581462,90.0,6.000000000000009,0.0,0.0,0.0,1.3537108067612371,7.174866982471195,114
-11.853270855586134,14.041321843974433,104.99999999999999,36.25152716523548,116.4904237342088,17.041655647642674,-105.00000000000001,-44.91642877290459,90.0,6.000000000000009,0.0,0.0,0.0,1.336746475743198,6.905224028054094,115
-11.853270855586134,28.877552110938105,104.99999999999999,34.45242244319203,115.38126759435121,32.76405096379995,-105.00000000000001,-44.06769572505576,90.0,6.000000000000009,0.0,0.0,0.0,1.2985904778090482,6.704698819798291,116
-109.43624402339128,42.112060303187114,88.45084335828882,30.414330045102417,114.90690565733371,47.0783926311493,-89.83259491008438,-40.79050373868773,90.0,6.000000000000009,0.0,0.0,0.0,1.3061636878618315,5.998632952661818,117
-109.63168382145787,57.54623578619162,77.23075076521697,28.298822862089594,114.11621952036441,58.310814937958554,-77.04482324947352,-31.255217201774524,90.0,6.000000000000009,0.0,0.0,0.0,1.3896979939628664,4.692062589615144,118
-103.89423414446291,69.57316576865118,62.33625090304519,28.298822862089697,107.15878885909514,68.36902933698453,-60.75345121800173,-28.29882286208972,90.0,6.000000000000009,0.0,0.0,0.0,1.4401989702505267,3.2052744076307973,119
-102.13629000309562,80.01934487850681,53.09090799244772,28.298822862089747,103.6766012669242,78.17353035448777,-50.33378920545777,-28.2988228620899,90.0,4.306647376006686,0.0,0.0,0.0,1.3803858347255957,1.458486867260169,120
-97.10513715699165,87.42441072518564,43.52905847406257,28.298822862089647,97.88409969438335,84.55482404767872,-35.467594155990035,-28.298822862089594,90.0,1.7696717803865083,0.0,0.0,0.0,1.3353239630602767,0.2354018950924545,121
-87.43932472187794,91.05140520681083,23.59235888100191,28.29882286208972,88.52731982770673,88.11138637508282,-18.611348818838916,-28.29882286208985,63.42520308324256,1.320369237110329,0.0,0.0,0.0,1.386555293624642,-0.8358896913161828,122
-77.24148928323167,92.48161351091493,3.740036129668605,28.298822862089594,77.268286400137,89.80911658980544,-0.6994546230247716,-28.298822862089825,90.0,1.2786460320138213,0.0,0.0,0.0,1.3241228124407434,-0.16519387142749536,123
-58.36761781792162,92.38988799451572,-5.784139299399863,28.29882286208972,57.20573988100126,89.6611291041948,9.543472827030454,-28.298822862089697,90.0,1.6387359787328666,0.0,0.0,0.0,1.3125229184182092,0.12668611200116434,124
-38.94865652496121,94.92342897465194,-11.034192957685026,28.298822862089697,37.54742279803495,91.8930272201399,17.677693415662272,-28.298822862089697,90.0,1.2946792234279603,0.0,0.0,0.0,1.2918764480511595,-0.43568679689116974,125
-29.1744736482392,95.23803264105467,-13.497034512922916,28.29882286208985,27.929153123504275,92.34080833596732,20.293393384577854,-28.29882286208962,90.0,1.356473092622169,0.0,0.0,0.0,1.2753483577426066,0.5284653547204233,126
-18.87000993498886,95.88395785649176,-21.39697025710899,28.29882286208962,17.227395763628383,93.3492000878463,29.28076422674966,-28.298822862089594,90.0,1.705742307542924,0.0,0.0,0.0,1.273666519667282,1.1972906025979644,127
-9.424242991744,97.58006724170981,-17.68455852837377,28.29882286208962,7.811453358400287,95.62422066671296,25.759499605021603,-28.298822862089825,90.0,1.483525341492369,0.0,0.0,0.0,1.2879914701932977,0.13336480173090273,128
-6.068626321683124,98.14742470940644,-12.222788954644031,28.298822862089594,4.71351160048295,96.58297720630746,20.414349599617147,-28.29882286208972,90.0,1.2648449597558264,0.0,0.0,0.0,1.293646907372161,0.202342563385733,129
-2.2031370896449034,99.24530531133968,-11.495388125660794,28.298822862089697,0.8568867244579413,98.27665859114691,19.645000929844777,-28.298822862089697,90.0,1.2726155829873085,0.0,0.0,0.0,1.282514082843031,0.4495077437097192,130
-1.5137385094969267,99.87465008379455,-9.021381226487847,28.29882286208985,0.20006403157694017,99.05886250361658,16.891300351808194,-28.298822862089697,90.0,1.1936409146185158,0.0,0.0,0.0,1.2775024192475808,0.3378395068370713,131
-1.1933983738009517,100.4342437616131,-6.5960096336911365,28.298822862089697,-0.1575724774612634,99.03397580293776,16.84464638583013,-28.2988228620898,90.0,1.1890433278604662,0.0,0.0,0.0,1.238739347308073,0.513067277490123,132
-1.34933580290478,100.23155999030733,-6.592633177849444,28.29882286208962,-0.0623621607116699,98.83128107850511,16.825007817231388,-28.298822862089697,90.0,1.1820685695920645,0.0,0.0,0.0,1.2643171957785795,0.5484334845395966,133
-2.8239820068589783,100.78891928123733,-4.497028858513618,28.298822862089697,1.2868916378601833,99.30677681906953,14.982187088813891,-28.29882286208985,90.0,1.1214942988817214,0.0,0.0,0.0,1.2959543429876095,0.6050390388758837,134
-4.443535524624645,100.68764977997962,-4.791632739712744,28.298822862089825,2.91381507310662,99.18742056045583,15.378180716756257,-28.298822862089875,88.59541215742276,1.0766570699871862,0.0,0.0,0.0,1.3391500172227961,0.5613477235523728,135
-7.63412223626539,100.7427622346068,-3.114828224142916,28.298822862089697,6.319053845585178,98.63651726159591,13.750388015908184,-28.29882286208972,71.28311506357483,1.1276160817574499,0.0,0.0,0.0,1.350550839536979,0.074021497805144,136
-15.213690366293903,96.92667725579709,-10.914887566806593,28.298822862089697,13.411854393829163,95.57413935554129,19.35240159147793,-28.29882286208962,82.75232931330602,1.0481188439450702,0.0,0.0,0.0,1.4004034992500196,0.9692918437219346,137
-23.24845983824513,95.76448725998841,-10.967094773794695,28.29882286208985,21.324040628751277,93.60326181606614,20.06328150354653,-28.298822862089594,80.30913437308524,1.043461748571286,0.0,0.0,0.0,1.4260492211442348,1.1058083225263575,138
-33.05957060495077,94.31167477154816,-10.72207046611913,28.298822862089697,31.399169891157584,92.12411399527319,17.90559410678383,-28.29882286208985,45.644189883751274,1.4576588212791528,0.0,0.0,0.0,1.42011477121831,0.9442963387571971,139
-47.426251821243355,91.82264650105844,-5.4148755124631665,28.298822862089594,46.10670151432548,88.63088286994233,14.501886381006651,-28.29882286208962,32.2693830803,1.9400864625641132,0.0,0.0,0.0,1.4040312706208025,1.046525610126019,140
-63.33520176125328,88.14025669323091,2.552390661180836,28.29882286208972,62.80848387900419,85.23925646302577,3.5545433642123214,-28.29882286208972,28.18388444949847,2.0911827666752902,0.0,0.0,0.0,1.3804758964004182,0.31887578485854245,141
-80.45581576462801,84.1389945113421,20.297856536028224,28.298822862089825,81.27898946809407,81.34683337369512,-15.008341947209093,-28.298822862089697,49.26694113736966,1.1998028977549238,0.0,0.0,0.0,1.337177517687131,-0.08384109519386641,142
-91.48762570575569,76.11829670859036,42.60720529640941,28.29882286208972,93.7169432282466,73.44200065077027,-37.559795835418676,-28.29882286208972,90.0,1.913267665253138,0.0,0.0,0.0,1.3764411511295152,0.3753623789104543,143
-100.48323638459232,63.42835439725574,59.40003518304706,28.298822862089594,103.47535026332271,61.71405889222833,-57.89121088156382,-28.515629299644612,90.0,4.639597604950305,0.0,0.0,0.0,1.376394235201491,2.1095728207538995,144
-113.71004839030125,53.04359615699857,74.82371257895647,28.29882286208972,118.08403739107305,54.99046152133541,-77.35550765780133,-35.15953508249623,90.0,6.000000000000009,0.0,0.0,0.0,1.3683483666058704,3.4446073221418834,145
-119.14919041999507,41.44431778694245,86.52114778894142,28.298822862089697,124.8778968284753,45.96041512767899,-88.51957298997795,-40.814271986756786,90.0,6.000000000000009,0.0,0.0,0.0,1.3836271380571477,4.304742691859479,146
-127.9199611947598,32.13519132150416,102.76189657980802,31.768843391997603,134.57081217652492,36.45774682361045,-104.64504207306577,-42.28272769086033,90.0,6.000000000000009,0.0,0.0,0.0,1.4092478186233146,4.89026233578825,147
-142.0448933410737,24.63311431656864,104.99999999999999,32.18052799596277,146.89240870540738,28.67715839099254,-105.00000000000001,-41.812461831079325,90.0,6.000000000000009,0.0,0.0,0.0,1.4425999539708985,5.178150056154114,148
-155.0,16.750187982423345,104.99999999999999,33.00559772360573,155.00000000000003,20.348309032700744,-105.00000000000001,-41.212190502189934,90.0,6.000000000000009,0.0,0.0,0.0,1.4352658817102053,5.760379110080392,149
-155.0,12.782274488102885,104.99999999999999,32.289010602473574,155.00000000000003,16.251790399128403,-105.00000000000001,-39.25121456735975,90.0,6.000000000000009,0.0,0.0,0.0,1.4632493573924492,6.1796397655019,150
-155.0,19.72412501738465,104.99999999999999,30.646091631169288,155.00000000000003,19.25620368689093,-105.00000000000001,-36.48979905784647,90.0,6.000000000000009,0.0,0.0,0.0,1.472265384188497,6.66354641375507,151
-155.0,32.56653337955647,104.99999999999999,28.29882286208962,155.00000000000003,32.461706105589705,-105.00000000000001,-29.832029444558504,90.0,6.000000000000009,0.0,0.0,0.0,1.5173328681669203,6.907048805774658,152
-155.0,45.44375048040415,104.99999999999999,28.298822862089594,155.00000000000003,45.58068838832391,-105.00000000000001,-28.298822862089647,90.0,6.000000000000009,0.0,0.0,0.0,1.5684130138066745,7.111409728545783,153
-155.0,56.97917102854695,104.99999999999999,28.298822862089594,155.00000000000003,57.582906022495244,-105.00000000000001,-28.298822862089647,90.0,6.000000000000009,0.0,0.0,0.0,1.6132884536464076,7.060367383708752,154
-155.0,65.51749479629773,104.99999999999999,28.298822862089594,155.00000000000003,66.03375815519597,-105.00000000000001,-28.298822862089594,90.0,6.000000000000009,0.0,0.0,0.0,1.6263159806866931,6.7649227707437225,155
-155.0,71.96921086254672,104.99999999999999,28.29882286208972,155.00000000000003,72.26469174448829,-105.00000000000001,-28.298822862089647,90.0,6.000000000000009,0.0,0.0,0.0,1.6201548892020732,6.360525560115069,156
-155.0,75.88400406572346,104.99999999999999,28.298822862089594,155.00000000000003,76.1016247800258,-105.00000000000001,-28.298822862089647,90.0,6.000000000000009,0.0,0.0,0.0,1.6215458420195663,6.215213134117246,157
-155.0,79.98534332899021,104.99999999999999,28.2988228620898,155.00000000000003,80.04758827524921,-105.00000000000001,-28.298822862089697,90.0,6.000000000000009,0.0,0.0,0.0,1.5705900637885901,5.900773357804023,158
-155.0,86.30140163253309,104.99999999999999,28.29882286208962,155.00000000000003,85.87093081343201,-105.00000000000001,-28.298822862089647,90.0,6.000000000000009,0.0,0.0,0.0,1.6116461448743382,5.16914745530744,159
-155.0,93.16455330536172,104.99999999999999,28.29882286208972,155.00000000000003,92.87252199137492,-105.00000000000001,-28.298822862089594,90.0,5.166987559839,0.0,0.0,0.0,1.614478672290024,4.341325991116315,160
-155.0,97.09560596549251,104.99999999999999,28.298822862089875,155.00000000000003,95.93871583793155,-105.00000000000001,-28.298822862089697,90.0,4.704689043410632,0.0,0.0,0.0,1.6840753737950995,2.8971760870438703,161
-155.0,99.86192237327296,104.99999999999999,28.298822862089825,155.00000000000003,97.56825540651029,-105.00000000000001,-28.298822862089697,90.0,3.2019554223162894,0.0,0.0,0.0,1.652445932241643,1.516998189614843,162
-155.0,96.90605927383582,104.99999999999999,28.298822862089672,155.00000000000003,95.18726009122531,-105.00000000000001,-28.29882286208972,90.0,3.2917518698741244,0.0,0.0,0.0,1.643521104655901,0.6695908686682258,163
-155.0,94.77819871068452,104.99999999999999,28.29882286208972,155.00000000000003,92.2870639815743,-105.00000000000001,-28.298822862089825,90.0,3.7058024231695326,0.0,0.0,0.0,1.654579249629181,1.1606749909662084,164
-155.0,95.78622068614672,104.99999999999999,28.298822862089697,155.00000000000003,92.03152380186584,-105.00000000000001,-28.29882286208962,90.0,2.5094450399220074,0.0,0.0,0.0,1.5630434246311753,0.263565729671236,165
-55.87138189398957,93.58024539036846,104.99999999999999,28.29882286208962,55.81751017034294,90.14308968149034,-105.00000000000001,-28.29882286208985,90.0,1.7274144995084768,0.0,0.0,0.0,1.4469750134531452,-0.47299786841543345,166
-77.54941654075823,90.79487434210778,16.489466102931214,28.298822862089697,78.47137654688615,87.77700748198038,-11.053092156858277,-28.29882286208972,90.0,1.1485424606351957,0.0,0.0,0.0,1.3760107007911693,-1.840386147712936,167
-92.50366173690807,91.05904413983323,35.61801555972262,28.298822862089825,94.54264713952058,88.07336321052998,-27.532222551761734,-28.298822862089697,90.0,1.148618251291438,0.0,0.0,0.0,1.3295787144130418,-2.744855810287748,168
-101.44517518574426,87.68752733878816,49.90533366339887,28.298822862089825,103.89219971450176,86.09542539905833,-44.47760523078405,-28.29882286208962,90.0,2.2577016625056783,0.0,0.0,0.0,1.2778112049489059,-2.1841753650881994,169
-109.42691172659728,80.15636470660024,56.661164971641604,28.29882286208957,112.18346048973522,79.09270549068503,-54.259821040464125,-28.298822862089697,90.0,4.923207406405204,0.0,0.0,0.0,1.298778468597277,-0.9447122849886899,170
-116.05841260658187,71.34164192427457,57.532183920474395,28.298822862089697,118.74356537833194,71.56317789193638,-60.288247228227476,-28.29882286208985,90.0,6.000000000000009,0.0,0.0,0.0,1.3037824608214978,0.15446063467161333,171
-126.72227854020392,69.55110804784806,65.0990919604479,28.29882286208962,129.7106754070098,69.21018794472822,-66.18694191569313,-28.32375649351592,90.0,6.000000000000009,0.0,0.0,0.0,1.291156003930211,0.2980687091958601,172
-133.94097904748074,66.31754458355978,72.28655651644112,28.29882286208962,136.3462394464588,68.4539591095506,-75.25885990427878,-32.018478535945405,90.0,6.000000000000009,0.0,0.0,0.0,1.2728467581954122,1.006346778709266,173
-140.46314041340906,65.26723428877672,82.35131982827244,28.298822862089697,143.39195532984718,66.98011165183031,-83.98289749966253,-29.47363638357945,90.0,6.000000000000009,0.0,0.0,0.0,1.2560421595528273,1.385020837719624,174
-142.90365579015082,65.78049904611981,87.3725003178695,28.298822862089697,146.05111948187763,66.70261342509976,-88.92055999265236,-28.298822862089697,90.0,6.000000000000009,0.0,0.0,0.0,1.2746243617886663,1.4397587242960355,175
-144.12596456119292,66.76264748365166,86.2225667087752,28.298822862089697,146.55984288188424,68.16948952727344,-90.02529751940263,-28.298822862089825,90.0,6.000000000000009,0.0,0.0,0.0,1.274798980679419,1.5784999322504714,176
-142.23032080462886,70.15636758706476,84.07253904108472,28.298822862089697,144.52527219987837,71.67897337510603,-87.26211525008448,-28.29882286208985,90.0,6.000000000000009,0.0,0.0,0.0,1.2825086122940677,1.4250844948283965,177
-138.4425206547553,72.51747260069594,74.1887157831433,28.298822862089697,140.6580190163494,73.46194690925674,-76.12429133225925,-28.298822862089697,90.0,6.000000000000009,0.0,0.0,0.0,1.3289469292698102,1.3896048893520196,178
-131.3481232354028,74.1459264158076,65.33020413292292,28.29882286208972,133.72291398018518,75.2885910165566,-66.86933200950874,-28.298822862089697,90.0,6.000000000000009,0.0,0.0,0.0,1.3267257488815436,1.0863768241323568,179
-123.22426683704084,76.82163891492061,55.943754781965694,28.29882286208985,125.0745180664155,76.4872594484485,-55.132869000094225,-28.298822862089875,90.0,6.000000000000009,0.0,0.0,0.0,1.3436830460790379,0.3377090987982864,180
-113.63417385622533,79.7476451524252,47.96726378273391,28.298822862089672,114.98289980065462,78.23589072045696,-45.238429606584454,-28.298822862089697,90.0,5.6693511443079565,0.0,0.0,0.0,1.3610440323448902,-0.5096035740384185,181
-104.26302859533914,82.33651609483786,36.645616429165194,28.298822862089875,104.8584219510757,80.31773988670835,-33.53096223668216,-28.29882286208972,90.0,2.5889807344024462,0.0,0.0,0.0,1.3804080300893202,-1.2934527134817781,182
-106.86345550431338,77.85603445872736,16.208854967999333,28.29882286208985,108.43956264413868,80.12449759269835,-19.577825001404054,-28.298822862089697,90.0,4.750358220585462,0.0,0.0,0.0,1.1930237224805997,-2.0603167059121037,183
-108.23392468279997,72.23502841968276,14.128395281645904,28.298822862089697,109.91648153521278,79.58734415680549,-15.412114548388537,-28.298822862089672,90.0,6.000000000000009,0.0,0.0,0.0,1.324587186218438,-3.704267056059618,184
-108.96705159269901,64.72045436302653,24.835516983730816,30.173678821162245,109.15494211541605,79.28386000886795,-17.85050113618744,-28.298822862089825,90.0,6.000000000000009,0.0,0.0,0.0,1.7005247799338448,-3.534011782842078,185
-112.0324472266207,57.48608607996493,41.790740289541795,40.935988884663665,110.69259872182208,79.96657126665849,-20.341340315508823,-28.298822862089825,90.0,6.000000000000009,0.0,0.0,0.0,2.1164146698665083,-2.6848856222426636,186
-115.91965148481295,53.094798823879636,59.450611304799544,43.31934256342009,111.76713375739017,81.4054811584057,-25.769431824235596,-28.298822862089594,90.0,6.000000000000009,0.0,0.0,0.0,2.951820094935858,-2.49877390693787,187
-118.52288594628,46.31826705212571,71.95141227197365,48.617414871709414,111.1061971197801,82.34355911821834,-28.09489161292628,-28.298822862089825,90.0,6.000000000000009,0.0,0.0,0.0,3.662028511978014,-2.360208105391408,188
-125.13068537237554,38.57947283117142,90.71104462205778,52.30761636797622,111.46059813445096,83.37517239200916,-32.917761111543776,-28.298822862089672,90.0,6.000000000000009,0.0,0.0,0.0,4.427211734871988,-2.0535143319891236,189
-128.54497722763057,23.029882157898495,101.10920285526049,57.24613507488823,110.65351638009685,84.24749911853776,-32.877221150212556,-28.29882286208972,90.0,6.000000000000009,0.0,0.0,0.0,5.5457365682015345,-1.7248756850877218,190
-155.0,13.515958623209483,104.99999999999999,57.39893101114412,108.82260318878224,84.27621710832025,-30.452013702432406,-28.298822862089747,90.0,6.000000000000009,0.0,0.0,0.0,7.0608855625509985,-2.104825158518353,191
-155.0,12.660970908706782,104.99999999999999,54.78168115592464,108.12477199496524,84.71124008776707,-30.503989724683233,-28.29882286208972,90.0,6.000000000000009,0.0,0.0,0.0,8.892007598819115,-2.0118837656665742,192
-155.0,21.662369509485274,104.99999999999999,50.77570470632716,106.09147174184795,84.28281527385951,-32.99722451403285,-28.298822862089672,90.0,6.000000000000009,0.0,0.0,0.0,11.829920508561651,-2.465339669510263,193
-155.0,31.960747210814592,104.99999999999999,45.2736478831806,102.80229002463344,82.35462557970872,-30.29533896186061,-28.2988228620898,90.0,6.000000000000009,0.0,0.0,0.0,14.982252319830659,-3.88173025821843,194
-155.0,41.168383644132426,104.99999999999999,39.46528542090788,102.09666043025666,81.12253643877028,-32.88179631873567,-28.29882286208957,90.0,6.000000000000009,0.0,0.0,0.0,18.186233422155205,-5.121276586797702,195
-155.0,48.61128354611741,104.99999999999999,33.72196649704085,101.39059661368245,79.40357179754017,-35.48753613298503,-28.29882286208962,90.0,6.000000000000009,0.0,0.0,0.0,21.184167699529688,-6.39153882327033,196
-155.0,55.811092722644545,104.99999999999999,28.298822862089544,99.56298965146458,77.37858933387348,-35.10738057075224,-28.298822862089672,90.0,6.000000000000009,0.0,0.0,0.0,23.990129780832824,-7.8741083321129635,197
-155.0,61.862356398727535,104.99999999999999,28.298822862089953,97.55401981885728,76.2152511464268,-34.3572768500528,-28.298822862089672,90.0,6.000000000000009,0.0,0.0,0.0,25.92433985720574,-8.716908911472679,198
-155.0,66.33019596591973,104.99999999999999,28.29882286208985,96.79883711121131,74.88423703666601,-33.00058904212224,-28.298822862089825,90.0,6.000000000000009,0.0,0.0,0.0,27.30462269999697,-9.557307803612206,199
-155.0,69.46205743777712,104.99999999999999,28.29882286208985,95.57103232585436,74.20106562326981,-32.496549022618076,-28.298822862089594,90.0,6.000000000000009,0.0,0.0,0.0,28.148011847591743,-10.250130632233105,200
-155.0,70.43835106016384,104.99999999999999,28.298822862089697,95.08174013922357,73.7767403161662,-32.31173699665174,-28.298822862089747,90.0,6.000000000000009,0.0,0.0,0.0,28.493008138964104,-10.67710485765967,201
-155.0,69.99989246817948,104.99999999999999,28.298822862089647,94.9532818964368,73.07213111163821,-29.937646506695312,-28.29882286208985,90.0,6.000000000000009,0.0,0.0,0.0,28.40289074467575,-10.88118996220713,202
-155.0,68.16899041236809,104.99999999999999,28.29882286208985,94.68535043865717,72.76562709502046,-29.99027036456481,-28.298822862089647,90.0,6.000000000000009,0.0,0.0,0.0,28.087290362467467,-10.715371853300315,203
-155.0,64.81659649559292,104.99999999999999,28.29882286208972,94.83296883742732,72.91611773474267,-31.093205811418557,-28.298822862089697,90.0,6.000000000000009,0.0,0.0,0.0,27.315219522889763,-10.353966466505645,204
-155.0,60.92765440594571,104.99999999999999,28.298822862089672,95.02728292565696,72.82901625403206,-31.328736317614517,-28.298822862089697,90.0,6.000000000000009,0.0,0.0,0.0,26.172370792131527,-9.983047299886769,205
-155.0,52.58310529813484,104.99999999999999,32.260876035486476,95.9675186356399,72.56723993974563,-31.960795787753483,-28.298822862089747,90.0,6.000000000000009,0.0,0.0,0.0,24.506934375730822,-9.553876918845429,206
-155.0,41.58745358341379,104.99999999999999,40.697217159708046,97.46870631446232,73.13764799678178,-32.67219938254185,-28.29882286208985,90.0,6.000000000000009,0.0,0.0,0.0,21.80857796061101,-8.916350898300115,207
-155.0,32.81879412946716,104.99999999999999,46.21190605268846,98.97728575917716,74.68788059076239,-35.53544112089845,-28.29882286208972,90.0,6.000000000000009,0.0,0.0,0.0,18.70386661221281,-8.157524798958905,208
-155.0,22.88654787386624,104.99999999999999,51.8734220496068,99.69426127233358,76.19809114121445,-35.55919023391181,-28.29882286208985,90.0,6.000000000000009,0.0,0.0,0.0,15.536678527706712,-7.291655848876772,209
-155.0,14.33334466886751,104.99999999999999,55.38832247670459,101.09800751874023,77.51566402803104,-35.881129663075185,-28.298822862089697,90.0,6.000000000000009,0.0,0.0,0.0,12.65552410005118,-6.287007192385634,210
-155.0,6.526920358733297,104.99999999999999,58.02173349739754,103.42453500390559,79.63514069882547,-38.13557815876877,-28.298822862089697,90.0,6.000000000000009,0.0,0.0,0.0,10.258943962272841,-5.570343205690331,211
-134.65076471276168,12.929601316201978,104.99999999999999,60.17253691799243,104.35175896381946,80.63849194447369,-36.21808151838955,-28.298822862089697,90.0,6.000000000000009,0.0,0.0,0.0,8.164504366176853,-4.921413532857423,212
-119.06499711897514,26.141334827716058,93.27346867036579,59.46673313853926,105.02432706632074,81.96292632260128,-35.99061481118936,-28.298822862089697,90.0,6.000000000000009,0.0,0.0,0.0,6.2436325804917665,-4.095249878525275,213
-118.81911703799771,40.270708791683404,85.51919928647605,55.51452155749586,105.88095187246996,83.03579728285611,-35.817015112848765,-28.298822862089672,90.0,6.000000000000009,0.0,0.0,0.0,4.525885351328356,-3.1867346051274654,214
-106.20276232244383,48.742120615085035,63.3888268237909,49.564117664627986,106.0890551386003,84.90803889780061,-32.86229764624288,-28.29882286208957,90.0,6.000000000000009,0.0,0.0,0.0,2.709390163670061,-3.6304738082973027,215
-100.18730781181968,57.97081604048488,49.220001226902674,36.926803524527024,103.17390175517811,85.55184203159031,-27.17264734799372,-28.298822862089697,90.0,6.000000000000009,0.0,0.0,0.0,0.7507630234357451,-3.967821183527106,216
-97.48052879489082,66.8903576410059,40.69083437446103,28.29882286208972,102.3236165999498,85.79335454028875,-21.961308006698925,-28.29882286208962,90.0,6.000000000000009,0.0,0.0,0.0,-0.6875692489156173,-3.669739920778709,217
-97.5588428412718,76.22995401388805,34.04533637165919,28.298822862089647,100.9364502566334,86.0996847518126,-16.748657618477594,-28.298822862089647,90.0,4.438455908352424,0.0,0.0,0.0,-1.8601833554148968,-3.729239339717479,218
-101.27614899815968,83.27568723514251,33.53490167897806,28.298822862089924,101.1677076110743,86.85785551234093,-14.155155116630215,-28.298822862089647,90.0,3.9874698526595598,0.0,0.0,0.0,-2.8288108188652306,-3.803814186772944,219
-104.19699391456183,88.98410856525472,33.65870172412823,28.29882286208985,101.46947967743392,87.99904256242048,-13.886310466414823,-28.29882286208985,90.0,4.086861431138721,0.0,0.0,0.0,-3.303241156770064,-3.6383830032908264,220
-104.53378555231151,91.20225020204687,33.305013815006795,28.298822862089825,101.30802738156414,87.76558045499571,-11.506540334417824,-28.29882286208962,90.0,4.380526257816883,0.0,0.0,0.0,-3.9036206019538655,-3.8589741131346997,221
-103.1768589560541,89.99288142301278,30.981475342355427,28.298822862089594,100.24370438627807,86.73958271344668,-9.20870478563833,-28.29882286208962,90.0,4.702501566459465,0.0,0.0,0.0,-4.052156282736684,-3.961352986041069,222
-103.21451103277704,87.25278911561868,33.955468285432076,28.29882286208985,99.85151193719399,85.8403537701991,-9.371778223376676,-28.29882286208985,90.0,4.844154516539197,0.0,0.0,0.0,-3.9603981443697576,-3.8870602672056154,223
-102.41378405155072,82.2708014229749,36.51905603287126,28.298822862089647,99.04336988665418,84.71249523739374,-9.44290883765487,-28.298822862089672,90.0,4.901502722461684,0.0,0.0,0.0,-3.517306080121118,-3.5372985495050293,224
-99.82368448754495,75.11037723545346,39.926729058998426,28.29882286208985,98.89001812425407,83.46898106194745,-9.608170592531057,-28.298822862089594,90.0,5.096158409034153,0.0,0.0,0.0,-2.7288349998993744,-3.351659821088501,225
-97.28628475480576,66.0512255969986,45.35717277474039,28.298822862089697,98.65598286245164,82.7248183305263,-9.648183754674154,-28.29882286208985,90.0,5.541537515959308,0.0,0.0,0.0,-1.9231927001598355,-3.181248726231194,226
-95.7107703661523,57.24406477870634,50.27501098210612,31.687429166387435,100.14785617513371,82.27469488732896,-9.863290588872935,-28.298822862089697,90.0,6.000000000000009,0.0,0.0,0.0,-0.8418826869403833,-2.784025040931695,227
-98.7050069761314,51.14309852689421,57.77811241424799,41.697263362937264,102.13603299472956,82.94090222718222,-12.391713694987784,-28.298822862089594,90.0,6.000000000000009,0.0,0.0,0.0,0.4776828511130643,-2.320980108530694,228
-100.95021740087549,43.563705996969986,65.1705965421125,49.845631437545045,103.39536358701858,83.37275998140976,-14.872097789853008,-28.298822862089594,90.0,6.000000000000009,0.0,0.0,0.0,2.052234880165333,-1.8926841658352525,229
-104.10034445984653,35.8417845586263,74.07465117760621,54.46094338282826,104.11538865997214,83.4150037577261,-17.42545251147728,-28.298822862089747,90.0,6.000000000000009,0.0,0.0,0.0,4.021753339644529,-1.8504221352033963,230
-111.30754185784478,28.382475892197068,87.42680510141926,57.688713095028106,104.77805815659164,83.05675531866211,-20.09195154069847,-28.298822862089697,90.0,6.000000000000009,0.0,0.0,0.0,6.172911008657553,-1.770061677548784,231
-120.79793265033136,17.59619250025864,100.27946257438643,59.30690626968605,104.2836481104485,82.98932262927721,-22.818005122046642,-28.298822862089697,90.0,6.000000000000009,0.0,0.0,0.0,8.077596721932675,-1.8338199318246868,232
-153.25496652570092,10.752294648245444,104.99999999999999,59.17619660421888,103.54952211384891,82.14075383106422,-22.954252061109923,-28.298822862089672,90.0,6.000000000000009,0.0,0.0,0.0,10.330944696722218,-2.1426007991912517,233
-153.25496652570092,9.64753454845058,104.99999999999999,56.96723649826084,103.57150394543875,81.4578515455326,-25.647859498217468,-28.298822862089594,90.0,6.000000000000009,0.0,0.0,0.0,12.915489956356977,-2.568443509750597,234
-153.25496652570092,20.163011721931046,104.99999999999999,52.716095742360174,101.3097435711813,80.13190183549005,-25.376743149034578,-28.298822862089647,90.0,6.000000000000009,0.0,0.0,0.0,15.65991538701805,-3.1799235215553527,235
-153.25496652570092,30.18995826302708,104.99999999999999,47.306500601078945,99.91087835641001,78.92681380696689,-27.61595528770229,-28.298822862089825,90.0,6.000000000000009,0.0,0.0,0.0,18.67788117175428,-4.203473930713285,236
-153.25496652570092,39.660994476749615,104.99999999999999,40.76390703821629,99.55820688596614,77.31514509777024,-27.714727622342437,-28.29882286208957,90.0,6.000000000000009,0.0,0.0,0.0,21.44711310781551,-5.341970687384228,237
-153.25496652570092,49.393063552006545,104.99999999999999,32.464924727316266,99.5225434482898,76.17247050382575,-30.320066855690634,-28.298822862089672,90.0,6.000000000000009,0.0,0.0,0.0,24.020139281807676,-6.059845040835525,238
-153.25496652570092,56.54720599079567,104.99999999999999,28.298822862089825,98.36462696050656,74.75088639288886,-31.429981903812962,-28.298822862089697,90.0,6.000000000000009,0.0,0.0,0.0,26.567350436759398,-7.485133253275568,239
-153.25496652570092,61.57452170919731,104.99999999999999,28.29882286208962,96.19858652958085,73.32666008131899,-30.502806392545523,-28.29882286208972,90.0,6.000000000000009,0.0,0.0,0.0,28.56223118626104,-9.226667332728677,240
-153.25496652570092,66.60694171067196,104.99999999999999,28.298822862089697,94.2679859120507,72.2357952741533,-29.596858970305846,-28.298822862089697,90.0,6.000000000000009,0.0,0.0,0.0,30.134343100160788,-10.44741000628195,241
-153.25496652570092,71.9870679403986,104.99999999999999,28.298822862089924,93.31433361687495,71.22291269228184,-29.191134067669733,-28.29882286208962,90.0,6.000000000000009,0.0,0.0,0.0,31.077616200263588,-11.171767877187879,242
-153.25496652570092,75.88810942940276,104.99999999999999,28.298822862089697,92.1361032913497,70.02833581026674,-26.20817835137414,-28.29882286208985,90.0,6.000000000000009,0.0,0.0,0.0,31.90317109611094,-12.08809802406761,243
-153.25496652570092,77.96070763407324,104.99999999999999,28.298822862089697,90.29748398921116,69.46298653064986,-25.235556168655087,-28.298822862089672,90.0,6.000000000000009,0.0,0.0,0.0,32.67188666490203,-13.241506920686477,244
-153.25496652570092,78.6368729849564,104.99999999999999,28.29882286208962,89.27595986863673,68.73052636847417,-22.290627705199885,-28.298822862089697,90.0,6.000000000000009,0.0,0.0,0.0,33.078953032212084,-13.907603249118358,245
-153.25496652570092,77.84321946039799,104.99999999999999,28.298822862089672,88.60140896580414,68.56426154869396,-21.99300190558271,-28.2988228620898,90.0,6.000000000000009,0.0,0.0,0.0,33.10092744373835,-14.180700728930567,246
-153.25496652570092,75.86933703577306,104.99999999999999,28.298822862089747,88.48518760469923,68.2951389415743,-22.062952593159142,-28.298822862089594,90.0,6.000000000000009,0.0,0.0,0.0,32.84136634116713,-14.223861083180365,247
-153.25496652570092,73.44788056587785,104.99999999999999,28.298822862089747,88.83247607443754,68.02225928290672,-22.470306132803543,-28.29882286208957,90.0,6.000000000000009,0.0,0.0,0.0,32.22067475958386,-13.877732311254746,248
-153.25496652570092,69.48003631841337,104.99999999999999,28.29882286208985,89.86330454049083,67.51185923452094,-23.330132266501437,-28.298822862089825,90.0,6.000000000000009,0.0,0.0,0.0,31.306982114758192,-13.251330169348412,249
-153.25496652570092,64.54088321424116,104.99999999999999,28.298822862089697,91.03111226218758,67.43175598342916,-24.270671825662326,-28.29882286208962,90.0,6.000000000000009,0.0,0.0,0.0,29.852466616175175,-12.389751152578333,250
-153.25496652570092,58.168585180799084,104.99999999999999,28.298822862089647,92.55222120921479,67.51449697709647,-26.071806815167232,-28.298822862089697,90.0,6.000000000000009,0.0,0.0,0.0,27.618944695651134,-11.43958398250589,251
-153.25496652570092,46.2045160594152,104.99999999999999,38.63501225286388,93.75451148159992,68.40266785332766,-28.831852920744304,-28.298822862089697,90.0,6.000000000000009,0.0,0.0,0.0,24.725543761959326,-10.111277712396813,252
-153.25496652570092,36.83752639901876,104.99999999999999,44.91344607050986,96.19234853731557,69.45110746077152,-30.188911047058163,-28.29882286208985,90.0,6.000000000000009,0.0,0.0,0.0,21.592378803247883,-9.269823954369064,253
-153.25496652570092,29.281572958527498,104.99999999999999,48.93644252581565,97.95030960632128,71.0093028078615,-30.951754763320906,-28.298822862089697,90.0,6.000000000000009,0.0,0.0,0.0,18.55472491919513,-8.417273656221676,254
-153.25496652570092,22.213346219999494,104.99999999999999,52.59914741026707,99.71090746895447,72.79579191775966,-31.46691317515799,-28.29882286208962,90.0,6.000000000000009,0.0,0.0,0.0,15.667542367249355,-7.354162539786841,255
-153.25496652570092,15.697325166113703,104.99999999999999,54.97950814457013,100.89929064260438,74.33814642560229,-31.703410896555983,-28.298822862089594,90.0,6.000000000000009,0.0,0.0,0.0,12.788996777806549,-6.403523466483961,256
-153.25496652570092,9.504923186528535,104.99999999999999,57.09340119398788,103.59570449720353,76.79499061906509,-32.040014526864425,-28.298822862089594,90.0,6.000000000000009,0.0,0.0,0.0,10.28098316922275,-5.386119468496537,257
-155.0,11.697085014644786,104.99999999999999,58.482401114452216,103.28751739034506,78.48479915830855,-31.5154157747225,-28.298822862089875,90.0,6.000000000000009,0.0,0.0,0.0,7.992692354899034,-4.893735519554382,258
-127.2717623425495,21.01358696982254,99.90828826813949,58.670756864805234,103.83570294245358,79.8685015277775,-28.809979807648233,-28.29882286208977,90.0,6.000000000000009,0.0,0.0,0.0,5.961746040790633,-4.512008560042781,259
-123.96021093490523,34.40137755197654,91.01323761233864,55.43725773576467,103.67957017963329,80.89428459580017,-25.919716133982075,-28.29882286208962,90.0,6.000000000000009,0.0,0.0,0.0,4.0709546550609685,-3.794302966191198,260
-115.66025931145407,43.70519462211566,76.49299653792117,50.32003431747529,103.7928421089424,82.95127549598257,-25.425048357468196,-28.298822862089825,90.0,6.000000000000009,0.0,0.0,0.0,2.358675587341235,-3.7719871508930343,261
-108.85555444158383,51.788495726861285,60.15992261598756,42.80946223537124,102.72012992401017,84.18340960644437,-22.428908073368284,-28.298822862089594,90.0,6.000000000000009,0.0,0.0,0.0,1.206500718879456,-4.029507307635679,262
-100.03421258120596,58.96843330371548,44.23284088537867,30.77137153919569,101.59263819986874,85.12634962603691,-17.071887906635293,-28.298822862089647,90.0,6.000000000000009,0.0,0.0,0.0,0.2528075717576689,-4.482133328600572,263
-100.75284713304393,68.47481096568048,39.791853241550044,28.298822862089697,101.11143479066726,85.7970509776702,-14.309241767709771,-28.298822862089647,90.0,6.000000000000009,0.0,0.0,0.0,-0.5041816841890022,-4.075007558719596,264
-100.92707020340791,76.30073221986704,35.39768802738776,28.298822862089697,100.00034120851501,86.33732267790573,-11.551715238260371,-28.298822862089825,90.0,5.040060389581792,0.0,0.0,0.0,-0.8882601943801447,-3.95637881908088,265
-103.32580410577829,81.99253661819174,32.07523877649756,28.298822862089594,100.20810457125654,86.96926694657947,-11.44188245615687,-28.298822862089697,90.0,4.741512760494424,0.0,0.0,0.0,-1.1109790482790243,-4.0443189373929,266
-105.16898097078503,86.49367253805289,31.006949804500675,28.2988228620899,101.75276676090357,87.14222660390965,-11.555324634700249,-28.298822862089924,90.0,4.5747645629891736,0.0,0.0,0.0,-1.310507358306064,-4.002527884853312,267
-105.40484740705939,88.71469768083361,28.74193176178686,28.298822862089672,101.64308099113764,86.87499237462383,-11.644220286414631,-28.298822862089594,90.0,4.682802533679162,0.0,0.0,0.0,-1.5884140007175498,-4.040566122475682,268
-106.34076900723448,89.09293793479493,28.755337066075924,28.298822862089697,101.69785905161352,85.38795052530577,-12.111759918011481,-28.298822862089594,90.0,5.289454635204051,0.0,0.0,0.0,-2.2581156514370258,-4.024077814701492,269
-106.86761521124552,88.2302297871897,31.50546577334246,28.298822862089697,100.06621030494956,82.30563540955451,-12.74278594565943,-28.298822862089697,90.0,6.000000000000009,0.0,0.0,0.0,-3.297605834347855,-4.039812863149741,270
-106.82877600105522,86.7418452249559,34.35249445318799,28.29882286208972,97.8571317397155,77.4374083840964,-18.38560361966156,-28.298822862089594,90.0,6.000000000000009,0.0,0.0,0.0,-4.3996992810581235,-4.146376388025348,271
-106.6464425771143,84.86346210276139,37.29088678539125,28.29882286208962,95.93635868018278,68.92870082886658,-26.892770770403057,-32.18004960577167,90.0,6.000000000000009,0.0,0.0,0.0,-5.909742801813114,-4.585074051621937,272
-106.24490955087492,83.3603619738643,40.17873595429205,28.298822862089647,100.72760237030452,60.66532504546759,-38.8370432253671,-47.50213352902574,90.0,6.000000000000009,0.0,0.0,0.0,-8.01240742227905,-5.033259777390721,273
-105.85073151468252,82.42651021456817,40.525692843195415,28.2988228620898,102.92825345246185,50.93195198743062,-50.16391815412653,-58.65409980941666,90.0,6.000000000000009,0.0,0.0,0.0,-10.370010870627919,-5.376010966550182,274
-105.4133317568318,81.59165483400086,40.77378655930646,28.298822862089672,112.40382724762264,43.53801196317329,-68.33722809432692,-65.14384064848115,90.0,6.000000000000009,0.0,0.0,0.0,-12.326439198445328,-5.267879419351568,275
-103.84360173950049,80.4208668849414,38.30200340200592,28.298822862089672,121.0179605089791,31.202066304766824,-84.89060121000944,-69.62862073015552,90.0,6.000000000000009,0.0,0.0,0.0,-14.209203756474663,-5.765076650841656,276
-103.6013754775323,80.0533303688535,40.89551198129092,28.298822862089697,136.1416729310161,21.490313292652736,-105.00000000000001,-69.85441073361113,90.0,6.000000000000009,0.0,0.0,0.0,-16.403464228390753,-6.169576777462242,277
-102.665775706526,79.43647366409627,40.81168999358772,28.29882286208962,136.1416729310161,15.780377110890548,-105.00000000000001,-65.96950277144896,90.0,6.000000000000009,0.0,0.0,0.0,-18.22173003923131,-6.227408146177352,278
-102.09083073808756,78.27153020258434,40.898727679281194,28.298822862089747,136.1416729310161,22.21544926757626,-105.00000000000001,-59.86228086656919,90.0,6.000000000000009,0.0,0.0,0.0,-20.4055182530108,-6.606818504029889,279
-101.02207197539727,77.7325617325581,43.12592136772672,28.298822862089697,136.1416729310161,33.06011740695292,-105.00000000000001,-52.23852634828306,90.0,6.000000000000009,0.0,0.0,0.0,-22.525696649859587,-7.560151608888721,280
-100.66632402400008,76.97600290247452,43.133502492120144,28.298822862089697,136.1416729310161,44.47996755543533,-105.00000000000001,-42.749377681144196,90.0,6.000000000000009,0.0,0.0,0.0,-24.407973602952442,-8.07985396382319,281
-100.26967625650462,76.52870286899663,43.04662001962869,28.298822862089697,136.1416729310161,57.29506517473133,-105.00000000000001,-29.81453108550919,90.0,6.000000000000009,0.0,0.0,0.0,-26.14510376642193,-8.470736271669258,282
-99.71627277158977,75.62381968421327,42.932055278133156,28.298822862089747,136.1416729310161,64.16828750599073,-105.00000000000001,-28.298822862089697,90.0,6.000000000000009,0.0,0.0,0.0,-27.68561167177112,-9.193207555798645,283
-99.33828540291412,74.19786852514513,40.455392469037214,28.29882286208972,136.1416729310161,69.32553472329046,-105.00000000000001,-28.298822862089825,90.0,6.000000000000009,0.0,0.0,0.0,-28.988794462269723,-10.144689119665287,284
-98.90591953741495,73.21130020962892,40.38266466859003,28.29882286208962,136.1416729310161,74.16543385744492,-105.00000000000001,-28.29882286208962,90.0,6.000000000000009,0.0,0.0,0.0,-29.706452868669533,-10.719974356285755,285
-98.60036271495335,72.42795803637433,40.342502596495606,28.298822862089594,136.1416729310161,77.98594837193487,-105.00000000000001,-28.29882286208972,90.0,6.000000000000009,0.0,0.0,0.0,-30.124807993255633,-11.298988742255107,286
-97.98420908460356,71.37474331222792,37.68789808817083,28.298822862089697,136.1416729310161,80.51559765030095,-105.00000000000001,-28.29882286208985,90.0,6.000000000000009,0.0,0.0,0.0,-30.373402875029356,-12.095772562041425,287
-97.10312087025736,70.80753734538527,37.31796587340074,28.298822862089825,136.1416729310161,82.3168957863159,-105.00000000000001,-28.298822862089697,90.0,6.000000000000009,0.0,0.0,0.0,-30.497461518887263,-12.747199081436259,288
-96.78564185863598,70.19204040102457,34.776494627240574,28.298822862089697,136.1416729310161,82.66772365913833,-105.00000000000001,-28.29882286208957,90.0,6.000000000000009,0.0,0.0,0.0,-30.346036783508854,-13.022961156041633,289
-96.95057583902505,70.12773408569097,34.90764620311452,28.298822862089697,136.1416729310161,81.53363780963943,-105.00000000000001,-28.29882286208972,90.0,6.000000000000009,0.0,0.0,0.0,-29.898767074767623,-12.836352580118536,290
-97.3616285813705,70.11967272788357,35.17440104526242,28.298822862089594,136.1416729310161,80.08303360453297,-105.00000000000001,-28.29882286208972,90.0,6.000000000000009,0.0,0.0,0.0,-29.09641885338832,-12.29359126880514,291
-97.47163173042061,70.15979058354736,35.28912251675401,28.298822862089647,136.1416729310161,77.27349755459163,-105.00000000000001,-28.298822862089594,90.0,6.000000000000009,0.0,0.0,0.0,-28.06903657040947,-11.974514145993979,292
-98.1845492393519,70.09206939472757,35.72160720655493,28.29882286208962,136.1416729310161,72.34454111135162,-105.00000000000001,-28.29882286208985,90.0,6.000000000000009,0.0,0.0,0.0,-26.628683237148778,-11.582405524431266,293
-98.7328018164326,70.22236157857934,36.04392848716707,28.29882286208985,136.1416729310161,66.08054480764744,-105.00000000000001,-28.298822862089825,90.0,6.000000000000009,0.0,0.0,0.0,-24.432591679707738,-10.880037407692969,294
-100.13906146208205,70.9136926789062,36.56255182477678,28.298822862089697,136.1416729310161,59.64996381701782,-105.00000000000001,-28.298822862089825,90.0,6.000000000000009,0.0,0.0,0.0,-21.666714248944697,-10.435696406516762,295
-101.0671387556396,72.84511802101821,36.55941043777506,28.29882286208972,136.1416729310161,49.28001413934742,-105.00000000000001,-37.76334705704948,90.0,6.000000000000009,0.0,0.0,0.0,-18.540068328470568,-9.271380965865141,296
-101.30684112536336,74.6259866131859,36.29131401825729,28.298822862089697,136.1416729310161,41.92605664933483,-105.00000000000001,-43.59753996565391,90.0,6.000000000000009,0.0,0.0,0.0,-15.36001747107511,-8.17293627784731,297
-102.2402604450424,76.87655929949962,36.05938561378877,28.298822862089647,136.1416729310161,33.14488479349903,-105.00000000000001,-49.52405937141672,90.0,6.000000000000009,0.0,0.0,0.0,-12.592536785926596,-7.18806216135293,298
-103.04611094778721,78.54489901508164,37.81180946182948,28.298822862089697,136.1416729310161,24.930530245578424,-105.00000000000001,-54.02648034084333,90.0,6.000000000000009,0.0,0.0,0.0,-10.009111522018546,-6.306256356909602,299
-105.37292555716041,80.75779028796043,38.05833148601009,28.298822862089825,136.1416729310161,14.428343168345645,-105.00000000000001,-58.85949427318419,90.0,6.000000000000009,0.0,0.0,0.0,-7.6407200483187125,-5.0561469303759505,300
-105.96618617948046,82.77215914052333,39.966961752841286,28.298822862089697,155.00000000000003,5.1404409326052924,-105.00000000000001,-62.66441419051708,90.0,6.000000000000009,0.0,0.0,0.0,-5.340798114468314,-4.645400030488334,301
-106.32350893186104,84.01256134786,37.15779079138492,28.29882286208972,119.66465719628658,18.331750281336706,-84.378555607681,-64.59804390489495,90.0,6.000000000000009,0.0,0.0,0.0,-3.483446525735842,-4.324630678430352,302
-107.13408610994914,85.264484257102,36.79886725101266,28.298822862089697,115.74504089685114,34.424161072351396,-73.52924597911714,-62.09217108960062,90.0,6.000000000000009,0.0,0.0,0.0,-1.8207116234740337,-3.2943687479117774,303
-107.24171123782025,86.70087052448007,36.40674097252124,28.298822862089647,110.89219253802827,43.993995473153596,-61.779262647956195,-56.871218100182794,90.0,6.000000000000009,0.0,0.0,0.0,0.08312887513982098,-3.2888144203818674,304
-106.43146413855804,87.14299309339633,31.13446716739763,28.29882286208972,106.6548229727432,51.45896790733965,-48.684751260360976,-48.55524146188088,90.0,6.000000000000009,0.0,0.0,0.0,2.07432968731684,-3.4528936128851297,305
-104.3194612481491,87.44081363372871,25.65882677011905,28.298822862089825,104.82329877564239,59.26072888966191,-42.60130212667333,-37.39558112130416,90.0,6.000000000000009,0.0,0.0,0.0,3.8715251136873627,-3.1753560591262207,306
-104.08144984110726,87.9479797163232,20.537053630062,28.298822862089697,102.29459594371747,65.44242043605608,-34.45665410925299,-28.298822862089747,90.0,5.594983683457988,0.0,0.0,0.0,5.187727845462503,-3.4010536740538932,307
-103.46394941719994,88.2419758064733,15.402881988846207,28.298822862089697,101.77152649184109,73.35295627403903,-29.741468000855658,-28.29882286208977,90.0,4.429617778143202,0.0,0.0,0.0,5.886844136052276,-3.5336977683835866,308
-102.64725200401153,88.76838307309522,12.717613645062492,28.298822862089825,102.2945881218116,78.87479481197018,-23.454057446398487,-28.298822862089697,90.0,3.867958023434129,0.0,0.0,0.0,6.201812998402104,-3.7249839603997636,309
-103.3238058522774,89.92137967864761,14.954391776061572,28.298822862089697,105.14356673490373,83.83238283943706,-25.11122624788961,-28.298822862089697,90.0,3.7685001052343434,0.0,0.0,0.0,6.1252827333366975,-3.8601296907969003,310
-103.33519770371959,89.31875298043508,12.588708046617707,28.29882286208972,105.03533886214616,84.15260609372446,-22.55994786021866,-28.298822862089697,90.0,3.987804864431278,0.0,0.0,0.0,5.869116845793311,-3.7921381234539417,311
-103.31387594340598,89.00581544549478,15.173197979249347,28.298822862089697,101.44502671570396,81.61046882525581,-22.58878692711617,-28.298822862089672,90.0,4.242945015530325,0.0,0.0,0.0,5.104429330040607,-3.909562638865128,312
-104.03122576273007,88.04851160083167,17.989427606829555,28.29882286208972,102.77737493379128,77.01437257292845,-26.831892735736353,-28.298822862089594,90.0,5.1629162410878395,0.0,0.0,0.0,3.99263981597121,-3.9020064467111237,313
-104.15466138021495,86.86879272351791,20.83710020792905,28.298822862089697,99.0000268286263,67.18473286752523,-32.77777410117156,-28.298822862089825,90.0,6.000000000000009,0.0,0.0,0.0,2.624950584422465,-3.9875679649035796,314
-104.68946408330034,85.72023702421838,21.22531169753858,28.298822862089594,98.09259633148187,58.116537884669626,-41.52804515395075,-41.61164905345496,90.0,6.000000000000009,0.0,0.0,0.0,0.8832798959909398,-4.295642789285006,315
-105.50164147362956,85.918161056914,24.38163417872797,28.298822862089697,100.91936936843464,49.993679628860505,-50.00638619676797,-51.68265197743928,90.0,6.000000000000009,0.0,0.0,0.0,-1.1503304565259154,-4.379201169361792,316
-105.64771048911001,85.89063353753677,27.007094454180674,28.298822862089697,104.6497718882827,40.729898762158676,-60.01749441526446,-59.49869895535838,90.0,6.000000000000009,0.0,0.0,0.0,-3.4654240248447734,-4.628166392733332,317
-105.38384838810948,85.15725556447849,27.3192737070809,28.298822862089672,109.02248703292202,31.07176653476667,-71.62366260652027,-64.4395613179981,90.0,6.000000000000009,0.0,0.0,0.0,-6.04475862706838,-5.153704294090676,318
-104.60318059325438,84.41040100510968,27.520439753874076,28.298822862089594,118.49415171354072,18.059405475556417,-86.77006730424502,-66.56614886756034,90.0,6.000000000000009,0.0,0.0,0.0,-8.456602837544096,-5.518959843233943,319
-102.61835299714751,83.58180991647957,27.440235049691648,28.298822862089825,155.00000000000003,12.004513363093343,-105.00000000000001,-66.30978598818517,90.0,6.000000000000009,0.0,0.0,0.0,-10.988479376635707,-5.605820833420685,320
-101.69600226036958,82.62942001285742,27.45867170752394,28.298822862089672,155.00000000000003,16.21671223193906,-105.00000000000001,-61.84653206409733,90.0,6.000000000000009,0.0,0.0,0.0,-13.24533932233752,-5.868153084844187,321
-101.48847679592784,81.69759176189925,30.07694633554681,28.298822862089594,155.00000000000003,26.204377121300887,-105.00000000000001,-55.62859090368672,90.0,6.000000000000009,0.0,0.0,0.0,-15.837296858571273,-6.226906509094976,322
-101.1640765236586,80.9773202372431,32.60929589879103,28.298822862089697,155.00000000000003,36.22013059532459,-105.00000000000001,-48.24594523564238,90.0,6.000000000000009,0.0,0.0,0.0,-18.387090179961376,-6.925311472914065,323
-101.28436013484307,79.78191115275708,35.37504527975521,28.298822862089594,155.00000000000003,45.62569955037914,-105.00000000000001,-40.36788815555928,90.0,6.000000000000009,0.0,0.0,0.0,-20.667217915656376,-7.984360620923356,324
-100.73356231507518,78.48555301141351,35.405430724672925,28.298822862089594,155.00000000000003,54.38574993848885,-105.00000000000001,-31.839531522052106,90.0,6.000000000000009,0.0,0.0,0.0,-22.570289883607778,-8.611968794606367,325
-100.26403365687989,77.33885450856583,35.405627034887324,28.298822862089697,155.00000000000003,61.70966002735385,-105.00000000000001,-28.29882286208972,90.0,6.000000000000009,0.0,0.0,0.0,-24.391985119325195,-9.261399352654783,326
-99.30500407578195,76.03743484216028,35.18038373012914,28.298822862089697,155.00000000000003,66.87256902050319,-105.00000000000001,-28.298822862089594,90.0,6.000000000000009,0.0,0.0,0.0,-26.08126043465201,-10.17723681102258,327
-97.66000498074311,74.77012039797323,34.57564479682583,28.298822862089697,155.00000000000003,71.92733658221698,-105.00000000000001,-28.29882286208962,90.0,6.000000000000009,0.0,0.0,0.0,-27.500741411508965,-11.25836811335807,328
-96.63208636752623,73.55799075090773,34.22035910710106,28.29882286208962,155.00000000000003,75.04681951156742,-105.00000000000001,-28.298822862089825,90.0,6.000000000000009,0.0,0.0,0.0,-28.583043853144353,-12.309207532596748,329
-95.69364558922992,72.66082116322217,33.86262590268794,28.298822862089697,155.00000000000003,78.43268151826233,-105.00000000000001,-28.29882286208972,90.0,6.000000000000009,0.0,0.0,0.0,-29.191735634218666,-12.780811179825987,330
-95.2094353386835,71.54250763551634,31.29578274096039,28.298822862089672,155.00000000000003,80.13905753412496,-105.00000000000001,-28.298822862089594,90.0,6.000000000000009,0.0,0.0,0.0,-29.49227009124466,-13.127126734859507,331
-94.31172729298913,70.98100921946109,30.927797268913583,28.298822862089697,155.00000000000003,81.82774770636554,-105.00000000000001,-28.29882286208985,90.0,6.000000000000009,0.0,0.0,0.0,-29.65348453701704,-13.726434039318406,332
-93.74500213651868,70.57424439941998,30.721345954104088,28.298822862089825,155.00000000000003,82.81073986908355,-105.00000000000001,-28.298822862089672,90.0,6.000000000000009,0.0,0.0,0.0,-29.62828764663176,-13.954971462517163,333
-93.57331375855973,70.35195984088541,30.713316625609284,28.29882286208972,155.00000000000003,82.4863075026894,-105.00000000000001,-28.298822862089697,90.0,6.000000000000009,0.0,0.0,0.0,-29.36549107206105,-13.760907127459541,334
-93.9279792886197,69.9228560805311,28.56215371688857,28.298822862089825,155.00000000000003,81.86619441313916,-105.00000000000001,-28.298822862089697,90.0,6.000000000000009,0.0,0.0,0.0,-28.781608665032675,-13.446239665139519,335
-94.78978492199707,69.85538113545292,29.096735188050488,28.298822862089825,155.00000000000003,79.88903054846304,-105.00000000000001,-28.298822862089697,90.0,6.000000000000009,0.0,0.0,0.0,-27.980376444612617,-13.084290670536946,336
-95.16734938614559,70.19091053388831,31.798284140972783,28.29882286208972,155.00000000000003,77.02106289662277,-105.00000000000001,-28.298822862089825,90.0,6.000000000000009,0.0,0.0,0.0,-27.060691721997472,-12.621327824134982,337
-96.74882256222124,70.41568534859282,32.634463258353115,28.298822862089594,155.00000000000003,72.04837351999088,-105.00000000000001,-28.298822862089594,90.0,6.000000000000009,0.0,0.0,0.0,-25.307737798647494,-11.594786838434656,338
-98.65721066340701,70.7994395754221,33.51815758200122,28.298822862089594,155.00000000000003,64.82049619255996,-105.00000000000001,-28.298822862089594,90.0,6.000000000000009,0.0,0.0,0.0,-22.792190988253086,-10.745851174829264,339
-101.27093303475299,72.47339954294974,36.69780720377314,28.29882286208962,155.00000000000003,54.289393012412965,-105.00000000000001,-33.701938387104796,90.0,6.000000000000009,0.0,0.0,0.0,-20.013818468637133,-9.74536422581276,340
-102.82449967900519,74.06938042410566,36.85772428913499,28.298822862089825,155.00000000000003,45.032409566878485,-105.00000000000001,-41.78491536592667,90.0,6.000000000000009,0.0,0.0,0.0,-17.10655285458027,-8.655061349884178,341
-103.89674415019843,75.93351974783711,36.681772514795696,28.298822862089697,155.00000000000003,35.22943337330096,-105.00000000000001,-48.89306166202867,90.0,6.000000000000009,0.0,0.0,0.0,-14.118647944449409,-7.536647728079792,342
-105.2061060916693,77.19220965300308,36.577874308265194,28.298822862089697,155.00000000000003,25.39193381674332,-105.00000000000001,-54.33734767432278,90.0,6.000000000000009,0.0,0.0,0.0,-11.529188566250705,-6.523617979601736,343
-106.72272424379034,79.75075354578927,38.57795261148791,28.298822862089647,155.00000000000003,13.715204194872717,-105.00000000000001,-59.29518372563667,90.0,6.000000000000009,0.0,0.0,0.0,-9.045909455248749,-5.732995974528224,344
-107.84432911334338,80.80794003800504,38.27187383397415,28.29882286208985,155.00000000000003,2.5439316633100897,-105.00000000000001,-63.27322014257986,90.0,6.000000000000009,0.0,0.0,0.0,-6.7927219194952855,-4.719118636932064,345
-108.39365188712877,82.15572677101981,35.407525238635664,28.29882286208962,106.65342064690968,17.004227581111927,-70.59583782130372,-64.77467101180424,90.0,6.000000000000009,0.0,0.0,0.0,-4.923025159292332,-4.0796513312254525,346
-108.47789892569858,83.44929984018876,34.95414010725718,28.298822862089825,111.55320383462737,33.55588768861955,-66.71092217899158,-62.38727449155228,90.0,6.000000000000009,0.0,0.0,0.0,-3.3475703021964898,-3.5311753158407324,347
-108.53009694755575,84.7108380552973,34.47135045509014,28.29882286208962,111.25748094469427,46.87025769492174,-61.483018945532464,-55.478879503896835,90.0,6.000000000000009,0.0,0.0,0.0,-1.565592987078585,-3.1386493508756472,348
-107.44005201753777,84.91836142375428,29.39500101768626,28.298822862089697,107.52537394144579,53.94070212025772,-48.61893247968979,-46.129389780100986,90.0,6.000000000000009,0.0,0.0,0.0,0.2526734243939493,-3.091628750305506,349
-106.37539378075519,85.66310421948008,26.47046654808053,28.298822862089594,104.65381446112163,60.6304339667985,-39.69477418120693,-35.1591279686171,90.0,6.000000000000009,0.0,0.0,0.0,1.7980222349479618,-3.1803192669689357,350
-104.59720484655888,86.11847879136025,20.987017337859616,28.29882286208972,102.93041865401815,66.93314808950232,-34.36056051090196,-28.29882286208972,90.0,5.7200430341805735,0.0,0.0,0.0,3.175088550981022,-3.032746343897203,351
-103.31611394555483,86.3665407025929,15.729046482371404,28.29882286208985,102.63582370461039,72.98777234646411,-30.119617918707924,-28.298822862089697,90.0,4.737150600427238,0.0,0.0,0.0,4.019671172086278,-3.002728852879595,352
-103.52232303908761,86.89006835052487,13.077536562674883,28.298822862089647,104.51999476107105,78.5886890206344,-29.15070857973906,-28.29882286208972,90.0,4.371120597188183,0.0,0.0,0.0,4.5634679398199305,-2.809322713200579,353
-104.7586838816345,87.7906002071385,12.978435882391414,28.298822862089697,107.17403031907519,82.88198836209476,-27.852767388874028,-28.2988228620898,90.0,4.2830831773419185,0.0,0.0,0.0,4.878324238525002,-3.00310901832658,354
-104.94899666103699,88.39731565445382,15.381236317003022,28.298822862089697,107.17475665635074,85.02330892957895,-24.98938682170779,-28.29882286208957,90.0,4.202013129068755,0.0,0.0,0.0,5.123420387257212,-3.205656865718362,355
-103.19377516719643,87.09336288275526,13.147511563541977,28.298822862089697,105.915242668797,85.68962949229699,-24.777275106028725,-28.298822862089697,90.0,4.1862210300940905,0.0,0.0,0.0,5.641813747644769,-3.3409691762870883,356
-101.39488946016294,87.86384482196185,10.166875254586165,28.2988228620899,100.55972253839872,85.93123425404575,-11.32594065426143,-28.298822862089825,90.0,3.4159929512106975,0.0,0.0,0.0,4.23639262522494,-3.2621083551441608,357
-101.46292854731786,89.61561635010843,9.658401384525725,28.29882286208985,100.57846421770107,87.88739261959199,-9.021567576871183,-28.29882286208972,90.0,3.2915908858790313,0.0,0.0,0.0,3.1953903471125016,-3.3232364661128777,358
-99.78457897860217,89.48940641266259,7.069976378301128,28.298822862089825,99.25012369006652,87.71058599767755,-5.943840279558294,-28.29882286208972,90.0,3.607402840221238,0.0,0.0,0.0,2.2707158146328386,-3.2398774321086314,359
-99.88990310726217,88.09442910385951,9.782996078748923,28.298822862089924,100.74577618655259,86.44761946187266,-11.303056326953014,-28.298822862089825,90.0,4.243228979314777,0.0,0.0,0.0,1.8873334861263826,-2.522596704525208,360
-101.28470985721921,84.7491471353597,18.03662552540421,28.29882286208985,104.31523084345149,83.38908583470587,-20.06693451961919,-28.298822862089697,90.0,4.931899126075128,0.0,0.0,0.0,1.6596787620381774,-1.8799932612087609,361
-101.06794059385723,77.84179030377895,26.906791249746252,28.298822862089697,107.3387932284721,77.45551770912978,-30.1994783582317,-28.298822862089647,90.0,5.736545726003897,0.0,0.0,0.0,1.9110882772604119,-1.5825751291676253,362
-100.02425397510102,71.27143226054027,32.852776296409274,28.298822862089697,109.62063321314473,72.73040821955938,-40.39957644885151,-28.298822862089875,90.0,6.000000000000009,0.0,0.0,0.0,2.3573518060292353,-1.6905732765108061,363
-99.79764622408877,65.58894559235644,36.23286654115845,28.29882286208985,112.95088760711565,69.56036848777529,-48.39734819640715,-28.298822862089697,90.0,6.000000000000009,0.0,0.0,0.0,2.7661507708322595,-1.6540002962805145,364
-98.64552110900034,60.49524334689796,38.77893131116143,28.298822862089697,114.93882554922615,67.51546718189077,-55.499102593991815,-28.2988228620898,90.0,6.000000000000009,0.0,0.0,0.0,3.0697229361002254,-1.537128253446493,365
-99.15480759068501,56.262121768440664,42.10324357314916,28.298822862089647,118.43995512889177,66.76172990657993,-60.63351702348085,-28.298822862089594,90.0,6.000000000000009,0.0,0.0,0.0,3.2659981800768003,-1.4357678394168434,366
-100.51900624983617,52.393976991319754,46.17176177614345,28.29882286208985,123.2566903520835,67.68437327819898,-66.23589723811206,-28.298822862089697,90.0,6.000000000000009,0.0,0.0,0.0,3.3685707981327058,-1.5393083033380925,367
-105.27555001411689,48.783641503396,52.8232131173828,28.29882286208962,130.10815028865764,70.71175826903325,-77.49876349384915,-28.29882286208962,90.0,6.000000000000009,0.0,0.0,0.0,3.5486338144794933,-1.4105311914707421,368
-110.65828740394069,46.43224291445977,60.58603985950947,28.93914644019443,136.94436413391685,75.38941337433793,-89.02404059176939,-28.29882286208962,90.0,6.000000000000009,0.0,0.0,0.0,3.959542249618612,-1.707861078852119,369
-121.19000511133622,48.975824809145024,72.47839596387382,30.669705801959616,141.96505007603582,80.53811160905023,-98.6125114897338,-28.29882286208972,90.0,6.000000000000009,0.0,0.0,0.0,4.348844824630853,-2.2449468195770126,370
-124.80775832733188,51.30991869466123,81.42010960603004,31.72882958629555,144.9132837589885,85.91610943900835,-105.00000000000001,-28.298822862089747,90.0,6.000000000000009,0.0,0.0,0.0,5.035501416202311,-3.147566075440443,371
-127.80245156211606,55.33805425462646,85.8928160313362,31.496962355894066,145.0493183211434,92.46613452697108,-105.00000000000001,-28.298822862089747,90.0,6.000000000000009,0.0,0.0,0.0,5.816720594058763,-3.6058703627575377,372
-126.21021202296076,58.760365111354375,83.0288337603336,29.916706679975697,139.81413429193535,98.28759662315372,-105.00000000000001,-28.29882286208985,90.0,6.000000000000009,0.0,0.0,0.0,6.568628886267153,-4.141107912755529,373
-123.85462183663097,61.831500245282236,76.9484348789379,28.298822862089747,136.7624708737095,102.82812251889224,-103.85420282436084,-28.298822862089672,90.0,6.000000000000009,0.0,0.0,0.0,7.377889491491036,-4.682274347143674,374
-119.72715592904886,67.15877696331474,69.27554942775758,28.298822862089825,133.4423797828878,104.07406845647509,-96.38741709575073,-28.298822862089825,90.0,6.000000000000009,0.0,0.0,0.0,7.8840637494103625,-5.903411854611421,375
-114.47233587467142,72.10262791644861,56.086213013617034,28.298822862089825,129.8045375755441,103.47453919493246,-88.388882610273,-28.298822862089647,90.0,6.000000000000009,0.0,0.0,0.0,7.946461350860921,-7.018464628003502,376
-108.4130433841993,76.79145695702051,44.10212014928238,28.298822862089697,125.81433254712593,102.4962403496663,-82.70567504618964,-28.298822862089875,90.0,6.000000000000009,0.0,0.0,0.0,7.713642190356938,-9.135013289769923,377
-98.65561019528303,81.20343863456299,29.864297837504594,28.298822862089825,119.82139941583945,99.49684039533882,-74.40246886750414,-28.29882286208972,90.0,2.7758169084092152,0.0,0.0,0.0,7.47393365311507,-12.177216285827864,378
-84.10091491964421,87.72881850914976,11.839844707969382,28.298822862089697,109.96040560052784,93.13312016166697,-63.84331138078057,-28.29882286208962,-5.421899992607729,1.8906492032212674,0.0,0.0,0.0,8.017818887275581,-16.089816269888615,379
-67.80194609254461,96.61403568426046,-4.906249150934625,28.298822862089825,95.04522527307181,83.02190106653963,-50.72745642126624,-28.29882286208957,17.20631658325822,5.039260078247133,0.0,0.0,0.0,8.973294302246584,-19.953144500949747,380
-57.86848591890507,104.16855391857389,-19.45457781654377,28.29882286208972,82.34524644679027,73.62742231182146,-40.547317667430974,-28.29882286208972,26.919356802375326,5.953334168410104,0.0,0.0,0.0,9.782592262455884,-20.037800726894428,381
-48.221077323889126,104.99999999999999,-28.700831132916854,28.29882286208985,77.16946239154241,67.66026201784284,-32.89375011341938,-43.35733589812073,33.55879326932849,5.839724478115199,0.0,0.0,0.0,10.260858788575717,-17.911103101394165,382
-35.28066620390626,104.99999999999999,-30.495327543158545,28.29882286208972,70.2720720189723,58.483938534367105,-27.015767768398376,-57.143525324019976,37.38188523021416,5.58741670273406,0.0,0.0,0.0,10.011989910757471,-16.205077290123896,383
-22.338263216820817,104.99999999999999,-31.803413185766672,28.298822862089647,57.25387066160345,48.743509231400296,-17.627267802911366,-65.58261402376488,41.65339133099308,5.343020575231258,0.0,0.0,0.0,9.49870963909575,-14.294490680182147,384
-11.545826088562192,104.99999999999999,-30.815222576394575,28.298822862089747,42.02688175811141,38.68152548806037,-6.72020280512299,-69.64964611826998,51.994708986330885,5.1006446030645565,0.0,0.0,0.0,8.999396437601378,-12.578623336964535,385
-3.0652458440981336,104.99999999999999,-31.360252715462327,28.298822862089697,28.9950864035721,27.51707546592343,1.6927839869353372,-70.66707789005319,65.43105650280951,4.062752087637709,0.0,0.0,0.0,8.440363596822912,-10.229247312309045,386
3.079376543866492,104.99999999999999,-29.923437683347107,28.298822862089747,6.879879539925095,23.857615689429554,22.3159261519634,-69.51209823475692,74.77869448930005,3.4551039579386837,0.0,0.0,0.0,8.030517695384383,-8.601323863643634,387
8.287487594080217,104.99999999999999,-30.993546799130375,28.298822862089747,-14.35181964019972,21.58422946834104,41.02600973079616,-68.24122312754558,90.0,3.1777119812884833,0.0,0.0,0.0,7.610215410486097,-6.176714602506195,388
11.270134441803783,104.99999999999999,-31.358518490721803,28.298822862089825,-23.714002919743642,24.57749278202983,47.65659645888917,-66.62715734886025,90.0,2.9325256058781157,0.0,0.0,0.0,6.947724520963949,-4.147379248534791,389
13.057107058252916,104.99999999999999,-32.71886156486961,28.29882286208985,-28.76270919890389,27.21724922589386,54.59788657712864,-66.80218680804545,90.0,2.6062987202096703,0.0,0.0,0.0,6.274657038964908,-2.1715175009622834,390
14.050516476313529,104.99999999999999,-34.716526833805496,28.29882286208985,-27.996435649858427,28.849556415455133,54.941053856014086,-68.69476226989266,90.0,2.5921714474407898,0.0,0.0,0.0,5.611004230882579,-0.46590743814827185,391
13.401093123509542,104.8196122989387,-34.90577784408999,28.298822862089747,-22.643815038210484,29.493642939993723,50.34645105330056,-72.56668038462394,90.0,2.514139915888303,0.0,0.0,0.0,5.068209242734088,1.1973285696630893,392
11.333409228739693,104.34737874001638,-35.73769741478926,28.29882286208957,-12.216990543771454,29.0256265918005,40.419641383474854,-79.445816204334,90.0,2.729574338517226,0.0,0.0,0.0,4.529230644490407,2.743897656097361,393
7.34498332756521,103.65961802946123,-35.02171688484703,28.29882286208985,2.1856158777336865,27.154570395519652,29.59746821217211,-87.72519341133156,90.0,2.9177849837620635,0.0,0.0,0.0,4.183606219901697,3.9656061542624865,394
2.256834882230234,103.11215777573017,-32.24377379373227,28.298822862089697,23.126116989381273,29.168285312272587,9.77997940797547,-94.87788131574028,90.0,3.221205872229728,0.0,0.0,0.0,3.94141301222628,4.903088858166295,395
-10.33911569467714,97.63977039178734,-30.829477848051916,45.844057185382994,43.79486141384615,33.131593989088174,-7.513271486671479,-104.66301495713546,90.0,3.647908566739298,0.0,0.0,0.0,3.7660962165868455,5.091239269019613,396
-24.299437091593717,93.92546117969549,-29.154155662779186,65.33154927494465,64.48641214383798,40.407531005955235,-20.680695103671972,-117.5546161673427,90.0,4.17120120158662,0.0,0.0,0.0,3.4324910504479664,5.082110874404873,397
-35.428979958729805,89.08160195266885,-27.675243862556204,75.84889057113693,82.38240610686034,50.79894152504119,-33.45903595897017,-123.75644648718246,90.0,5.089900102500067,0.0,0.0,0.0,3.256935721465542,4.875792990680779,398
-43.056131465503604,85.51143292652375,-27.71874185801146,83.14665319591575,95.03170541810405,59.05169897250359,-37.82630601463809,-128.38278129880933,90.0,6.000000000000009,0.0,0.0,0.0,3.1525638691061992,4.179662676618615,399
-49.155165596179316,82.54905461733506,-25.397847877374794,88.35581298221811,105.43770299760807,66.61773493209027,-44.3191445123701,-131.5586062577577,90.0,6.000000000000009,0.0,0.0,0.0,3.046286561293639,3.8104984072289616,400
-51.23068501225669,79.81505123147997,-23.586479936956046,90.40812259891446,110.02941138020876,70.06933398915281,-49.75978082896589,-132.10188139105063,90.0,6.000000000000009,0.0,0.0,0.0,3.073593531561342,3.5082042868143635,401
-50.60340181666675,76.38476159456893,-24.21950084685111,91.52026081859388,112.3040050192011,71.34904495778702,-55.359021882628845,-132.4171361350367,90.0,6.000000000000009,0.0,0.0,0.0,3.010497433847858,3.2004382448109387,402
-49.30503152296787,73.61784619505939,-25.27448813263314,90.81671021894385,116.13091316257314,70.17197628381432,-60.765287590354916,-131.07678536535613,90.0,6.000000000000009,0.0,0.0,0.0,2.971197332328163,2.809606101436614,403
-49.358948695533265,70.75431527010808,-26.18469797881547,90.4175380006092,120.38346476629226,68.8485052090798,-63.79188551742528,-128.88466286564753,90.0,6.000000000000009,0.0,0.0,0.0,3.048885050909161,2.35369146034745,404
-50.752417346938735,68.16802903144861,-27.21551652801881,91.33618118420883,125.92782839044908,67.72749882134832,-65.19767618201782,-125.94127389953327,90.0,6.000000000000009,0.0,0.0,0.0,3.229099375700785,1.8120821755812009,405
-52.231511476994356,65.47743875262015,-28.25622039301253,89.72633277565659,128.00482554389143,67.72514222446924,-65.1750063132452,-122.11833973533874,90.0,6.000000000000009,0.0,0.0,0.0,3.4039401490942245,1.2601780560773157,406
-58.24035880097876,60.61203091514439,-27.511688207282525,91.13351771355873,134.61868716780066,69.14603588971161,-66.34228288625967,-115.70225588017966,90.0,6.000000000000009,0.0,0.0,0.0,3.6958532619459676,1.0645337213146078,407
-64.95243303796285,55.68991204459998,-27.14281338825804,87.64038653609882,139.10598110292128,69.5224074155905,-65.05675750233365,-105.78061493111545,90.0,6.000000000000009,0.0,0.0,0.0,3.9095918305556703,0.5820604467682339,408
-74.71715046014748,50.31054993775055,-23.2310547681882,81.98927352740074,141.4132072507887,69.90353469129397,-64.51927458123099,-92.05084562702604,90.0,6.000000000000009,0.0,0.0,0.0,4.173939598919868,-0.298937452022876,409
-86.41474366483065,47.51936863911416,-15.454543017155638,73.64209096601982,143.12113056674465,70.03956329365374,-62.93180206752216,-81.06134705757711,90.0,6.000000000000009,0.0,0.0,0.0,4.46824072582707,-1.033534819466979,410
-98.36328768557938,44.93456401076039,-6.8456203040267445,64.59634393486697,146.06228557429029,70.39446824242503,-62.62266801931145,-69.42373856558179,90.0,6.000000000000009,0.0,0.0,0.0,4.869768274087888,-1.8655186452155397,411
-111.3808398516813,46.116588361408645,9.080859224497933,51.820164728502206,147.31734860159747,70.64008461822061,-67.53567780366087,-49.10574553797484,90.0,6.000000000000009,0.0,0.0,0.0,5.385353547537976,-2.5230210318405657,412
-122.2594492316502,50.10212254635887,29.206185536671548,38.231379905727415,149.31445113282473,71.05114623995189,-78.22867189714378,-28.298822862089825,90.0,6.000000000000009,0.0,0.0,0.0,6.032564244606632,-2.924806923677854,413
-130.0458952833707,54.10337802955505,47.984503280017805,29.671809156086805,151.7367498201032,76.86497933526702,-87.33789020735226,-28.2988228620898,90.0,6.000000000000009,0.0,0.0,0.0,6.527036455728995,-3.6803137661565564,414
-136.33293310541816,59.30091919236124,69.30568387157658,28.29882286208972,151.190274748468,85.22339184953235,-98.83350007256618,-28.298822862089672,90.0,6.000000000000009,0.0,0.0,0.0,6.7390276822835915,-4.391801745408386,415
-138.70812727805514,65.41611163581763,86.70794329771644,28.29882286208985,146.57204876638136,93.1272165071921,-101.33317957166172,-28.298822862089594,90.0,6.000000000000009,0.0,0.0,0.0,7.002016106056439,-4.7457845461016515,416
-140.0425910518931,67.76843815854458,98.93859488983685,28.29882286208962,143.6657091166955,98.61891524477191,-101.68297814770055,-28.298822862089697,90.0,6.000000000000009,0.0,0.0,0.0,7.392044066241427,-4.872015674073585,417
-141.31357488375664,69.16441310749704,103.28039036898164,28.29882286208972,141.35147162637955,100.60651015559309,-99.28621189556955,-28.29882286208985,90.0,6.000000000000009,0.0,0.0,0.0,7.613963004075264,-5.397446571745184,418
-140.84461301785439,69.32732058392597,103.58227818948728,28.29882286208972,139.88833900469314,100.49924904994633,-91.68909338761024,-28.29882286208972,90.0,6.000000000000009,0.0,0.0,0.0,7.660555528272945,-6.23034228548394,419
-138.50208155638697,69.45313415566534,97.49445804537935,28.29882286208985,137.29974494804773,98.71268765389419,-84.10688733426451,-28.298822862089697,90.0,6.000000000000009,0.0,0.0,0.0,7.845747532549656,-7.48255814267343,420
-133.97206667853027,69.21396613846754,87.48897812772913,28.298822862089672,135.1031815479248,97.53366860453295,-79.10764039212059,-28.298822862089672,90.0,6.000000000000009,0.0,0.0,0.0,8.077803974078455,-9.472697209921137,421
-127.88012522213945,70.85439920630603,74.6703549022929,28.298822862089594,131.79986898465117,95.55662856977602,-73.98694757713979,-28.29882286208985,90.0,6.000000000000009,0.0,0.0,0.0,8.237042504767443,-11.767751246093072,422
-118.65124664050228,72.56161173989376,62.37960175179658,28.29882286208957,127.87603728335618,94.29531361093845,-71.27211940382223,-28.2988228620898,90.0,5.905555752878152,0.0,0.0,0.0,8.482711153729097,-14.907952738576126,423
-109.35462056784031,76.41013538912604,48.22545614607166,28.29882286208972,123.01751110581439,93.3383361673542,-65.88673854156147,-28.29882286208962,90.0,2.002205983324884,0.0,0.0,0.0,8.71052976725393,-18.348354235946683,424
-92.7675631921013,80.3808661941485,31.409192591202665,28.29882286208972,110.11211096614083,85.78605244156279,-55.10194930120945,-28.298822862089672,32.893648518827916,3.3729129693569697,0.0,0.0,0.0,8.823616155556435,-23.84653790665173,425
-73.68686279560461,87.34374468180224,14.352895815090946,28.298822862089647,90.68305151866932,76.5730097859042,-41.32078649093971,-28.298822862089697,27.303911045700627,6.000000000000009,0.0,0.0,0.0,9.629179861219143,-28.01396534387332,426
-60.98828068206124,94.40902268706076,2.423627850311796,28.298822862089647,76.58260776789065,70.52512566101868,-28.42507232553419,-28.298822862089697,28.679850224215812,6.000000000000009,0.0,0.0,0.0,10.467256914680073,-28.75245241852735,427
-51.421283614685315,99.27652726804072,-9.474467309452653,28.29882286208962,70.28984334264159,67.64393387494731,-20.683712103923284,-40.333969507511114,29.39495810977742,6.000000000000009,0.0,0.0,0.0,10.875419046664629,-27.929097385824576,428
-43.528617011850024,104.10225807285039,-16.716882615428798,28.298822862089697,64.01791354191823,63.42933836399097,-14.752737121307863,-49.41014113472835,33.04596644242557,6.000000000000009,0.0,0.0,0.0,11.078408832035331,-27.062473244610484,429
-34.43070729427188,104.99999999999999,-21.56756917547671,28.298822862089697,55.16991649196011,58.70290241007689,-8.056021025028343,-55.92793450573105,34.920977825788924,6.000000000000009,0.0,0.0,0.0,10.954463977872777,-25.931832299732097,430
-23.63323472604834,104.99999999999999,-26.234334952275308,28.29882286208962,44.19074699827764,52.46144928326447,-1.3340382887152644,-61.640756996658,37.0556865801819,6.000000000000009,0.0,0.0,0.0,10.733233568221136,-24.202820808689896,431
-13.160487827077915,104.99999999999999,-25.104464746897552,28.298822862089825,31.80333134931378,46.25123682709432,7.670145034876456,-65.1600130918285,39.844123168718944,6.000000000000009,0.0,0.0,0.0,10.074567042976268,-22.322217662987743,432
-5.579571922588374,104.99999999999999,-26.58200716985536,28.298822862089697,19.412439150232778,42.884180403385365,17.773307411957234,-66.33716814990532,42.96345755166164,6.000000000000009,0.0,0.0,0.0,9.544021137292448,-20.33439761675804,433
0.03908838536458455,104.99999999999999,-28.432545711389906,28.298822862089825,9.699337678735287,39.6253209982096,25.459286518960212,-66.96685612253918,48.233541467524475,6.000000000000009,0.0,0.0,0.0,9.077191965039889,-18.65159555967201,434
3.3434194102217125,104.99999999999999,-28.70114981761922,28.298822862089825,1.7066841263015444,39.580759538399796,31.109260212820278,-67.10830890561952,52.161415423823804,6.000000000000009,0.0,0.0,0.0,8.57389476356765,-16.582437986617684,435
