JMW9912/AVATAR/install/dynamixel_control/share/dynamixel_control/data/csv/poppy/3DoF_Pos_Adj.csv
theta1,theta2,theta3,theta4,theta5,theta6,theta7,theta8,theta9,theta10,theta11,theta12,theta13,theta14,theta15,frame
0.0,83.75795997991355,-3.5761498820259234,51.96071322194142,0.0,84.97868496237625,4.574304840633367,-54.88241738807552,-44.3627301938317,0.9703968042285218,0.0,0.0,-0.29221206655354004,-1.1153197806657942,6.5127290308711805,0
0.0,84.71889889429431,-2.2610892881094697,46.76905843918695,0.0,85.59810232117057,4.291618618061237,-50.10070514841473,-40.01409439650989,1.112591584674088,0.0,0.0,-0.3726152030151478,-1.2805977015818057,5.2571939768748,1
0.0,85.9489524060586,-0.35513579073851576,44.14432973381147,0.0,86.34066691065252,4.503586178789392,-47.30096219756753,-36.171418232095505,1.2118500107869792,0.0,0.0,-0.5216273216164823,-1.3423436615086277,4.880018206968206,2
0.0,85.64610125544031,-0.2054379448557608,43.23001480114225,0.0,86.93773974416698,2.228899014310421,-46.44955430918824,-35.07225193593768,1.2368776538969202,0.0,0.0,-0.45950539718023764,-1.3374723704588183,4.437358959767453,3
0.0,85.70822646320649,-0.3294476853979378,41.94761066975907,0.0,87.09985108028292,2.248237017692574,-45.16325936175774,-34.29902608178134,1.2602238401490806,0.0,0.0,-0.5373725349691268,-1.3432256788980956,3.873384683597824,4
0.0,85.6539588233627,-0.4035198242352717,41.72150804603688,0.0,87.16964603515098,2.190146312959948,-44.92553382689997,-34.711137878251826,1.239896799201964,0.0,0.0,-0.6139764145361281,-1.3577078039211576,3.3370160025963536,5
0.0,86.38836283020981,1.822231072961269,41.26808497708709,0.0,87.1818474814467,2.1407038102024902,-44.477273146816756,-33.482376253378234,1.2531993202561083,0.0,0.0,-0.6655470104914382,-1.347932686187099,3.003427803748539,6
0.0,86.3362984903599,1.8591210418946953,41.28383867450821,0.0,86.97781405150182,2.589129046728412,-44.40789870451731,-32.02015571768486,1.2626094231576954,0.0,0.0,-0.6285241609644143,-1.3366578129717919,2.578349269520156,7
0.0,85.75482007761514,0.28770922805101923,41.777474018856296,0.0,86.84039843420122,2.63127871277012,-44.750679690652234,-29.90135141576531,1.295163883272888,0.0,0.0,-0.5884245637827222,-1.3183453266700538,2.2763997765751425,8
0.0,85.79795249320999,0.19650628276239357,42.55566711710954,0.0,86.70317731034038,2.7073702462573386,-45.49231053398495,-28.547251580243348,1.3335208020830362,0.0,0.0,-0.5469904406324148,-1.2656016061790238,1.7047712458167572,9
0.0,84.98451421068634,-2.7596632798098804,44.855801485481365,0.0,86.03296223679646,4.208396181847132,-47.304264075826964,-25.971679456182848,1.3554271208126074,0.0,0.0,-0.5880228223166165,-1.132660969757855,1.2230017377130271,10
-98.65589336184884,83.6363823242699,-7.231824489452043,51.31186704086859,98.99313104015685,84.43050189325605,8.708466748123973,-53.63881948954292,-25.57271106861616,1.3438472667000578,0.0,0.0,-0.43344872345720575,-1.0020799689055433,0.7335156355613476,11
-86.61825296289614,81.09065459609818,-14.26200764553408,62.05015558767489,86.44923546213181,81.88213153622452,15.116726461329286,-63.76865283698792,-33.82262972568637,1.0777954506204455,0.0,0.0,-0.5959986593944446,-0.9711494773760977,-0.02726081586721383,12
-69.37624876964357,77.90701152615219,-20.928705104242415,58.18935383592942,68.0724458902478,78.73134548860835,21.76880051321828,-59.134125941576585,-45.63795260405487,0.8844775723515669,0.0,0.0,-0.5981465078123075,-0.8083409730710123,-0.6506588365597379,13
-52.2433836699228,81.48094617794297,-27.652965515370724,48.398231453699,50.15985229707659,82.64647461005528,28.49229908039935,-48.015796701151814,-40.92480091120647,0.9540388607677668,0.0,0.0,-0.7564806077387128,-0.7025473804896825,-1.5624251732671288,14
-31.899828064409473,81.83919445019318,-35.14043907847948,40.745163382432786,30.187527870109328,83.6808476276644,36.33215059527282,-39.231816984799146,-60.078975946801435,0.7101384647684688,0.0,0.0,-0.6784196384176947,-0.6812319189118039,-3.15697388623128,15
-21.883632852900494,82.57093130745847,-42.61821680811112,37.38987601760588,20.344311569700984,85.08590127171229,45.20310691408124,-36.01519896639555,-90.0,0.6407642092313943,0.0,0.0,-0.4867198320561813,-0.6375391830166734,-5.332040286439685,16
-10.031620356454031,86.86818919119584,-39.658675722201835,28.2988228620898,9.199823639002366,89.20955724614043,44.64092503597489,-28.29882286208962,-90.0,0.6637087484645546,0.0,0.0,-0.39840796066133816,-0.5852033416261802,-4.617925283256517,17
-3.897479559617342,88.96955820098947,-33.60162639180954,28.298822862089672,3.263915405298297,91.03819098994781,37.777883173628915,-28.298822862089594,-90.0,0.618482827234248,0.0,0.0,-0.5091861793806444,-0.5906198220270733,-3.720038420759518,18
-2.377478701189977,90.62667758136308,-28.96461656510626,28.298822862089825,1.999751897029964,92.17615537737969,33.19296355498255,-28.2988228620898,-90.0,0.5918883127259513,0.0,0.0,-0.48568398052556816,-0.5440150481651395,-4.189830037656224,19
-0.4180300087853241,92.36764256943408,-26.858846755784903,28.298822862089672,-0.014048663347146217,93.3457160347369,30.995803040390424,-28.298822862089697,-90.0,0.5906409082040055,0.0,0.0,-0.5734407123182522,-0.5744961910764095,-4.876478887679498,20
2.0588471203871443,93.88953944279871,-24.802051178367723,28.298822862089697,-1.9996560730582482,94.59587654959394,28.734210643365145,-28.29882286208962,-90.0,0.5496167835645805,0.0,0.0,-0.26789334552146404,-0.6078199363680353,-4.993540926481506,21
3.9867511283995105,94.71292742249237,-22.557931438560637,28.29882286208972,-4.096300396559776,95.2828961031049,26.417559787352292,-28.298822862089672,-90.0,0.5758986382548882,0.0,0.0,-0.08665405037051624,-0.5992306457705322,-5.058604397338699,22
5.770849765266871,94.83716459492727,-22.57465716909695,28.29882286208957,-5.754943605735089,95.26623177278233,26.42382874848714,-28.298822862089747,-90.0,0.5837100879898699,0.0,0.0,-0.006484347811429845,-0.5722627358040009,-5.339112937031406,23
6.754005136391596,94.73399111084562,-22.514361888595165,28.29882286208962,-6.752450608790333,95.07251437184573,26.423337212959762,-28.29882286208972,-90.0,0.5935488123994365,0.0,0.0,0.016785130432851562,-0.5281453337724321,-5.459773662452452,24
6.942596074353543,94.8331919847454,-22.473190701927575,28.29882286208972,-6.9902815358719534,95.05096843627216,26.481141760683787,-28.298822862089672,-90.0,0.587624487996508,0.0,0.0,-0.007314821783133077,-0.47285783556702715,-5.522178728876647,25
6.349043377982227,95.30146975487912,-20.093775052692287,28.29882286208972,-6.438808763856338,95.46642596059061,24.165633760960716,-28.298822862089875,-90.0,0.5856707230460981,0.0,0.0,0.006260927700825447,-0.43258061312885565,-5.603067224252639,26
4.3853446025687495,95.00237933916867,-20.001114266334515,28.29882286208972,-4.3844814288025,95.07699625915701,24.11374542886144,-28.29882286208977,-90.0,0.5639953102950024,0.0,0.0,0.04334583263162672,-0.3883749689921751,-5.589318492309061,27
0.17487120703885647,95.00619415336982,-17.52988888368383,28.29882286208985,-0.5841840345846078,94.52386827368042,24.02111342876445,-28.2988228620899,-90.0,0.5385753703966667,0.0,0.0,0.0837978696783496,-0.3544550612636774,-5.099338954694876,28
-3.466309946792936,94.89428298780206,-17.41100537308076,28.29882286208962,2.9359799180767,94.2358611090661,24.055815848067752,-28.298822862089594,-90.0,0.5505274457276543,0.0,0.0,-0.01886902748048089,-0.2782590056253521,-4.548564506098225,29
-5.187208162052351,94.15242141248952,-19.622927172650783,28.2988228620898,4.791353342002718,93.96052346951869,24.07933854987995,-28.2988228620898,-90.0,0.5810071022006126,0.0,0.0,0.03880479909395847,-0.19043443636352697,-4.192402376847055,30
-11.37609149474194,90.67451832609669,-27.420668748464227,28.298822862089825,11.02148862226253,90.53939742842815,30.658350347725378,-28.298822862089697,-90.0,0.8556234369213898,0.0,0.0,0.29059016382373004,-0.20527982631143576,-5.772687566922128,31
-17.042135587419292,90.45235718657872,-28.000845629197425,28.29882286208985,16.82494480878422,90.61727152724511,29.0282358906595,-28.298822862089647,-90.0,0.7187679236685907,0.0,0.0,-0.008376908227963916,-0.10778983674890412,-5.424025438983216,32
-25.66529536074457,89.39087200865917,-25.97658649337741,28.298822862089594,25.115710673619752,89.2147371699618,28.032338993740414,-28.298822862089672,-90.0,0.5996440975081277,0.0,0.0,-0.1784264359214295,-0.13895400415688605,-5.08372725703451,33
-40.47157049090159,86.35117135382994,-22.83400849942782,32.920976599826666,40.40242177816088,85.96811933927309,25.104678166768327,-33.4341757250878,-67.64233682401591,0.5666093100921392,0.0,0.0,0.20266477096499147,-0.17584347615388415,-5.076041227247486,34
-59.25505590817415,83.20601810369519,-17.012239813695334,40.06695228403341,59.09232565859501,82.89177914559802,19.215622667106807,-41.034602011499125,-36.072754566572705,0.967787386690661,0.0,0.0,0.010037587774513142,-0.16064700245053218,-3.734192890290773,35
-79.08758388056631,82.07122714274617,-6.399149688185296,43.059486235967306,79.4671485353807,80.81527034035369,10.642141157583143,-44.9078765897569,-26.99224835920781,1.2647569943592263,0.0,0.0,-0.10143575550518692,-0.18881036454526984,-1.424958001427789,36
-93.83306842997808,83.3327565076598,5.806491281672709,41.267629895755434,94.88836588699183,82.4587266054679,-1.640637575057568,-43.84371931513314,-22.964189039907307,1.441850243948925,0.0,0.0,-0.16411284096157314,-0.23689735899323258,0.1009908513813755,37
-104.85002961247673,83.80289773145746,18.611021295812225,38.56135428853682,106.30832061332623,84.02014523255957,-15.317301160786101,-42.02667911563823,-26.897010413506397,1.2901172717629026,0.0,0.0,-0.13155900024632625,-0.22501506941839924,1.1550286962290819,38
-111.71829224047057,83.2107213853359,31.050054765908087,37.98927956262033,113.76546273142205,84.06133453140423,-27.479194477507757,-41.8533807338276,-36.49973767936935,0.9862600758591398,0.0,0.0,-0.03141689941999938,-0.3309741573941643,1.7328564533396131,39
-118.12576941102171,80.42525324038155,38.095015763640625,41.69975966232155,120.42068371980382,82.01883588032551,-36.66089330350899,-45.246172241605834,-59.4029999381389,0.6721455166088888,0.0,0.0,0.14618770629501773,-0.3541421046337047,2.73027009500717,40
-124.70153862955037,80.2227030842603,45.20010344433149,43.158859920507666,127.07583028597297,82.25269818655089,-43.75864652065247,-47.69307567275205,-85.75813599002457,0.5744745365672553,0.0,0.0,0.25756184453462727,-0.2434144721696254,4.189121528523131,41
-130.14185320000925,80.29117076952181,49.25427663362537,45.10097284748752,132.70112706113127,82.29214283691802,-46.28291001750005,-48.82076024821066,-90.0,0.6371317585087463,0.0,0.0,0.19063819417293149,-0.2626057988999479,5.146593714121469,42
-135.04386088124804,80.29571882516515,51.23174109704438,43.21027313446769,136.55716702903788,83.25355492425781,-50.54275804073799,-47.21926389543861,-90.0,0.8146216656697421,0.0,0.0,0.06919212584381801,-0.30345039180439887,5.985403694606832,43
-136.85899282715974,81.3621555142321,53.08734830302595,42.035360061871515,138.55390641923466,84.40334650211253,-50.12932931228625,-45.653174968386374,-90.0,0.9263645292298135,0.0,0.0,-0.0060164692509176625,-0.30587569678536597,6.571063909964229,44
-138.02725021892715,82.39638592416318,52.67105659560109,40.78753759511049,139.30597209369057,85.85295270998344,-49.7438852092588,-44.79752619328465,-90.0,0.9997075144779766,0.0,0.0,-0.08100370968588508,-0.3094067107845318,6.9631071704953085,45
-137.81439120138347,83.97879484064262,52.34864091002455,42.061107205640525,138.6246827722475,87.54825531592566,-49.51472967727245,-45.366457566886204,-90.0,0.9769354175346008,0.0,0.0,-0.2294850784669406,-0.3193494645761939,7.033678823527954,46
-134.37270426790514,85.40850858665247,49.602146542651944,42.22706952800097,135.59604809265974,88.1014626751453,-44.70491454417111,-45.334480143031236,-90.0,0.8354439120684758,0.0,0.0,-0.29898395474954587,-0.28482812890812487,6.29162490598698,47
-130.4095955610208,84.90063756717922,40.551966715681175,46.00955625427877,130.56303065934907,88.19780070427207,-40.18093665311253,-48.147925815745864,-90.0,0.66742432835922,0.0,0.0,-0.3401914034014763,-0.3118366441554128,5.415285641589354,48
-123.6817647802409,84.25789901475463,33.39514280135275,46.95356719452345,124.18035616483486,86.90535199100782,-33.43647621359795,-48.236727549599706,-63.09269184774695,0.7171741506565164,0.0,0.0,-0.4695279915390249,-0.3099722105153138,4.216678740922056,49
-116.12441395149234,84.94960581559936,28.937117973433345,42.03096813516412,116.53078331078792,86.75388391598841,-27.86678729756368,-45.127423516877215,-33.72510403920425,1.1737956749947407,0.0,0.0,-0.45616988811594106,-0.3711606452142018,3.418205509478238,50
-108.44786982527214,85.307928314626,21.579783508123114,42.065095676502274,109.48076168392407,85.93983318356622,-18.21465548068476,-44.94111938970657,-22.829635659668682,1.5998219974732002,0.0,0.0,-0.24676972430803057,-0.42533357397894583,2.519031627579016,51
-101.00182448493254,84.91715924559327,12.466974372627941,44.84477478730003,101.36762644479491,85.07337530970896,-9.351113501976592,-47.45689832516344,-21.46005284273187,1.7340362877456714,0.0,0.0,-0.27221498957807405,-0.44414659771408943,1.2655253042130197,52
-89.12386603607986,78.77438345241751,-4.546216421344996,56.03464661911805,87.59692360331216,78.91171040176056,6.236916761951961,-58.812361388588776,-29.81664440932328,1.2977264760854863,0.0,0.0,-0.24115611030041637,-0.402692793262203,0.2485649665630422,53
-64.43315780507676,81.92392432096432,-16.701086054067954,69.18934049134339,63.28198568027945,81.70671162326303,18.615613581625738,-70.62224391089747,-52.61071983311953,0.7924189661055661,0.0,0.0,-0.05988847718155639,-0.3673821399638777,-1.2761771340664048,54
-26.414710638363566,78.58365308539577,-28.666045149681594,55.7949345429354,25.332106216722902,77.88014383636458,30.022693899277108,-55.848969831420305,-90.0,0.750334655434258,0.0,0.0,0.11815848024231905,-0.4721364344480138,-2.730612100104916,55
-0.7689466666441169,85.3051703195158,-37.58739948051207,28.298822862089697,-0.16779100250829512,84.99265357501633,39.41887268854824,-28.298822862089647,-90.0,0.7488205645943781,0.0,0.0,-0.1863685719054385,-0.31599215049159307,-3.9350327541850687,56
5.672339016890669,89.43897063448914,-30.988369447243283,28.298822862089594,-6.979360511775458,88.92097559128668,35.219094911994006,-28.298822862089697,-90.0,0.641230976921583,0.0,0.0,0.14298555541289834,-0.24496505993498213,-4.431248275542269,57
15.726806925029805,89.53057810258319,-28.54872063583393,28.298822862089697,-16.828517867037156,88.7636955913245,32.75462345615422,-28.298822862089875,-90.0,1.0523025413661349,0.0,0.0,0.09951670320207945,-0.24955236652223034,-5.517514750801666,58
22.16497415319688,90.3695792640681,-26.258089255624025,28.29882286208972,-22.916782648400343,89.85915474392144,30.522918041917595,-28.29882286208972,-90.0,1.1730575408063326,0.0,0.0,0.1032315988480117,-0.24489760732127783,-6.1414571237230025,59
28.629856245211595,90.36228129657255,-26.170940810986487,28.29882286208985,-29.286985710260527,89.89563108195588,30.615688394748133,-28.298822862089594,-90.0,1.7560957097591956,0.0,0.0,-0.00916018551031581,-0.2390560056200075,-6.511658856326811,60
33.64882152552111,91.62810728358255,-23.95816858811033,28.298822862089594,-33.961830576797595,91.10380379500528,28.424523957733825,-28.29882286208985,-90.0,1.9171710774042863,0.0,0.0,-0.04579519013026205,-0.270930124625299,-6.54766897664859,61
35.49823997086034,93.05523994039241,-21.783456397489637,28.298822862089672,-35.70960814004938,92.57992659169574,26.29631990957665,-28.29882286208972,-90.0,2.057444720530994,0.0,0.0,-0.05865657800553546,-0.26664401107120106,-6.559668800623432,62
36.785812814913,93.8518872381194,-22.00348084830897,28.29882286208985,-37.04860316649678,93.4392801866096,26.41775050198012,-28.298822862089594,-90.0,2.202203561468126,0.0,0.0,-0.004498838648454298,-0.29094483828042617,-6.827524576826785,63
37.43074070206141,94.5420995821124,-22.13736632254139,28.298822862089697,-37.74432924147217,94.106526279192,26.564449549709348,-28.298822862089697,-90.0,2.2717766510644397,0.0,0.0,-0.006639765069367598,-0.2800737498682239,-7.029749874400073,64
37.90737346069185,94.73823693634671,-22.192837372830006,28.298822862089697,-38.17680812011196,94.21313871045737,26.57201403457217,-28.2988228620899,-90.0,2.311507733994836,0.0,0.0,0.04867695118246227,-0.23876721379611748,-7.181761960526727,65
38.92128579899649,93.97489515040283,-24.447147849703857,28.298822862089544,-39.14739929491475,93.34880565348178,28.863305491571417,-28.298822862089594,-90.0,2.3928037323376192,0.0,0.0,0.06799552141879246,-0.17361249575643928,-7.453715742752214,66
39.40761046549749,93.58631398798042,-24.34413167231856,28.29882286208957,-39.7316214807306,92.93226183120905,28.803873100954405,-28.298822862089747,-90.0,2.4206186727618957,0.0,0.0,0.08181251178563348,-0.1224731669413359,-7.447846772761562,67
39.63237024467622,93.33802563827524,-24.278344849525933,28.298822862089672,-40.267721113854094,92.15792751727211,31.102643355590686,-28.298822862089544,-90.0,2.4608301356876017,0.0,0.0,0.12181309649966873,-0.0501902823796291,-7.52261308339238,68
39.71342900250052,93.07194473447645,-24.214193181371648,28.29882286208985,-40.30848989594077,91.92451577414873,31.067041183013473,-28.298822862089697,-90.0,2.4732246087297436,0.0,0.0,0.15297453066098893,0.0033084870828675402,-7.454184388347482,69
40.194588922274164,92.22128490833212,-26.410936482853362,28.298822862089697,-40.40856449653018,91.52065147000778,31.063573146697088,-28.298822862089647,-90.0,2.5393357395857907,0.0,0.0,0.09726089012934462,0.050746750380500465,-7.327899220285512,70
39.46935670035558,92.04979335952288,-26.39983073376534,28.298822862089594,-39.77484901766865,91.47419855810188,31.03131006049058,-28.29882286208985,-90.0,2.5728877240703043,0.0,0.0,0.17264037492851428,0.10488723768158378,-7.243287572872479,71
37.711698182953256,91.73806586023103,-26.32330001071039,28.29882286208972,-37.922420295853854,91.00133846043403,30.954546121545402,-28.298822862090002,-90.0,2.6472601715846333,0.0,0.0,0.21884075572816797,0.1696227865064629,-7.162481169617404,72
34.8319455128788,91.31305331174592,-26.22787229077952,28.29882286208985,-35.24535534511275,90.65209032994761,30.89606702088862,-28.29882286208972,-90.0,2.6673016556978366,0.0,0.0,0.2729654274225327,0.21997637110696078,-7.001646995802351,73
26.675129490134616,92.44869737927846,-24.06970555762412,28.29882286208962,-27.234223228864284,91.33527277351655,28.527623211658607,-28.298822862089697,-90.0,2.3844802843235575,0.0,0.0,0.3802672645905364,0.17068320368167147,-7.323705508589061,74
23.22278945840415,92.1241437437637,-21.529109264916134,28.298822862089697,-24.201683401047575,90.9631784500874,26.024253461383484,-28.298822862089875,-90.0,2.4047227130523177,0.0,0.0,0.5210627924523423,0.26801744312785963,-6.707804990082076,75
3.4619753924331578,91.77823374244944,-16.281512260827547,28.29882286208972,-4.670933065430436,89.8964098989515,23.610173933161136,-28.2988228620899,-90.0,1.6490143462425804,0.0,0.0,0.4461728214380928,0.3035646058865858,-6.630435491146684,76
-15.083977365007328,88.35642100268213,-22.717540591906168,28.298822862089697,14.306521333767368,87.34900697906556,25.78219322153736,-28.298822862089672,-90.0,1.8701360432051526,0.0,0.0,0.664679939268419,0.35830379888155756,-7.372817684199187,77
-25.414255751951345,87.73281327201563,-22.464800457492995,28.29882286208962,24.36876715312266,87.02135196487373,25.83899566876171,-28.298822862089672,-90.0,1.5292744826905822,0.0,0.0,0.6315915260037132,0.37979268362401497,-5.766446351052517,78
-44.39194751547487,85.18596186017895,-14.402055702205436,35.56501291952879,43.51064720323857,83.68009237068672,20.16476537248097,-36.38116125303883,-90.0,1.1867723424762624,0.0,0.0,0.628015863371059,0.2842619969100942,-4.856680770978622,79
-69.70368594127426,80.85181479146058,-5.232554665304156,44.278218807095335,68.75726828597918,79.08752868777735,10.620898412956034,-46.134689464021754,-90.0,0.7838402152495804,0.0,0.0,0.3950198235810474,0.21832932987450585,-2.900413730432247,80
-92.21094459537831,81.38065145144242,9.718160814301113,43.373425106305845,92.01895308502247,80.32504884280094,-4.671118964192081,-46.404755438189866,-81.86361517508588,0.6776882042118404,0.0,0.0,0.28584180463000514,0.013979551087465687,-0.5230184784876007,81
-104.2976286131611,84.09493132539231,28.86180609351078,39.47469434125453,105.9152477458935,82.79875718875039,-20.3721512104464,-43.495198998984044,-66.46193463361443,0.7048790452140395,0.0,0.0,0.18986679601334103,-0.08016261672626919,1.2710773849516743,82
-111.95794672979692,81.29451171106703,42.87580524422356,39.19474027446566,114.18021523088169,81.94834105743315,-36.5639809074306,-43.56151099808455,-89.1942073692329,0.6253380272947314,0.0,0.0,0.1858429644016684,-0.09643715929245988,2.0194788524659533,83
-119.03312868986086,76.12634648241107,52.66002883703893,48.38392896223194,121.53159821942253,78.20093844909978,-48.80646344801588,-51.218556284681284,-90.0,0.8318746438260253,0.0,0.0,0.07723147454739708,-0.14130525885619702,2.9717452805699316,84
-128.23067817162928,74.60138120687029,59.371378469794976,52.810967633413526,129.6839911951357,77.79037702021839,-56.62482183841517,-55.40141025900544,-90.0,1.0298638274675125,0.0,0.0,0.1333979790998048,-0.06784709316298229,4.761569411452767,85
-135.29228858768516,73.69810090987147,63.85763296033001,48.54509430396571,136.50311689262227,77.04208844315106,-60.80772337248029,-51.32507613233078,-90.0,1.243134880265249,0.0,0.0,0.03096542362657355,-0.17313940961293492,5.7716057503943805,86
-140.44808742804136,69.97124237079741,74.69147960157913,45.8798016260885,140.72154771760677,74.32240267006526,-72.08935947484711,-49.10138426729888,-90.0,1.728188404348527,0.0,0.0,0.004298365012640553,-0.03789994137208666,6.003436176522191,87
-143.9634962982492,68.52411036128011,80.68592236767576,44.269000985077184,144.5318734568182,73.44348024475059,-76.20179832588863,-46.23742283198732,-90.0,2.0593645498000237,0.0,0.0,-0.04941570582686215,-0.004724678800394611,6.477057283806945,88
-145.16402456322746,69.56707925995495,79.48978410844231,45.82182460134392,145.63832154416122,74.41682403227104,-75.07204814707866,-47.283640235760984,-90.0,2.1465731255834943,0.0,0.0,-0.06093780063081303,0.06569701132593367,6.933050500353261,89
-145.17577079498673,72.42552441320345,75.62570206244953,46.48133967423929,145.14333727678974,77.3361803652933,-71.3860494366279,-46.643139630427356,-90.0,2.0816681965783324,0.0,0.0,-0.12807292465602413,0.10622556213065186,7.4651642755877665,90
-143.75792634024162,76.24497431004924,65.98008299680104,46.215025412910926,142.47626654271366,81.21446984683395,-64.94595832495631,-46.97160704712137,-90.0,1.8629699440289544,0.0,0.0,-0.16658764686528763,0.12907684624242596,7.610089202900973,91
-139.5676284117553,78.98774424139312,58.539181718033795,49.23384694285333,138.57031733074774,84.16463905855244,-57.80632709657431,-47.75464480901418,-90.0,1.5388727714434094,0.0,0.0,-0.20758697326378694,0.20678631832533284,6.987068092087879,92
-132.3548530183297,80.31819940633292,49.226914599227804,50.839071087505616,132.1796827751916,84.19404713913542,-46.757042412243344,-50.45448335375402,-90.0,1.0479178584517777,0.0,0.0,-0.39495755138944155,0.32222323804145675,5.929531853902869,93
-122.56747253299696,80.7416919591545,37.789674795458836,51.91864551903425,122.2948047033078,84.54624216852598,-37.73616747611858,-50.57601789934495,-90.0,0.7037961265372784,0.0,0.0,-0.6079641659481152,0.1656006920100712,4.5162865294214125,94
-113.22510251772756,83.27140573686063,31.658425826504153,45.053497106271955,113.5602161468711,85.90490079764788,-30.433638643424022,-45.795258704997224,-43.59267200496092,1.0765524020752282,0.0,0.0,-0.6011546975237543,0.0402200789224897,3.480067290126557,95
-104.66185634838266,85.8991826328099,23.229107178499508,42.627705586616244,104.91139588936495,87.18207024481947,-19.648667717854572,-44.562093109742754,-29.620860510338705,1.5856610577219237,0.0,0.0,-0.290401780026929,-0.08740769268002319,2.9760987841907776,96
-97.24590996878445,87.03486010923064,10.294557174765272,44.775982346043286,97.28337028892392,88.0332603908754,-6.958032656843374,-46.810818829671675,-32.427876992370834,1.4674742672244507,0.0,0.0,0.28649276400883,-0.22123253512733057,1.7544450044322293,97
-80.64201225550002,81.94411623857161,-10.903239508120777,55.275442254913685,78.92811173174026,81.32791352310649,13.3853381879363,-56.7868586773196,-67.84084104288802,0.8689456753204055,0.0,0.0,0.2833662749451202,-0.31861233298090863,0.21698170422455842,98
-46.481642471812656,84.23336933006459,-25.374344427251774,51.62319775326811,42.510918338741,84.22262264732068,27.30046440884665,-50.508349085722465,-90.0,1.0865794813933047,0.0,0.0,-0.18613532502121174,-0.23101319787288793,-1.6978143777240007,99
-15.70257292441787,87.50676246579225,-34.97636429961694,31.701942961040125,13.154724203935919,88.1612985557916,38.278377886085266,-29.61885865059666,-90.0,1.4975267306121083,0.0,0.0,0.10473270664503126,-0.1457430355672297,-3.173261609560073,100
-2.7660020422461105,90.76506954145347,-26.25237668345497,28.298822862089594,1.7422956116250514,90.3808519203245,30.708390806811273,-28.298822862089825,-90.0,1.2021881867097064,0.0,0.0,0.03588626893105294,-0.1739285572648836,-3.0749805902401977,101
16.98620110821731,90.13464478400783,-28.65843083429318,28.29882286208985,-17.809152490181557,89.94392884936795,32.98506122150049,-28.298822862089647,-90.0,2.1306887148876705,0.0,0.0,0.1375593981238288,-0.21936801233712355,-4.085606755521279,102
22.8248741615383,90.80489624625979,-23.886979554752937,28.29882286208985,-24.03496384278357,90.13420308052909,30.58286988181128,-28.298822862089697,-90.0,1.9319839106047498,0.0,0.0,0.11881136803790886,-0.2268989509215108,-4.7009774210033655,103
30.4050153388923,88.40298230845893,-25.80599895052131,28.298822862089697,-31.599282798211576,87.52129580025876,32.58397414979369,-28.2988228620898,-90.0,2.7621583524140996,0.0,0.0,0.04555558795637498,-0.2365370988324613,-5.5354066573473615,104
36.02764061264328,88.55329913270539,-23.423335316417507,28.29882286208962,-37.20137669214719,87.37879043796147,30.05250598775059,-28.298822862089747,-90.0,3.120731553178532,0.0,0.0,0.15053811320304614,-0.2115092470118503,-5.471529164408984,105
39.23770125425486,88.51893914806728,-20.95746025705757,28.298822862089875,-39.9613762807526,87.30587694582972,27.57237333702611,-28.29882286208972,-90.0,3.3833530714324027,0.0,0.0,0.174462630143935,-0.1963738462551937,-5.761293974322161,106
41.565248007323035,86.80910493674146,-20.65768414181217,28.298822862089697,-42.0212290918143,85.48466345040045,27.15277309997472,-28.298822862089672,-90.0,3.6224775850427053,0.0,0.0,0.27761207260143334,-0.1565019557437782,-6.291811615331534,107
42.68568116418691,83.83281508791754,-20.041644899941115,28.298822862089697,-43.45446819734111,81.9653963826387,28.92330134780206,-28.298822862089953,-90.0,3.855357170390992,0.0,0.0,0.3357320671020942,-0.09014061042206777,-7.023050046447925,108
43.89292317580355,78.72719190930171,-21.356239511880414,28.2988228620899,-44.65576056344732,76.98629220753566,30.53095462705477,-28.29882286208962,-90.0,4.147469613585473,0.0,0.0,0.2850686964837385,0.0026988757546190035,-7.602088617560412,109
45.95316723276466,69.59471126790562,-26.963340395949672,28.29882286208962,-46.830322665602964,68.0502263201687,33.796803898391474,-28.298822862089594,-90.0,4.516067662453811,0.0,0.0,0.3218035491581946,0.06978101496692182,-7.658159841234581,110
49.08505369144435,56.15596237891279,-31.771193045435133,28.298822862089747,-50.50626881908073,54.1078285194485,40.20013716520964,-28.29882286208962,-90.0,4.824392107483861,0.0,0.0,0.18063733263038664,0.09411878874043011,-7.354162539664885,111
53.00788911168223,42.955596159988076,-32.67200819682418,28.298822862089825,-54.451429775537854,40.69563986504397,41.32623954842901,-28.29882286208962,-90.0,5.122149303337602,0.0,0.0,0.24691869960736337,0.16455824126771587,-6.790616732910587,112
57.83562893007305,26.472109555215564,-37.374888221808376,28.298822862089697,-60.871791054705454,24.17595604083426,48.12155660949832,-28.298822862089594,-90.0,5.3421560575801,0.0,0.0,0.030851588099017366,0.21810182598105265,-5.661145306800531,113
73.53242342630764,11.372445665017016,-52.904086812463476,28.298822862089594,-80.51157394502617,6.644659262602644,70.46912974978542,-33.4171481984126,-90.0,5.304169165581684,0.0,0.0,-0.1986918913905269,0.2044802177040748,-4.682101839930983,114
73.53242342630764,7.515284273120764,-52.904086812463476,32.17544034774171,-80.51157394502617,11.964058332879075,70.46912974978542,-39.09840498413782,-90.0,5.10046682677015,0.0,0.0,-0.266719701171052,0.1967845840844343,-3.6880848456790387,115
73.53242342630764,24.78064719518059,-52.904086812463476,40.29837602992017,-80.51157394502617,30.003642296627806,70.46912974978542,-45.81376282174904,-90.0,4.682565690459928,0.0,0.0,-0.09824273577643054,0.15552396356585682,-3.258400351971794,116
73.53242342630764,43.02215023992367,-52.904086812463476,46.69387180832221,-80.51157394502617,47.55818387454461,70.46912974978542,-50.524565888903226,-90.0,4.038029750032829,0.0,0.0,0.3081731283407077,0.16495439907382528,-2.3947970399316247,117
73.53242342630764,60.36655242313317,-52.904086812463476,46.60814606210478,-80.51157394502617,63.477211281650796,70.46912974978542,-50.12184881852182,-90.0,3.2350953572302292,0.0,0.0,0.3841097032894571,0.2122356816825039,-0.8856022475996017,118
73.53242342630764,72.34620626032269,-52.904086812463476,46.31576232852754,-80.51157394502617,74.36518224050326,70.46912974978542,-49.262119294944284,-90.0,2.2126368144483832,0.0,0.0,0.32799274218546676,0.19272721727774336,-0.15803948187006103,119
73.53242342630764,81.66075749562607,-52.904086812463476,42.35382261329451,-80.51157394502617,83.02519802569677,70.46912974978542,-45.696722860171725,-90.0,1.2903970598286645,0.0,0.0,0.21602560637108995,0.0034879293733667553,0.7564058589234856,120
73.53242342630764,88.3601134994332,44.18320113296356,39.72823126095362,-80.51157394502617,88.73569207826235,70.46912974978542,-42.96958518972837,-90.0,0.6428417587307063,0.0,0.0,0.12717591384551238,-0.119304147945347,0.7302460502061356,121
73.53242342630764,91.44979824979937,24.180792197321686,40.04341983590856,-80.51157394502617,90.68855246881552,-18.229789664177797,-42.54356642632519,-51.70017954397425,0.6878286841715803,0.0,0.0,0.6471373029856313,-0.0921940085285358,0.7961866749374776,122
73.53242342630764,91.78202302188281,3.62609483151422,43.53682349794804,-80.51157394502617,91.1503234691565,-0.44936836377718054,-45.58243344756607,-89.00747144388535,0.5349916258795574,0.0,0.0,0.5549915247686541,-0.20967195094341762,0.39352140551988735,123
73.53242342630764,90.82902661014404,-6.626429960829943,42.60080590731263,-80.51157394502617,89.88457179676486,8.949135274437333,-43.39394844413793,-90.0,0.826267403517758,0.0,0.0,0.3615325286708625,-0.2582663634348566,0.08258537766678545,124
73.53242342630764,95.03167195950557,-9.980730126681722,28.298822862089697,-80.51157394502617,93.33836928560896,14.13441712820266,-28.29882286208957,-90.0,0.8718656056353623,0.0,0.0,0.24088967631847966,-0.29801684203673684,-0.14042693207065488,125
-23.42380786786336,95.20344881641228,-12.494437912991096,28.298822862089697,-80.51157394502617,93.20578527231574,19.012473891057528,-28.29882286208972,-90.0,1.2265850322363037,0.0,0.0,0.4970602207554281,-0.3050668340471467,-1.3140013455673563,126
-13.04437219302457,95.5792081550849,-21.691135857094917,28.29882286208972,12.373927249012215,94.12900489401211,26.88834113380526,-28.29882286208962,-90.0,1.803341248150153,0.0,0.0,0.596976997638852,-0.3111041997821608,-2.0333845947696005,127
-4.056030294503643,97.42202770187382,-17.920199315709493,28.298822862089697,3.353051771478675,95.8995067100389,23.16677136082672,-28.298822862089875,-90.0,1.9251005340348972,0.0,0.0,0.4860414019548006,-0.28331425272255717,-1.3077583441912919,128
-1.1004347294215089,97.9392058820012,-13.177136661037395,28.29882286208962,0.4838439894161108,96.24820861614515,19.591088312510976,-28.298822862089825,-90.0,1.9815155030599014,0.0,0.0,0.3633569168024855,-0.20603704850490023,-1.6738612855136588,129
2.2829773436002085,99.37247997902881,-11.067393447093696,28.298822862089672,-2.9416727115762025,97.96662717056321,17.495153084434236,-28.298822862089672,-90.0,2.2080373622593656,0.0,0.0,0.31644212086658186,-0.22201149737893147,-2.15828694949222,130
2.80600765880594,100.00473316850085,-8.743945082735404,28.298822862089697,-3.4856994108606467,98.5700056744031,15.187231519515862,-28.298822862089747,-90.0,2.216235751956852,0.0,0.0,0.2708227200524173,-0.22498886444683933,-2.1814509839213074,131
2.9965856855493254,100.4716007486828,-6.44156578577976,28.29882286208985,-3.7018967584581115,98.59031697457229,15.136317683530276,-28.298822862089825,-90.0,2.2888228666001704,0.0,0.0,0.33645119570822296,-0.26102350794988327,-2.4682672085036708,132
2.859371863963336,100.28697627169899,-6.358696258659444,28.298822862089697,-3.49048190811409,98.91351448142719,12.795283958054638,-28.29882286208962,-90.0,2.3524879382174677,0.0,0.0,0.3374052636249289,-0.22167366918057402,-2.493540300318024,133
1.3228897194773384,100.8596796766217,-3.989557927018574,28.298822862089747,-2.1931222632742,99.05517954227246,12.856755079571558,-28.298822862089825,-90.0,2.275528619763254,0.0,0.0,0.37354997352808456,-0.1888368864023881,-2.6595025027707133,134
-0.259203252127926,100.36478149834286,-6.257143731693416,28.29882286208972,-0.5522629389697183,99.01887041183593,12.936845043383174,-28.298822862089697,-90.0,2.1868529722762906,0.0,0.0,0.3055097372046468,-0.12655232388150317,-2.6834238600778715,135
-3.384917763867503,100.51835036796575,-3.7827379237830767,28.298822862089697,2.8135631331438153,98.89138614097749,10.489251655319578,-28.298822862089697,-90.0,1.9685638557278269,0.0,0.0,0.37696636325047833,-0.09212299573502093,-2.2404389379762,136
-10.726180926915747,96.92852104208978,-11.261255054359916,28.29882286208962,9.763463129176072,95.80493157582286,17.005909219689656,-28.298822862089594,-90.0,2.1140935745461578,0.0,0.0,0.21113708194595257,-0.02592372259048196,-3.103083943969356,137
-18.610367865127223,95.36311784866018,-12.094525299675185,28.298822862089594,17.407690146885507,93.78472578272799,20.304962028437632,-28.298822862089697,-90.0,2.0212576187453215,0.0,0.0,0.3971023819874334,0.000543167935663205,-3.1748224065031465,138
-28.766524949832643,94.32711184602113,-9.50571022722,28.298822862089825,27.80883582465849,92.9158327554352,16.81714827969291,-28.298822862089747,-90.0,1.5121214193663866,0.0,0.0,0.3881837487576513,0.0068329144903251015,-3.1545665699905845,139
-45.47232194862635,90.89570037174052,-6.274023800774736,32.694253304948454,44.93543788129568,89.0942856592199,13.686789248892158,-32.97494056982304,-90.0,1.004620048966204,0.0,0.0,0.3441352759406174,0.016512939875432443,-3.1931257071718258,140
-65.5863158699876,87.13483016048392,2.4186175020711707,40.56940588645742,66.13055147165893,85.6548166566776,2.5769465724923646,-41.716352260058564,-90.0,0.610463093383438,0.0,0.0,0.2510413275456621,0.025018424146806717,-2.0222663566113526,141
-85.15044909405799,84.50299958419855,21.249534225478442,44.730929903047134,87.32938526876929,83.44021579549617,-16.408702314192805,-46.585236595288336,-90.0,0.5890339990480585,0.0,0.0,0.16614113498243294,0.03225776258560819,-0.6532855939839779,142
-96.5196026255275,78.08996333159553,44.33796561912783,47.69894436278677,100.08485646028758,77.75587670111469,-39.15222298366415,-50.23886898937019,-90.0,0.813416125585063,0.0,0.0,0.2840095337711266,0.1080043158574646,0.4426432873682461,143
-104.72647304235942,66.46092579382132,63.801949932331816,49.46882325810967,107.9896721545992,68.05518756685318,-61.35116197900627,-52.69203996741184,-90.0,1.4403817631065075,0.0,0.0,0.3472447096672903,0.1344688779296028,0.26916956737251385,144
-116.60600003300493,55.64624878010184,81.77813454024724,46.568534427413866,119.51105046730554,58.395932739777045,-79.5336074762211,-50.492247821240355,-90.0,1.991891346960298,0.0,0.0,0.37787946546983864,0.08214881727941728,0.32885014714061417,145
-123.3277561946713,43.058510868410515,93.46565914077709,44.334906650157464,124.51160987643621,46.16483117318189,-92.92057284841201,-48.820983416409426,-90.0,2.3373984297781747,0.0,0.0,0.37448993639907985,0.11001280537513539,-0.34597303711822724,146
-134.40730676663722,30.286170642748164,104.99999999999999,38.51560584881953,136.55935384646693,34.06528349499941,-105.00000000000001,-43.611608009384604,-90.0,2.6788059517387186,0.0,0.0,0.44238410853297805,0.16641280045574403,-0.960042701197074,147
-155.0,21.549916918589695,104.99999999999999,30.536754797893003,155.00000000000003,25.282989156944232,-105.00000000000001,-36.88957109914377,-90.0,3.0888790630785223,0.0,0.0,0.2663206610619419,0.21590875267855988,-1.266099290088156,148
-155.0,17.642293671285586,104.99999999999999,28.298822862089697,155.00000000000003,19.566018416868722,-105.00000000000001,-28.751087933876644,-90.0,3.686010276331907,0.0,0.0,0.19838613201603886,0.317068859375585,-2.02580230786939,149
-155.0,19.243232620273815,104.99999999999999,28.29882286208985,155.00000000000003,20.493780717379714,-105.00000000000001,-28.29882286208985,-90.0,4.163902838824408,0.0,0.0,0.21829891432102544,0.37351283247328965,-2.643049350875621,150
-155.0,26.902982063630777,104.99999999999999,28.298822862089594,155.00000000000003,25.948390699770968,-105.00000000000001,-28.298822862089594,-90.0,4.462330684151744,0.0,0.0,0.13692102868357003,0.5019281647149573,-3.7996970882207406,151
-155.0,37.68549898368547,104.99999999999999,28.298822862089466,155.00000000000003,35.68201966122565,-105.00000000000001,-28.298822862089672,-90.0,4.79031199235875,0.0,0.0,0.31217469717221935,0.5643968965246206,-4.419744127503562,152
-155.0,49.349488087534404,104.99999999999999,28.298822862089953,155.00000000000003,47.237285057326716,-105.00000000000001,-28.298822862089697,-90.0,5.063954035406395,0.0,0.0,0.21738866655293004,0.6700877018467647,-5.14383241418422,153
-155.0,59.96680953394889,104.99999999999999,28.298822862089747,155.00000000000003,58.26856165753533,-105.00000000000001,-28.298822862089647,-90.0,5.25502901521518,0.0,0.0,-0.12032492244001668,0.744818299881547,-5.485933318312701,154
-155.0,67.76121550590341,104.99999999999999,28.298822862089825,155.00000000000003,66.12166456289846,-105.00000000000001,-28.298822862089747,-90.0,5.3672258718921375,0.0,0.0,-0.145487324281832,0.7909724040299607,-5.465115340959775,155
-155.0,73.6875757496516,104.99999999999999,28.298822862089647,155.00000000000003,72.14705094779286,-105.00000000000001,-28.29882286208972,-90.0,5.404406292432525,0.0,0.0,0.05198656789298725,0.8050794986785402,-5.285061169209849,156
-155.0,77.33061285787086,104.99999999999999,28.29882286208972,155.00000000000003,75.33128732110846,-105.00000000000001,-28.29882286208985,-90.0,5.477921528825726,0.0,0.0,0.030783577946188953,0.7981827492270718,-5.285103211731054,157
-155.0,80.92357142478308,104.99999999999999,28.29882286208972,155.00000000000003,79.52421229534356,-105.00000000000001,-28.29882286208972,-90.0,5.479038166813124,0.0,0.0,0.18093946207295553,0.7776360451638952,-5.185286028124519,158
-155.0,86.74189763585237,104.99999999999999,28.29882286208957,155.00000000000003,85.11292109066176,-105.00000000000001,-28.298822862089594,-90.0,5.261350627474125,0.0,0.0,0.2233261416013812,0.7858135174959004,-4.8077684387021105,159
-155.0,93.12271863115387,104.99999999999999,28.298822862089697,155.00000000000003,91.94757323942633,-105.00000000000001,-28.298822862089697,-90.0,4.586134287657253,0.0,0.0,0.20549713056764052,0.6810350180657077,-4.74643603453239,160
-155.0,96.91791840431067,104.99999999999999,28.2988228620899,155.00000000000003,95.11655543890396,-105.00000000000001,-28.298822862089697,-90.0,4.263164341776357,0.0,0.0,0.24573689102958937,0.6137690091596464,-3.367853628715081,161
-155.0,99.25752408600027,104.99999999999999,28.298822862089825,155.00000000000003,97.31275019732541,-105.00000000000001,-28.298822862089875,-90.0,3.5368355756295213,0.0,0.0,0.5587504324418371,0.5795752839296059,-2.4739351752852654,162
-155.0,96.80862127079304,104.99999999999999,28.298822862089697,155.00000000000003,95.21348326019522,-105.00000000000001,-28.298822862089594,-90.0,3.4781624678897676,0.0,0.0,0.37366401231483987,0.528162527242002,-1.5115445599741375,163
-155.0,94.47479801700993,104.99999999999999,28.29882286208972,155.00000000000003,93.05900025946129,-105.00000000000001,-28.298822862089697,-90.0,3.588207213275748,0.0,0.0,0.5393273140886319,0.5170978304188233,-1.7953800735402679,164
-155.0,95.08520708651164,104.99999999999999,28.298822862089594,155.00000000000003,93.17599641819888,-105.00000000000001,-28.298822862089825,-90.0,2.810408201746948,0.0,0.0,0.7497410944580956,0.38567364437792667,-1.0981688253338038,165
-155.0,92.91603588612878,104.99999999999999,33.39080043567851,155.00000000000003,91.03446677841616,-105.00000000000001,-33.956340425496414,-90.0,1.9801792665218052,0.0,0.0,0.47456871075829277,0.18767252047105112,-0.228200952674361,166
-79.36584495237774,90.77298471776946,16.64978561453947,39.30873617499482,81.27218901108004,89.4835233973815,-11.138953159205542,-40.95776868691226,-90.0,0.9033792426998555,0.0,0.0,0.4414366844791345,0.09740018409286422,1.6935521518816343,167
-94.46139838655917,91.43065014634402,36.157716205594404,37.014250805285705,97.5558542905208,90.45212155883978,-26.9628452338539,-39.38768333506926,-90.0,0.5650336804383459,0.0,0.0,0.5448066521066969,-0.007278475048639134,3.212641913319522,168
-103.03835820693044,88.07051931388682,51.37174846499536,36.276783840647354,106.28809886864747,89.02381897118654,-44.38676354827716,-39.27467347407219,-90.0,0.5935745876589756,0.0,0.0,0.5518402574052569,-0.0023974003012405144,3.8046559756161185,169
-111.78428575979859,80.82845154099425,57.694779911956644,38.88930856410673,114.24224698206667,83.03430666245815,-55.53008412877367,-42.58248135470524,-90.0,0.8046295229638836,0.0,0.0,0.5919917724805249,0.017693377697800734,4.252009484370281,170
-118.98055353138085,74.97555380875161,63.33348832259,46.45915954458706,120.88314902749563,78.13139188670348,-63.62134674613891,-49.590310707086466,-90.0,1.341557453785809,0.0,0.0,0.5059787570113193,0.05124047905388842,4.926732429523684,171
-128.62590380746786,72.93455336800137,70.438356857916,43.6347511847017,130.07085672735218,76.07804005640862,-70.94639501259933,-48.589402047996565,-90.0,1.65934139869496,0.0,0.0,0.46704417919045327,0.026145595404514815,6.445661347932988,172
-134.57490670015312,69.53827898904153,78.76905203508869,41.263565279409164,135.18094307646638,73.328845651644,-78.53757012345385,-46.98238230390033,-90.0,2.081403280285413,0.0,0.0,0.419135951436892,0.11702540724545779,6.64802544499794,173
-139.67782352428847,66.4000764467435,89.17852453138134,34.952930000217314,140.01563302758717,70.59648252986293,-89.0245206977388,-40.25100593038804,-90.0,2.4988593826733365,0.0,0.0,0.3874402938611217,0.05508891782252518,7.085489782285964,174
-141.81770640803472,65.1010538641632,94.12554564121628,30.18200350881477,142.84638114134836,69.3867749527106,-91.68044943251431,-36.69885745904454,-90.0,2.6600750007652962,0.0,0.0,0.4184183889653275,0.04829361186670314,7.377935081919487,175
-142.79452747493727,66.02191742658586,92.86784269945032,29.661046830093017,143.0826184022352,70.4596384576613,-92.63456982890982,-35.61272510697234,-90.0,2.744040504098582,0.0,0.0,0.4050972753099858,0.05480081976638682,7.485522613278213,176
-140.53647902679853,69.09104105950237,90.22438051607625,29.031065303799547,140.88884994392816,73.42300068689933,-90.21870193107928,-34.38062456366256,-90.0,2.628627134516451,0.0,0.0,0.4132809730668303,0.08330964361808894,7.617388532808441,177
-137.16976721360973,73.76243777497125,79.99177175821275,34.82788674314892,138.77864795524474,77.3633884406581,-77.5272506889043,-39.89685034186983,-90.0,2.3754354538418916,0.0,0.0,0.39461107654487226,0.17536334124934463,7.280851281622734,178
-131.98458906746941,76.49358265856554,69.33247188387482,39.30005068946766,133.38907100231262,79.91417904363546,-68.6974362368011,-42.65009435134721,-90.0,2.0058666018628424,0.0,0.0,0.42097691356702194,0.19423371499302644,6.455727920919741,179
-125.05645823544387,79.27372402899736,60.33062995514284,41.2583321582588,127.00457063263471,81.58076670939697,-57.525809438735514,-45.46870999690223,-90.0,1.457789755522797,0.0,0.0,0.3962707767883301,0.18653906162598743,5.524783210047261,180
-117.28917092664673,81.24591587872969,49.27888425412322,42.25499238241965,118.79040513870082,82.91316114163024,-47.290014128605975,-46.11459395876592,-90.0,0.8986220965390369,0.0,0.0,0.2954094511169461,0.10532554409734299,4.326586246273068,181
-108.62956400058438,83.62532451415308,38.81173212961593,43.02091008460449,110.3059244052397,84.06697955104423,-34.62949410172126,-46.64146131798852,-89.4418208708485,0.6174481475807119,0.0,0.0,0.3187918932614881,0.0835141973180215,3.2520717377147195,182
-115.37380670214542,79.07475541594599,19.735801662867548,52.88077019683365,116.01404531646367,82.73269114459023,-21.8800095652982,-51.26197828978428,-90.0,0.75170568134204,0.0,0.0,-0.008439391825314495,0.6082927810547694,5.525551002486281,183
-118.64880399307708,74.1094299033653,19.80166500393967,57.04686317093339,117.94166778359273,81.07125950513266,-18.346907159660805,-52.65645697040178,-90.0,1.0703201808180478,0.0,0.0,0.09580391830113534,1.5554681420171588,7.879832735906224,184
-117.81256276924191,68.53964243187563,31.872117812075302,57.5062484585131,116.88020412456574,80.52105643840052,-21.350065557092368,-53.451593590792534,-90.0,1.605132493830517,0.0,0.0,-0.02852189812785767,2.8492905712564416,8.379391888606188,185
-114.8950662119791,60.90816547552837,46.86047679457804,58.047715733527866,117.94960449087445,80.60063281354591,-24.76789415033938,-51.510879284945304,-90.0,1.8806825570999883,0.0,0.0,-0.6481552420649103,4.601507726679875,7.710485249849122,186
-114.94952060810628,56.37473698343326,62.08353340638441,53.52912884533769,117.92666843813423,81.77729066077526,-32.106760881472056,-48.96423622924157,-90.0,2.0091791214998986,0.0,0.0,-1.018790714857284,7.020737328395181,7.335031416473939,187
-114.56787882655664,48.32636139768221,72.00886021534255,51.199824142699825,117.1440258530151,81.51598121564597,-35.10608647572691,-48.2994549507266,-90.0,2.1260589090052306,0.0,0.0,-1.2300126223113201,9.471050714510287,6.967139983852719,188
-118.21499506458504,39.185982076619,86.7945342099211,47.109271942653905,117.86579871587693,80.86128148595671,-38.825387298639534,-47.802645698185394,-90.0,2.3576037387302033,0.0,0.0,-1.6893935946763121,12.233330653837964,6.765756940280916,189
-115.99891443147521,23.9662602870871,91.86179047072183,45.459131186328825,117.5005000231424,80.02146317419111,-39.67282511398365,-48.2894352042139,-90.0,2.553541154814009,0.0,0.0,-1.7902836946286032,15.615604209290133,6.227667267634878,190
-123.90094798573782,13.196312061971291,103.01215553875132,41.46543649213337,116.59729465403696,78.45680475764281,-39.109387391965534,-48.93034177380334,-90.0,2.758210589958851,0.0,0.0,-3.018597055233731,19.25141708559565,6.70809195979283,191
-155.0,4.270119455301264,104.99999999999999,35.95667716579964,116.08281207088461,78.12046010463263,-43.507583426424674,-48.39036141613099,-90.0,2.8812656812657935,0.0,0.0,-4.532206857105181,23.28102682369706,6.653441929344121,192
-155.0,9.594035943067556,104.99999999999999,30.527739632899568,115.41647600717992,75.12552039020404,-45.226752342329476,-49.859543925762885,-90.0,3.1923827105133302,0.0,0.0,-5.167919524661806,28.658203376031274,7.070963443387779,193
-155.0,15.290610609438001,104.99999999999999,28.298822862089875,113.9768109786393,70.79235154277146,-45.2085358738936,-51.44874226505719,-90.0,3.326804978636732,0.0,0.0,-7.2238784056054515,34.04753821096357,8.89027458667178,194
-155.0,19.518082787877596,104.99999999999999,28.298822862089647,114.15958743451715,67.72198583325643,-49.514899884598876,-51.81487679940512,-90.0,3.4081852458945248,0.0,0.0,-8.07932589029141,39.16381220041259,10.40919853315269,195
-155.0,22.304178082236184,104.99999999999999,28.298822862089953,114.61859647332113,64.43737838914726,-54.24614327050956,-51.90934830207289,-90.0,3.483960397955655,0.0,0.0,-9.351131807332813,43.64770735737315,12.152387230332442,196
-155.0,25.060589553881467,104.99999999999999,28.298822862089953,114.46713471853353,60.29677328276877,-56.004195806247026,-52.58121659267574,-90.0,3.5634058567781617,0.0,0.0,-10.832202421516232,47.930736922095555,14.201060324901752,197
-155.0,29.510408223319956,104.99999999999999,28.298822862089825,113.72857112391276,57.25212375240059,-56.564394259730825,-53.32656300687393,-90.0,3.5911434489646012,0.0,0.0,-11.969081160824542,51.086035035279885,15.371142786193166,198
-155.0,33.18240128483976,104.99999999999999,28.29882286208985,113.61276556980133,54.712371855984706,-56.74087223704523,-54.10967680097377,-90.0,3.658713389307782,0.0,0.0,-11.978328650785123,53.30666369999332,16.26682159709597,199
-155.0,35.8930903685578,104.99999999999999,28.298822862089594,113.73679984555757,52.36391965786588,-54.60175356825199,-54.82283276366706,-90.0,3.7377549807853527,0.0,0.0,-12.06096359120614,54.65136660615272,16.997947922110978,200
-155.0,36.58822114550221,104.99999999999999,28.298822862089825,113.460917239197,51.49818667082937,-54.4111963446847,-55.35702972802342,-90.0,3.8430049569736746,0.0,0.0,-11.966373031183076,55.192012505417615,17.39652489895048,201
-155.0,36.329495581801275,104.99999999999999,28.298822862089647,113.01375201703401,51.19248831752631,-53.9544303455328,-55.82235379784942,-90.0,3.931646319959302,0.0,0.0,-11.677113670890627,54.9926915513335,17.41005350083947,202
-155.0,34.79802469214696,104.99999999999999,28.298822862089697,112.97306366217771,51.21728491502296,-54.07369850299196,-56.03878980042022,-90.0,4.046313703204995,0.0,0.0,-11.707751251140436,54.34884501633107,17.101770191498378,203
-155.0,32.055890466314075,104.99999999999999,28.298822862089594,113.10008537403083,51.932823421914335,-53.970598727716556,-56.09906605359646,-90.0,4.139988310017774,0.0,0.0,-11.241463539287494,53.032594488169124,16.35503452556822,204
-155.0,29.34600209529369,104.99999999999999,28.29882286208952,113.00553723276346,52.87863127797247,-53.66294502749565,-56.096547844526455,-90.0,4.13223819607727,0.0,0.0,-10.70641582278547,51.02308180732562,15.541842743098364,205
-155.0,24.444952681819217,104.99999999999999,28.298822862089594,113.60757404863097,54.14915108120614,-53.76836460234429,-55.65230591093369,-90.0,4.13271307377079,0.0,0.0,-9.959937008062754,48.1139890859648,14.631951261051594,206
-155.0,19.46291328551631,104.99999999999999,28.29882286208972,113.04800021588264,57.45987466673255,-54.54520371974861,-55.19747650626438,-90.0,4.062830352756156,0.0,0.0,-8.675262876324098,43.74188922886329,13.38229708757065,207
-155.0,15.715278300926954,104.99999999999999,28.298822862089594,113.541574237778,60.68746291573648,-53.22515400415179,-54.63576700928217,-90.0,3.9582541539407803,0.0,0.0,-7.324942725341425,38.97958757973539,12.17631219026834,208
-155.0,9.842191900456108,104.99999999999999,31.316541830041057,112.64951917985047,64.48710893871662,-52.015302390399114,-53.924861946097934,-90.0,3.8587601843817643,0.0,0.0,-6.786310757267805,33.97919945438604,11.156602823566002,209
-155.0,2.808856219544946,104.99999999999999,35.374818405371876,112.64389951009694,67.57762314069315,-50.321422368508685,-53.117836551014605,-90.0,3.754852794456195,0.0,0.0,-5.629383575188108,29.405401142207598,9.953421465058728,210
-76.24277739983003,4.1707335604982285,60.62684734873364,39.266498536100094,113.37051594024834,71.2162279678369,-49.749192611085185,-51.442874001370406,-90.0,3.5747592199880724,0.0,0.0,-4.440297146205959,25.43511489612267,9.23283438365672,211
-98.92003786336994,15.538675789490034,78.78301504035969,43.97678658308094,112.95925848206315,74.25601598340349,-48.21305768204395,-50.38985630676436,-90.0,3.487515185798445,0.0,0.0,-4.254747544781952,21.503456498203725,8.83557356846714,212
-101.99887720898268,27.85068523039481,78.36600967942957,47.56612688284467,112.6252386684323,77.41111458958237,-46.57402290317797,-49.03666298028559,-90.0,3.2749951651081712,0.0,0.0,-4.0205849912165315,17.472727910843815,8.074903419301968,213
-106.45010454532651,40.82497756275006,75.11421029537456,50.10710458220475,112.89014766490091,80.55859137606963,-46.01757378272869,-47.09448393197528,-90.0,2.996875932904525,0.0,0.0,-4.765462430961474,13.519859069619187,7.357615983891496,214
-100.82147618631664,51.21947722255121,60.064185020188546,52.79961871962939,111.84972251882672,83.57742437569937,-40.086619368296134,-45.64172682867061,-90.0,2.341229156597924,0.0,0.0,-2.921583552678037,9.300651215242624,7.193816266339253,215
-100.31624553572121,62.212187139856745,48.93691739028928,52.41219860145921,109.1678859696702,85.38513158917037,-31.94048861781134,-45.74757363327095,-90.0,1.9223935202500255,0.0,0.0,-2.596980132731324,4.841894859601529,6.97632381443857,216
-101.01387515980768,71.172987090638,41.08368998784962,50.50133982790463,108.38278801234515,86.84187184470733,-25.887029769732017,-45.320040929013466,-90.0,1.677649855829978,0.0,0.0,-2.4590341835956075,1.244952184926062,6.383807854029413,217
-100.64111220219627,78.93322189944983,35.885951765215886,47.74213798155358,107.06724564468834,88.0374139608245,-19.74762512616061,-45.273610544602136,-90.0,1.5642634630143786,0.0,0.0,-2.115994291556341,-1.7916197412011248,6.121165996543099,218
-103.85173191410559,83.7371684267545,32.22609909905842,44.19812806533832,106.963332789922,89.72447618751818,-17.088253958028865,-44.11709940526692,-90.0,1.681472660328561,0.0,0.0,-2.4840256309881674,-4.147791405147365,6.3093604754016335,219
-105.79772084275916,88.18410027694732,31.985901086784533,40.09059166353324,106.69921252065971,91.66820834226685,-16.334360312230082,-43.016458726453536,-90.0,1.8215612786039983,0.0,0.0,-2.420263253885079,-5.704354624147233,6.227831694178875,220
-105.78154793988331,89.72743310297473,31.859376048164364,38.74216114566498,106.38400167130911,91.77516885321714,-13.57072109751453,-42.94802018196674,-90.0,1.8535781057993066,0.0,0.0,-2.138294248343222,-7.144426884989018,6.549312739668934,221
-104.94935489133115,88.61049002117083,29.52830205839343,40.99238307667679,105.87446117348006,90.7010266651298,-11.512848962493235,-44.48072059895934,-90.0,1.7457689851540672,0.0,0.0,-2.18346626176696,-7.468802607247341,6.801970725955614,222
-105.33657588138533,86.0235613147709,31.43058773990573,42.928073622998056,105.83186087947442,89.63371977656,-12.296040104079417,-45.40644228363398,-90.0,1.7400856104196611,0.0,0.0,-2.519537635432254,-7.031024810849897,6.978585582179392,223
-104.80248630683654,82.27022589864957,35.54643534368794,45.84541665934442,105.59175391476828,87.96736030619508,-12.8625146339716,-46.98520168143813,-90.0,1.7125584906721685,0.0,0.0,-2.611104466826274,-5.870034154283694,6.7878254744919255,224
-102.64027826004829,76.5330884914467,39.75609599808205,49.345647865132904,105.77279561680778,85.8507052605157,-13.414939051343433,-47.96985410934897,-90.0,1.5862833838290973,0.0,0.0,-2.5330076421199226,-4.057886331012171,6.7166232314651415,225
-100.08232892177232,69.23950449234772,46.0429911103491,52.12617023677722,105.79716433888497,84.01497011850479,-13.867057591004507,-48.7115697289916,-90.0,1.5091858700440832,0.0,0.0,-2.526073371481168,-1.969553258786715,6.626800296941967,226
-97.52044067522432,61.20977890236264,51.67232898556732,53.70775306486414,107.24093887738938,82.22611232678273,-14.159364510249837,-48.741768076308695,-90.0,1.4364376831551007,0.0,0.0,-2.175604065244971,0.6457565436804525,6.333026387934335,227
-97.1130224205946,53.47233835160306,58.135302378095325,53.563780915452504,108.9366777372332,81.71576931954391,-16.76171094484302,-48.450109983453245,-90.0,1.547558501528557,0.0,0.0,-1.9200563290842325,3.783855402266501,6.1011925908771465,228
-96.26355034087412,44.93025739093859,63.57752172833874,52.833531541503596,110.24405525037035,80.79177457048658,-19.91645077659468,-48.41865412152209,-90.0,1.737148565920536,0.0,0.0,-2.0673304559591292,7.4639822151996515,5.850272588727159,229
-96.6219107802988,37.22416869498653,70.07023378165047,50.576040311326764,111.14022432510855,79.37633925175786,-23.40171390077708,-48.5428546337189,-90.0,1.9328456551992614,0.0,0.0,-2.338824450808857,11.598014717900758,5.970363142190483,230
-98.71305560016701,30.071560351959032,78.04302948539684,48.07395133324935,112.4643340650875,77.71983010391355,-27.972848958419803,-48.75442567366378,-90.0,2.2457048914178497,0.0,0.0,-3.386672010726269,15.991701711242667,6.206238450855107,231
-98.39819583272798,20.262461923951488,80.97019445781979,45.03576702638741,112.5124195898304,76.13440723979656,-31.862646362405716,-49.51719049499759,-90.0,2.526893504253943,0.0,0.0,-4.043962581938274,20.111903938190544,6.476578628572828,232
-101.99191529591567,12.41462365584913,85.41980372184896,41.93963893149234,112.83682871646954,73.67214026294843,-34.09345457639137,-50.290938834421645,-90.0,2.7810249254573267,0.0,0.0,-5.273254984872542,24.448994917344333,7.1191459883997,233
-97.89510947596264,3.7955643872405314,86.6438078345253,37.69808789277212,113.66340096430949,71.49968419877622,-38.80422253629109,-50.23117286339748,-90.0,2.8721491670732124,0.0,0.0,-6.339642619040692,29.111737677592156,7.806599155808794,234
-97.89510947596264,4.857167607202338,86.6438078345253,32.40172790284019,113.08599900768628,68.11664947566584,-41.19529962510486,-51.45027513288469,-90.0,3.0711862966821863,0.0,0.0,-8.248677658466221,34.051991883200984,8.842991571969788,235
-97.89510947596264,12.034756286816586,86.6438078345253,28.29882286208972,112.78522964438913,64.8575915234907,-45.385119038961506,-51.9502592654849,-90.0,3.192177543581056,0.0,0.0,-9.538235446748354,39.10054833596628,10.264408072510106,236
-97.89510947596264,16.051147602421917,86.6438078345253,28.298822862089594,113.27449417389572,61.88775932336255,-49.70598273934658,-52.14711614251532,-90.0,3.270697663242348,0.0,0.0,-10.688947553373545,43.67204688425082,11.901525736899657,237
-97.89510947596264,19.72048704642797,86.6438078345253,28.29882286208985,115.24443714100597,58.4232685496845,-52.32240760476276,-52.142270319841444,-90.0,3.4018208763971227,0.0,0.0,-11.489910652457077,47.94075193517675,13.05243821550385,238
-97.89510947596264,23.38999906353264,86.6438078345253,28.29882286208972,114.74078754959565,55.159942506668116,-55.18437468811957,-52.65022931868165,-90.0,3.3780601714467635,0.0,0.0,-11.957947062287289,51.88491670472108,14.758817962401677,239
-97.89510947596264,27.496669185615826,86.6438078345253,28.298822862089924,113.31553532563252,51.66485195720123,-54.778139902994404,-53.530102113058156,-90.0,3.3484257111399685,0.0,0.0,-12.71856801084972,54.808622327453214,17.011912324223672,240
-97.89510947596264,31.771280000985293,86.6438078345253,28.29882286208985,112.02468118004373,48.740085677466084,-54.19319365879299,-54.30626387003405,-90.0,3.3709159290611654,0.0,0.0,-13.400423202045575,57.201867088269175,18.636413000024174,241
-97.89510947596264,36.673648161012586,86.6438078345253,28.298822862089875,111.22362000371245,46.239134110264395,-53.43132987909936,-55.00131876061974,-90.0,3.4717704839299333,0.0,0.0,-12.976870564595728,58.80579600571454,19.32697386638519,242
-97.89510947596264,40.296917534603445,86.6438078345253,28.298822862089697,110.67961787929718,43.52193067481766,-50.59521308359186,-55.93915512538367,-90.0,3.617867127318817,0.0,0.0,-12.899411027843312,60.129528047639255,20.423087174255766,243
-97.89510947596264,42.18575546524366,86.6438078345253,28.29882286208962,108.4364407078445,41.76142223734655,-48.85756015028216,-56.76773046641836,-90.0,3.7648723304059666,0.0,0.0,-13.39509426908029,61.1763724059279,22.02153050102545,244
-97.89510947596264,42.54793030730248,86.6438078345253,28.29882286208972,107.50084493949241,40.72295273819631,-47.834263755274655,-57.2510217713487,-90.0,3.9635822786239676,0.0,0.0,-14.247428706835416,61.719059653594826,23.203014663243017,245
-97.89510947596264,41.682301355069505,86.6438078345253,28.298822862089672,107.94345832921289,39.743618915742836,-46.07351795140408,-57.53415378241927,-90.0,4.126124602682711,0.0,0.0,-14.478618402614785,61.62114008316516,23.54618697449149,246
-97.89510947596264,39.915916213296335,86.6438078345253,28.29882286208972,107.93906328686379,39.827835541902324,-46.191529860055944,-57.76362280398997,-90.0,4.257851682565905,0.0,0.0,-14.270564443192045,61.050646243619475,23.36556761472962,247
-97.89510947596264,37.836765190626004,86.6438078345253,28.298822862089647,108.40819812992552,40.15126610669795,-46.607834714758766,-57.79856647122197,-90.0,4.37049615403552,0.0,0.0,-13.56255181128269,60.05525295334723,22.444988413216553,248
-97.89510947596264,34.55427042557977,86.6438078345253,28.298822862089697,109.93073921110714,40.86381939170306,-47.98518175210403,-57.71636374705224,-90.0,4.480779166468199,0.0,0.0,-12.60233583620444,58.47190232676512,21.055168497435844,249
-97.89510947596264,30.721721493406097,86.6438078345253,28.298822862089953,111.01103602920756,42.33013032022157,-48.70088460889497,-57.50713820007059,-90.0,4.513137451458375,0.0,0.0,-11.396952411049327,56.13367029765343,19.276149231615943,250
-97.89510947596264,26.336658174979036,86.6438078345253,28.298822862089697,112.10177667899478,44.65357080751489,-49.21823374830101,-57.43812219942818,-90.0,4.493667339939411,0.0,0.0,-9.859088156752827,52.42623234297693,17.30369316265727,251
-97.89510947596264,21.485696744605498,86.6438078345253,28.29882286208972,111.834179617066,48.657245854230986,-50.94682168000271,-57.00413510263172,-90.0,4.39585647147635,0.0,0.0,-9.063742315593016,47.723679356810194,15.249392772201457,252
-97.89510947596264,17.60529477153808,86.6438078345253,28.29882286208972,112.84538378362673,52.449095945208235,-50.6806939254622,-56.323990849206886,-90.0,4.178536633621866,0.0,0.0,-7.623991641785595,42.81808414281445,13.806951548431426,253
-97.89510947596264,14.415080360990544,86.6438078345253,28.29882286208962,113.14274201391214,56.30029835312087,-49.6259360239091,-55.43963495386699,-90.0,3.9328208072525026,0.0,0.0,-6.652764835407807,38.15230684185244,12.538945496191934,254
-97.89510947596264,9.874730091013554,86.6438078345253,32.2890231665424,113.43706701962203,60.13990847726133,-48.23957966911654,-54.423744618039805,-90.0,3.74122039217795,0.0,0.0,-5.7483745267820225,33.703015838364955,11.196868645868596,255
-97.89510947596264,4.107720417397947,86.6438078345253,34.98468571190688,113.52190632783638,63.76468069006015,-47.27301901934405,-53.43611458733338,-90.0,3.633302370731083,0.0,0.0,-5.598281771988232,29.16705748148876,10.319099858227307,256
-100.75671150064007,1.4354062536581818,83.16213983356394,38.22557687452524,114.55281054228591,68.09433171178125,-45.81883201342638,-51.24588784204739,-90.0,3.4932433038101816,0.0,0.0,-4.877062626294587,25.053928848745397,9.318176870829353,257
-106.19948891331522,11.063650751450169,86.77882548301491,41.64439323322913,113.0679541158474,71.49931397376247,-43.90712953152925,-50.56589512456552,-90.0,3.348100225922599,0.0,0.0,-5.019150855710518,21.027162098957174,9.106958946243898,258
-103.9576286674476,21.360078740357633,78.9388796534813,45.63355824889083,112.5684577182693,74.35190794807271,-39.444923367826,-49.329377371646586,-90.0,3.1076051506565454,0.0,0.0,-4.478434792103675,16.974417932092436,8.713832686922618,259
-107.99482419247619,33.36653979065848,76.71165151074935,48.08324104398298,112.08225205591054,77.20638125239563,-36.477989066730665,-47.8046012001576,-90.0,2.793188477252652,0.0,0.0,-5.4607177656778045,13.024232973716735,8.147339955108295,260
-105.14445273485595,43.91186288690177,68.09523991182189,50.313627164568146,110.91791861914345,80.84654168014451,-34.17733347347803,-45.91653628943509,-90.0,2.279546271774247,0.0,0.0,-5.013891184490222,9.182255911803376,7.856288823854753,261
-103.5329092034643,53.85749928125621,55.99871037552226,51.83891037568584,109.15974926678572,83.1846827678768,-29.600571934203906,-45.1093056564447,-90.0,1.8262717706004632,0.0,0.0,-4.5030383371174505,6.087279857976031,7.810956523719891,262
-100.58226845065816,64.02736913402978,45.666207616853285,51.54149996818736,107.51039188771517,84.76038918911075,-22.546778595423582,-44.25101980507709,-90.0,1.4624556641659203,0.0,0.0,-3.6681332892245515,3.356649282022838,7.781957851891524,263
-102.81273962893998,71.59344905216282,38.434287632697114,49.022611399225234,106.83158778629526,86.4087394195517,-19.49161695403375,-43.19176117321433,-90.0,1.3579601869175515,0.0,0.0,-3.9201027998064846,1.12508384159037,7.116459224545566,264
-102.96359880757761,77.99870838677093,33.3744349060833,46.32668619672109,105.61001170204172,87.55081643104965,-16.14362268618995,-43.06542798872868,-90.0,1.2499372534606965,0.0,0.0,-3.740606760684867,-0.3874216123992466,6.777915530849726,265
-104.49600335974819,82.28114618057924,28.97848726447264,42.966302852469674,105.37833147939936,88.88262677534378,-16.29856138895274,-41.68797210861775,-90.0,1.2352387960808262,0.0,0.0,-4.28019594852402,-1.3942611707072334,6.925963468682739,266
-105.63954326488583,85.78116486927738,27.94073987585106,39.39275703757367,106.32565479835853,89.61295300095414,-15.88624095022712,-40.36937231618743,-90.0,1.1684305938571697,0.0,0.0,-3.9605326477744116,-2.391892640609924,6.93291760926971,267
-105.70698291649587,87.45339513486037,26.387093035564522,37.50915350086626,105.99622578333482,89.6607878561922,-15.00741631851186,-40.89885742433041,-90.0,1.0631869857836498,0.0,0.0,-3.059600439763957,-3.3387215618784207,7.046967579490332,268
-106.57870326660021,87.22669652577554,26.83356472143082,37.231338257399976,106.33606617645043,88.76060676683105,-15.361914673696438,-42.08987077309897,-90.0,1.0113159761811068,0.0,0.0,-2.775436180718429,-4.767807758358318,7.275952892685447,269
-107.25237266608696,85.75368136169872,29.957874173185182,38.018315079839354,105.73212934860786,86.44157131165665,-16.504967623300566,-44.80527472247389,-90.0,1.0532051129993696,0.0,0.0,-2.712458881538269,-6.6857327884572255,7.465443853865185,270
-107.54037787747376,83.50634437372987,33.027500370697254,39.70238975777614,104.90797165972752,83.23694933447531,-23.434855877838082,-47.98477823054689,-90.0,1.1162549374754933,0.0,0.0,-2.942903723544739,-8.899080989575578,7.6135458787338575,271
-107.80306002066926,80.44814049367939,36.41647743808379,41.837997499407834,103.37412350116277,76.72146032861001,-33.83080893550438,-52.18443510926128,-90.0,1.1449472402502705,0.0,0.0,-3.1753800768359493,-12.062513404046955,8.049160290522495,272
-108.03740171011071,77.21050979375102,40.70607994706565,43.50040560637068,103.2871275195199,68.07863586141733,-44.44968571853673,-54.963742874663076,-90.0,1.1848624927877294,0.0,0.0,-2.6358940188208555,-16.598965304988237,8.57732234314508,273
-108.48606757430045,74.03445353210766,42.70087276678095,44.661943757116504,102.24801886868917,58.28460371882459,-53.742143153948916,-56.32668796482506,-90.0,1.2811999631751905,0.0,0.0,-1.9626073391149979,-21.701824466466523,8.941006308878638,274
-109.3582929846278,71.395272760998,45.97495787482711,44.9694329509591,106.18378467581485,50.70916054709351,-65.54406175094525,-55.149596378029216,-90.0,1.48267882814101,0.0,0.0,0.10030566786234121,-26.13442510104553,9.25644761665152,275
-109.47453572673409,67.9937599523504,46.567727027401396,45.90325624551103,106.78207448691944,39.01116337241614,-72.93509050281052,-54.14770892921715,-90.0,1.806994174977871,0.0,0.0,2.2432963869923297,-30.665981381672147,10.220572713255619,276
-110.37465734135891,65.6992760790473,52.10734023164334,45.28839148089318,108.05549918668129,29.590684476796927,-82.95314681682999,-51.282067348211754,-90.0,2.1330911716432928,0.0,0.0,4.366902670506724,-35.20966184302048,11.279309973559139,277
-111.22252031284805,62.986015249467386,55.13120144180014,45.76845714006678,117.61467732891221,17.347362656552022,-98.2320972975647,-46.408885209465815,-90.0,2.498602902005146,0.0,0.0,6.540918562451495,-39.51264542534905,12.003204219443504,278
-112.47041206001265,59.72425872775075,58.04494039008541,45.966114337371934,143.15229587972314,8.872053318486557,-105.00000000000001,-41.192112589702404,-90.0,2.816230191320981,0.0,0.0,8.293367429427475,-43.810329367984856,13.02439287260878,279
-112.55259998096454,57.124916403775345,62.43027391118848,45.906978331935896,143.15229587972314,7.232713525983465,-105.00000000000001,-35.54703071587804,-90.0,3.023739912031934,0.0,0.0,10.202235575523288,-47.839828407311025,14.881348096274197,280
-113.71191326996974,54.421436734590934,64.53154583951589,46.079760312129615,143.15229587972314,13.515861816748751,-105.00000000000001,-29.17998448982929,-90.0,3.291674508491233,0.0,0.0,11.514088220909628,-51.50094536872272,16.15230073795779,281
-114.29171602172411,52.03838244736372,65.42524437659826,46.633958468592574,143.15229587972314,19.30763544978802,-105.00000000000001,-28.298822862089825,-90.0,3.5214283494746996,0.0,0.0,11.924632311196937,-54.897101553058924,16.9280581219546,282
-114.54686929648916,49.44516528516906,65.99921547973507,47.19379991949749,143.15229587972314,24.09627827126912,-105.00000000000001,-28.298822862089825,-90.0,3.7176721689616787,0.0,0.0,12.246560078484906,-57.600787823255196,18.08894813171362,283
-114.37786579501746,46.88633141668562,66.01210452500514,47.97002760416041,143.15229587972314,28.395129914364908,-105.00000000000001,-28.2988228620899,-90.0,3.856406927297869,0.0,0.0,12.270093006941789,-59.79104440429023,19.31187929023968,284
-115.3320564681893,44.30337457463674,64.19313472844325,48.58845093399829,143.15229587972314,33.11061196381664,-105.00000000000001,-28.298822862089594,-90.0,3.9902334262863968,0.0,0.0,11.48169931686767,-61.101893578922066,19.59923329731583,285
-114.7433491083214,42.60401485571703,63.143391145796976,49.38244840781916,143.15229587972314,37.03374218107025,-105.00000000000001,-28.298822862089494,-90.0,4.079057152027829,0.0,0.0,10.035474190630136,-61.85596011574786,19.494885897619234,286
-114.14911869094824,40.73592866551238,59.80653678438742,50.37757407149754,143.15229587972314,39.901800227230666,-105.00000000000001,-28.29882286208957,-90.0,4.150599338637065,0.0,0.0,8.873292890295648,-62.21780121396956,19.728289619677515,287
-112.6384552959561,39.69046574673267,58.26871734257025,51.06987681748718,143.15229587972314,42.04620118007575,-105.00000000000001,-28.298822862089672,-90.0,4.212276770791433,0.0,0.0,8.137105394917267,-62.308607501486996,19.95140604397363,288
-111.55174649316848,39.436112659820175,57.269293199067896,51.502364725734324,143.15229587972314,42.64051225274971,-105.00000000000001,-28.2988228620898,-90.0,4.310565525216833,0.0,0.0,7.919621191797567,-62.02889221470119,20.053808873752,289
-112.93886045521391,39.28895961644086,56.018637502958214,51.5846958754883,143.15229587972314,41.79086504685876,-105.00000000000001,-28.298822862089875,-90.0,4.432654448661729,0.0,0.0,7.549619253319332,-61.27702087074122,19.545835366606354,290
-113.21261132570342,39.97026399876466,55.9536795817751,51.65900900124349,143.15229587972314,40.91239031140667,-105.00000000000001,-28.298822862089825,-90.0,4.570231317335053,0.0,0.0,6.804168780670202,-60.00401241841494,18.43198884573432,291
-113.31686728976152,40.98856002423789,56.08440138155333,51.561169856609595,143.15229587972314,38.786196575148914,-105.00000000000001,-28.298822862089697,-90.0,4.62268381746814,0.0,0.0,6.831446395503908,-58.2926276785222,17.932933983842428,292
-113.9082308271972,42.45608408005972,56.38812533089686,51.23114248791969,143.15229587972314,35.119443927472204,-105.00000000000001,-28.29882286208962,-90.0,4.627633380217701,0.0,0.0,6.463109236268149,-55.7235936463864,17.177031616935313,293
-114.24802912267725,44.67873657287429,56.14162825561237,51.02305230676632,143.15229587972314,30.72064933894069,-105.00000000000001,-28.298822862089544,-90.0,4.6258027083733,0.0,0.0,6.271163472458584,-51.95461852628406,16.13366460902864,294
-113.31343211317579,48.36840945744344,57.03556706142228,50.629201100289634,143.15229587972314,26.700883094197316,-105.00000000000001,-28.298822862089747,-90.0,4.5910104820403825,0.0,0.0,5.204125486867232,-47.39957170765053,15.116405568606522,295
-113.13585541749842,52.99170799269052,55.756896916700725,49.94673683155818,143.15229587972314,23.069850133174793,-105.00000000000001,-28.298822862089697,-90.0,4.49855062362262,0.0,0.0,4.979383814837396,-42.480688605312174,13.62281017398177,296
-113.18547651867829,56.4569665454654,52.36330398161236,49.412452011230975,143.15229587972314,20.391820341439796,-105.00000000000001,-28.298822862089697,-90.0,4.428061620694199,0.0,0.0,4.922804430693507,-37.66722099883276,12.332749669722428,297
-112.48336628319667,60.63881788714532,49.641845102054084,48.86641623959303,143.15229587972314,14.965708351702517,-105.00000000000001,-32.62292873262707,-90.0,4.328419075618927,0.0,0.0,3.787640293116815,-33.30298695366051,10.933921596003318,298
-111.74809347655295,64.31944246132547,50.40996440089847,47.826267075606516,143.15229587972314,9.29819170935428,-105.00000000000001,-36.4824881077985,-90.0,4.2223547928511005,0.0,0.0,3.409383788883786,-29.168934033004234,10.049689973880426,299
-112.23753953528845,68.60632899401911,50.3484086069631,45.43698938951551,143.15229587972314,1.2489576438868548,-105.00000000000001,-41.422648402749374,-90.0,4.118352199309658,0.0,0.0,2.6217487254133354,-25.068273605218778,8.703457412214007,300
-111.67197844442703,71.87959649855529,48.00198331532113,44.04095514823272,98.45252997159578,10.908435399068754,-73.6961032248207,-46.16445694278477,-90.0,3.8845724917956845,0.0,0.0,1.7772792294596877,-20.77272595440232,8.371322274091703,301
-111.13860855146147,74.93061061029393,43.976960648487164,42.686148194064316,101.72815568492943,23.685976463491567,-69.588917362003,-51.130255714860695,-90.0,3.5525766916324706,0.0,0.0,1.6408709728232884,-16.731501551323692,8.152873384583348,302
-110.96525696394468,78.06115576456972,42.66832951851677,40.33311290893362,105.57816386553995,37.925832202722134,-66.32574724159191,-53.764773245255554,-90.0,3.176100657053163,0.0,0.0,1.74417748400836,-12.722424180797068,7.168545821436142,303
-110.08510314816374,81.00451023558203,40.73485197008348,38.70518314982939,105.08874999881044,47.376097780469564,-58.96347978268198,-54.801846389037024,-90.0,2.645576876529753,0.0,0.0,1.2517043185773016,-8.71750254549542,7.0150661667608105,304
-108.80705973109623,83.0547936527108,34.62435522856863,38.295532155008,105.1375121406254,55.30423721291514,-49.282944780175946,-54.5942847583517,-90.0,2.058139258693666,0.0,0.0,0.6749739385763216,-4.5646942746337285,6.858955280928671,305
-107.06330438467809,85.21363856197345,29.167236402228344,38.44688566344358,106.4631010041951,63.770070885120965,-43.78334703585511,-53.18259550588591,-90.0,1.415742978451971,0.0,0.0,1.5252461484015645,-0.6655959425393865,6.371737737738903,306
-106.49370343047566,86.84270989901013,23.05133684787474,37.746798573135116,107.38896890363333,69.83849173137541,-36.91558162166603,-50.13472800278681,-90.0,1.019158868977147,0.0,0.0,1.1113368522927265,2.4505857694506767,6.434975023551839,307
-105.76383615145136,88.01480847722559,17.98554136965679,36.59093130717052,106.0412754243958,75.86816389381148,-30.407679172486848,-47.8356547192505,-90.0,0.6945007626645863,0.0,0.0,1.6166679665322763,4.467256245048956,6.341100463523466,308
-104.91041274017354,89.2185438104659,15.862399646877648,35.72131344427455,105.80964552573977,79.90613454285605,-22.434421262241166,-45.88158069511026,-90.0,0.4281688205497313,0.0,0.0,2.4643333795845024,5.550806965579066,6.426946504720027,309
-104.86339541581235,90.81816372233953,18.5078804866506,33.64626084678372,107.16198642337484,84.18209590813989,-22.704928639382615,-41.947037757884196,-90.0,0.18247749101747893,0.0,0.0,3.0498115035511977,5.895412223779416,6.64599640321837,310
-105.03998044083501,90.19707842755122,16.265097069844785,34.160859931201195,107.09624869404098,84.39184976451182,-20.04761616782689,-42.320698063335605,-90.0,0.17412006695433552,0.0,0.0,3.1331074573748867,5.643597240178141,6.7570583568943485,311
-105.07743710472162,89.43933278077579,18.16322810346592,35.443114646473646,104.52271518651982,82.9201355135615,-21.29450284711045,-45.33152487573782,-90.0,0.29387843949828024,0.0,0.0,2.2862938920595437,4.38662780240334,7.042289652356459,312
-105.93012243308007,87.69889876534258,21.01117637744562,36.583679508180055,106.15122930954625,79.54951151049522,-26.60073726726808,-46.60238002075548,-90.0,0.3315526136979331,0.0,0.0,1.9256974492933627,2.2361805156467636,7.412919506497697,313
-106.33238266634875,85.19506063726938,23.53988722718712,38.23513991915634,103.1938868518425,72.99537985322202,-37.04265214102794,-50.55511714317139,-90.0,0.5431145223497874,0.0,0.0,1.0941788854045829,-0.6817294603974531,7.549591352508992,314
-107.24066974039546,82.15291393015822,24.15871587690766,39.50155778870009,99.07257192870314,62.77240817813912,-43.64392048882249,-54.31747484074715,-90.0,0.7596477330839185,0.0,0.0,0.6267701282019896,-4.5451842188782035,7.922205919558339,315
-108.13880251848518,80.3520613205953,27.38819251109514,40.06685119058822,97.96379629005881,54.99246450726831,-52.80834342530887,-54.8126000387304,-90.0,0.9354691770221063,0.0,0.0,0.2838962556064918,-8.973766250400523,8.124666564875652,316
-108.66430164339025,78.35336627213934,31.256167083746902,40.948097236081104,97.87891507145422,46.0261523869723,-59.747884426109906,-54.41840240854862,-90.0,1.2361525748039637,0.0,0.0,0.7598466597895097,-13.948825614110309,8.730536874545109,317
-108.76391001131212,76.28378463867043,35.69351197709335,41.850696574849685,98.29106707628706,36.911556164406015,-65.11354935693517,-53.225203815453696,-90.0,1.5351847282062085,0.0,0.0,1.8844468125379152,-19.063886597142712,9.698867623092754,318
-108.97164670195333,73.510068971689,37.987217029804484,42.80810259306064,96.59889715303744,25.666313776714464,-68.59598476899973,-50.87862500737153,-90.0,1.8313193142889916,0.0,0.0,3.240923228332237,-24.00620000494306,10.484241352358245,319
-109.08679424964276,70.054225387225,38.854141347393735,44.035865794584716,101.9260215505163,16.906759518207878,-77.13087236341602,-48.00484783525396,-90.0,2.1657628325374674,0.0,0.0,5.8066282043011945,-29.119202031382503,11.250808524675675,320
-109.79074921647259,67.21417555030143,41.80463192782939,44.45908976468821,113.75375415824224,6.54147949237556,-94.59322417216211,-43.01923471206731,-90.0,2.488437534638444,0.0,0.0,7.981979144690609,-33.56993839160532,12.115149113698406,321
-110.83266384132834,64.4027957589093,46.7064273253988,44.65241691922634,113.75375415824224,3.683962615477678,-94.59322417216211,-37.72544981733921,-90.0,2.759589166882493,0.0,0.0,9.408722129644838,-38.239967498349415,13.066404518171803,322
-111.4243308084701,61.63671048160219,50.57702772859178,45.11492799819399,113.75375415824224,10.32746492806618,-94.59322417216211,-31.968347611732746,-90.0,2.8782227430340264,0.0,0.0,10.057045629392261,-42.791529908385655,14.142864233112762,323
-112.5704553652949,58.681874187047754,54.853743478700615,45.472647446377444,113.75375415824224,15.82076253157574,-94.59322417216211,-28.298822862089825,-90.0,3.0842981824677698,0.0,0.0,10.676255850272108,-46.692652904553185,15.777040010540752,324
-113.4095678522465,55.76852349732998,56.64727594111837,45.905502889880644,113.75375415824224,19.05217487433841,-94.59322417216211,-28.298822862089647,-90.0,3.2934241768519708,0.0,0.0,11.789148928118268,-49.89857649138035,17.07305583026973,325
-114.18495974165471,52.85039865208471,57.98527435690464,46.26493277426546,113.75375415824224,23.21870628653353,-94.59322417216211,-28.298822862089697,-90.0,3.4816747335263805,0.0,0.0,12.449677103821303,-53.047281505098795,18.208954529850818,326
-114.29578006710996,49.71630998757118,58.77340946727343,46.912306777988626,113.75375415824224,26.969138250107473,-94.59322417216211,-28.29882286208962,-90.0,3.6592735987135185,0.0,0.0,13.180279485749328,-55.87223886573246,19.77111694461678,327
-113.3739846409364,46.662061893009664,58.59246079616909,47.680685497742786,113.75375415824224,31.239447631011785,-94.59322417216211,-28.298822862089697,-90.0,3.7812662275006614,0.0,0.0,13.929937791828912,-58.12062500809334,21.408053559280418,328
-112.58984921185615,44.035223171719394,57.976858320020845,48.2853642743225,113.75375415824224,34.101568637665444,-94.59322417216211,-28.29882286208962,-90.0,3.8332236380062286,0.0,0.0,13.741962451742078,-59.72518431985497,22.541475804431744,329
-111.93493851693647,42.0029037983616,57.509989928112184,48.797315765489955,113.75375415824224,37.309342640722626,-94.59322417216211,-28.29882286208962,-90.0,3.951111466046423,0.0,0.0,13.649920122634306,-60.80112883938608,22.99662577303586,330
-112.19929410799283,40.19732800582055,55.271228073517264,49.401058309382414,113.75375415824224,39.169208437288084,-94.59322417216211,-28.298822862089647,-90.0,4.041581699442187,0.0,0.0,13.180833587968667,-61.24884451180338,23.05183753043729,331
-110.72569470308522,38.96294510150866,53.82819082892107,49.94810123738652,113.75375415824224,41.08266839012402,-94.59322417216211,-28.298822862089594,-90.0,4.0789741581796095,0.0,0.0,12.549637731498185,-61.49793117838225,23.31249708036936,332
-109.77743125729991,38.24254588344835,52.869333911993984,50.34780119063818,113.75375415824224,42.255084612701665,-94.59322417216211,-28.298822862089825,-90.0,4.143876598311448,0.0,0.0,11.971745297372065,-61.45802032013275,23.152298629047344,333
-109.48405542766743,38.11477678083223,52.48412628235394,50.61160812148594,113.75375415824224,42.15583953236962,-94.59322417216211,-28.2988228620898,-90.0,4.243352753038776,0.0,0.0,11.406614378646152,-61.055546615065985,22.494765875692362,334
-109.20644674715547,38.5960535219485,51.89539431120011,50.89732697760048,113.75375415824224,42.00866991651781,-94.59322417216211,-28.298822862089672,-90.0,4.306780459825693,0.0,0.0,10.466986017788207,-60.1587249612544,21.460755532602935,335
-109.89345140024268,39.36690308043474,52.02388052193772,50.92363895187017,113.75375415824224,40.62874354248778,-94.59322417216211,-28.29882286208957,-90.0,4.364397256301758,0.0,0.0,9.218135374351812,-58.83018874414144,20.297987973030796,336
-110.927699819525,39.964746424755795,51.52213745258085,50.833970454541685,113.75375415824224,38.54738988775927,-94.59322417216211,-28.29882286208972,-90.0,4.349523143610523,0.0,0.0,8.253425607529431,-57.214473190985395,19.126881760737092,337
-112.2002422122156,42.25392226324668,51.97524275012948,50.79925306152533,113.75375415824224,35.10538295391536,-94.59322417216211,-28.298822862089697,-90.0,4.370713569156777,0.0,0.0,6.787348211301557,-54.20950353621033,17.106299754048756,338
-113.34550671312675,45.318843880451894,52.27011281118774,50.4784044925283,113.75375415824224,30.120170856093946,-94.59322417216211,-28.29882286208985,-90.0,4.363915199394284,0.0,0.0,5.486788487515661,-49.91582265344671,15.501069789058448,339
-114.06795058821896,50.216151715967186,53.39578627667947,49.588461006500154,113.75375415824224,25.030004300572404,-94.59322417216211,-28.29882286208985,-90.0,4.340570188539184,0.0,0.0,3.8023377929609286,-45.00800033781292,13.672092480964794,340
-114.32573983372642,53.999014861959346,51.75833292718803,48.79722254893974,113.75375415824224,21.928690115966962,-94.59322417216211,-28.298822862089697,-90.0,4.284985336044715,0.0,0.0,2.8435888179971545,-40.41592806777811,12.172264397462088,341
-113.88133204618741,58.14264159678145,49.28957019768284,48.24293095250306,113.75375415824224,16.237871305687907,-94.59322417216211,-33.59363422186098,-90.0,4.257694646375585,0.0,0.0,1.8417196213594633,-35.50279823879508,10.675686203115044,342
-113.43949702919473,61.83852585785658,49.84218265081699,47.114159712413105,113.75375415824224,9.630241367758707,-94.59322417216211,-37.987961945361235,-90.0,4.221962201384977,0.0,0.0,1.4805807430178397,-31.2234759148552,9.700300392833029,343
-113.88068910781146,65.87614473253008,47.86672217523491,44.95318705370711,113.75375415824224,4.219017033930842,-94.59322417216211,-42.82457193916306,-90.0,4.115554545300579,0.0,0.0,0.8810322830045907,-26.80049094609822,8.86704865705895,344
-114.05419149480215,68.91579924713163,46.796613869361835,43.20302990132167,89.46358003234826,11.3065323540102,-63.960474116596444,-47.189832652735404,-90.0,3.927313460146795,0.0,0.0,1.181136415741031,-22.519404808168623,8.236434176965954,345
-112.79377347315068,72.55031923564783,44.19318054653767,41.88296612984804,96.18006447368624,23.851802766834627,-63.21063444946143,-51.784880410628816,-90.0,3.632594529501497,0.0,0.0,0.5742656460995669,-18.417067612185942,7.605094891045422,346
-111.9530743962112,75.93154498244333,42.84527677186373,40.21373997347526,103.23223812261759,38.11732197947297,-61.841498902865446,-54.26467462113784,-90.0,3.215465426553842,0.0,0.0,0.9452979191263059,-14.517921129036285,7.2488809986963645,347
-111.63620049643889,78.57684823083005,39.250820609114506,38.55971590538694,106.04590439666693,50.69879550084337,-59.21392679877965,-54.15601548940391,-90.0,2.762473832873472,0.0,0.0,1.15378087103845,-10.449181931718156,6.928177389844423,348
-110.18652387199583,80.56850985819518,33.3172666488163,38.71812384636931,105.590313517297,58.986650465253504,-51.210871096733264,-53.335972518818686,-90.0,2.20518091172609,0.0,0.0,0.670145366918098,-6.398610093059731,6.595320560047096,349
-109.05570498211738,82.97355134985165,29.82359794895643,38.720576722208754,107.41195551904454,65.93273825104231,-41.95322408268003,-52.05567317085251,-90.0,1.6822234526254833,0.0,0.0,0.899838642883549,-2.9785108639389324,6.630268326494076,350
-107.43644398233297,84.67856508478654,24.384404080210455,38.15537380565605,107.36635159204543,71.5603803052501,-35.854273275549374,-49.54017647430315,-90.0,1.1637262857596624,0.0,0.0,1.6375907452767706,0.00569087606236819,6.205885341120529,351
-106.32741364444234,85.69731180593199,18.970519600950063,38.26629837917174,106.6700430178031,76.04855850230886,-30.48446769003525,-47.89272453909054,-90.0,0.8151092153786632,0.0,0.0,1.900912501568539,1.973269270105176,6.027324261145509,352
-106.3085213802921,86.98082352927948,16.96665497557308,36.665756885438505,107.85451059944818,79.68173259632786,-25.54847476495028,-45.6997804130893,-90.0,0.6059040916174552,0.0,0.0,2.849887778023558,3.3873817316625527,5.844712508852388,353
-106.57358406120719,88.3347649192173,16.883844773811298,34.147851050912806,108.90507790551399,83.75924502264964,-26.268497635614647,-42.032700117531896,-90.0,0.41323748359326384,0.0,0.0,3.119198253547019,4.32087558538026,6.153039959521777,354
-106.28399295245612,89.26318254686952,18.69415197884925,33.627420962767765,108.84697345941643,85.16880715952861,-22.896268984975652,-40.563500151745,-90.0,0.39439304067155184,0.0,0.0,2.657543720927416,5.063431331949627,6.374027918260161,355
-105.15614014492964,88.29277705704538,16.279646474172925,35.53035643566501,107.80620846476762,85.66093049797723,-22.935322102646854,-41.06417541724751,-90.0,0.4425902377735965,0.0,0.0,2.427474972718848,6.115688388748206,6.460990182097698,356
-103.19422875258269,88.11191340107555,11.530411756558916,36.78472502485849,103.39532966122064,86.24459887319813,-10.926466909287738,-41.542189327580914,-81.37640704821109,0.5806575325659603,0.0,0.0,0.7989101382243534,4.047486733610622,6.026894081679509,357
-102.56412937475667,89.34271527312305,10.551918818583335,35.72858976214272,102.91420472246324,88.57785758865465,-8.025526391471375,-39.8876476446895,-60.01615350007405,0.5093469962075646,0.0,0.0,0.4825219243443936,2.3562883983444083,6.1467830943488915,358
-101.2757941580212,88.71737671938492,7.955421399679874,37.35739605211799,101.92529937510116,88.8938718836053,-5.490481762053379,-41.08959352261509,-48.53686208825443,0.4336603339587429,0.0,0.0,0.47144381053637396,0.8649157008998193,6.160260940697426,359
-102.08654490682176,87.36258198353241,11.577306400937035,38.878781942166924,103.75632989767173,88.04396414738926,-10.375427397180976,-42.89684726168599,-52.342222897648185,0.3110119828290632,0.0,0.0,1.130271235327367,0.2774629208833225,5.777890153274263,360
-104.1762248183527,84.49560130337323,20.95122489208503,40.462488588555324,107.26402407084441,85.37254997751123,-19.268593212338953,-43.848443486255206,-84.25636811425045,0.2896746374541388,0.0,0.0,1.567002553699642,0.09137326031069493,5.603976496044045,361
-105.57467219423853,78.67639085227367,32.374847387723,43.67535064883994,110.3547184862841,79.80605624167112,-29.65344500009297,-47.22165683944588,-90.0,0.3691301112177862,0.0,0.0,2.602913186774443,0.6724911705535161,5.807250032400144,362
-105.93362612344507,73.08950611490327,40.81637682796006,45.57122230802755,111.83915429710078,75.33391825405779,-39.92407708228502,-49.13132611567133,-90.0,0.5186652549213884,0.0,0.0,3.543367164958974,1.58375692404759,6.151044137229872,363
-106.96371891646687,68.22827716830668,46.49287584251087,46.457659804040624,113.90728418715018,71.82225931762008,-47.914168370172405,-49.41085413093893,-90.0,0.7679574688048962,0.0,0.0,4.3031323502964,2.4856608382149705,6.413860357986598,364
-107.15540450745176,63.83998073733514,51.07136354639736,47.337902016127735,115.47605637086959,68.90184274030153,-52.864763397727344,-49.63714111044032,-90.0,1.0215194556121823,0.0,0.0,4.896742970871383,3.2666544591613373,6.452010013338981,365
-108.63644704667884,60.62514936988301,56.408942859897145,47.46709838162969,117.79847251464724,67.30228344023226,-57.998596895229,-49.001931908790965,-90.0,1.4256023296759952,0.0,0.0,5.5191389066042005,4.002432806920899,6.7698064310250885,366
-111.15685712950493,57.996106137885725,63.13407716269652,46.64588711907986,120.13002191172764,67.09654733852176,-65.07704838003914,-47.48946085807081,-90.0,1.847848745582195,0.0,0.0,6.671728665824982,4.652383336677284,7.402077892541393,367
-116.73771722419391,56.29293220387244,72.83849218251584,44.0209794399634,125.0454097915141,67.120270505857,-74.2435457477748,-43.953329169867644,-90.0,2.292227997630935,0.0,0.0,8.336305688503385,5.449383855746526,8.110811792559424,368
-122.06427715697896,55.44529625917011,82.81058259744475,40.61427381318506,130.3940098762449,67.46072812543595,-85.00442043277185,-37.54056909387653,-90.0,2.6016363252065733,0.0,0.0,9.914333468978388,6.445551755731391,9.339987232943752,369
-128.81456006608175,57.454039775567935,92.38607963320635,33.81288021517007,135.57790218277972,68.20477245114827,-95.50672171367174,-28.298822862089672,-90.0,2.866470254418941,0.0,0.0,10.183677197237175,7.280446081686606,10.988778220309827,370
-131.66714270310172,58.78157126767125,100.12918926503247,28.298822862089594,139.16760753633534,73.10703967071797,-103.93429792234252,-28.298822862089647,-90.0,2.8134097307365824,0.0,0.0,10.907098731960142,8.456236146678949,12.659615351616713,371
-133.3061098830255,64.47627577545364,100.96937863121514,28.29882286208972,139.43748458202666,79.55662412694599,-105.00000000000001,-28.298822862089672,-90.0,2.6456227484102204,0.0,0.0,11.319435970913666,9.860617298112953,13.487809285204932,372
-129.8534341520391,68.43296260162703,98.59209438504986,28.29882286208985,134.830468536147,86.07411565703516,-103.50139286909233,-28.29882286208972,-90.0,2.255293740949983,0.0,0.0,10.970107666365283,11.560860364776019,13.422594707082299,373
-127.22850215810156,72.06645257458008,92.07891495856983,28.298822862089697,132.32957562518945,91.02600336683976,-98.87619554143176,-28.2988228620899,-90.0,1.8443110159044633,0.0,0.0,11.065124907416786,12.80985691740004,13.386602958159813,374
-123.20244625645074,75.9168448376149,83.2635048625323,28.29882286208985,129.44966695073782,93.10841646940952,-90.55510882358375,-28.298822862089825,-90.0,1.165944015436322,0.0,0.0,10.950192164088914,12.880297753530773,13.779596767352595,375
-118.03635622311353,79.24342607834929,72.05286607283193,28.298822862089825,126.19281303980421,93.23966634006827,-80.96528521813286,-28.298822862089825,-90.0,0.511206037268777,0.0,0.0,11.412456393817827,12.00147829617718,13.647363251737312,376
-112.67299608983728,82.07552332330849,60.47572495578201,28.29882286208972,122.95398271892816,92.79202012146393,-70.66550193924398,-28.29882286208962,-31.826025626116603,0.8744976965948245,0.0,0.0,12.49865160222375,10.567207409667889,14.409428329882141,377
-104.03976842584787,84.16616215587007,46.95309452576467,30.01104840893347,116.08756700675309,90.8245985370034,-61.86129007464383,-28.29882286208972,-13.106091952959817,1.9544007232322826,0.0,0.0,14.110745975510987,9.091242312463056,15.636529416775748,378
-89.00055963446337,86.68567256608407,28.607324401961993,31.771007171374695,105.10790851337735,87.49393746026685,-48.34986543682822,-31.582384032871854,-4.874565313076157,2.9507599692775948,0.0,0.0,15.67149042508399,8.716634886746778,17.552628252469365,379
-68.31172190925317,90.3389140593203,11.40403867247123,28.298822862089594,88.90223817548959,83.48147475594526,-31.35703500882384,-39.86049357036989,-0.3246638108131776,3.514608591706385,0.0,0.0,17.78601515356637,8.883289692882295,19.61683623416883,380
-55.573560282899486,95.44301277858224,-4.258911988278677,28.298822862089697,73.82869284825796,79.01288093376425,-19.471838226235246,-42.74932411103358,3.0173076121403457,3.354237178327066,0.0,0.0,18.96863940640342,8.96326333233942,19.073605539762866,381
-43.532688764752805,99.75198700304132,-15.717093523681148,28.29882286208985,60.1729921224484,73.18810664746736,-8.264287564552731,-43.20769007756677,6.046668861062038,2.8926581120970973,0.0,0.0,19.399276143613776,9.008151567191895,16.76860528682128,382
-29.305031609644427,100.24650624021574,-18.92409215695436,28.29882286208972,42.96928068314994,68.0614160113995,1.4958610267962786,-41.55778957573642,8.046230064301948,2.5271434721494965,0.0,0.0,20.286980532532816,8.579328406692454,14.989027454953186,383
-15.806558896548276,101.23453499817732,-23.09994501905427,28.298822862089647,23.330643032867975,66.38079505183251,12.550141515219051,-36.405504279046404,10.659654866628994,2.092613327579854,0.0,0.0,20.87470272905722,7.8267239787550595,12.970027955077278,384
-4.750226915892462,101.25394623440855,-27.334413425791897,28.298822862089924,5.631621709951766,65.9513811201863,21.40741096575134,-29.604968173439786,20.192636598012275,1.6802844526996459,0.0,0.0,21.75244747717745,6.9835492941587,11.374786657417953,385
3.8196075013071615,96.79261475319406,-30.808637846525183,28.29882286208957,-6.9146692871072375,60.532020033725075,30.67711443726743,-28.298822862089697,34.807160646950386,1.0612296592126635,0.0,0.0,21.945968000018492,6.432602736122552,9.485222299609227,386
10.188811640656823,95.79644737482859,-33.500718894609825,28.298822862089697,-16.09115703009806,60.84601575631949,37.47051205407467,-28.298822862089697,61.182580940843124,0.6649671426979838,0.0,0.0,21.954228201762643,6.071875662037534,7.965779718696369,387
15.362256303753353,95.10791742757308,-36.09168125615398,28.29882286208985,-23.66573094179294,59.76261617405543,42.073867622313614,-28.298822862089672,90.0,0.7254995763998584,0.0,0.0,21.9606061527605,5.584406210401911,5.688171876774371,388
18.41954625076021,93.08656721846039,-37.284351211711304,28.29882286208985,-27.920442504167443,60.00168423232,45.09383315094303,-28.298822862089697,90.0,0.986178179113157,0.0,0.0,20.83449599165236,4.905535377606142,3.6805992782571386,389
20.399719989903613,91.36058795424795,-38.83155131343886,28.298822862089697,-30.796247171112075,61.02837881298522,49.48753449541474,-28.29882286208985,90.0,1.3918898170532048,0.0,0.0,19.28890807264568,4.378955499232684,1.7674767539030958,390
21.44580054879005,90.46284566878343,-39.89006009749356,28.298822862089697,-31.66480770560943,62.018439537554066,50.54382422024819,-28.29882286208962,90.0,1.7985949453148473,0.0,0.0,17.98967352246036,3.8728065001787257,0.13862912953283754,391
20.795336545141076,90.2965669681297,-39.43380612866283,28.298822862089697,-28.217580400669867,60.701516416549744,47.79909562868346,-35.73241490915206,90.0,2.1007233094626327,0.0,0.0,17.089427216831904,3.5477072997316057,-1.5397608777907255,392
18.81576672432459,90.337104913293,-38.92170799046613,28.298822862089647,-22.078651547571557,56.54166747362652,46.1949515411937,-48.60862144766345,90.0,2.393021133264315,0.0,0.0,16.453401714966056,3.100560653184903,-3.0442982125451077,393
12.357858224281417,87.60129313721228,-37.60090307245928,36.39509293146621,-12.147626578010634,53.11594449496504,38.895547705723864,-61.75121815641908,90.0,2.5600805311408554,0.0,0.0,15.873609196193483,2.9056267750080282,-4.176510880411795,394
2.454361485011147,84.18947241357851,-33.268416735245886,49.96001180016879,-0.24708719680228425,50.353198841696695,30.312785386308562,-72.71534812189222,90.0,2.723888737057201,0.0,0.0,15.320284238790236,2.8535613388450343,-4.967441728141028,395
-8.830733288057655,80.48401281627264,-27.96185253925148,64.61525899378022,13.97578113430801,48.718956651691755,20.421424672546564,-86.26574790892893,90.0,2.8173700822399943,0.0,0.0,14.902917156487867,2.9618959658855077,-4.825580226038697,396
-21.184592730504196,77.90702771189854,-24.5683746161121,82.40013080946274,31.662537987192923,50.33886849595109,9.044120293702345,-102.99564623766905,90.0,2.8251903201573727,0.0,0.0,14.677174746118103,2.9071315369629467,-4.370083101254287,397
-33.53283592974416,75.56209725468071,-18.351524570181496,94.04907544009939,49.62499774827476,51.98136197216339,-3.0451054677359557,-113.50184159890837,90.0,2.9383312179705485,0.0,0.0,14.562308718873576,3.098522815498463,-3.574615073638223,398
-41.84573060784731,73.06530519296463,-16.198401794743237,102.26280404881652,62.698815920387986,54.78111285134062,-9.847355131420365,-121.9223906582864,90.0,2.970478374173252,0.0,0.0,14.593260952539994,3.530003809759727,-2.2681338955279764,399
-48.5506201665505,70.03000470750837,-12.526189794122677,108.64409775021433,74.48529468257152,55.12523801460015,-17.14100134538744,-128.55152827490264,90.0,3.183584561789189,0.0,0.0,14.971744505333662,3.831283995417461,-1.050768618074972,400
-51.38559982094013,67.70535801982923,-8.818498758505678,111.12130650619477,79.81591171505156,55.73539469511501,-23.92759354336536,-130.99425149701077,90.0,3.4028339306492033,0.0,0.0,15.083141203160379,4.236316555877326,-0.13723969733589142,401
-51.194700042345886,63.45912721199904,-8.106170225684247,112.4381734224306,83.2484071736475,53.73964163603389,-28.98551755404045,-132.07376493306722,90.0,3.623500952805459,0.0,0.0,15.31604197472506,4.3322695839206045,0.7782692588428551,402
-50.353261090743786,59.740299862420926,-8.164284871322923,112.07777150381077,88.28740506649486,49.95844368878624,-34.8009734677183,-131.17806050048614,90.0,3.7625770907092226,0.0,0.0,15.480406379484224,4.241769375392918,1.7210081776916981,403
-51.20949139773433,56.59429425556319,-7.887860950556199,111.91271635332411,93.9295469089358,47.18243942376918,-39.9839233301786,-129.611695032002,90.0,3.8691119611575027,0.0,0.0,15.321128530056685,4.332647129265242,2.6893375791096306,404
-53.33462101546054,54.20016394138301,-7.786273449708213,112.97624557419921,100.42139208472308,45.88400227289502,-45.12173842497276,-127.53289215403314,90.0,3.8467781031198394,0.0,0.0,15.02765581772918,4.487752254506986,3.7095091877850535,405
-56.81290386108537,51.71097441946419,-7.056339140110477,111.98909666011846,104.74398612199226,46.16321503035943,-47.390650205994554,-124.6100186684713,90.0,3.7992382730492023,0.0,0.0,14.76841381374543,4.648190827372991,4.628902148605618,406
-66.69291810102884,46.92621425297811,-4.025066108926909,113.66911082088004,115.22878007311589,48.27257935063353,-54.60455048017357,-120.44576261875766,90.0,3.7683920921150187,0.0,0.0,14.248712492497978,5.114303284932794,5.390849087960193,407
-79.49624116048926,46.052357031599264,2.5500137558033202,110.87837525732517,122.86533463420125,51.13369198070759,-57.80330290838656,-112.90029626529098,90.0,3.6778216546564297,0.0,0.0,13.64431907439378,5.41817400565327,6.3387684447892,408
-95.53850205260662,44.60092209704415,10.656344773803836,105.02734302220881,129.9666341159694,54.24531385551054,-60.370316421406585,-102.24923091428323,90.0,3.5558764860098853,0.0,0.0,12.70708967673671,5.934323946879506,7.775306134605948,409
