JMW9912/AVATAR/install/dynamixel_control/share/dynamixel_control/data/csv/poppy/3DoF.csv
theta1,theta2,theta3,theta4,theta5,theta6,theta7,theta8,theta9,theta10,theta11,theta12,theta13,theta14,theta15,frame
-98.61211690571206,85.58015198488438,-5.580737392526143,28.29882286208985,97.16430957417091,85.56414985716444,5.33007728889062,-28.298822862089672,-54.77583991528905,3.1643754037170964,0.0,0.0,-0.29221206655354004,-1.1153197806657942,6.5127290308711805,0
-103.38665249841135,86.2817619679155,-3.2457296058864396,28.29882286208962,101.83225999212979,85.88375613682415,4.868986482953349,-28.298822862089825,-51.30911349209068,3.3932059146085165,0.0,0.0,-0.3726152030151478,-1.2805977015818057,5.2571939768748,1
-104.27356368814743,86.61291802176196,-3.4503159623730375,28.29882286208962,102.8824959353778,86.49320543513372,4.8772341020634205,-28.29882286208962,-49.71936833089688,3.4254167323776823,0.0,0.0,-0.5216273216164823,-1.3423436615086277,4.880018206968206,2
-104.46954843853777,86.84499489878668,-0.9574625407476594,28.298822862089647,103.0992980496406,86.77092429670034,2.529640029195962,-28.298822862089672,-49.60790028036102,3.4067701322939437,0.0,0.0,-0.45950539718023764,-1.3374723704588183,4.437358959767453,3
-105.1514733039253,86.89316662101677,-1.0312222397751316,28.298822862089697,103.76907952486863,86.90197347209067,2.4954198791548037,-28.29882286208957,-51.28896750517745,3.3056738211667396,0.0,0.0,-0.5373725349691268,-1.3432256788980956,3.873384683597824,4
-104.9112821001795,86.84751894526634,-1.104713887509833,28.29882286208962,103.49455538836084,86.95365011127399,2.4219048675797716,-28.2988228620899,-53.859190974793,3.188599988519257,0.0,0.0,-0.6139764145361281,-1.3577078039211576,3.3370160025963536,5
-104.61384561759589,87.35425257190926,1.1972478478730624,28.298822862089953,103.20572997814888,86.87026225814975,2.720170535444568,-28.29882286208972,-56.00996249156091,3.089645124276339,0.0,0.0,-0.6655470104914382,-1.347932686187099,3.003427803748539,6
-103.818963932776,87.30989605900896,1.2254562647177154,28.298822862089697,102.55749071925794,86.8073158062103,2.8006157345647704,-28.298822862089697,-58.85942850848284,2.974971758320346,0.0,0.0,-0.6285241609644143,-1.3366578129717919,2.578349269520156,7
-102.60323034674563,87.27033483966909,1.2462143506728351,28.29882286208972,101.56234708277043,86.68999772828887,2.8797634768612284,-28.298822862089747,-60.93711620130628,2.8827501067934667,0.0,0.0,-0.5884245637827222,-1.3183453266700538,2.2763997765751425,8
-101.11466235909204,86.94044188286995,-0.5221394160848484,28.29882286208972,100.16809173870696,86.59011032579957,3.0071203884353443,-28.298822862089825,-63.704883780668624,2.781305006786413,0.0,0.0,-0.5469904406324148,-1.2656016061790238,1.7047712458167572,9
-98.1553502572615,86.47719365158419,-3.6166265234801376,28.298822862089672,97.68183363723871,86.0216605028672,5.469671971437643,-28.298822862089672,-65.0940740817517,2.6374600396751764,0.0,0.0,-0.5880228223166165,-1.132660969757855,1.2230017377130271,10
-89.78152016076882,86.03625328141706,-8.443586637756852,28.298822862089825,89.26415498615997,85.66634040706357,9.511662615432344,-28.298822862089672,-69.47664580641137,2.48900700600905,0.0,0.0,-0.43344872345720575,-1.0020799689055433,0.7335156355613476,11
-77.55677519652284,85.20269026483373,-15.99824882828088,33.68539885395286,78.18364168538993,84.36560203732608,16.241484927096423,-36.73908511984261,-78.45601755844353,2.394771419406122,0.0,0.0,-0.5959986593944446,-0.9711494773760977,-0.02726081586721383,12
-62.86592525699762,83.0666803813352,-22.99179238977225,32.20120712843049,62.316096671417306,82.27239746864187,23.246169825213634,-34.26389450555111,-90.0,2.370637175019161,0.0,0.0,-0.5981465078123075,-0.8083409730710123,-0.6506588365597379,13
-49.23479780862514,86.2236144834279,-28.664099384370388,28.298822862089697,47.53195213912347,85.93972997588747,28.996391191448485,-28.29882286208985,-90.0,2.4675379596205014,0.0,0.0,-0.7564806077387128,-0.7025473804896825,-1.5624251732671288,14
-33.06635603611128,85.58292219269426,-35.79891899951924,28.29882286208972,32.03708371272519,85.67447960922786,36.46386166200314,-28.298822862089697,-90.0,2.859139365156893,0.0,0.0,-0.6784196384176947,-0.6812319189118039,-3.15697388623128,15
-24.810931190092365,85.81145635636696,-43.050195408933945,28.298822862089647,23.674293929638456,86.38937399699475,46.517580182132356,-28.298822862089647,-90.0,3.3571468798410216,0.0,0.0,-0.4867198320561813,-0.6375391830166734,-5.332040286439685,16
-16.075876092472182,87.2861935470609,-40.27880294750285,28.29882286208962,15.206181393518182,88.23962183456077,45.32757945561746,-28.298822862089672,-90.0,3.5931251578066767,0.0,0.0,-0.39840796066133816,-0.5852033416261802,-4.617925283256517,17
-9.923229278550371,89.22959582437133,-35.09738174052733,28.298822862089825,9.142459955755836,89.89779741083684,39.923333643163,-28.29882286208957,-90.0,3.7653657702071297,0.0,0.0,-0.5091861793806444,-0.5906198220270733,-3.720038420759518,18
-8.565727521426394,91.10899616586539,-29.118914538536863,28.298822862089594,7.940524796689509,91.10466869421109,34.952969176166064,-28.29882286208957,-90.0,4.012355213761242,0.0,0.0,-0.48568398052556816,-0.5440150481651395,-4.189830037656224,19
-6.608566378255455,92.85037641909724,-27.027830385819723,28.298822862089825,6.010297438877068,92.38813649592085,32.148165010797356,-28.298822862089594,-90.0,4.3844314931518955,0.0,0.0,-0.5734407123182522,-0.5744961910764095,-4.876478887679498,20
-4.161060864775479,94.36996590016335,-24.943350913767194,28.29882286208985,4.20230827246495,93.93710053441613,28.56308219714877,-28.29882286208985,-90.0,4.499838061991271,0.0,0.0,-0.26789334552146404,-0.6078199363680353,-4.993540926481506,21
-2.2478388114362278,95.21353953161302,-22.688137018926998,28.29882286208985,1.8705133043994933,94.19746692246686,28.60792759749979,-28.298822862089697,-90.0,4.630033650010438,0.0,0.0,-0.08665405037051624,-0.5992306457705322,-5.058604397338699,22
-0.4632070927937829,95.35652208480943,-22.701443919101774,28.298822862089647,0.45450086931791234,94.6815997284059,26.289433797958516,-28.298822862089647,-90.0,4.748027289349634,0.0,0.0,-0.006484347811429845,-0.5722627358040009,-5.339112937031406,23
0.5232630894259459,95.26616024355671,-22.641012792492802,28.298822862089825,-0.5458897925854945,94.50769509049029,26.295667976444776,-28.298822862089875,-90.0,4.805748278482409,0.0,0.0,0.016785130432851562,-0.5281453337724321,-5.459773662452452,24
0.7055532966960387,95.3658719660681,-22.60105205540985,28.298822862089672,-0.778018052181353,94.49018392707266,26.35302678230233,-28.298822862089875,-90.0,4.809211063484447,0.0,0.0,-0.007314821783133077,-0.47285783556702715,-5.522178728876647,25
0.30079258273060167,95.33411332374065,-22.557658275470104,28.29882286208985,-0.4511396973034572,94.4206050338091,26.37582323751826,-28.298822862089697,-90.0,4.804492773399892,0.0,0.0,0.006260927700825447,-0.43258061312885565,-5.603067224252639,26
-1.8594590791762036,95.4938206792355,-20.11210475160354,28.298822862089747,1.606120922488948,93.99919753952508,26.32596193008963,-28.298822862089697,-90.0,4.742363144066446,0.0,0.0,0.04334583263162672,-0.3883749689921751,-5.589318492309061,27
-5.8884069567828785,94.9474085736952,-19.96537847919369,28.298822862089825,5.619578361172153,93.86751906983083,23.888667786392308,-28.29882286208957,-90.0,4.545948114322168,0.0,0.0,0.0837978696783496,-0.3544550612636774,-5.099338954694876,28
-9.635253432180532,95.13641290510621,-18.18652164784988,28.298822862089672,9.160912306264574,93.62655460760521,23.466268862569347,-28.298822862089647,-90.0,4.45262094164332,0.0,0.0,-0.01886902748048089,-0.2782590056253521,-4.548564506098225,29
-11.309214952337616,94.29591153343655,-20.743095634265075,28.298822862089825,10.975548552863183,93.2708019029192,23.84549164777991,-28.298822862089825,-90.0,4.456337115169612,0.0,0.0,0.03880479909395847,-0.19043443636352697,-4.192402376847055,30
-17.559713944347585,91.34797985989388,-25.79446257966526,28.298822862089825,16.947122230342725,89.64664785966725,31.218743896161723,-28.298822862089697,-90.0,4.8076257847021555,0.0,0.0,0.29059016382373004,-0.20527982631143576,-5.772687566922128,31
-23.060174147476662,91.05993268385225,-26.36128069384453,28.29882286208972,22.469736531068843,89.47667149443618,30.605732467789874,-28.298822862089594,-90.0,4.514658607854451,0.0,0.0,-0.008376908227963916,-0.10778983674890412,-5.424025438983216,32
-31.15762469097295,89.66483698978969,-26.044527923417434,28.298822862089594,30.624066850828147,88.39761546853602,27.85820335670393,-28.298822862089825,-90.0,4.187396685104534,0.0,0.0,-0.1784264359214295,-0.13895400415688605,-5.08372725703451,33
-43.31337749437358,87.54695191335799,-23.001131930452303,28.298822862089697,43.088587512404814,86.21696912709591,25.10896780874931,-28.29882286208962,-90.0,3.609234291459597,0.0,0.0,0.20266477096499147,-0.17584347615388415,-5.076041227247486,34
-57.9000276988393,85.42354354384419,-17.672676198058653,28.298822862089875,57.45796074812194,84.29844635605598,19.697218550222054,-28.298822862089697,-90.0,2.7984187028784713,0.0,0.0,0.010037587774513142,-0.16064700245053218,-3.734192890290773,35
-74.8140364835187,83.94012999907227,-7.4979741802195115,28.298822862089825,74.51318779344652,82.18109056656631,11.707701325068442,-28.29882286208985,-90.0,2.139352324230428,0.0,0.0,-0.10143575550518692,-0.18881036454526984,-1.424958001427789,36
-89.01499258403383,84.18900897877785,4.796591059085253,28.298822862089697,88.9464176155519,82.54614807031926,-0.66565989709506,-28.298822862089697,-82.46152527364048,2.0569046942700466,0.0,0.0,-0.16411284096157314,-0.23689735899323258,0.1009908513813755,37
-100.46651549931859,84.0773325972475,17.73373466758405,28.29882286208985,100.42363686830399,83.00409175198531,-14.51349859884634,-28.298822862089697,-63.25544131740205,2.268590045840962,0.0,0.0,-0.13155900024632625,-0.22501506941839924,1.1550286962290819,38
-107.5490423525633,83.02564521573792,29.72732967634659,28.298822862089697,107.9429719147419,82.18227735592926,-26.37916955752351,-28.298822862089697,-51.29271060269577,2.6423344064748946,0.0,0.0,-0.03141689941999938,-0.3309741573941643,1.7328564533396131,39
-112.86983021255877,79.31966328303076,35.82724579149358,28.298822862089697,113.73048312400769,78.95880507162646,-34.722057270440196,-28.298822862089672,-39.96262109383249,3.2541714420625527,0.0,0.0,0.14618770629501773,-0.3541421046337047,2.73027009500717,40
-119.21072700138953,78.407993665001,42.8957266426142,28.29882286208972,120.20575488291009,77.78474617861409,-39.97951676550483,-28.298822862089825,-29.997898479442565,4.092397574023162,0.0,0.0,0.25756184453462727,-0.2434144721696254,4.189121528523131,41
-124.43243477775567,77.49183881712908,45.36121061234057,28.298822862089647,125.13207958460855,77.76941580322013,-44.72294478385172,-28.298822862089672,-25.452524117130924,4.72935105548591,0.0,0.0,0.19063819417293149,-0.2626057988999479,5.146593714121469,42
-129.33181818484871,78.33604833481348,49.81570293566515,28.298822862089647,130.07708080562398,78.45244587603186,-47.02057169084896,-28.29882286208972,-23.091910686656526,5.266208631210029,0.0,0.0,0.06919212584381801,-0.30345039180439887,5.985403694606832,43
-131.96997149458156,79.24140798825375,49.620494202896275,28.2988228620898,132.0326949135074,80.36243134587704,-49.11129052386566,-28.2988228620898,-21.20603849643829,5.580676637143966,0.0,0.0,-0.0060164692509176625,-0.30587569678536597,6.571063909964229,44
-133.01499385201646,80.90926238886763,51.64978247855694,28.298822862089747,133.04080454358524,81.95883487340089,-48.92221499136959,-28.298822862089875,-20.28189619535112,5.825828210899411,0.0,0.0,-0.08100370968588508,-0.3094067107845318,6.9631071704953085,45
-132.9839166137002,81.61266461780205,49.076155808483705,28.298822862089747,132.74696302493285,82.98853537528322,-46.523426992969114,-28.298822862089825,-19.353896228737558,5.977274991976756,0.0,0.0,-0.2294850784669406,-0.3193494645761939,7.033678823527954,46
-129.54430418257874,82.89807376502276,46.40906201332932,28.2988228620899,129.15851116304057,84.13021416811765,-44.068198768733,-28.29882286208972,-20.520400596336497,5.548561833303159,0.0,0.0,-0.29898395474954587,-0.28482812890812487,6.29162490598698,47
-123.63537320877575,82.2968171722926,39.30490646698075,28.298822862089697,123.50662716829798,83.37260925769705,-37.10377272004958,-28.298822862089697,-23.306530014485716,4.975204778784577,0.0,0.0,-0.3401914034014763,-0.3118366441554128,5.415285641589354,48
-116.30022960282227,82.05309982859485,31.974545193535025,28.298822862089647,116.67238593525178,82.72455166737447,-30.192566656339313,-28.29882286208962,-28.66386124272418,4.083909104162796,0.0,0.0,-0.4695279915390249,-0.3099722105153138,4.216678740922056,49
-110.21861297302983,84.20927604623844,29.113009512016696,28.298822862089697,109.65321901678084,84.05179656047103,-26.920878350498313,-28.298822862089697,-36.88167234938168,3.3768788398764182,0.0,0.0,-0.45616988811594106,-0.3711606452142018,3.418205509478238,50
-102.69819223648237,84.78100570306405,20.53994296526628,28.298822862089647,102.48237954915061,84.18630513658724,-17.448786404800256,-28.298822862089697,-45.938378557914625,2.8465194097089297,0.0,0.0,-0.24676972430803057,-0.42533357397894583,2.519031627579016,51
-94.54799394866656,84.41673526502223,9.331022905655592,28.29882286208972,93.75143973557887,84.07447508568238,-8.613887111183514,-28.298822862089697,-56.04037818117436,2.5123329659602893,0.0,0.0,-0.27221498957807405,-0.44414659771408943,1.2655253042130197,52
-79.39381062308915,81.44230675497806,-7.145951690975054,28.29882286208962,77.06512649926994,80.75293770803096,8.677094713195807,-28.298822862089825,-65.8621740566112,2.3978218109422493,0.0,0.0,-0.24115611030041637,-0.402692793262203,0.2485649665630422,53
-63.09074140191216,84.5688584376545,-17.745418569298742,52.56810149664558,62.67778480542979,83.07521990458427,19.088600285434346,-55.040676661570146,-90.0,2.14747133069608,0.0,0.0,-0.05988847718155639,-0.3673821399638777,-1.2761771340664048,54
-30.514141978921167,80.67035653076867,-29.3598060846568,48.98591269285852,29.76083643211352,78.55940916062552,30.279839075980778,-49.54830268631823,-90.0,2.869987332205424,0.0,0.0,0.11815848024231905,-0.4721364344480138,-2.730612100104916,55
-7.113780951303422,85.8971054620843,-37.71685034976118,28.298822862089747,6.190594316093732,84.3583260610873,39.284522810778185,-28.298822862089697,-90.0,3.6657996331301255,0.0,0.0,-0.1863685719054385,-0.31599215049159307,-3.9350327541850687,56
-0.5372597446821407,90.01127167255777,-31.089503010046833,28.298822862089697,-0.7863058351586198,88.36149069075454,35.125719711832915,-28.298822862089747,-90.0,4.101236298263157,0.0,0.0,0.14298555541289834,-0.24496505993498213,-4.431248275542269,57
9.754902308785422,90.19287825906892,-28.680436455388705,28.298822862089594,-10.883442239877187,88.31054436739718,32.66820313566465,-28.298822862089647,-90.0,4.928749386659029,0.0,0.0,0.09951670320207945,-0.24955236652223034,-5.517514750801666,58
16.41158788274841,91.08577560757128,-26.406279460344226,28.298822862089747,-17.186841079016585,89.49792870882843,30.449548720213027,-28.298822862089747,-90.0,5.215759227723878,0.0,0.0,0.1032315988480117,-0.24489760732127783,-6.1414571237230025,59
23.214159537233204,91.13582890944141,-26.34164371249595,28.298822862089594,-23.890406133601125,89.61382740015537,30.546782968087342,-28.298822862089647,-90.0,5.893875623023228,0.0,0.0,-0.00916018551031581,-0.2390560056200075,-6.511658856326811,60
28.51719076121545,92.47108652471724,-24.151704847515735,28.298822862089825,-28.836451205990812,90.91907239773232,28.36830107108414,-28.298822862089747,-90.0,6.000000000000009,0.0,0.0,-0.04579519013026205,-0.270930124625299,-6.54766897664859,61
30.475486832882414,93.95579367385174,-21.993349377467407,28.29882286208972,-30.69357461438618,92.47451538078005,26.254563465275048,-28.29882286208985,-90.0,6.000000000000009,0.0,0.0,-0.05865657800553546,-0.26664401107120106,-6.559668800623432,62
31.83699396790314,94.80983013866134,-22.22419353745207,28.29882286208962,-32.1129347605473,93.3880554135428,26.38869863725266,-28.29882286208972,-90.0,6.000000000000009,0.0,0.0,-0.004498838648454298,-0.29094483828042617,-6.827524576826785,63
32.51207299772976,95.54017031238169,-22.366531179935258,28.298822862089697,-32.8438160651846,94.09808740065894,26.544509146898672,-28.298822862089697,-90.0,6.000000000000009,0.0,0.0,-0.006639765069367598,-0.2800737498682239,-7.029749874400073,64
33.02434272046538,95.74561163265118,-22.418243960552783,28.29882286208985,-33.31016267940006,94.22199664950905,26.561472936669023,-28.298822862089747,-90.0,6.000000000000009,0.0,0.0,0.04867695118246227,-0.23876721379611748,-7.181761960526727,65
34.101919648771165,94.96691319936626,-24.659885915493525,28.29882286208985,-34.33527209917146,93.35522513126635,28.85743678178739,-28.298822862089697,-90.0,6.000000000000009,0.0,0.0,0.06799552141879246,-0.17361249575643928,-7.453715742752214,66
34.62489022646718,94.56019220485578,-24.54886662342749,28.298822862089697,-34.960578365157254,92.92844690055892,28.79992877552023,-28.298822862089647,-90.0,6.000000000000009,0.0,0.0,0.08181251178563348,-0.1224731669413359,-7.447846772761562,67
34.868992582710035,94.29688762354303,-24.473003062892385,28.298822862089697,-35.51872948470479,92.14415313312497,31.10357629878374,-28.2988228620898,-90.0,6.000000000000009,0.0,0.0,0.12181309649966873,-0.0501902823796291,-7.52261308339238,68
34.96319025536962,94.01168031108062,-24.399633742765733,28.298822862089747,-35.56962577131087,91.9063428392538,31.072231780085378,-28.298822862089747,-90.0,6.000000000000009,0.0,0.0,0.15297453066098893,0.0033084870828675402,-7.454184388347482,69
35.48197848344107,93.13597968938579,-26.58727650601225,28.298822862089672,-35.69230491338042,91.49415708253635,31.067031620668953,-28.298822862089697,-90.0,6.000000000000009,0.0,0.0,0.09726089012934462,0.050746750380500465,-7.327899220285512,70
34.71207691496194,92.9408614730423,-26.563570453614368,28.298822862089594,-35.02037308483316,91.44755623785727,31.042500710000223,-28.29882286208957,-90.0,6.000000000000009,0.0,0.0,0.17264037492851428,0.10488723768158378,-7.243287572872479,71
32.852441167232804,92.58799552232237,-26.471308376554585,28.29882286208985,-33.061372528607485,90.94004257970393,30.966390022305134,-28.29882286208977,-90.0,6.000000000000009,0.0,0.0,0.21884075572816797,0.1696227865064629,-7.162481169617404,72
29.806847814432327,92.114630894811,-26.358431668395877,28.298822862089697,-30.23109099798446,90.54944001776983,30.90742842593606,-28.298822862089594,-90.0,6.000000000000009,0.0,0.0,0.2729654274225327,0.21997637110696078,-7.001646995802351,73
21.395344368891067,92.7248317196568,-26.53095893883664,28.29882286208985,-21.75564829441592,91.13192941190249,28.52730266698056,-28.2988228620898,-90.0,6.000000000000009,0.0,0.0,0.3802672645905364,0.17068320368167147,-7.323705508589061,74
17.630588541675262,92.81427893545676,-21.61565725783732,28.298822862089697,-18.899256366165154,90.24588719105229,28.387508082575835,-28.2988228620898,-90.0,6.000000000000009,0.0,0.0,0.5210627924523423,0.26801744312785963,-6.707804990082076,75
-2.514020631502047,91.73531546837481,-18.678063596528713,28.29882286208962,1.4404256104943043,89.41667441132924,23.56637425176006,-28.298822862089697,-90.0,5.662120969088158,0.0,0.0,0.4461728214380928,0.3035646058865858,-6.630435491146684,76
-21.01983092416454,88.79794512387743,-22.274517643581536,28.29882286208962,20.15690541112292,86.65996775740004,26.36981000995076,-28.298822862089594,-90.0,5.773289217166391,0.0,0.0,0.664679939268419,0.35830379888155756,-7.372817684199187,77
-31.030897874247678,88.07913605801231,-22.48645640735578,28.298822862089697,30.029003025604982,86.42297633691196,25.769159430830157,-28.29882286208972,-90.0,4.930923123849155,0.0,0.0,0.6315915260037132,0.37979268362401497,-5.766446351052517,78
-46.090540403710634,86.5473584165948,-14.729221699999474,28.298822862089697,45.03823646241888,84.46125996938717,20.437093212685074,-28.29882286208962,-90.0,4.195376548029474,0.0,0.0,0.628015863371059,0.2842619969100942,-4.856680770978622,79
-66.0362336274208,82.69938926984217,-6.573975602542411,28.298822862089672,64.54439189093554,80.69531124481068,12.023112975668944,-28.29882286208972,-90.0,2.95178219726377,0.0,0.0,0.3950198235810474,0.21832932987450585,-2.900413730432247,80
-86.93233149458791,82.53841073024032,10.614751343774078,28.29882286208972,85.62962674556336,80.3085492504594,-3.1432335746016733,-28.298822862089747,-90.0,2.2580485503622185,0.0,0.0,0.28584180463000514,0.013979551087465687,-0.5230184784876007,81
-100.36950412698586,83.26865433942862,25.64696048692208,28.298822862089594,99.89540446920371,81.38561594421067,-19.361337611467782,-28.298822862089825,-74.79739187202638,2.224785139757571,0.0,0.0,0.18986679601334103,-0.08016261672626919,1.2710773849516743,82
-108.08300699179259,80.54102814890474,41.25759896639177,28.298822862089647,108.4384142370355,79.38670474846374,-35.02069992603951,-28.2988228620898,-53.3721344462863,2.5800621621643036,0.0,0.0,0.1858429644016684,-0.09643715929245988,2.0194788524659533,83
-113.16543351629207,72.71277306358184,49.35635743797124,28.298822862089747,114.30910254706006,73.09286353070723,-45.72389627358505,-28.298822862089747,-37.82649453629818,3.3685496170020945,0.0,0.0,0.07723147454739708,-0.14130525885619702,2.9717452805699316,84
-121.26379491088372,69.70118117736779,56.824958591052436,28.29882286208972,122.14352161634935,70.84065496391382,-52.414808372182456,-28.298822862089594,-26.175357221152403,4.458865732640331,0.0,0.0,0.1333979790998048,-0.06784709316298229,4.761569411452767,85
-129.58675638064236,69.82876218631718,60.08821381201491,28.29882286208985,129.83589706045075,71.22246675527892,-57.402936699494326,-28.29882286208985,-23.531688774278983,5.149284012905905,0.0,0.0,0.03096542362657355,-0.17313940961293492,5.7716057503943805,86
-135.77400363696975,66.94968530145445,71.46761649741617,28.29882286208972,135.48781121854765,69.02901783433296,-68.8511907602817,-28.298822862089647,-21.53433756931304,5.238445207558356,0.0,0.0,0.004298365012640553,-0.03789994137208666,6.003436176522191,87
-139.84243866516275,66.09377088014269,77.32226371574764,28.298822862089594,139.94391460766843,69.1578530709852,-72.6616107356437,-28.29882286208985,-20.39247581709065,5.439689598826525,0.0,0.0,-0.04941570582686215,-0.004724678800394611,6.477057283806945,88
-140.7312565992563,66.50431751831916,76.0086733347295,28.298822862089697,140.22737256279657,69.8927458901814,-73.66517836543709,-28.298822862089672,-19.31715832352371,5.638944807019445,0.0,0.0,-0.06093780063081303,0.06569701132593367,6.933050500353261,89
-140.9232921905779,68.81303553066945,70.13228819737449,28.298822862089697,140.02869551569904,72.84120129732455,-68.6803118645587,-28.298822862089747,-17.562605367981448,5.930312231118186,0.0,0.0,-0.12807292465602413,0.10622556213065186,7.4651642755877665,90
-138.07565184243478,72.96874941060814,63.808970878824404,28.298822862089697,137.27264910243974,76.37393853712432,-61.59296851541068,-28.298822862089697,-17.133617330290303,6.000000000000009,0.0,0.0,-0.16658764686528763,0.12907684624242596,7.610089202900973,91
-132.9021397839357,74.83688080348139,56.718687582224966,28.298822862089875,132.931830822968,79.04269525121529,-54.43263257839119,-28.29882286208972,-16.68830959148367,5.755268107073617,0.0,0.0,-0.20758697326378694,0.20678631832533284,6.987068092087879,92
-124.81158732930314,76.12448874481348,47.111642944090384,28.29882286208972,124.69162765550746,79.2993676027191,-45.267962641196306,-28.29882286208972,-19.179837764849886,4.983700709089903,0.0,0.0,-0.39495755138944155,0.32222323804145675,5.929531853902869,93
-114.13487615881981,77.15265377772624,34.636656386646536,28.298822862089697,114.42576846276253,80.22275509219524,-35.760384273661444,-28.29882286208962,-25.874733781553306,3.8954670101644435,0.0,0.0,-0.6079641659481152,0.1656006920100712,4.5162865294214125,94
-106.89298115716379,81.5362638104081,29.95693329249954,28.298822862089697,106.92762499608783,83.1013684151981,-29.3629833003627,-28.298822862089647,-35.72968393266826,3.19196442191639,0.0,0.0,-0.6011546975237543,0.0402200789224897,3.480067290126557,95
-99.21986929027798,85.06145502699826,22.41691076044579,28.29882286208972,98.65724649833534,85.35223110763133,-19.146984694125006,-28.298822862089697,-45.260200369553594,2.835200999311812,0.0,0.0,-0.290401780026929,-0.08740769268002319,2.9760987841907776,96
-91.34633838254588,86.90723485663537,9.593555175607074,28.298822862089747,90.57002392274698,87.02125155934645,-6.61323113162303,-28.29882286208972,-56.51797035276464,2.5680306991132102,0.0,0.0,0.28649276400883,-0.22123253512733057,1.7544450044322293,97
-72.59403849845512,85.2059862161336,-12.468912621226105,28.29882286208962,70.60117433030142,83.99986038287153,14.853625268198085,-28.29882286208985,-74.82207973814235,2.4224086308462605,0.0,0.0,0.2833662749451202,-0.31861233298090863,0.21698170422455842,98
-45.24969860635556,88.01092066402501,-25.974634270442834,33.74460431891149,42.425550822229944,86.56977439454647,27.5338320394772,-34.79149935491998,-90.0,2.7078529800864133,0.0,0.0,-0.18613532502121174,-0.23101319787288793,-1.6978143777240007,99
-20.715337255916047,88.75451761341047,-35.59630827282653,28.29882286208962,19.100603845807935,87.9169612169696,37.63298202921681,-28.29882286208972,-90.0,3.398031464998512,0.0,0.0,0.10473270664503126,-0.1457430355672297,-3.173261609560073,100
-8.866004486727773,91.07319367750716,-27.47904175192279,28.29882286208985,7.940651999006596,89.81900774484288,30.553104505650502,-28.298822862089594,-90.0,3.7594049000516887,0.0,0.0,0.03588626893105294,-0.1739285572648836,-3.0749805902401977,101
11.299483942751573,90.87424047042487,-28.80127884784566,28.298822862089647,-12.14902018477374,89.61011183112436,32.92541549333385,-28.298822862089875,-90.0,4.935625835702754,0.0,0.0,0.1375593981238288,-0.21936801233712355,-4.085606755521279,102
17.36941952655755,91.58788042353027,-24.049925720581342,28.298822862089747,-18.618935259870096,89.84168522537627,30.524578917334328,-28.298822862089697,-90.0,5.017945503445736,0.0,0.0,0.11881136803790886,-0.2268989509215108,-4.7009774210033655,103
25.431611727872564,89.16145968012161,-25.969096910713056,28.29882286208985,-26.655173160657494,87.19063586164077,32.51158502304497,-28.2988228620899,-90.0,5.881221444905514,0.0,0.0,0.04555558795637498,-0.2365370988324613,-5.5354066573473615,104
31.493097829617316,89.31927146646028,-23.584468365731645,28.298822862089697,-32.70128392313214,87.05463042582795,29.98610865080464,-28.29882286208985,-90.0,6.000000000000009,0.0,0.0,0.15053811320304614,-0.2115092470118503,-5.471529164408984,105
34.97365536641861,89.24303114492088,-21.111538661183562,28.2988228620898,-35.703048651359744,86.98227245289186,27.505735304585844,-28.29882286208985,-90.0,6.000000000000009,0.0,0.0,0.174462630143935,-0.1963738462551937,-5.761293974322161,106
37.51285839193592,87.40783291021724,-20.779444582924295,28.298822862089697,-37.947472524683135,85.06032805116558,27.072046650524722,-28.29882286208972,-90.0,6.000000000000009,0.0,0.0,0.27761207260143334,-0.1565019557437782,-6.291811615331534,107
38.744069949521865,84.2173699769686,-20.11341434674197,28.298822862089697,-39.234394962064535,81.80258484629108,26.414073785215272,-28.298822862089647,-90.0,6.000000000000009,0.0,0.0,0.3357320671020942,-0.09014061042206777,-7.023050046447925,108
40.05925288291396,78.75523738452759,-21.350331396038044,28.29882286208985,-40.76495142113512,76.03644003981486,30.353484166638907,-28.298822862089825,-90.0,6.000000000000009,0.0,0.0,0.2850686964837385,0.0026988757546190035,-7.602088617560412,109
41.991800116152305,69.45928312660928,-24.368405908085958,28.29882286208985,-43.02631715756812,66.45019664021365,33.477912718102196,-28.298822862089594,-90.0,6.000000000000009,0.0,0.0,0.3218035491581946,0.06978101496692182,-7.658159841234581,110
44.682136228418116,54.7252681540636,-28.49954706255721,29.011208241599128,-46.118884039885934,51.88944143053284,36.41321822469558,-28.2988228620899,-90.0,6.000000000000009,0.0,0.0,0.18063733263038664,0.09411878874043011,-7.354162539664885,111
42.75997689831408,38.614960698152856,-23.83690959166949,37.63495712858706,-44.85800170029134,34.63606656409519,34.87547732437831,-36.89332828387099,-90.0,6.000000000000009,0.0,0.0,0.24691869960736337,0.16455824126771587,-6.790616732910587,112
35.398245960114494,19.814218680557254,-15.63969915227651,42.86478795797928,-37.458711637174645,16.057259025192227,25.10500571231406,-41.994494534327124,-90.0,5.530773725939255,0.0,0.0,0.030851588099017366,0.21810182598105265,-5.661145306800531,113
-11.117129953901722,3.6181269271266756,29.498347842823073,42.28096978793582,-37.458711637174645,3.1971997501644034,25.10500571231406,-41.92871731267071,-90.0,4.599277990810807,0.0,0.0,-0.1986918913905269,0.2044802177040748,-4.682101839930983,114
-11.117129953901722,14.366967830311447,104.99999999999999,38.5532935182675,-37.458711637174645,17.417400282367797,25.10500571231406,-38.64438813167983,-90.0,3.777328106552768,0.0,0.0,-0.266719701171052,0.1967845840844343,-3.6880848456790387,115
-11.117129953901722,29.561342828937338,104.99999999999999,36.90895106358419,-37.458711637174645,31.853309504331378,25.10500571231406,-36.32810878697857,-90.0,3.1519002394239775,0.0,0.0,-0.09824273577643054,0.15552396356585682,-3.258400351971794,116
-110.43373424953121,43.45022632417768,92.9705449906472,33.78559043703223,-37.458711637174645,44.93376452332849,25.10500571231406,-32.012945067067626,-90.0,2.434409251447305,0.0,0.0,0.3081731283407077,0.16495439907382528,-2.3947970399316247,117
-109.57063677084315,57.49058268130896,80.42829293815142,28.298822862089594,-37.458711637174645,58.355107470592685,25.10500571231406,-28.298822862089697,-90.0,1.8906318671171274,0.0,0.0,0.3841097032894571,0.2122356816825039,-0.8856022475996017,118
-103.41304979674948,69.16955197622006,64.1755978065366,28.298822862089594,-37.458711637174645,69.29615791295335,-61.1017655738287,-28.298822862089825,-89.60725823600899,1.8190863662980838,0.0,0.0,0.32799274218546676,0.19272721727774336,-0.15803948187006103,119
-101.57695197989263,79.48291497989543,54.03356306149031,28.29882286208972,-37.458711637174645,78.92034352244609,-50.39195232793748,-28.29882286208985,-75.95178385811616,2.005184036666699,0.0,0.0,0.21602560637108995,0.0034879293733667553,0.7564058589234856,120
-96.78859597211537,86.81553572007903,43.86844240184488,28.298822862089747,-37.458711637174645,85.18937231396345,-35.3790312973886,-28.29882286208985,-73.42280289665399,2.106842517770921,0.0,0.0,0.12717591384551238,-0.119304147945347,0.7302460502061356,121
-87.55234777765816,90.43266032499463,23.990815171926716,28.298822862089747,-37.458711637174645,88.72027721958176,-18.191033819909723,-28.298822862089747,-75.88217495465153,1.9904510797476052,0.0,0.0,0.6471373029856313,-0.0921940085285358,0.7961866749374776,122
-77.0928052247607,91.85859114183512,3.7188830942712165,28.29882286208962,-37.458711637174645,90.4301759424997,-0.7199514156373189,-28.29882286208985,-84.41181161367011,1.9900458907902172,0.0,0.0,0.5549915247686541,-0.20967195094341762,0.39352140551988735,123
-57.96283570182626,91.9263826413287,-6.540616653408873,28.29882286208962,57.438449171091946,90.12578974409189,8.76533971541362,-28.29882286208962,-90.0,2.1280385422559966,0.0,0.0,0.3615325286708625,-0.2582663634348566,0.08258537766678545,124
-38.9530989851514,94.76862849986196,-12.350780675354427,28.298822862089825,38.42989258503472,91.95388905222798,16.33126820838814,-28.298822862089594,-90.0,2.46318472788609,0.0,0.0,0.24088967631847966,-0.29801684203673684,-0.14042693207065488,125
-29.526224025420674,95.54813164896173,-12.510174978357664,28.29882286208972,29.048704797251848,92.40095366403482,18.9014179027119,-28.29882286208962,-90.0,2.9030697931599536,0.0,0.0,0.4970602207554281,-0.3050668340471467,-1.3140013455673563,126
-19.211788971691792,95.78379479596391,-22.886855548646455,28.29882286208962,18.50844611034093,93.2387523432877,27.709403955088852,-28.298822862089825,-90.0,3.547597208977834,0.0,0.0,0.596976997638852,-0.3111041997821608,-2.0333845947696005,127
-10.25232766297277,97.74846726577417,-19.192567634232706,28.29882286208972,9.474176694835624,95.12515681646931,24.227805133842235,-28.298822862089697,-90.0,3.9420563866749143,0.0,0.0,0.4860414019548006,-0.28331425272255717,-1.3077583441912919,128
-7.2985890630938055,98.44573298003215,-13.676506617189883,28.298822862089697,6.685776486806063,95.8939828559289,18.97586909425934,-28.298822862089825,-90.0,4.196736989394979,0.0,0.0,0.3633569168024855,-0.20603704850490023,-1.6738612855136588,129
-3.797448934765635,99.63566510355106,-12.944212175450767,28.29882286208972,3.1567487108652412,97.56579677709567,17.436349213767702,-28.29882286208962,-90.0,4.651490548139902,0.0,0.0,0.31644212086658186,-0.22201149737893147,-2.15828694949222,130
-3.2935611405016982,100.30013275174291,-10.475806019509895,28.298822862089672,2.605192199003654,98.17896457179958,15.124011378004887,-28.298822862089594,-90.0,4.771347358215153,0.0,0.0,0.2708227200524173,-0.22498886444683933,-2.1814509839213074,131
-3.115878153185356,100.78823544754074,-8.044940625716986,28.298822862089697,2.3842901268558343,98.19642234979725,15.078513865589612,-28.298822862089672,-90.0,4.944847232549923,0.0,0.0,0.33645119570822296,-0.26102350794988327,-2.4682672085036708,132
-3.2532301079670582,100.58026506269546,-8.028152307483081,28.298822862089594,2.469472848761573,98.00735846417238,15.07696577929952,-28.29882286208972,-90.0,5.012980603355061,0.0,0.0,0.3374052636249289,-0.22167366918057402,-2.493540300318024,133
-4.825419719424353,101.04927439885525,-5.932011713047511,28.29882286208985,3.921977939309083,98.62947784164695,12.797404191160147,-28.298822862089672,-90.0,5.0055202251306925,0.0,0.0,0.37354997352808456,-0.1888368864023881,-2.6595025027707133,134
-6.481017526593426,100.95331294512192,-6.215035022956741,28.298822862089697,5.536909246109467,98.30730298030045,14.019626461439698,-28.29882286208985,-90.0,4.9453359129374075,0.0,0.0,0.3055097372046468,-0.12655232388150317,-2.6834238600778715,135
-9.637898092157915,100.85623449948932,-4.508324321174613,28.29882286208972,8.92805650386266,97.9413084288524,12.346889735662103,-28.298822862089594,-90.0,4.703351890937544,0.0,0.0,0.37696636325047833,-0.09212299573502093,-2.2404389379762,136
-16.898325131434373,97.07293390921808,-12.31584084413365,28.298822862089594,15.884596368401166,94.95525436251073,17.838736199589043,-28.298822862089697,-90.0,4.848964957590695,0.0,0.0,0.21113708194595257,-0.02592372259048196,-3.103083943969356,137
-24.666921646883658,95.6068652694279,-12.286062798319684,28.298822862089825,23.52827838284624,93.2297473261299,19.309044608309865,-28.298822862089594,-90.0,4.684687950966052,0.0,0.0,0.3971023819874334,0.000543167935663205,-3.1748224065031465,138
-34.368654059378585,94.01826295330893,-11.865622762329968,28.298822862089697,33.51669080726907,92.10683929623367,16.67981550981822,-28.298822862089875,-90.0,4.16145091925865,0.0,0.0,0.3881837487576513,0.0068329144903251015,-3.1545665699905845,139
-48.4164899962013,91.43959666837407,-6.289671553321467,28.298822862089697,47.829052243782,88.9074542514365,13.586736363726416,-28.298822862089697,-90.0,3.4639737233910037,0.0,0.0,0.3441352759406174,0.016512939875432443,-3.1931257071718258,140
-63.88675004510858,87.70956938197956,1.9685038334495852,28.29882286208972,63.939508711865116,85.74510977526528,2.977637602834612,-28.298822862089697,-90.0,2.5576459237712372,0.0,0.0,0.2510413275456621,0.025018424146806717,-2.0222663566113526,141
-80.5815062677027,83.60025472984287,20.077474750515623,28.298822862089697,81.7027398767641,81.95542536027673,-15.198531871188088,-28.298822862089697,-90.0,1.9942708240036717,0.0,0.0,0.16614113498243294,0.03225776258560819,-0.6532855939839779,142
-91.30514235206287,75.4563657057403,43.14495227542235,28.29882286208985,93.34874830870854,74.11621913171751,-37.431986167292244,-28.29882286208972,-90.0,1.8341977295105638,0.0,0.0,0.2840095337711266,0.1080043158574646,0.4426432873682461,143
-100.35100169443713,62.83500726098623,61.21296072755876,28.29882286208962,102.33070389264746,62.60595451905269,-58.20466439390642,-28.298822862089697,-76.5932656718891,1.9223551662028686,0.0,0.0,0.3472447096672903,0.1344688779296028,0.26916956737251385,144
-113.99004043911128,53.09898797761961,78.47268772538546,28.298822862089825,115.27664665428058,53.60217867484377,-77.61907433236212,-28.298822862089825,-63.72443219055881,2.201166262589287,0.0,0.0,0.37787946546983864,0.08214881727941728,0.32885014714061417,145
-120.42310859054146,42.909800191899556,91.70424164923237,30.657713921271803,122.35695351623605,43.22423422191204,-89.26055874586322,-29.961854654654026,-70.0848515826486,2.106979903353669,0.0,0.0,0.37448993639907985,0.11001280537513539,-0.34597303711822724,146
-129.94519632041965,33.619649689367655,104.99999999999999,32.99177873773756,133.0336122490338,34.42323681372603,-105.00000000000001,-32.13873522309008,-81.87827887800617,2.0003142869682664,0.0,0.0,0.44238410853297805,0.16641280045574403,-0.960042701197074,147
-145.20018031611497,26.388722063723428,104.99999999999999,32.40580654814893,147.4755663108712,27.665610750250615,-105.00000000000001,-31.859294088149923,-90.0,2.015617371273704,0.0,0.0,0.2663206610619419,0.21590875267855988,-1.266099290088156,148
-155.0,18.961112646359915,104.99999999999999,32.84086640738316,155.00000000000003,21.074089224164602,-105.00000000000001,-33.217886677017866,-90.0,2.23166110883211,0.0,0.0,0.19838613201603886,0.317068859375585,-2.02580230786939,149
-155.0,16.05670839497238,104.99999999999999,32.3417126886467,155.00000000000003,17.881072901957953,-105.00000000000001,-32.52309163037794,-90.0,2.665697167045551,0.0,0.0,0.21829891432102544,0.37351283247328965,-2.643049350875621,150
-155.0,21.215459165600986,104.99999999999999,31.845479962560184,155.00000000000003,19.589312311480096,-105.00000000000001,-32.99361041746702,-90.0,3.3404061112563608,0.0,0.0,0.13692102868357003,0.5019281647149573,-3.7996970882207406,151
-155.0,34.0793343948878,104.99999999999999,28.29882286208962,155.00000000000003,31.419898617228018,-105.00000000000001,-28.298822862089647,-90.0,3.9814498382030865,0.0,0.0,0.31217469717221935,0.5643968965246206,-4.419744127503562,152
-155.0,46.73908704042482,104.99999999999999,28.298822862089672,155.00000000000003,43.89924606354485,-105.00000000000001,-28.298822862089697,-90.0,4.717613158252074,0.0,0.0,0.21738866655293004,0.6700877018467647,-5.14383241418422,153
-155.0,58.30730634801301,104.99999999999999,28.29882286208985,155.00000000000003,55.9425915753902,-105.00000000000001,-28.29882286208962,-90.0,5.276784741437634,0.0,0.0,-0.12032492244001668,0.744818299881547,-5.485933318312701,154
-155.0,66.80895349810547,104.99999999999999,28.298822862089594,155.00000000000003,64.54456616167354,-105.00000000000001,-28.29882286208972,-90.0,5.653176901955048,0.0,0.0,-0.145487324281832,0.7909724040299607,-5.465115340959775,155
-155.0,73.16186804454445,104.99999999999999,28.298822862089647,155.00000000000003,70.9901389726892,-105.00000000000001,-28.298822862089647,-90.0,5.90932520821826,0.0,0.0,0.05198656789298725,0.8050794986785402,-5.285061169209849,156
-155.0,77.07885291859378,104.99999999999999,28.298822862089924,155.00000000000003,74.85567202369245,-105.00000000000001,-28.298822862089672,-90.0,6.000000000000009,0.0,0.0,0.030783577946188953,0.7981827492270718,-5.285103211731054,157
-155.0,81.00763165799378,104.99999999999999,28.29882286208985,155.00000000000003,79.01026133775345,-105.00000000000001,-28.298822862089747,-90.0,6.000000000000009,0.0,0.0,0.18093946207295553,0.7776360451638952,-5.185286028124519,158
-155.0,87.22590347575117,104.99999999999999,28.298822862089924,155.00000000000003,84.96244519460005,-105.00000000000001,-28.298822862089697,-90.0,6.000000000000009,0.0,0.0,0.2233261416013812,0.7858135174959004,-4.8077684387021105,159
-155.0,93.9334360180283,104.99999999999999,28.298822862089594,155.00000000000003,91.58460238473138,-105.00000000000001,-28.29882286208985,-90.0,6.000000000000009,0.0,0.0,0.20549713056764052,0.6810350180657077,-4.74643603453239,160
-155.0,97.76172825362633,104.99999999999999,28.29882286208972,155.00000000000003,95.17098121123516,-105.00000000000001,-28.298822862089672,-90.0,6.000000000000009,0.0,0.0,0.24573689102958937,0.6137690091596464,-3.367853628715081,161
-155.0,99.96505861759806,104.99999999999999,28.29882286208985,155.00000000000003,97.22366399640485,-105.00000000000001,-28.298822862089697,-90.0,5.534235370322251,0.0,0.0,0.5587504324418371,0.5795752839296059,-2.4739351752852654,162
-155.0,97.0242447899299,104.99999999999999,28.298822862089647,155.00000000000003,94.86272493568875,-105.00000000000001,-28.298822862089953,-90.0,5.393822926335629,0.0,0.0,0.37366401231483987,0.528162527242002,-1.5115445599741375,163
-155.0,94.57561895583235,104.99999999999999,28.29882286208972,155.00000000000003,92.18820486879771,-105.00000000000001,-28.29882286208962,-90.0,5.3592722852314,0.0,0.0,0.5393273140886319,0.5170978304188233,-1.7953800735402679,164
-155.0,95.23941171898191,104.99999999999999,28.298822862089697,155.00000000000003,92.47192041240422,-105.00000000000001,-28.298822862089697,-90.0,4.586450208305954,0.0,0.0,0.7497410944580956,0.38567364437792667,-1.0981688253338038,165
-56.06353592656927,93.08616826096423,104.99999999999999,28.298822862089697,56.425631630326045,90.61745310417716,-105.00000000000001,-28.29882286208972,-90.0,3.5263180143087607,0.0,0.0,0.47456871075829277,0.18767252047105112,-0.228200952674361,166
-77.56251817772687,90.23457230386434,16.47613119814699,28.2988228620898,78.57611447985599,88.34245494719156,-11.046434416896748,-28.298822862089672,-90.0,2.07865184994681,0.0,0.0,0.4414366844791345,0.09740018409286422,1.6935521518816343,167
-92.44858369441637,90.53521908846128,36.1986871299677,28.298822862089825,94.22318499124522,88.5805863736987,-27.003860608107953,-28.298822862089697,-78.90660499245594,1.8920642375094505,0.0,0.0,0.5448066521066969,-0.007278475048639134,3.212641913319522,168
-101.1185393847188,87.27204416396137,50.811025261783875,28.29882286208962,103.00105858424186,86.56936054191215,-43.98823171255349,-28.29882286208985,-54.51027708059329,2.274305117038622,0.0,0.0,0.5518402574052569,-0.0023974003012405144,3.8046559756161185,169
-108.72513991773462,80.00997538881461,58.32248213835518,28.298822862089697,110.42929110662051,79.71554969722462,-54.03810907503639,-28.2988228620898,-41.10687092303598,2.8288894430767737,0.0,0.0,0.5919917724805249,0.017693377697800734,4.252009484370281,170
-114.54075738266218,71.9556917524665,62.42470523517402,28.298822862089672,116.21009831886906,72.63113318002523,-60.751387120605564,-28.298822862089697,-32.80438602734125,3.4408551116285246,0.0,0.0,0.5059787570113193,0.05124047905388842,4.926732429523684,171
-124.88954059048858,70.7707314598422,68.45887805769924,28.298822862089697,125.71731768767273,70.89997652897517,-68.28150125657166,-28.29882286208985,-26.20455582149923,4.415198294724216,0.0,0.0,0.46704417919045327,0.026145595404514815,6.445661347932988,172
-131.52935470315492,68.29409980468158,75.7508013025655,28.298822862089697,131.65963696932198,68.8019101693009,-75.15605100786927,-28.298822862089825,-23.333571141811642,4.621290025193127,0.0,0.0,0.419135951436892,0.11702540724545779,6.64802544499794,173
-136.99621658890229,67.87917739579481,86.65838235667795,28.298822862089647,137.34925335372046,68.8414017996161,-86.18771276056532,-28.29882286208957,-22.911421866394438,4.868372844254961,0.0,0.0,0.3874402938611217,0.05508891782252518,7.085489782285964,174
-139.03630979226767,68.60621049016804,91.4586647808264,28.298822862089875,139.5568557718691,69.1179781746594,-90.8092612122248,-28.298822862089875,-23.035508655267687,5.0154831233101,0.0,0.0,0.4184183889653275,0.04829361186670314,7.377935081919487,175
-139.98192700276388,69.66123080902199,90.19382427890793,28.29882286208962,140.43868493446215,70.5489994980868,-89.69100248388254,-28.298822862089697,-22.230662255910495,5.1154183956353405,0.0,0.0,0.4050972753099858,0.05480081976638682,7.485522613278213,176
-138.03203019061633,72.73463668084767,87.94497220093751,28.298822862089594,138.31952905463837,73.74389771082762,-88.12357333962858,-28.298822862089647,-21.30573798248358,5.1941398578407485,0.0,0.0,0.4132809730668303,0.08330964361808894,7.617388532808441,177
-134.816934420885,74.65398475357306,77.4435351790509,28.298822862089875,135.22390949658555,75.29281205076722,-77.04127126134067,-28.29882286208962,-21.014493715050264,5.141626562700073,0.0,0.0,0.39461107654487226,0.17536334124934463,7.280851281622734,178
-128.63136570364335,75.61932521146804,68.4962588276805,28.298822862089594,129.39557457379317,76.70714174205041,-67.89553734085014,-28.29882286208962,-22.719984632714766,4.5765093735108895,0.0,0.0,0.42097691356702194,0.19423371499302644,6.455727920919741,179
-121.26310101352963,77.59162139397854,59.23550069858293,28.298822862089825,121.95568048461614,77.59092919953659,-56.35285339174878,-28.298822862089697,-27.726574606277737,3.883250349596992,0.0,0.0,0.3962707767883301,0.18653906162598743,5.524783210047261,180
-112.6351192667978,79.66388282030074,49.411602533965166,28.298822862089672,113.20421012075323,78.99198630804999,-45.399861535356294,-28.2988228620898,-37.199005563370314,3.0771518159108155,0.0,0.0,0.2954094511169461,0.10532554409734299,4.326586246273068,181
-103.81924950404586,81.91272531858695,37.483603970470874,28.298822862089647,103.94592131643809,80.90706195059204,-33.372486662011966,-28.29882286208977,-48.50733297525162,2.5246174376062673,0.0,0.0,0.3187918932614881,0.0835141973180215,3.2520717377147195,182
-105.83763384772898,77.78942186497059,16.93776722394984,28.298822862089697,107.24114199155564,80.52510502934557,-20.000938067231733,-28.298822862089647,-27.875404369708736,2.91687890445247,0.0,0.0,-0.008439391825314495,0.6082927810547694,5.525551002486281,183
-107.16253207742221,72.71923153156223,15.341432361050257,28.298822862089594,108.46560006304274,79.65755346580089,-15.954087496786132,-28.29882286208985,-18.255396851020862,2.996472289650632,0.0,0.0,0.09580391830113534,1.5554681420171588,7.879832735906224,184
-106.93375503943678,65.59795836012913,26.257839672912525,28.29882286208972,107.58845585396361,79.03005306510204,-18.764084969121953,-28.29882286208985,-9.3606170261465,2.816420834114556,0.0,0.0,-0.02852189812785767,2.8492905712564416,8.379391888606188,185
-105.22800809203466,56.21558792615014,40.517367743864895,28.29882286208972,109.46535740310945,79.37043385842404,-22.083060183269147,-28.29882286208962,12.681409045353487,2.675300691435771,0.0,0.0,-0.6481552420649103,4.601507726679875,7.710485249849122,186
-108.52119878401246,51.37798252222863,56.90501706658666,28.298822862089594,110.65751309453921,80.63490577416437,-29.97481389929679,-28.298822862089647,37.95575614430985,2.973688146126917,0.0,0.0,-1.018790714857284,7.020737328395181,7.335031416473939,187
-108.90603271767559,44.12248221084357,69.08206904859662,28.29882286208985,110.51454734420409,80.40968902175398,-30.58974632825204,-28.29882286208957,58.441325483341465,3.82626722248704,0.0,0.0,-1.2300126223113201,9.471050714510287,6.967139983852719,188
-114.77980983096049,36.443216667248024,83.70794418271656,28.298822862089825,111.20889391696488,80.76800940187245,-36.451098819505425,-28.298822862089825,71.46232989985201,5.282263322156316,0.0,0.0,-1.6893935946763121,12.233330653837964,6.765756940280916,189
-112.71122983269589,23.076933168220705,88.02239935668925,28.298822862089697,110.60004670089417,80.64324157777227,-36.99355063060357,-28.2988228620898,82.65856521538181,6.000000000000009,0.0,0.0,-1.7902836946286032,15.615604209290133,6.227667267634878,190
-117.31480364655236,14.657930571840488,95.99571731243904,28.29882286208962,109.34108438687664,79.95456055722757,-35.990080834229865,-28.29882286208985,86.85977797341141,6.000000000000009,0.0,0.0,-3.018597055233731,19.25141708559565,6.70809195979283,191
-131.47309288846128,6.966826035945121,104.99999999999999,28.298822862089697,109.46563214272929,79.79825908379269,-38.0325191571258,-28.298822862089825,90.0,6.000000000000009,0.0,0.0,-4.532206857105181,23.28102682369706,6.653441929344121,192
-131.47309288846128,2.421511877884945,104.99999999999999,28.298822862089594,108.16080864656425,77.49495648180566,-39.02444275266811,-28.298822862089544,90.0,6.000000000000009,0.0,0.0,-5.167919524661806,28.658203376031274,7.070963443387779,193
-131.47309288846128,5.282093365121351,104.99999999999999,28.29882286208972,106.12457708288349,75.02332300808003,-40.370822012602275,-30.237306229522932,90.0,6.000000000000009,0.0,0.0,-7.2238784056054515,34.04753821096357,8.89027458667178,194
-131.47309288846128,8.653800631355839,104.99999999999999,28.29882286208985,108.06699835693908,74.09128584155455,-44.059748666207206,-35.95467992846936,90.0,6.000000000000009,0.0,0.0,-8.07932589029141,39.16381220041259,10.40919853315269,195
-131.47309288846128,10.886211552789705,104.99999999999999,28.29882286208985,110.56572386088013,72.44851853918912,-46.30597406078933,-41.250871022023546,90.0,6.000000000000009,0.0,0.0,-9.351131807332813,43.64770735737315,12.152387230332442,196
-131.47309288846128,13.072368214507753,104.99999999999999,28.298822862089544,110.8912608119248,71.28509070923181,-49.90474701804285,-47.047648746118064,90.0,6.000000000000009,0.0,0.0,-10.832202421516232,47.930736922095555,14.201060324901752,197
-131.47309288846128,16.99085421341143,104.99999999999999,28.29882286208972,111.51718345811435,69.47194541512638,-48.46617199530669,-51.33951870573663,90.0,6.000000000000009,0.0,0.0,-11.969081160824542,51.086035035279885,15.371142786193166,198
-131.47309288846128,20.34932320875698,104.99999999999999,28.298822862089594,111.9068419934227,68.20997321184626,-48.5712579500047,-54.79780479415445,90.0,6.000000000000009,0.0,0.0,-11.978328650785123,53.30666369999332,16.26682159709597,199
-131.47309288846128,22.875415898077616,104.99999999999999,28.29882286208962,111.37265861869048,67.24270030244548,-48.14599130396661,-57.11279145210038,90.0,6.000000000000009,0.0,0.0,-12.06096359120614,54.65136660615272,16.997947922110978,200
-131.47309288846128,23.5315538963746,104.99999999999999,28.298822862089672,111.26354059689709,66.7536890407557,-47.961097372599795,-58.424703946202726,90.0,6.000000000000009,0.0,0.0,-11.966373031183076,55.192012505417615,17.39652489895048,201
-131.47309288846128,23.25807225370668,104.99999999999999,28.29882286208952,111.73761504462341,65.78372146695877,-45.79469817298752,-59.03467001572562,90.0,6.000000000000009,0.0,0.0,-11.677113670890627,54.9926915513335,17.41005350083947,202
-131.47309288846128,21.84630751735899,104.99999999999999,28.298822862089825,111.64433160950361,65.74447739285107,-46.08601496082862,-59.25497179475707,90.0,6.000000000000009,0.0,0.0,-11.707751251140436,54.34884501633107,17.101770191498378,203
-131.47309288846128,19.31715890303202,104.99999999999999,28.298822862089697,111.58720293157018,66.03900601089862,-46.110601464019055,-58.59863264714115,90.0,6.000000000000009,0.0,0.0,-11.241463539287494,53.032594488169124,16.35503452556822,204
-131.47309288846128,16.964306630151867,104.99999999999999,28.298822862089697,111.26834577247683,66.35042317504895,-46.05127656029511,-57.52094020218031,90.0,6.000000000000009,0.0,0.0,-10.70641582278547,51.02308180732562,15.541842743098364,205
-131.47309288846128,12.611492215683718,104.99999999999999,28.298822862089697,111.49652736519496,66.6876439862524,-46.40790529092577,-55.6347873838258,90.0,6.000000000000009,0.0,0.0,-9.959937008062754,48.1139890859648,14.631951261051594,206
-131.47309288846128,8.387080629014882,104.99999999999999,28.298822862089825,110.70493350417769,68.17781913858825,-47.12272620239262,-52.03732671536515,90.0,6.000000000000009,0.0,0.0,-8.675262876324098,43.74188922886329,13.38229708757065,207
-131.47309288846128,5.302011808138374,104.99999999999999,28.298822862089594,110.3558396894257,69.41609498928557,-45.90536511801152,-47.65678161742676,90.0,6.000000000000009,0.0,0.0,-7.324942725341425,38.97958757973539,12.17631219026834,208
-131.47309288846128,1.7669164631974712,104.99999999999999,28.29882286208985,108.1345223467659,71.32395747310846,-46.42895548854964,-42.38868742667333,90.0,6.000000000000009,0.0,0.0,-6.786310757267805,33.97919945438604,11.156602823566002,209
-78.33838755589682,3.5599389384747604,66.06599452021631,28.29882286208972,107.11844413244451,72.20932817444282,-44.70381285098328,-37.26776256582081,90.0,6.000000000000009,0.0,0.0,-5.629383575188108,29.405401142207598,9.953421465058728,210
-82.59861941865232,8.000050140528412,67.51437158828244,28.298822862089697,106.02226399932019,73.26952883536393,-45.24648585274422,-29.673461003260456,90.0,6.000000000000009,0.0,0.0,-4.440297146205959,25.43511489612267,9.23283438365672,211
-95.14726172045117,16.463576075132142,75.12346763437807,28.298822862089747,105.81475726706073,75.37410901597806,-44.37861349886931,-28.29882286208972,90.0,6.000000000000009,0.0,0.0,-4.254747544781952,21.503456498203725,8.83557356846714,212
-98.56551340740711,26.176947698996546,74.83573145835983,28.298822862089697,106.46926108161232,77.57358859333878,-41.23375221756381,-28.298822862089647,90.0,6.000000000000009,0.0,0.0,-4.0205849912165315,17.472727910843815,8.074903419301968,213
-102.46230323165416,37.04696512215446,71.01564466028222,28.298822862089697,107.48056893324627,80.17433079266829,-41.40380651726,-28.29882286208957,90.0,6.000000000000009,0.0,0.0,-4.765462430961474,13.519859069619187,7.357615983891496,214
-95.1492955098967,46.6791712460544,55.89225806585962,28.298822862089825,106.28556461477066,83.17417139285453,-38.38482367691607,-28.29882286208972,89.81236152606996,4.997983368744485,0.0,0.0,-2.921583552678037,9.300651215242624,7.193816266339253,215
-93.93379049502377,58.09542652582795,45.36671285471349,28.298822862089672,103.44387126729737,84.34759062019593,-29.870882228184747,-28.298822862089544,78.11575704399462,2.3084326345905977,0.0,0.0,-2.596980132731324,4.841894859601529,6.97632381443857,216
-94.75565635130849,67.90294012631155,38.49796507097809,28.29882286208972,102.51678620379182,85.57875189332375,-24.86986558956375,-28.298822862089875,14.903357381156203,0.8534909582600139,0.0,0.0,-2.4590341835956075,1.244952184926062,6.383807854029413,217
-95.39265183751759,76.0704085697557,32.0677512213503,28.298822862089697,101.07242151900806,86.53286779128025,-19.218531431619763,-28.298822862089697,-55.6568958167663,1.9349050795800864,0.0,0.0,-2.115994291556341,-1.7916197412011248,6.121165996543099,218
-99.08024547952135,82.25422121020132,31.114383481152455,28.298822862089697,101.40177986460034,87.92632300095399,-16.985699366073856,-28.298822862089697,-64.00528402859682,3.392426647863282,0.0,0.0,-2.4840256309881674,-4.147791405147365,6.3093604754016335,219
-102.24109709070095,87.44457669505448,31.447806544214767,28.29882286208972,101.59944327663595,89.46679887596913,-16.615208742613483,-28.29882286208972,-68.11324778267337,4.515808673115813,0.0,0.0,-2.420263253885079,-5.704354624147233,6.227831694178875,220
-102.71362495973494,89.40290810336012,31.465107352015135,28.298822862089697,101.33085418305774,89.4870900448946,-13.991939184098447,-28.298822862089747,-68.98001529023743,5.345103343897626,0.0,0.0,-2.138294248343222,-7.144426884989018,6.549312739668934,221
-101.20466161574964,88.14045617606358,28.99796945179447,28.29882286208985,100.32840371020431,88.50614319237468,-11.834414304832299,-28.298822862089825,-67.60120560869376,5.40060825986911,0.0,0.0,-2.18346626176696,-7.468802607247341,6.801970725955614,222
-100.91495621763511,85.4166824929618,31.605580492526702,28.29882286208962,100.05021920496803,87.54717322069537,-12.429795933225423,-28.298822862089594,-64.15876992020965,5.177735188460189,0.0,0.0,-2.519537635432254,-7.031024810849897,6.978585582179392,223
-99.81571360642751,80.69235118617453,34.05246489928341,28.298822862089697,99.30068671114006,86.13645999473421,-12.66557325250607,-28.298822862089647,-60.23738340848436,4.576230609776172,0.0,0.0,-2.611104466826274,-5.870034154283694,6.7878254744919255,224
-96.93111816148257,74.10333607944256,37.648409923422136,28.29882286208972,99.10892360360097,84.48158991676887,-12.783810885676463,-28.298822862089825,-52.73259798645722,3.612807168615615,0.0,0.0,-2.5330076421199226,-4.057886331012171,6.7166232314651415,225
-94.07908207891792,65.87807992071036,43.24292359699025,28.2988228620898,98.83747528393191,83.1959842962385,-12.812908759574894,-28.29882286208985,-37.494553551822186,2.643160928005874,0.0,0.0,-2.526073371481168,-1.969553258786715,6.626800296941967,226
-91.5526740676968,57.22028220474599,48.35067823668894,28.298822862089594,100.08250507285204,82.10035553419873,-12.62573328891795,-28.29882286208962,-1.655864633252539,1.929841228527652,0.0,0.0,-2.175604065244971,0.6457565436804525,6.333026387934335,227
-91.71737441760737,49.20762003588312,54.59521447348375,28.298822862089747,101.80942638024828,82.00115141557293,-14.86642121604013,-28.298822862089647,41.12492591285234,2.4010718188795406,0.0,0.0,-1.9200563290842325,3.783855402266501,6.1011925908771465,228
-91.49999126714229,40.845756993792364,60.0417791644377,28.298822862089697,103.06912542629959,81.5879525559855,-17.63654874506268,-28.298822862089875,65.42614819608683,3.785257861362391,0.0,0.0,-2.0673304559591292,7.4639822151996515,5.850272588727159,229
-93.12955943126748,33.947393074450424,67.17110174454123,28.298822862089672,103.88161958588205,80.7364744819285,-20.753566834152867,-28.29882286208957,75.97169494426088,5.503669284452697,0.0,0.0,-2.338824450808857,11.598014717900758,5.970363142190483,230
-97.5239018131016,27.829647031014353,74.98899877505642,28.29882286208972,105.07471211369291,79.59680893780164,-24.925012714137473,-28.29882286208985,81.458687293706,6.000000000000009,0.0,0.0,-3.386672010726269,15.991701711242667,6.206238450855107,231
-97.0134668581757,20.119436597295707,79.52563112585301,28.29882286208972,105.14707046234852,77.99965216687814,-26.058218745572177,-28.298822862089825,85.8160725949228,6.000000000000009,0.0,0.0,-4.043962581938274,20.111903938190544,6.476578628572828,232
-99.93269445149447,14.281380642092454,83.21096458873824,28.29882286208962,104.78432712658056,76.67875529315025,-29.952195080585,-28.298822862089672,88.30348348334016,6.000000000000009,0.0,0.0,-5.273254984872542,24.448994917344333,7.1191459883997,233
-98.02961304602846,8.304490947307766,86.79181396276857,28.298822862089594,105.52217617105603,75.00000348642992,-34.19032641048592,-28.298822862089647,90.0,6.000000000000009,0.0,0.0,-6.339642619040692,29.111737677592156,7.806599155808794,234
-104.11618360543865,2.85848121841505,96.12045481101059,28.29882286208985,105.80740504682059,72.78403953376102,-34.28649998467696,-31.743808564064583,90.0,6.000000000000009,0.0,0.0,-8.248677658466221,34.051991883200984,8.842991571969788,235
-104.11618360543865,1.8529901199211887,96.12045481101059,28.298822862089697,107.47772265727107,71.7279906890829,-38.340621128890646,-37.938152423877156,90.0,6.000000000000009,0.0,0.0,-9.538235446748354,39.10054833596628,10.264408072510106,236
-104.11618360543865,5.116958238759272,96.12045481101059,28.29882286208972,109.39861370413792,70.76509100896472,-42.38327682490382,-42.93148610544821,90.0,6.000000000000009,0.0,0.0,-10.688947553373545,43.67204688425082,11.901525736899657,237
-104.11618360543865,8.13779764454454,96.12045481101059,28.298822862089953,111.57475367605817,69.90294789954295,-46.454157941470605,-47.513458088261444,90.0,6.000000000000009,0.0,0.0,-11.489910652457077,47.94075193517675,13.05243821550385,238
-104.11618360543865,11.121502120333085,96.12045481101059,28.298822862089697,112.7665714853812,68.02002564477804,-47.247057609614984,-52.27537974130264,90.0,6.000000000000009,0.0,0.0,-11.957947062287289,51.88491670472108,14.758817962401677,239
-104.11618360543865,14.7098308607289,96.12045481101059,28.298822862089697,112.15176441943714,66.07075393564429,-46.98190395772379,-56.37750809260233,90.0,6.000000000000009,0.0,0.0,-12.71856801084972,54.808622327453214,17.011912324223672,240
-104.11618360543865,18.566092992324595,96.12045481101059,28.298822862089697,111.47376808431292,64.40061444434883,-46.61675925943419,-59.76789707768561,90.0,6.000000000000009,0.0,0.0,-13.400423202045575,57.201867088269175,18.636413000024174,241
-104.11618360543865,23.18485218508122,96.12045481101059,28.29882286208952,111.20823373641826,62.845475050588995,-46.05875729883701,-62.59314697936535,90.0,6.000000000000009,0.0,0.0,-12.976870564595728,58.80579600571454,19.32697386638519,242
-104.11618360543865,26.604092325898254,96.12045481101059,28.29882286208962,111.06622803154531,60.6457900731244,-43.286384580433676,-65.0474608582936,90.0,6.000000000000009,0.0,0.0,-12.899411027843312,60.129528047639255,20.423087174255766,243
-104.11618360543865,28.341602984701478,96.12045481101059,28.298822862089924,109.48568846858828,59.38843688460502,-42.047086756211364,-66.94292697012547,90.0,6.000000000000009,0.0,0.0,-13.39509426908029,61.1763724059279,22.02153050102545,244
-104.11618360543865,28.63011097299519,96.12045481101059,28.29882286208972,109.52810120813128,57.90860088736384,-40.02166224926029,-68.02355398343693,90.0,6.000000000000009,0.0,0.0,-14.247428706835416,61.719059653594826,23.203014663243017,245
-104.11618360543865,27.83849345241489,96.12045481101059,28.2988228620899,108.93870473811596,57.66654848714334,-39.750700462998296,-68.39113684386892,90.0,6.000000000000009,0.0,0.0,-14.478618402614785,61.62114008316516,23.54618697449149,246
-104.11618360543865,26.112807372734707,96.12045481101059,28.298822862089697,108.91075448298425,57.61817601795008,-39.903679854978066,-68.48824217056531,90.0,6.000000000000009,0.0,0.0,-14.270564443192045,61.050646243619475,23.36556761472962,247
-104.11618360543865,24.212303440670016,96.12045481101059,28.298822862089697,110.13827745917551,56.785224932018984,-38.688006072619174,-68.27154655672076,90.0,6.000000000000009,0.0,0.0,-13.56255181128269,60.05525295334723,22.444988413216553,248
-104.11618360543865,21.13370505139395,96.12045481101059,28.298822862089672,110.37262882072062,58.01043724484681,-41.42701960755689,-67.75543801763352,90.0,6.000000000000009,0.0,0.0,-12.60233583620444,58.47190232676512,21.055168497435844,249
-104.11618360543865,17.697107433657287,96.12045481101059,28.29882286208962,111.02844837158332,58.75939273137699,-42.009826795429255,-66.32555149523303,90.0,6.000000000000009,0.0,0.0,-11.396952411049327,56.13367029765343,19.276149231615943,250
-104.11618360543865,13.904959296395475,96.12045481101059,28.29882286208972,111.60313856631086,59.86965439645008,-42.420507520638814,-64.10751102554663,90.0,6.000000000000009,0.0,0.0,-9.859088156752827,52.42623234297693,17.30369316265727,251
-104.11618360543865,9.796746631492857,96.12045481101059,28.29882286208985,111.31671737184156,61.93519154287825,-43.426768208588044,-60.569791526971564,90.0,6.000000000000009,0.0,0.0,-9.063742315593016,47.723679356810194,15.249392772201457,252
-104.11618360543865,6.6037811788841,96.12045481101059,28.298822862089953,110.77548696705868,64.45419022561016,-44.68923284315262,-56.062499420529946,90.0,6.000000000000009,0.0,0.0,-7.623991641785595,42.81808414281445,13.806951548431426,253
-104.11618360543865,4.0445381515676875,96.12045481101059,28.298822862089594,110.21369887487067,66.19918941049951,-43.49627545369477,-50.99159760548628,90.0,6.000000000000009,0.0,0.0,-6.652764835407807,38.15230684185244,12.538945496191934,254
-104.11618360543865,2.148388459433369,96.12045481101059,28.29882286208972,109.44235123634057,67.88476463318982,-42.008442047789444,-45.52334346359244,90.0,6.000000000000009,0.0,0.0,-5.7483745267820225,33.703015838364955,11.196868645868596,255
-92.65274009816734,2.259998347661882,78.36228881083774,28.298822862089594,108.43426782077249,69.3442659684611,-40.9880389752075,-40.06414953594,90.0,6.000000000000009,0.0,0.0,-5.598281771988232,29.16705748148876,10.319099858227307,256
-91.8751971313936,5.877522025304533,74.64169026411092,28.298822862089953,106.91959233892452,71.20627383778313,-41.46004967573391,-31.055444406988055,90.0,6.000000000000009,0.0,0.0,-4.877062626294587,25.053928848745397,9.318176870829353,257
-101.00686878635202,13.126700087845828,81.4881507802595,28.29882286208985,105.54492087328197,72.88845189563952,-38.0383814532176,-28.29882286208985,90.0,6.000000000000009,0.0,0.0,-5.019150855710518,21.027162098957174,9.106958946243898,258
-99.60396747802118,21.052868230321426,74.43034741039249,28.298822862089747,105.1472087627605,75.90150261523952,-36.653236268817615,-28.298822862089875,90.0,6.000000000000009,0.0,0.0,-4.478434792103675,16.974417932092436,8.713832686922618,259
-103.38089568960037,31.104068092283796,72.3670087530898,28.298822862089594,105.27156703840708,78.3913199860721,-34.54549894299136,-28.298822862089594,90.0,6.000000000000009,0.0,0.0,-5.4607177656778045,13.024232973716735,8.147339955108295,260
-100.30895332296024,40.3626403782457,63.51883955154852,28.298822862089697,105.18888033200977,81.05003992853874,-30.922030941029185,-28.298822862089672,88.46645396019794,6.000000000000009,0.0,0.0,-5.013891184490222,9.182255911803376,7.856288823854753,261
-97.4296745308751,49.985613312186175,51.42315974135631,28.298822862089697,103.6870523112386,83.02902316694701,-27.236550916369843,-28.298822862089978,79.87358604561119,4.011580042174835,0.0,0.0,-4.5030383371174505,6.087279857976031,7.810956523719891,262
-94.30728561058473,60.53382017190149,42.24139991132006,28.29882286208962,102.15120089840316,84.55757259673663,-20.996613583143283,-28.298822862089647,64.64253169393145,2.3207176492930315,0.0,0.0,-3.6681332892245515,3.356649282022838,7.781957851891524,263
-96.75771331392657,68.95319475315499,35.820864979909274,28.29882286208972,101.79094216268994,85.94609051246528,-18.645128809017727,-28.298822862089747,23.946178611584802,1.2803553051760037,0.0,0.0,-3.9201027998064846,1.12508384159037,7.116459224545566,264
-97.61769436135275,76.02362790072654,31.690656879172042,28.29882286208962,100.63560835113017,86.83865069602582,-15.63517646793079,-28.298822862089672,-23.85450836844289,1.459302250156986,0.0,0.0,-3.740606760684867,-0.3874216123992466,6.777915530849726,265
-100.04740897152843,81.04289835072659,27.844186265785964,28.298822862089672,100.99283850759383,87.90245455137598,-16.050856120704207,-28.29882286208957,-40.23601690979463,2.0788783069401053,0.0,0.0,-4.28019594852402,-1.3942611707072334,6.925963468682739,266
-102.2783501489748,85.23781462309657,27.760905975676312,28.298822862089825,102.35558045716893,88.44395584837834,-15.810028293785233,-28.298822862089672,-48.17190129003175,2.725262657862802,0.0,0.0,-3.9605326477744116,-2.391892640609924,6.93291760926971,267
-103.04950447666172,87.27256598886693,25.90658813876835,28.29882286208972,101.88512314435779,88.24684628123524,-15.024264561350826,-28.298822862089647,-51.92721330649466,3.221365973469477,0.0,0.0,-3.059600439763957,-3.3387215618784207,7.046967579490332,268
-104.0169127661967,87.36947584592856,26.31107241149465,28.29882286208962,101.84542478535946,87.05231260941454,-15.351487189372605,-28.298822862089672,-54.42793809918075,3.8305541789773367,0.0,0.0,-2.775436180718429,-4.767807758358318,7.275952892685447,269
-104.45992512740352,86.10568176731913,29.24447563853958,28.298822862089697,100.40002910268058,84.33786370701417,-16.246194245329843,-28.298822862089594,-58.83120959123695,4.548073983827963,0.0,0.0,-2.712458881538269,-6.6857327884572255,7.465443853865185,270
-104.2319047530372,84.01747179255064,31.987821139805536,28.298822862089672,98.76510653660084,80.11243050535757,-22.694478880987244,-28.2988228620898,-63.96885340456784,5.436717240843369,0.0,0.0,-2.942903723544739,-8.899080989575578,7.6135458787338575,271
-103.84644502969181,81.22526614487823,34.8752102135768,28.298822862089647,96.4729714196508,72.06545355597898,-32.071885284010364,-28.298822862089594,-69.21775871084817,6.000000000000009,0.0,0.0,-3.1753800768359493,-12.062513404046955,8.049160290522495,272
-103.6444008739974,78.54813338414151,38.60762243897927,28.29882286208985,96.1818991208381,62.08328610673786,-41.49703487061193,-28.298822862089697,-74.53886597848204,6.000000000000009,0.0,0.0,-2.6358940188208555,-16.598965304988237,8.57732234314508,273
-103.61260206900725,76.25940251237623,39.9909294195951,28.298822862089697,95.43145622172031,51.72398388248117,-49.892395084809316,-28.298822862089953,-79.06536561456366,6.000000000000009,0.0,0.0,-1.9626073391149979,-21.701824466466523,8.941006308878638,274
-104.29641118383746,74.48694158385538,42.805255615587704,28.298822862089647,100.39620451040882,44.19599363871831,-61.32881445861799,-28.29882286208985,-82.9100391508413,6.000000000000009,0.0,0.0,0.10030566786234121,-26.13442510104553,9.25644761665152,275
-103.79979429176481,72.09940993181797,42.63529665797243,28.29882286208962,101.1691011404679,33.9077284372018,-68.03403099715783,-28.29882286208962,-86.38133279667551,6.000000000000009,0.0,0.0,2.2432963869923297,-30.665981381672147,10.220572713255619,276
-104.86057777817278,70.65914693415986,47.99602154840628,28.298822862089697,103.63675396886421,26.464779669069777,-78.57802908306357,-28.298822862089697,-88.85406300751683,6.000000000000009,0.0,0.0,4.366902670506724,-35.20966184302048,11.279309973559139,277
-106.71212864215045,70.43968605444934,50.961963659764635,33.24356344608563,109.49764396259211,17.471801584474253,-92.21287056869276,-28.298822862089697,-90.0,6.000000000000009,0.0,0.0,6.540918562451495,-39.51264542534905,12.003204219443504,278
-109.08717561142716,70.14607024809807,53.85622723075502,39.38998424787394,123.25900110323222,11.458295186801026,-105.00000000000001,-28.298822862089697,-90.0,6.000000000000009,0.0,0.0,8.293367429427475,-43.810329367984856,13.02439287260878,279
-110.7169083238999,69.6956279384347,56.387660422556195,44.104526925871646,144.35982518465835,7.595203385246034,-105.00000000000001,-28.298822862089594,-90.0,6.000000000000009,0.0,0.0,10.202235575523288,-47.839828407311025,14.881348096274197,280
-112.29758859743693,69.32697736944316,58.37022658371281,48.512205802303676,144.35982518465835,6.733632109485276,-105.00000000000001,-28.298822862089825,-90.0,6.000000000000009,0.0,0.0,11.514088220909628,-51.50094536872272,16.15230073795779,281
-113.19914356531925,68.89267952112276,59.08014808042637,52.4972887807526,144.35982518465835,7.945213856495022,-105.00000000000001,-28.29882286208962,-90.0,6.000000000000009,0.0,0.0,11.924632311196937,-54.897101553058924,16.9280581219546,282
-114.14707453060218,67.78512805580019,58.92579833138848,56.23746273742015,144.35982518465835,10.978389238866242,-105.00000000000001,-28.298822862089697,-90.0,6.000000000000009,0.0,0.0,12.246560078484906,-57.600787823255196,18.08894813171362,283
-114.42188704515878,66.57409975953261,58.90239964235016,59.77621253990092,144.35982518465835,14.371060746481568,-105.00000000000001,-28.29882286208972,-90.0,6.000000000000009,0.0,0.0,12.270093006941789,-59.79104440429023,19.31187929023968,284
-114.5608791084045,65.34164214017233,58.64564164176938,62.56530412584934,144.35982518465835,18.596090897675808,-105.00000000000001,-28.29882286208985,-90.0,6.000000000000009,0.0,0.0,11.48169931686767,-61.101893578922066,19.59923329731583,285
-115.39811234289475,63.56079289609191,56.10303449225654,64.68466488518456,144.35982518465835,22.272800053437507,-105.00000000000001,-28.29882286208962,-90.0,6.000000000000009,0.0,0.0,10.035474190630136,-61.85596011574786,19.494885897619234,286
-114.16948517618788,62.39132298360997,54.55903268654721,66.39105030271386,144.35982518465835,25.0534907200586,-105.00000000000001,-28.298822862089594,-90.0,6.000000000000009,0.0,0.0,8.873292890295648,-62.21780121396956,19.728289619677515,287
-114.16705783987165,60.759543026821326,51.849890816449104,67.53050305382557,144.35982518465835,27.209818773448742,-105.00000000000001,-28.298822862089647,-90.0,6.000000000000009,0.0,0.0,8.137105394917267,-62.308607501486996,19.95140604397363,288
-113.30381885279124,60.45032360334495,51.145718987032716,67.88710720430798,144.35982518465835,27.854403604947457,-105.00000000000001,-28.298822862089825,-90.0,6.000000000000009,0.0,0.0,7.919621191797567,-62.02889221470119,20.053808873752,289
-114.37506324084944,59.83641485904432,49.638290330502755,67.56616545929032,144.35982518465835,27.116237956730057,-105.00000000000001,-28.29882286208962,-90.0,6.000000000000009,0.0,0.0,7.549619253319332,-61.27702087074122,19.545835366606354,290
-114.40558207098356,60.15432578784268,49.64966215625801,66.93016707812005,144.35982518465835,26.368135379554744,-105.00000000000001,-28.298822862089647,-90.0,6.000000000000009,0.0,0.0,6.804168780670202,-60.00401241841494,18.43198884573432,291
-114.7646259948924,60.27126271919081,49.04114650375351,65.80175961365947,144.35982518465835,24.47426773024134,-105.00000000000001,-28.29882286208962,-90.0,6.000000000000009,0.0,0.0,6.831446395503908,-58.2926276785222,17.932933983842428,292
-113.961104666165,61.58983565439396,50.98854522127649,63.89902062157839,144.35982518465835,21.214114352224154,-105.00000000000001,-28.29882286208972,-90.0,6.000000000000009,0.0,0.0,6.463109236268149,-55.7235936463864,17.177031616935313,293
-113.74873307851428,62.484374487595446,50.978434269948536,61.17721353704547,144.35982518465835,17.4012948708166,-105.00000000000001,-28.29882286208962,-90.0,6.000000000000009,0.0,0.0,6.271163472458584,-51.95461852628406,16.13366460902864,294
-113.43465681576488,63.632084490101605,50.0857828122012,57.05472926567032,144.35982518465835,14.017064123904346,-105.00000000000001,-28.298822862089953,-90.0,6.000000000000009,0.0,0.0,5.204125486867232,-47.39957170765053,15.116405568606522,295
-112.15887287996509,65.73721614017892,48.64311844802457,51.08998589883447,144.35982518465835,11.116541537393244,-105.00000000000001,-28.29882286208952,-90.0,6.000000000000009,0.0,0.0,4.979383814837396,-42.480688605312174,13.62281017398177,296
-110.28715442237699,67.4125512100981,46.99889715944634,45.61288920928244,144.35982518465835,9.01067837689556,-105.00000000000001,-28.298822862089697,-90.0,6.000000000000009,0.0,0.0,4.922804430693507,-37.66722099883276,12.332749669722428,297
-108.13988620107216,69.0142590102764,44.34478208750687,39.15319929014817,144.35982518465835,6.143383820299115,-105.00000000000001,-28.29882286208962,-90.0,6.000000000000009,0.0,0.0,3.787640293116815,-33.30298695366051,10.933921596003318,298
-106.80399959235102,69.79562250250406,43.01253896783272,33.059722989572975,144.35982518465835,2.839849776463715,-105.00000000000001,-28.2988228620899,-90.0,6.000000000000009,0.0,0.0,3.409383788883786,-29.168934033004234,10.049689973880426,299
-106.70153604957157,72.41541789687952,43.965815336602205,28.29882286208972,64.39896752186422,3.368320423127018,-42.364978535208294,-28.29882286208972,-90.0,6.000000000000009,0.0,0.0,2.6217487254133354,-25.068273605218778,8.703457412214007,300
-106.47207457363135,75.6058309524838,44.63071944344789,28.298822862089672,92.56859093645429,11.687257981027617,-66.11389063513452,-28.298822862089875,-90.0,6.000000000000009,0.0,0.0,1.7772792294596877,-20.77272595440232,8.371322274091703,301
-106.44809362139067,78.19694254888302,41.20083283433294,28.29882286208957,93.84037303701116,21.73805205636862,-62.383063544891264,-28.298822862089697,-90.0,6.000000000000009,0.0,0.0,1.6408709728232884,-16.731501551323692,8.152873384583348,302
-107.1457508568748,80.8549549325391,40.59381611201117,28.298822862089594,98.46069806548557,33.67924478729301,-60.0749364309269,-28.29882286208985,-90.0,6.000000000000009,0.0,0.0,1.74417748400836,-12.722424180797068,7.168545821436142,303
-106.89868802029807,83.24422035835651,39.183379131175876,28.298822862089647,97.67512100670481,42.504387798880856,-53.21327718189086,-28.29882286208985,-87.62807719321813,6.000000000000009,0.0,0.0,1.2517043185773016,-8.71750254549542,7.0150661667608105,304
-105.76779252652783,84.55651892763386,32.940220775789996,28.298822862089697,97.07681759497224,50.89279133680243,-43.927595192657236,-28.298822862089825,-83.62213043452516,6.000000000000009,0.0,0.0,0.6749739385763216,-4.5646942746337285,6.858955280928671,305
-103.9780501977837,85.9769225914689,27.918340966673334,28.298822862089697,98.68778613444573,59.73951765414132,-39.4699981532976,-28.298822862089924,-77.09246322401316,5.108462377980668,0.0,0.0,1.5252461484015645,-0.6655959425393865,6.371737737738903,306
-103.57059798943888,87.18767743027625,22.249691336133782,28.298822862089825,100.235918792397,67.01946384257472,-33.60592360437173,-28.2988228620898,-64.64521534785501,3.501606231440441,0.0,0.0,1.1113368522927265,2.4505857694506767,6.434975023551839,307
-103.03432029611382,88.63905202227203,19.870294319197367,28.298822862089697,99.58982584327019,73.856668283616,-28.17687757987313,-28.2988228620898,-47.76415613853369,2.461152558984521,0.0,0.0,1.6166679665322763,4.467256245048956,6.341100463523466,308
-102.71838449657314,89.13317394208009,15.614763345999517,28.29882286208962,99.80288168000642,78.72134836573848,-20.87514066849157,-28.298822862089697,-28.370584387655963,2.0896581576002435,0.0,0.0,2.4643333795845024,5.550806965579066,6.426946504720027,309
-103.50076573646157,90.62023962457587,18.39763080893362,28.298822862089697,102.54084857153175,83.17648494825444,-21.86254878996616,-28.298822862089697,-9.028137486914053,2.14313978122503,0.0,0.0,3.0498115035511977,5.895412223779416,6.64599640321837,310
-103.51725513885926,90.04138038440205,16.13207616013035,28.29882286208962,102.16047639984707,83.9797392231765,-21.5691293641114,-28.2988228620898,-7.9043274707426034,2.3020322828712345,0.0,0.0,3.1331074573748867,5.643597240178141,6.7570583568943485,311
-103.13987518764048,89.32990858454619,17.90674247999463,28.298822862089697,99.0424675851466,81.55126387314688,-20.274419845614204,-28.298822862089594,-22.915351983285795,2.60476897615423,0.0,0.0,2.2862938920595437,4.38662780240334,7.042289652356459,312
-103.77312221590668,87.48195499802742,18.52838704135258,28.298822862089594,100.30674197610361,77.57174685799818,-25.07741213689694,-28.298822862089647,-35.611742000491475,3.2136222059372264,0.0,0.0,1.9256974492933627,2.2361805156467636,7.412919506497697,313
-103.38945538158089,85.91973220565478,22.99650154155297,28.29882286208962,96.79075036420221,69.56899070485694,-34.668291140872995,-28.29882286208985,-52.97221978220471,4.3424972119306995,0.0,0.0,1.0941788854045829,-0.6817294603974531,7.549591352508992,314
-103.71999612477819,83.70282297779315,23.1124009696117,28.298822862089697,92.02246600637649,58.434338701277376,-40.07161197245496,-28.298822862089697,-65.0547389740536,6.000000000000009,0.0,0.0,0.6267701282019896,-4.5451842188782035,7.922205919558339,315
-104.39948263168232,82.6102317672916,25.702946093915138,28.29882286208972,92.09529514327897,49.59580073170472,-46.91376201096075,-28.298822862089697,-72.4625032873638,6.000000000000009,0.0,0.0,0.2838962556064918,-8.973766250400523,8.124666564875652,316
-104.6608520327607,81.41393032817639,29.188109940506706,28.298822862089647,92.74725089514172,40.86100954830447,-53.77294934130949,-28.298822862089672,-77.663828119069,6.000000000000009,0.0,0.0,0.7598466597895097,-13.948825614110309,8.730536874545109,317
-104.81601590728853,79.61677411444995,30.951771809493646,28.29882286208962,93.17605021269164,32.901616896023896,-60.26700260291899,-28.298822862089825,-81.27135525090951,6.000000000000009,0.0,0.0,1.8844468125379152,-19.063886597142712,9.698867623092754,318
-104.59829441861366,77.7281380806375,32.7418289774602,28.29882286208972,91.4622459911698,23.682290645587972,-64.243335701681,-28.298822862089594,-84.40670535419238,6.000000000000009,0.0,0.0,3.240923228332237,-24.00620000494306,10.484241352358245,319
-103.65347111415345,75.71232469363363,35.15273543576085,28.298822862089697,96.19593535654991,16.828815693923158,-71.6994820805731,-28.29882286208985,-88.02664049332934,6.000000000000009,0.0,0.0,5.8066282043011945,-29.119202031382503,11.250808524675675,320
-103.84772630443564,73.65974265462425,37.51417522889137,28.298822862089825,102.47693820433318,9.418665900547762,-83.43582025554538,-28.298822862089594,-90.0,6.000000000000009,0.0,0.0,7.981979144690609,-33.56993839160532,12.115149113698406,321
-104.55151747797093,71.46063416713545,41.93301491164025,28.29882286208972,126.38045656739955,4.74650090908068,-105.00000000000001,-28.298822862089747,-90.0,6.000000000000009,0.0,0.0,9.408722129644838,-38.239967498349415,13.066404518171803,322
-106.73185726599039,70.29233363402184,43.638354622311034,32.99321264213767,126.38045656739955,2.7048188521416936,-105.00000000000001,-28.29882286208972,-90.0,6.000000000000009,0.0,0.0,10.057045629392261,-42.791529908385655,14.142864233112762,323
-109.40959881536718,69.85593938125729,48.146060502043,39.12789397816654,126.38045656739955,5.281726986489829,-105.00000000000001,-28.298822862089697,-90.0,6.000000000000009,0.0,0.0,10.676255850272108,-46.692652904553185,15.777040010540752,324
-111.16118955141906,69.0891295434246,49.927832695152794,44.16228354219343,126.38045656739955,7.410058243440925,-105.00000000000001,-28.29882286208972,-90.0,6.000000000000009,0.0,0.0,11.789148928118268,-49.89857649138035,17.07305583026973,325
-112.14997708053556,68.49003970115602,52.39517410885975,48.65916490920619,126.38045656739955,10.553944631189426,-105.00000000000001,-28.298822862089825,-90.0,6.000000000000009,0.0,0.0,12.449677103821303,-53.047281505098795,18.208954529850818,326
-112.94162675172926,67.24297244659591,53.11746031076237,53.256137030287135,126.38045656739955,13.469847913371497,-105.00000000000001,-28.298822862089747,-90.0,6.000000000000009,0.0,0.0,13.180279485749328,-55.87223886573246,19.77111694461678,327
-113.55955478350037,65.12476824693678,51.36845088332791,57.332320356703235,126.38045656739955,17.05065397577328,-105.00000000000001,-28.298822862089594,-90.0,6.000000000000009,0.0,0.0,13.929937791828912,-58.12062500809334,21.408053559280418,328
-113.39104274038655,63.52766271854174,51.06586521354523,60.422854317647946,126.38045656739955,19.537469725300532,-105.00000000000001,-28.29882286208972,-90.0,6.000000000000009,0.0,0.0,13.741962451742078,-59.72518431985497,22.541475804431744,329
-113.1407667497748,62.327959760727445,50.94203470172078,62.89371997245798,126.38045656739955,22.50552078716471,-105.00000000000001,-28.298822862089697,-90.0,6.000000000000009,0.0,0.0,13.649920122634306,-60.80112883938608,22.99662577303586,330
-113.5880276297617,60.66540578390115,48.787967260055986,64.52420798105575,126.38045656739955,24.289485110858603,-105.00000000000001,-28.29882286208962,-90.0,6.000000000000009,0.0,0.0,13.180833587968667,-61.24884451180338,23.05183753043729,331
-112.60454089337546,59.66310462498858,47.80852473119135,65.7945742188159,126.38045656739955,26.172035518628096,-105.00000000000001,-28.298822862089697,-90.0,6.000000000000009,0.0,0.0,12.549637731498185,-61.49793117838225,23.31249708036936,332
-111.93657446937968,59.0416568255992,47.1857410282436,66.58449833347989,126.38045656739955,27.371968733573283,-105.00000000000001,-28.298822862089647,-90.0,6.000000000000009,0.0,0.0,11.971745297372065,-61.45802032013275,23.152298629047344,333
-111.65257216853203,58.865781316599474,46.96119812990025,66.84583670424018,126.38045656739955,27.32750230011508,-105.00000000000001,-28.298822862089697,-90.0,6.000000000000009,0.0,0.0,11.406614378646152,-61.055546615065985,22.494765875692362,334
-112.26154207068979,58.19879108565159,44.866958154010945,66.47295946400018,126.38045656739955,27.294872754061792,-105.00000000000001,-28.2988228620898,-90.0,6.000000000000009,0.0,0.0,10.466986017788207,-60.1587249612544,21.460755532602935,335
-112.6343419194599,58.51201901702827,44.88405600712568,65.6555530289385,126.38045656739955,26.0988297095987,-105.00000000000001,-28.29882286208972,-90.0,6.000000000000009,0.0,0.0,9.218135374351812,-58.83018874414144,20.297987973030796,336
-112.80875766440178,58.84444767905535,44.97644982743914,64.61300334380452,126.38045656739955,24.26252338616844,-105.00000000000001,-28.298822862089647,-90.0,6.000000000000009,0.0,0.0,8.253425607529431,-57.214473190985395,19.126881760737092,337
-113.16131738099473,60.1524676248629,45.524859933337126,62.30450322221636,126.38045656739955,21.244613392156182,-105.00000000000001,-28.29882286208985,-90.0,6.000000000000009,0.0,0.0,6.787348211301557,-54.20950353621033,17.106299754048756,338
-112.74480541726406,62.17829633355406,47.147087777481275,58.71308188516135,126.38045656739955,16.944137158687784,-105.00000000000001,-28.298822862089978,-90.0,6.000000000000009,0.0,0.0,5.486788487515661,-49.91582265344671,15.501069789058448,339
-113.2241470072087,63.9471297990927,46.257678156336276,52.78697365181869,126.38045656739955,12.679518107535575,-105.00000000000001,-28.29882286208952,-90.0,6.000000000000009,0.0,0.0,3.8023377929609286,-45.00800033781292,13.672092480964794,340
-111.60574695156468,66.0720671370378,46.485857533903086,47.145834594022055,126.38045656739955,10.296488152061507,-105.00000000000001,-28.298822862089594,-90.0,6.000000000000009,0.0,0.0,2.8435888179971545,-40.41592806777811,12.172264397462088,341
-109.76527669810984,67.54089719311044,44.006763187836114,40.751074145481,126.38045656739955,7.924279189317901,-105.00000000000001,-28.298822862089825,-90.0,6.000000000000009,0.0,0.0,1.8417196213594633,-35.50279823879508,10.675686203115044,342
-108.62555529068075,68.33823536160264,42.63985442317102,34.50841410323898,126.38045656739955,4.820114795284694,-105.00000000000001,-28.298822862089697,-90.0,6.000000000000009,0.0,0.0,1.4805807430178397,-31.2234759148552,9.700300392833029,343
-107.45106488589764,70.6303304214797,43.163097799546634,28.29882286208962,39.342605811323054,5.692639826566677,-16.675333297825436,-28.29882286208972,-90.0,6.000000000000009,0.0,0.0,0.8810322830045907,-26.80049094609822,8.86704865705895,344
-108.4974819372917,73.24069072896853,42.95082902397629,28.298822862089672,83.65035697806272,11.978377327793144,-56.854963795126594,-28.2988228620898,-90.0,6.000000000000009,0.0,0.0,1.181136415741031,-22.519404808168623,8.236434176965954,345
-108.35851746038675,75.86236534516618,38.89513479110404,28.29882286208962,88.19540694211298,21.952009379711246,-55.44044854688976,-28.298822862089953,-90.0,6.000000000000009,0.0,0.0,0.5742656460995669,-18.417067612185942,7.605094891045422,346
-108.31487192764484,78.61213049538479,38.25184530873772,28.29882286208962,95.46077338034559,34.046376769111724,-55.228182882831156,-28.298822862089697,-90.0,6.000000000000009,0.0,0.0,0.9452979191263059,-14.517921129036285,7.2488809986963645,347
-108.23441215542071,81.16615405108745,37.45139050011458,28.29882286208972,99.20720803089387,45.564059589435466,-54.10584038587462,-28.298822862089697,-86.59317200807085,6.000000000000009,0.0,0.0,1.15378087103845,-10.449181931718156,6.928177389844423,348
-106.53663128923164,82.70138443823588,33.5329233078962,28.298822862089697,99.04191426322441,53.85794363983798,-44.76438297212472,-28.29882286208962,-82.10970525045974,6.000000000000009,0.0,0.0,0.670145366918098,-6.398610093059731,6.595320560047096,349
-105.74642564958195,83.95743302051608,28.283123364427908,28.298822862089825,100.0064790344084,62.05186334313343,-38.12562855908702,-28.29882286208962,-75.58353690272723,5.957236839404687,0.0,0.0,0.899838642883549,-2.9785108639389324,6.630268326494076,350
-104.30773237482997,85.28458433802538,23.2851751590338,28.298822862089697,100.48826581394424,68.61931737604891,-32.94989693500237,-28.298822862089594,-66.69645754519392,4.290934422491619,0.0,0.0,1.6375907452767706,0.00569087606236819,6.205885341120529,351
-103.15170016076995,86.04675790706999,18.19025556787878,28.29882286208972,100.22187027253374,73.77719328871397,-28.33041561798799,-28.29882286208962,-54.35507619965868,3.306190117528692,0.0,0.0,1.900912501568539,1.973269270105176,6.027324261145509,352
-103.72138941390101,87.1808674791894,16.44905217976962,28.29882286208972,101.68550620153239,78.54568061416487,-26.250634504920903,-28.298822862089672,-40.23293138619242,2.7045867200747313,0.0,0.0,2.849887778023558,3.3873817316625527,5.844712508852388,353
-104.7910612817161,88.97750466522209,18.918985689837733,28.298822862089672,104.3634600095317,82.26314857414758,-24.53339041404944,-28.298822862089672,-24.17914085045537,2.5659499000519435,0.0,0.0,3.119198253547019,4.32087558538026,6.153039959521777,354
-104.91169437158557,89.17147323514288,18.493821600321567,28.2988228620898,104.68833907086818,84.29978954668061,-22.210353110212314,-28.29882286208957,-14.506402169638507,2.574111967981781,0.0,0.0,2.657543720927416,5.063431331949627,6.374027918260161,355
-103.17264174749329,87.95350241209158,16.100180375256972,28.298822862089697,103.57579793315853,84.85332929111945,-22.267407872633232,-28.298822862089672,-6.019870667269967,2.5738717015616692,0.0,0.0,2.427474972718848,6.115688388748206,6.460990182097698,356
-100.79022370652267,88.00465110896211,11.313363098594293,28.298822862089672,99.12084455995515,85.97700734957445,-10.967958713983048,-28.298822862089647,-20.699278591903443,2.622921601399088,0.0,0.0,0.7989101382243534,4.047486733610622,6.026894081679509,357
-100.65071194768004,89.42140661332996,10.379210443472802,28.29882286208972,99.33293523670666,88.11837744096017,-8.45378112829566,-28.298822862089594,-25.549372393688294,3.0030243952727607,0.0,0.0,0.4825219243443936,2.3562883983444083,6.1467830943488915,358
-98.89575803078428,89.0444134435551,7.713038127638872,28.298822862089697,98.02645089453382,88.1828981128802,-5.4861275292011635,-28.298822862089697,-29.890986185441506,3.263761152709511,0.0,0.0,0.47144381053637396,0.8649157008998193,6.160260940697426,359
-99.16464886761221,87.67223443528111,11.181680202247929,28.298822862089747,99.11993461056791,86.91396071147021,-10.25109296826213,-28.298822862089875,-30.22908422627641,3.4459364154436716,0.0,0.0,1.130271235327367,0.2774629208833225,5.777890153274263,360
-100.71581149363284,84.45958528720536,20.194016024682472,28.298822862089825,102.20797086684473,83.77449254929593,-18.695574376205613,-28.2988228620898,-29.422049245416115,3.639264762557723,0.0,0.0,1.567002553699642,0.09137326031069493,5.603976496044045,361
-101.27641773178446,77.93234839967202,30.8756657342799,28.2988228620898,104.23786049564346,77.50639000976776,-27.928859256504925,-28.2988228620898,-25.904097970210657,3.6262083128124347,0.0,0.0,2.602913186774443,0.6724911705535161,5.807250032400144,362
-101.36278919919096,71.7931532814315,38.709743860248196,28.298822862089594,105.53640985091229,72.2923604155501,-37.19937538735545,-28.29882286208972,-21.19555851131462,3.4501377196225533,0.0,0.0,3.543367164958974,1.58375692404759,6.151044137229872,363
-102.34484498242189,66.66833736214262,43.91500953536557,28.298822862089825,107.96586424837749,68.48533153053296,-44.46120924811523,-28.298822862089697,-16.476120770210162,3.3085910592885153,0.0,0.0,4.3031323502964,2.4856608382149705,6.413860357986598,364
-102.5107771576247,62.02923964945443,48.18155841762821,28.298822862089697,109.29582763306212,65.84484867304624,-51.00096834732674,-28.298822862089647,-11.740221861668562,3.087968131444149,0.0,0.0,4.896742970871383,3.2666544591613373,6.452010013338981,365
-104.33272103766913,58.61993361939835,53.412269530587636,28.298822862089672,112.1741135915935,64.30906186088104,-55.76425546481349,-28.298822862089672,-9.41850592203516,3.040119239337301,0.0,0.0,5.5191389066042005,4.002432806920899,6.7698064310250885,366
-107.58708338593567,56.05666901848921,60.26526624517835,28.298822862089697,115.62081115389728,64.27373529207661,-62.75145809698491,-28.298822862089647,-6.772122345003091,3.0647639562341893,0.0,0.0,6.671728665824982,4.652383336677284,7.402077892541393,367
-114.31414310216985,55.042398410868024,70.23457604982441,28.298822862089697,122.14599625986773,65.20298614480589,-70.78705257772657,-28.298822862089875,-4.8860605949887,3.385605179672479,0.0,0.0,8.336305688503385,5.449383855746526,8.110811792559424,368
-120.59378388448205,55.44854068502587,80.42042123117136,28.298822862089594,128.36798841840974,67.98729123777953,-82.28749695111318,-28.298822862089594,-1.4540825179361494,3.9060988201377813,0.0,0.0,9.914333468978388,6.445551755731391,9.339987232943752,369
-127.42611496723703,59.98488972191299,90.0380281214155,28.298822862089697,133.37915211352026,72.43983361498411,-92.8686940651409,-28.298822862089647,-0.3371219902515728,4.652252877725121,0.0,0.0,10.183677197237175,7.280446081686606,10.988778220309827,370
-129.81712958716312,63.41429476839469,97.69806430017053,28.29882286208962,136.0839000687785,76.79638395923813,-103.41093612060396,-28.29882286208972,3.81777567147201,5.416289194679107,0.0,0.0,10.907098731960142,8.456236146678949,12.659615351616713,371
-130.86952110864755,68.32033897208228,100.59750964860976,28.298822862089647,136.47133577977505,82.69320619698168,-105.00000000000001,-28.298822862089747,8.985686109222046,6.000000000000009,0.0,0.0,11.319435970913666,9.860617298112953,13.487809285204932,372
-128.39706138816982,71.61708212179406,96.23531651932333,28.298822862089697,132.46490988326542,88.90570697616249,-102.98242133198465,-28.29882286208972,19.087800917677413,6.000000000000009,0.0,0.0,10.970107666365283,11.560860364776019,13.422594707082299,373
-125.6142204884787,74.63400844498307,92.06630782869597,28.298822862089672,130.2771864135953,93.48586639533015,-98.33395907189322,-28.2988228620898,24.066799452545368,6.000000000000009,0.0,0.0,11.065124907416786,12.80985691740004,13.386602958159813,374
-122.54635994597051,78.02569007970459,81.4884327688377,28.29882286208972,127.68959519093302,95.26291883144897,-90.00921416525021,-28.29882286208962,21.979725223205183,6.000000000000009,0.0,0.0,10.950192164088914,12.880297753530773,13.779596767352595,375
-117.79123080485128,81.03906224872773,70.86053566323473,28.29882286208972,124.6673444617963,95.11401757789017,-80.42681260924397,-28.29882286208985,16.253151756234402,6.000000000000009,0.0,0.0,11.412456393817827,12.00147829617718,13.647363251737312,376
-112.77729583140655,83.69808174466831,59.65462286638107,28.298822862089875,121.5733593863834,94.31769612680075,-70.14660023376575,-28.29882286208972,7.5663425328563925,5.811280309978811,0.0,0.0,12.49865160222375,10.567207409667889,14.409428329882141,377
-104.23688969021343,85.15656957297416,46.50529213490762,28.298822862089697,115.01035427844107,92.20577897502267,-61.438088201745856,-28.298822862089647,0.23782451023184048,5.530711783218332,0.0,0.0,14.110745975510987,9.091242312463056,15.636529416775748,378
-89.7635255408889,87.05401505419788,28.64370665773621,28.29882286208985,103.97903594208866,88.02598436017325,-48.037455679997095,-28.298822862089825,-1.0864807263636875,5.107177014893846,0.0,0.0,15.67149042508399,8.716634886746778,17.552628252469365,379
-72.18771093075526,90.58245741097538,11.477690497889983,28.298822862089594,86.2754825549803,82.97200100482938,-31.93712697222985,-28.298822862089672,-0.17686839683309669,4.311853650577458,0.0,0.0,17.78601515356637,8.883289692882295,19.61683623416883,380
-60.506006724144655,95.12847368580258,-3.7273778975203764,28.298822862089697,71.66582667572773,78.38703502588693,-16.842962540167168,-28.298822862089875,-2.5053287391202437,3.431274099643918,0.0,0.0,18.96863940640342,8.96326333233942,19.073605539762866,381
-49.393228128381914,99.24987824635076,-14.739752071047215,28.29882286208962,58.71738562873085,74.43859772811479,-8.860620130101854,-28.298822862089647,-6.02351109653833,2.546605584781801,0.0,0.0,19.399276143613776,9.008151567191895,16.76860528682128,382
-35.88227499911883,99.71309680521364,-19.47803865483523,28.298822862089747,43.61206263453511,70.01411296498675,1.0480706544211482,-28.298822862089697,-9.164325578017333,1.9323767345081255,0.0,0.0,20.286980532532816,8.579328406692454,14.989027454953186,383
-22.65540918124188,100.77236220207185,-25.096571275271735,28.298822862089697,27.373557113426592,68.06664905655539,11.361661327987154,-28.298822862089697,-19.69399126306289,1.2186174407026464,0.0,0.0,20.87470272905722,7.8267239787550595,12.970027955077278,384
-11.863259767576656,101.69940077444893,-27.16961198084897,28.298822862089697,13.15438222843644,66.28872213808293,18.872086145365497,-28.298822862089697,-42.93646881075723,0.6590826980321053,0.0,0.0,21.75244747717745,6.9835492941587,11.374786657417953,385
-3.080672863134067,97.67096697115254,-30.152871257959053,28.29882286208962,4.4843452873405525,58.73281929875763,25.699242255036093,-34.988231474781465,-90.0,0.5679825934294959,0.0,0.0,21.945968000018492,6.432602736122552,9.485222299609227,386
3.528627022902182,96.85264592525203,-32.71631395309087,28.29882286208972,-4.933339609643068,57.99547848504623,32.71243651006867,-36.0533734883172,-90.0,0.9252061057476864,0.0,0.0,21.954228201762643,6.071875662037534,7.965779718696369,387
9.290747616501275,95.91349985314966,-37.540759777856074,28.298822862089825,-12.218855108819783,55.71332518133476,36.91943126749949,-38.133284484367,-90.0,1.5772249927919957,0.0,0.0,21.9606061527605,5.584406210401911,5.688171876774371,388
12.236571595387069,94.37930445302796,-36.16539653356166,28.2988228620899,-16.71978800210136,55.33493478262091,40.050105425475735,-39.00226452415036,-90.0,2.1870960485556803,0.0,0.0,20.83449599165236,4.905535377606142,3.6805992782571386,389
14.682561333217098,92.22528967303487,-39.883122086886075,28.29882286208957,-19.07185995428399,55.03518316081938,44.27153455452404,-42.25256771180999,-90.0,2.7320249923178412,0.0,0.0,19.28890807264568,4.378955499232684,1.7674767539030958,390
15.578710187316261,91.56945564222988,-39.34163580509454,28.298822862089697,-18.438316736035752,54.55138634206123,44.40745920494946,-46.947541412872184,-90.0,3.136480601531954,0.0,0.0,17.98967352246036,3.8728065001787257,0.13862912953283754,391
15.242483787547592,90.90543930211656,-41.31537692815009,28.29882286208985,-15.59508642235202,53.73613404120854,43.54499834968026,-52.87988067740426,-90.0,3.456592782938748,0.0,0.0,17.089427216831904,3.5477072997316057,-1.5397608777907255,392
9.993525437547568,88.91233229050181,-39.10491000214958,36.50278369559963,-8.903024559238714,52.2554741978718,38.34627770736395,-61.79445460650183,-90.0,3.754175938680452,0.0,0.0,16.453401714966056,3.100560653184903,-3.0442982125451077,393
1.886703453116604,85.3825787112881,-37.12474724666387,48.00782080192773,0.8770103228458214,50.503677729940684,31.661620555888856,-71.71315401323213,-90.0,3.8310348316899945,0.0,0.0,15.873609196193483,2.9056267750080282,-4.176510880411795,394
-7.106613997776854,83.18880571530043,-32.75207930068226,57.536379987688576,12.633025152554268,48.99348019984417,23.916506330927085,-80.08315642394507,-90.0,3.8383865602266116,0.0,0.0,15.320284238790236,2.8535613388450343,-4.967441728141028,395
-17.93812172728378,79.95786452669773,-27.902746444962666,69.53212014787064,27.14193032526837,48.996562438215015,14.117931579938498,-91.52931985009307,-90.0,3.631908353670343,0.0,0.0,14.902917156487867,2.9618959658855077,-4.825580226038697,396
-30.355490258984627,77.43605308126934,-25.140031677078117,85.30828797246005,44.94510731488391,52.33192020775252,3.6992317394373986,-106.00990540885866,-90.0,3.2538267375332173,0.0,0.0,14.677174746118103,2.9071315369629467,-4.370083101254287,397
-43.18902450331771,75.54536995629938,-18.507697327710357,95.33681373069062,62.59624745363281,55.90748852017669,-7.46679753675168,-114.20957942127238,-90.0,2.859598141407729,0.0,0.0,14.562308718873576,3.098522815498463,-3.574615073638223,398
-52.19672335614496,73.27693693736067,-15.964039368112555,102.65166602953916,75.56786192082065,60.11285233870959,-13.10382242421116,-120.96608013346022,-90.0,2.2435673323662297,0.0,0.0,14.593260952539994,3.530003809759727,-2.2681338955279764,399
-60.1177088249181,71.88640472064095,-10.496532386352394,108.75203475030501,87.38014312781121,62.418103441039776,-19.78537186375983,-126.43863181091427,-90.0,1.765289309829551,0.0,0.0,14.971744505333662,3.831283995417461,-1.050768618074972,400
-63.58299134625514,69.51567507933278,-6.646869548766039,111.50127412340036,92.42340914104774,64.69261228335836,-26.51816675903406,-128.73394260363344,-90.0,1.415726469498657,0.0,0.0,15.083141203160379,4.236316555877326,-0.13723969733589142,401
