JMW9912/AVATAR/Dynamixel/dynamixel_control/data/csv/poppy/.data/waist_test/5DoF (2P+3O)/0407_1541_Anysong_2_waist_and_second_Waist_poppy_motor_degree.csv
theta1,theta2,theta3,theta4,theta5,theta6,theta7,theta8,theta9,theta10,theta11,theta12,theta13,theta14,theta15,frame
-80.94516080190596,81.47720501108607,-26.04070885649046,28.298822862089825,87.77551874704768,77.60745517495482,15.005875146478163,-53.66828073918614,27.598409163339173,3.468021974620322,-9.240782347037953,-0.9800611137302001,3.088577713914869,0.391416418606264,1.7404704155701751,0
-83.81273289454967,78.78161327585437,-24.040687302381617,28.298822862089647,86.33287506874524,74.7631441766079,20.11177394179538,-57.02994874135489,31.356933855957127,3.7459958013031063,-9.103037115260012,-0.6101966225978018,2.3358253722645492,-0.39420707508635183,3.22217237147542,1
-86.69785497296462,75.75340608753518,-19.64426786295461,28.298822862089697,86.08948406348009,70.60010633704704,20.34709775183728,-71.19016473178185,31.467712421443558,3.350679599479606,-8.484203418639426,0.3815904151489264,1.390298879146786,-0.921024538440399,4.112591251258441,2
-87.67633905031393,71.38748026983856,-18.002397700725037,28.298822862089697,85.48685589551447,65.67684874883676,18.811427441028147,-90.20674286848387,31.1416415321943,2.9036087880827646,-7.6780333748802905,1.1879230147468665,0.14365713192195162,-1.0470846622041126,4.294594605597595,3
-93.11019443981371,66.36406803370899,-17.037798001715622,37.65739051186596,81.17991707923346,62.56310991747942,19.31337161549971,-106.56067051014489,30.581694772802766,2.619059948297629,-7.102663845279796,1.7710025345968514,-1.138553280983288,-1.1625241968753268,3.8018646837937453,4
-100.99953685538617,61.56070323621933,-16.94191675691523,49.16753151670653,72.91327030219107,58.74044310669296,20.78699940346155,-118.72492474928917,31.27469022834885,2.171196294644208,-6.191482474664,2.2789761542776725,-2.391112392515331,-1.5314372028236811,2.816631320107017,5
-107.45874138749046,56.19808332425866,-19.17456122183262,60.14267235869304,59.70907861061334,56.25555396515114,20.96282369086478,-126.33603025861498,30.073056703929254,1.6360187416655616,-5.484130237920359,2.9896103085479018,-3.8240912044411033,-1.8357470909493248,1.9758442427910594,6
-115.23396975910548,51.40921738994744,-20.00279202945247,69.23442732992076,51.07372652634206,53.05637661369212,16.467558853886803,-131.95883827442694,32.746725288557656,1.0287159334644234,-5.046219504699325,3.996741322496662,-4.891415841787228,-2.387812715751088,1.282477937763846,7
-122.57162251680376,48.33352320714702,-18.070267688051388,75.95123553208586,43.32653271753347,47.19710738924855,11.303238791392626,-134.69782828052973,51.68369362400464,0.4895517866494144,-4.507889221705447,4.697949085498851,-5.432609676146516,-2.812374797518439,0.9559162660201435,8
-127.05138205695616,48.21718373122083,-16.80672081213645,79.90168327484143,33.298353654761875,48.27576663999058,7.651007903369887,-136.0856940867869,46.24573293365609,0.06454447576238095,-4.268037534172162,5.219702418421329,-6.250080342216899,-2.966964209875108,0.5377480771496647,9
-128.73288380055484,48.25976245576743,-16.41598642140411,82.68207537618525,27.82387536965913,46.45082162414152,6.221232711647615,-136.14236606393067,46.24573293365609,0.07150583344913093,-4.168056966271767,5.4347687200009585,-6.481787204192115,-2.9923666127352933,0.40591908741364785,10
-127.53338362690056,49.63902329600679,-18.64588956362158,83.77458871505236,26.656878581188753,49.825929520630204,2.919830749135495,-136.4956423522198,46.24573293365609,0.17725264580085306,-4.174195038734263,5.404216347028284,-6.615606055417171,-2.8102368029621174,0.39540709572388916,11
-122.77935761666119,50.59678288722255,-24.274681636749722,85.42120750688612,30.68612097522384,52.71627721573859,1.4963073452323525,-137.85156418680327,-20.318005309719037,0.42764048726917564,-4.3801733485190795,5.332219434204307,-6.0725721103969725,-2.5084193804041917,0.3863042002432368,12
-118.2099679194763,53.560720798977954,-26.742801173053444,86.40155064430124,38.58322568468907,55.79436926062543,-0.1842539970414893,-138.73384912093368,-3.2875260935370982,0.6977748126191357,-4.553434875458783,4.902251109604785,-4.903555096454836,-2.113690641337281,0.4522583261169984,13
-111.35332794553716,56.07947954764651,-30.71865193861711,87.10582406035263,50.091628335633516,61.66303321983596,-3.024063889498934,-138.58982490470228,18.474127398959673,0.867258774825785,-5.408205718487884,4.096148825200138,-3.021695323091457,-1.6904560184632658,0.4252500422364891,14
-105.94400512652985,61.32431863323294,-28.802972946927042,87.39865597278411,62.658686942395114,65.77076196274164,-2.418842833276832,-136.83827042524518,39.66593823649123,1.0744003543294178,-6.667582520759544,2.947994690152913,-0.8733400516305014,-1.5622986888216657,0.5038268402441093,15
-102.30644989745736,63.99152553856118,-28.748934592512303,91.42571106652211,77.24389956347358,70.89545603996508,-3.6429920151206128,-133.80150879253847,62.03493877099983,1.2424585067833984,-7.442036447868006,1.9419722221290663,0.4927450422517191,-1.9585120226616297,0.7082438227039839,16
-98.80838857441344,68.04361681489057,-24.607985950671246,97.57175975567078,89.8398956444258,74.03416724779467,-0.773366725183011,-128.5232741989052,78.60916330274954,1.560781940471408,-7.564574435512368,1.303276546115307,1.2442324537197282,-2.4009257902882704,1.2134045969249254,17
-94.34934071919504,70.60335895569402,-23.34527567767014,104.06195959596957,100.12381182638099,77.69692159376189,2.0581885474465724,-122.49115277767454,90.0,1.7660286759885384,-7.3263197396915025,0.9495781399423221,1.8305838698907413,-2.8935374370086095,1.840918771478528,18
-89.56890679440085,73.58395397749732,-20.01379343629591,113.59881167696723,107.57639640438343,80.37027801514796,2.898429968672349,-117.70460588697568,90.0,2.131534289755991,-7.21057757201103,0.8602654310177041,2.2647545257206576,-3.360987226496768,2.3269850664527483,19
-86.05588331158702,76.18108398893219,-19.324549033580414,120.23700717903719,113.12863622869291,83.95411372304096,1.4441199214913847,-112.78652658621715,90.0,2.495845478393698,-6.826567531162347,0.8782054279435283,2.9992265364005823,-3.757192873080795,2.5133032217724227,20
-76.18160696571384,79.468056686344,-23.550174646824406,126.33786799752781,114.32530326730668,84.50571706811635,3.6973753830305625,-107.27473188358073,90.0,2.936626757822838,-6.524491267819216,0.772342102124559,3.8688437938112785,-3.604406050731676,2.582567572261189,21
-65.19769088464572,81.40026764762301,-26.440670858767614,133.69067322523668,117.30936921160287,85.0350332935035,2.55256245980462,-103.44246909135497,90.0,3.6851261417345893,-5.368928888498416,0.4136643385819888,4.692398772854615,-3.8518590016666736,2.356885554223871,22
-52.92170954147348,84.39645743324085,-28.314279644314293,140.34843693928806,120.00338301156988,84.63729294204448,2.31863198348892,-97.39155914798089,90.0,4.303026654511634,-4.474342398159336,0.46519240805500567,6.023870854050703,-3.89072278118506,2.6109503346837197,23
-42.25211916330756,86.38874636263184,-28.754865143631477,144.4870461446342,120.41524905740704,84.42665880805066,2.9155130085725514,-93.49157568609745,90.0,4.771694820711261,-3.8470976164767228,0.6716491223662846,6.646196494922491,-3.9799830968031746,2.582397595059496,24
-35.60691621445665,88.69425173291533,-26.48461010313398,146.47001703908677,121.0476031160148,84.98997519685983,1.6048446765798519,-89.97962939751633,90.0,5.1077759350130725,-2.713447268005319,0.5476387879987477,7.615913635640221,-3.8756092588898525,2.4234117841709764,25
-33.22753566300588,87.87983647754399,-24.234278291071274,148.0,121.39446135579591,85.31606717737503,1.238074349097063,-87.00483700157001,90.0,5.401431415283502,-2.0349550560308147,0.6095737666954063,7.104347347455731,-4.062332729244357,2.1555254860284823,26
-33.01218913785609,90.3527621606632,-22.852859895116975,147.2147248551155,119.33543080150426,85.252844352752,2.4675138253466242,-84.14413357983076,90.0,5.52662359648908,-2.1742348164253253,0.5521769179475912,8.022059267369038,-3.9551763367349086,2.1507530104372514,27
-37.568196158195036,91.84667255097304,-23.167449991066842,145.90063746252514,115.94789266685588,85.7832534108084,2.4399708294708593,-84.96735416347285,90.0,5.378954601009986,-2.832604517266527,0.49774996650313935,7.584907620363171,-3.975289191895082,2.187137454207654,28
-48.606962896620274,92.54415223931774,-25.870728239188296,142.48792948924958,112.91974681972742,85.17545290729839,2.4649552900804026,-87.93625399037056,90.0,5.162964681286644,-3.3670782327706674,0.15713092828403305,6.576737096076665,-4.317177816714351,1.814217339309331,29
-61.94605267203464,89.30060262811185,-29.72796079457727,133.9760493995712,108.86596091207748,84.45833174115857,3.4834158386899845,-94.14925486288098,90.0,5.0290064111859065,-3.388672841193289,-0.6289809909009447,5.3660304488190365,-4.718335670790094,1.3299032576257606,30
-71.94600596411415,87.4469450802136,-33.39823653841876,122.22193331432442,101.95101723352177,82.22724629625836,5.997004300155936,-102.70765880129055,90.0,4.460945262597611,-3.4050635625663714,-1.3597597265743138,3.5543552071986615,-4.831541907939171,0.6808886531147244,31
-80.7337983573127,84.6320344269581,-35.013781965133134,111.29147650514015,94.94818673336339,82.13983639782779,4.949424453893534,-111.94951095885295,90.0,3.967783050109277,-3.9975717165237747,-1.9960378732308108,2.2910208460501886,-4.979386965698241,0.2932732314998507,32
-88.1802108705511,82.66227804020205,-34.48687302762876,99.38581141806822,89.44481026887338,79.45809066874854,2.489046870929906,-120.28588885357775,90.0,3.5512013226479846,-5.076747156719493,-2.609305761643247,2.1585615798195485,-5.136190619548729,0.06468383959411213,33
-91.38913184313913,80.67043991547025,-34.32132716843259,85.25230914243092,80.27829388098641,73.76220799104617,-0.0634218585242873,-126.75407653881422,90.0,2.938980050545052,-7.041581402943569,-3.3265215965093216,2.344249329880225,-5.10216760764017,0.19432063784026374,34
-95.59168743310371,77.99250821393116,-35.65184638834267,76.88553935926655,69.7887552865049,66.71045802836876,-2.3387727590019067,-134.83743076271418,90.0,2.663013464489674,-8.511189097682747,-3.9648331703240047,1.944511278204931,-5.287509614040634,0.4631266783126133,35
-98.26935412413118,73.90141597598084,-36.753632791988764,71.6043032928834,56.667092963326496,56.244540992394334,-2.561671137739071,-137.13308552546593,90.0,2.5126107929685,-9.50494558058805,-4.555044905488644,1.606616656327921,-5.323593273594783,1.1634144151933914,36
-102.3975980045377,70.92202804430039,-37.084359687783184,72.51634745218145,35.644216506679356,47.430788102300795,6.416522400064311,-138.90780593134363,90.0,2.3691945658058935,-9.970286214598692,-5.3475008519695955,0.14303393782021026,-5.227757854723173,1.5834810044498524,37
-106.00385009826839,66.90848793089798,-37.2733935891557,74.45933769350101,16.517949427484535,42.1446969182772,18.26806056046559,-135.48144591242254,90.0,2.2439462123272844,-10.963508643557233,-5.8373172304795,-1.6514211487011037,-5.185863368530882,1.8053664711421413,38
-109.45096180170465,62.74543656940319,-36.54818172577136,77.43652474118136,-1.2867272101744942,38.76610656617123,29.452153111222255,-131.76949735385782,90.0,2.3417194109760704,-11.491928017713667,-6.344902702994191,-2.928052592498512,-5.1468662940222405,2.362889744932576,39
-113.2478173167305,60.636122472362935,-36.486670148038925,81.28525201520095,-18.950318689685396,36.43325566083842,42.235763999602725,-130.28806257705673,90.0,2.409095262628819,-11.992973557399349,-6.805576900535532,-3.943977769336036,-5.065772673065332,2.891784452167886,40
-116.25069408720302,59.00368333319916,-32.70621289463368,86.59299093038581,-29.89054048605534,34.283259603552125,49.90805696452285,-129.45674119215226,90.0,2.7342811549587,-12.118832235334402,-6.8049880773704405,-4.541298260003745,-4.965642894387565,3.2276334516485936,41
-118.85751420208426,58.251588032010844,-32.157451318118525,90.97604106195057,-31.899424290466076,31.947033297488954,52.00143692420263,-130.05780008596886,90.0,3.0555723817959572,-11.644756764450863,-6.565400123763172,-4.656242235796264,-4.873548919602539,3.5832825214948714,42
-119.63338270484833,58.54959998411821,-31.804998122565777,94.48759938219787,-23.909643453877393,29.00596489718572,47.23171684040118,-131.3452000039891,86.92659437515508,3.2859738899310105,-10.89274038869119,-6.047520367073561,-4.282392548381728,-4.765908878172634,3.6769046017986264,43
-118.6940546624578,60.208709359186585,-31.8280846032605,98.56484115223515,-9.303206027456417,27.789657040826715,36.7312436621563,-134.48592272880975,80.92479564147015,3.3791763852823866,-10.347248273469843,-5.348069904429853,-3.3795441312950243,-4.616925046077354,3.4656567403159446,44
-115.68935060444493,62.11909027764285,-31.240746961369865,101.98665243456041,14.80236803534985,28.667876129355776,18.71614375232545,-139.36542299872335,78.5945590027084,3.770986133703573,-9.933352967248704,-4.333784933802215,-1.7854456300599384,-4.587203925354755,3.4660954936293047,45
-110.9813139148399,62.726608213891275,-32.91384597647034,105.32385525496682,37.47595478185219,35.499075022762604,5.218179961135566,-142.0366566155284,76.46922207657835,3.9279537314420145,-9.992707346156566,-3.2179986879073894,-0.5992376663157981,-4.6716894215978675,3.4490289548131643,46
-107.1828560130222,65.48098577236956,-31.884571957585255,109.55018063818532,52.802246612251786,43.81844913027211,0.5599571742042965,-142.19845824845405,75.22548561525443,3.981228289173006,-9.434407555406263,-2.4535898649855272,0.39250434305152787,-4.529285388427221,3.4680661235106576,47
-103.96728614442772,68.14641715309551,-30.357670791234213,114.13884035789542,64.85146093289522,53.88298381640006,-1.6228026858637543,-141.4320267327752,76.69701883920918,3.9422523693519205,-8.552044151161427,-1.7966520657131433,1.3258337970656082,-4.353828358558566,3.4952205265729037,48
-99.21586502556842,69.42829860633255,-28.526038917834356,119.25837198580581,75.22146060241545,60.79083175932922,-0.08412609880153876,-138.9468117540274,78.07203001865145,4.018950715351428,-8.192163602307012,-1.1236543340170713,1.8100660139488145,-4.074610280944105,3.368890235966529,49
-95.44011855503878,72.08025028650601,-25.988903380200885,124.8217227346082,81.15698824041017,69.39195883734246,4.115107070594385,-135.94437066548207,80.31839329944599,4.014899441986328,-8.065703032712324,-0.40509588917395195,1.4540919214994663,-3.732592616446398,3.3064109542379803,50
-91.94399733953593,75.3377640537005,-24.042330426132583,130.25010195654085,88.37773216186544,77.28596179970647,6.633406569284813,-131.75697204216746,85.94003762013902,4.214643994323585,-7.941845091183686,0.1287393619035549,1.0197448868798549,-3.6194321074153435,3.13007755252785,51
-84.71170079384612,79.47509510130602,-22.90903024460677,135.38594898913823,92.47307653291405,81.28332807388088,11.87411685801759,-125.26050075133438,90.0,4.470311011356524,-7.833496987992905,0.6092335019853505,1.289831573277872,-3.273574621266891,3.2288654170744744,52
-75.16944235860495,82.33923958027326,-23.122938493696335,139.88107371119207,95.36717024059209,87.06574862795911,12.642706890866588,-120.7074621078494,90.0,4.832570518175322,-7.417694843524894,0.7962681192111105,2.5060321750288566,-2.835051693185837,3.3308871254558015,53
-65.1044479557561,87.09564296192339,-21.59610679489064,143.8581755974028,96.48120859120394,88.61052722396164,15.923758854984499,-117.68431492460797,90.0,5.100285106696842,-6.356065712819349,0.5931611737144611,3.343006166939223,-2.5247017149076103,2.912466933690708,54
-52.240941226683816,88.89655331800107,-19.0258073364679,146.93016166863754,100.39198498978686,90.15731962149371,13.569261656948811,-116.43495022259539,90.0,5.559134229399894,-4.961968831084656,0.39560593794483895,5.077888995548484,-2.3125799822089257,2.3417285272866755,55
-45.01347512823165,90.34461829184248,-17.218388067671704,148.0,102.76452283032114,91.21394014374141,12.224009191115131,-115.16760195714032,90.0,5.596825784556683,-4.299207233318755,0.5770176329803808,5.69431239134876,-2.2728668812519803,1.9886601295032278,56
-42.1181206467532,92.46876584220581,-17.15068200224817,148.0,104.80825189430091,90.30799605667691,12.473007187950904,-115.6739185762088,90.0,5.626839785501641,-3.4395855246696714,0.3470689456278242,6.079422740086915,-2.4146340433602784,1.500867036649635,57
-40.544239175048126,93.23932480053678,-19.644987580200752,148.0,105.42506164564863,89.56899047911581,12.734240032824031,-116.91002341400822,90.0,5.63520564624215,-2.9560784624679757,-0.036302324650850606,6.392365758043298,-2.549508826644337,1.1322816445452253,58
-43.28614513716435,94.46320133841446,-21.56450595275267,148.0,105.69460155554472,89.19517548424197,12.54061439367806,-118.06004712954899,90.0,5.629838829882543,-2.338362870601293,-0.24530635562814818,6.360668231611255,-2.685234199091853,1.0315595734124774,59
-47.36664818248018,95.62715591124996,-24.20675075829512,147.78520008606654,103.47869056382984,89.27023458937836,12.241056845826972,-120.15226302956816,90.0,5.449469802899279,-1.9435227417428713,-0.60599221131892,5.804590855971438,-2.7731312510450685,0.8058929185677446,60
-50.10085273963824,93.92332411767434,-27.665543910578933,145.64983406814335,100.4794741816299,87.43563910237528,13.117742821405296,-121.17390137921136,90.0,5.323580583679729,-1.635700072924719,-0.857301915548936,5.321387773881663,-2.8399749196913042,0.8772843476074975,61
-55.68501803550119,91.78812644851135,-28.22102787129335,142.81677028810168,98.10453399300052,86.72428720575795,11.438535091032701,-122.6061733825867,90.0,4.860258050888092,-1.5636242440749355,-1.3589545121881834,4.43288699744204,-2.907153022775506,0.9801124402579261,62
-61.79427167295536,90.66335168551325,-31.13266950604975,138.93881140195194,94.02104765952978,84.16411900170354,11.68548394613768,-125.95642938406111,90.0,4.210163716551541,-1.5157266547299826,-1.8954496055175916,3.7590762300246667,-2.9257243221846005,1.0491678738599428,63
-66.48826505287155,89.01546475578003,-33.186429059972255,133.0462052136921,87.15806977416645,82.92983238150583,10.034035789057793,-129.14899410417766,90.0,3.6666321556635126,-2.2649228443356515,-2.5907723767884723,3.427906056053465,-2.9735604221499328,1.3496703478092624,64
-71.11649370222881,85.73710641553185,-33.99500497522688,126.31080536547334,78.88690705001738,77.62590161018372,7.880183117016123,-132.93894715496432,90.0,3.4078242759893125,-3.4463657162793537,-3.755819961388276,3.3020318949572887,-3.171133430542357,1.6889185052330888,65
-75.08249282243527,83.99221363306583,-33.058662172974266,116.70559514673474,70.22476520803208,73.65064254416328,7.515541583377281,-135.18406397479805,90.0,3.6460451167582253,-4.485667503050184,-5.013787216121852,3.158441666849089,-3.295841144307634,2.039533421916289,66
-75.07494404139962,82.05048039909565,-29.77476713446874,106.3651162007143,59.0728110790302,71.54257071103693,9.077189690282195,-135.34282078173015,90.0,3.921751727505079,-6.406622925369189,-5.909448620516518,2.836846733260443,-3.1195076167530313,2.310651034783806,67
-78.6610214106758,78.73875348479645,-26.414881141439903,104.35435102761306,48.96491718351712,63.5339930406909,9.314538476444456,-139.2371275531176,90.0,4.230050700283549,-6.770684171755697,-6.941277499975397,2.7570418460018318,-3.4389389783988613,2.8088493936243855,68
-81.24332651742411,77.46116273800459,-22.50449775953383,103.76095207469923,37.98610527577582,59.497187758530856,10.671031726626651,-141.33994262478498,90.0,4.590384328599629,-7.408669807865013,-7.75675597441068,2.2767284921776048,-3.4374834734237694,3.6007548168307495,69
-81.24406220503859,74.64480955206551,-17.66381364110752,102.56270901730561,23.842511917857113,60.44527484094303,16.33582485240835,-143.226509095881,89.43044237392805,4.912929273225834,-8.507100116488694,-8.175299850914696,1.433872309953074,-3.2387266759305677,4.282679907926225,70
-81.79814679974133,72.30419009380597,-6.135877603419498,104.70896177654203,14.331778239950161,58.63177243558979,20.93030448565635,-144.1167467879254,85.60017457482246,5.451752385311527,-8.8501340554959,-8.482344343921303,0.7621798819996124,-3.112951347985225,5.253473231886834,71
-74.5832241120446,64.68571041173159,6.052304470307406,95.6580020102425,5.895906296466433,59.599016373759284,28.124445612232755,-143.4712580267716,79.10524375059468,6.000000000000009,-9.179694217283945,-8.651824508752528,2.4015622509621215,-2.749753430119358,5.7513219695118485,72
-72.60797607680746,63.39851210661921,13.153310782345441,90.79058138882667,-1.0610161232686126,63.621525636439586,35.03579582062071,-143.91363704082406,75.3556980667443,6.000000000000009,-9.313684546234459,-8.932611130943867,2.6993085565150077,-2.399084214965111,6.423863687325159,73
-72.62528549447511,64.43657366701125,17.95135075850097,98.81992062677914,-0.7791756372083776,68.05517590510864,38.04598186912146,-144.42476629677776,73.46356054396135,6.000000000000009,-9.140154919792867,-8.169359744812,1.9502546297011696,-2.0997075534189404,7.392915578860288,74
-72.51870959717324,64.52693893205453,22.360943151396945,103.97723275193685,-0.21743046825179652,68.66262079227442,40.11738198912108,-144.91086709579142,72.23569262999155,6.000000000000009,-9.078255449508216,-7.246957891798104,1.9721702347217396,-1.9492013386622074,8.137475522935217,75
-75.5269288396337,66.6744092407063,23.820097994037454,112.02666243312578,3.3149590653554757,69.06786162237688,39.424790777153525,-146.1580336475204,73.15537485579812,6.000000000000009,-8.336142243712981,-6.5064654661696695,1.8727978013935003,-1.9799660655311278,8.538669547736916,76
-75.18873018059409,67.0908299420751,25.687873620790068,114.07761239263489,12.29607584557097,68.33678456663606,37.9689583496539,-145.5843181882898,74.45596300171631,6.000000000000009,-7.712720396170268,-5.836064165809187,2.3997041504131924,-1.919075123151753,8.62600280968779,77
-75.40802122490875,66.59439680470227,23.266698964936552,115.16233795734576,21.76956754124093,69.64207897147185,43.46760363425172,-142.23183291210546,75.42820995641193,6.000000000000009,-6.962132988535969,-5.11292007291776,2.4531546023617685,-1.8284237912136487,8.732583149994145,78
-71.40899450710516,66.44171811801107,19.623445337345416,117.03642428672141,30.63366277471913,76.20401823099255,53.70761476427014,-135.50422009298998,76.65546739248134,5.791507172071775,-6.895082014724184,-4.088059482466975,1.5564290680670574,-1.7167229477900385,8.94589050718042,79
-71.62249548976705,67.92476110008363,11.173043540136415,120.92468884981919,32.75630726894862,81.53318284225172,65.71298503655125,-129.1084674378837,80.45438540640562,4.836823227420689,-6.395215580432344,-3.675005084860934,0.25267996282852295,-1.6606993011407585,8.783237256087387,80
-68.06281411345013,68.17130832932834,10.951131864515448,124.46651886000089,36.465661800960476,83.4087809175823,66.47767017629955,-127.39072179037447,88.0719580622357,4.810839165353033,-5.599778035516639,-3.1402544732870394,0.8574386277384637,-1.7202043201392785,8.526307250051552,81
-64.26516616065526,65.60812627075772,8.87347551452185,125.2940426437665,36.26560695722759,83.71469613619087,65.8958397080887,-126.69385833978374,90.0,4.845151650019568,-5.181144859940363,-2.5508865389458926,1.4737102555332675,-1.7057837462990526,7.922342344151171,82
-61.17155916401247,64.92418184851509,7.515801419142633,123.1319482433279,38.285473605220474,84.33377456145116,63.43954674034805,-126.2926180025371,90.0,5.010883757604256,-4.439478012042878,-1.952923771236839,2.1214300246705458,-1.579351049116499,7.142163690715709,83
-58.771937999405175,65.10530252454305,4.887485850550376,115.81487387095818,40.53179534453618,86.08498638783033,61.8133629103388,-122.16468519833467,90.0,5.2106785629046595,-3.9149164900206395,-1.16691484112345,2.6809010241219235,-1.2281425202923164,6.470575001841605,84
-58.85656895296572,70.11104542711674,-4.237186764490906,119.62186785868643,44.58523027010684,88.59353519280879,59.60323300262484,-121.0588014031188,90.0,5.2078070193044015,-3.2657654827499814,-0.58924374495435,2.4655930453357566,-1.252496381960771,5.919079452891277,85
-57.16510844018177,74.61463366385532,-13.566642724840193,120.9556015631172,46.91051440034998,91.61436108419765,60.715521136449524,-118.39483706351871,90.0,5.118510017958657,-2.656172043251972,-0.07524697686839066,2.1213071355046806,-1.120699468111567,5.351886057756965,86
-55.80982763227831,77.55100547493976,-16.879118986913998,119.52298170115674,49.109136661225705,92.1285923284341,57.953702456136824,-114.91251766384131,90.0,5.206264310423402,-2.054589032595065,0.41459754227582946,2.4601603516138275,-1.0012291939078224,4.871240351976027,87
-55.301637841589454,78.01823579079353,-19.907523700385045,116.60415002064221,52.18669917480294,93.30358278777324,53.030314482811335,-114.95107624646228,90.0,5.453928696830246,-1.0032465293487733,0.610542767905991,3.150970261202469,-0.9715624864800457,4.177476032869851,88
-55.443604719400746,80.51518968006535,-20.986490347399602,114.1428690628846,54.066430828900565,93.5773720623651,51.0226565719706,-116.10715135089585,90.0,5.7925725671546155,-0.2841700564035324,0.6780570007693991,3.601667878737979,-1.0605818355452943,3.599065999547854,89
-55.54460508835919,82.39848706792658,-22.81922304805285,111.71329149728052,55.6842072158607,94.91190823310927,49.737488906301294,-115.9292586746838,90.0,6.000000000000009,0.44556967103643763,0.6556337657479983,3.7016658673385514,-1.0306702468796822,3.205762439289169,90
-54.87102301457426,82.57176222263709,-26.264325003758422,109.10355709823337,56.62999173058082,96.35547644750403,48.462801980542814,-114.94234507788231,90.0,6.000000000000009,0.771148209554624,0.5402083579777397,3.430741486892205,-1.1569665629556516,2.872070981436853,91
-55.31444469848348,83.98452299866867,-27.76609623826801,107.74154284606425,56.83924622264132,96.22324862399412,48.335637993786364,-114.41481515196585,90.0,6.000000000000009,1.300280629256188,0.41216483434540047,3.353292182471943,-1.2074333474112535,2.7159077432168863,92
-55.88253223681341,84.84833714688705,-29.108868335438572,107.98098891497112,56.45639271000675,96.2668967125298,48.038889134633514,-115.08171442205251,90.0,6.000000000000009,1.5477006911385218,0.2801813941050608,3.1223539146922357,-1.3836571448566306,2.722643634658366,93
-56.024131552187704,85.28505431432977,-29.908204601608325,107.73533237663928,55.803625346695775,96.33515326701989,47.7801253069456,-114.29180917306914,90.0,6.000000000000009,1.3760962151302494,0.11866759727352814,2.6668152427968153,-1.5486128438062592,2.8100917161433934,94
-56.61946374877344,85.34665947548196,-30.65581303935454,108.907114474734,55.62714662534704,95.63888288561641,47.45812024338482,-113.3209878756883,90.0,6.000000000000009,1.036205156597478,-0.11864428642889718,1.8269521883402062,-1.8131042482974038,2.9465327399250265,95
-56.85656642478403,85.24125971271275,-31.69009569837114,111.21701816164965,54.117382811317285,94.01006520324333,49.33386498097522,-113.41165783750652,90.0,6.000000000000009,0.34701360756011396,-0.324279806787138,0.9564087614629693,-2.1532844127336364,3.2421137124755055,96
-57.02242804946508,84.90639900859314,-32.17689160354835,113.13825823618613,53.52569811568635,94.27479282427144,50.68317644561087,-114.2439371398476,90.0,6.000000000000009,-0.5244985260258247,-0.610346782710749,0.024816084650522534,-2.454294356232589,3.48487600290118,97
-56.64553437497375,83.6703178961281,-29.8765838064174,112.540420329049,50.78862265044627,93.13270153070036,52.44922007261121,-116.6781460076689,90.0,6.000000000000009,-1.4396720193921348,-1.0490518017552917,-0.2823132889528012,-2.734934556181894,3.7874650972337753,98
-56.82431999877102,81.961250461382,-28.451589744047624,113.37740260631293,48.50912022468761,91.82379632160587,54.52758147969553,-118.83219398506937,90.0,6.000000000000009,-2.3268253220798347,-1.4744030781423259,-0.8289590767504281,-2.9879828226701393,4.09485566734514,99
-59.05804790321982,81.01014973283736,-24.71278294991484,118.47249954467965,47.176136775291,90.86862386940149,53.19232134948982,-122.79979613122173,90.0,5.7478099890041,-2.9364360647935723,-1.879199164312669,-1.5272238023608378,-3.2083870151162475,4.266121803265541,100
-62.00352114618724,79.49375578557427,-19.873183960298235,122.23575165961971,43.0172986670846,88.65038700931339,51.70988414866359,-125.57724731194095,90.0,5.326980249580865,-3.8370561976633852,-2.378624025773952,-2.227223167885223,-3.3360740420062407,4.487395262469377,101
-63.731840115629296,76.91788510775424,-13.291666909961947,125.90482110166367,40.36827898375975,86.82667499148899,48.12114115824948,-129.6883108877079,90.0,4.965045806596577,-4.7393871016342475,-2.8245327925561456,-2.818071004811959,-3.5209475472402225,4.681920678787439,102
-64.15310310549575,73.95449182113607,-5.416050471785033,126.2897820098646,34.98677677964689,83.1550838026382,44.09063581589145,-132.29462905586544,90.0,4.626399934224126,-5.842935844550338,-3.267691101605089,-2.357820299124564,-3.5496955539959587,5.171919730799753,103
-63.38788002345345,69.46454718577782,1.8454460585786367,123.94199987316507,28.673672853395633,79.32970084135628,40.840899713333755,-134.66992186254814,90.0,4.4554033691012265,-6.68781598147409,-3.8991418088265304,-1.645827801226926,-3.385337064674063,5.2647847689716,104
-61.54993987654573,67.66573817020976,8.973893652236884,121.92263013363767,25.63763579477939,77.58170341290017,37.8453498059953,-136.02432254503378,90.0,4.429393093320524,-7.839936882269734,-4.050945321556622,-1.1408316678647634,-3.222832724562066,5.518243535385987,105
-60.3435349802702,65.96990292466164,10.992446831267742,121.35301923341403,24.15387591563358,77.9597654563266,36.95955660512657,-136.77800575307657,90.0,4.526862365450218,-8.462773629739859,-3.9457368800416623,-0.871185227634411,-2.9820220193824767,5.827995521388232,106
-59.33105876101158,65.21581319373142,11.282884721062498,122.02749465616687,23.594114119301427,79.19039425781122,37.47296891564082,-137.9758932965482,90.0,4.725809643983323,-8.754489363846911,-3.8549327072297674,-0.6916291192980631,-2.861642462297902,5.930499400782689,107
-58.66188813736462,65.66517904975754,8.863039790514769,125.89103034536987,24.450796738404595,80.68075689351608,38.75369899900205,-139.30331272558533,90.0,4.915580576927559,-8.705125838955166,-3.5797596365962328,-0.7480300350320804,-2.879723243144523,5.976690692811652,108
-57.327446635687664,67.01386637777557,3.8265944048764524,129.50276470589782,29.441855618370624,82.78371748123304,43.628722509996415,-137.60294422981048,90.0,4.909069184872701,-8.496806825896616,-3.0919072587940195,-1.4855434666920948,-3.0064693748817755,5.920549808104235,109
-54.79516661239547,66.83582142105125,1.0515919250370698,129.6069624633101,35.07030473897706,84.69683511448659,50.02774554984626,-134.3460895450254,90.0,4.89563267341147,-8.411879713287387,-2.3792303774561567,-1.7305142931184856,-3.1204698110277103,5.937635627975356,110
-51.836299392495235,69.05329640267388,-0.9199711696218371,129.40996522815811,39.15469642321247,85.84126685442504,55.643699309105536,-128.91876433147016,90.0,4.569913605497546,-8.752785281952443,-1.6456676352886643,-1.7924482476094907,-3.116831135459593,5.946559103891718,111
-53.59228586861979,71.92000410768281,-5.416374082004706,130.74066903829925,42.89223760041411,88.0996146221014,52.9449879323815,-129.97080360294044,90.0,4.461113335464019,-8.106894732277615,-1.5787417204106855,-1.1139029615398626,-3.1193804416257684,5.728666424530279,112
-52.31081162996211,77.69889147787846,-16.83567040259339,129.72996800815534,42.86843637457039,91.30434963735374,57.653265307799565,-125.54326933084229,90.0,4.021495685233827,-8.491991167672117,-1.1574802650237535,-1.007240710260445,-2.8168807024688403,5.360599805284537,113
-49.76814789354736,80.46764614793517,-22.485191547353224,128.69321778921383,43.98065678318468,92.74045190367569,55.439316791313814,-124.95477963636651,90.0,4.072813239806601,-8.246652242558428,-0.77926169609969,-0.30281283264677983,-2.591949259831408,4.8586358137701815,114
-47.603769410888816,82.09651177709435,-23.561183842701023,126.57147979444575,46.68623691277892,93.91160566906028,50.28187350210753,-125.13176613286784,90.0,4.22502999804702,-8.101160981106377,-0.5994072632455388,0.5534156055193522,-2.360938120167437,4.428314620691154,115
-45.932179369263196,82.96248711058887,-23.733481018102697,124.94137111524164,48.67338511864512,93.51656689742326,46.47066683026751,-125.96509571536237,90.0,4.392557408700554,-7.703791257361968,-0.31046486802419393,1.640578150717118,-2.2511926040953387,4.074513425261009,116
-45.184195095727254,84.23573693301383,-24.77543993914451,121.19242385512747,51.47237752008818,93.6389092347742,43.90418096544529,-124.58133402022563,90.0,4.417246964956073,-7.203898190527569,0.02406754163993717,2.439177027098126,-1.9844316064213419,3.7227297244111996,117
-44.096985589081974,82.18251941660411,-25.769767355031014,116.53046950747243,56.051099526991464,92.48939186358477,40.56551462386918,-122.24067888556004,90.0,4.476238829920591,-6.6430345645619475,0.651884576775556,3.083711415855671,-1.8430988507174366,3.3431253141582062,118
-46.05052947111859,81.65742634413303,-26.125765994231088,114.85978778049527,60.4949946702388,91.7370871423257,37.56790637992837,-122.2200170924731,90.0,4.5628176700141125,-6.09584494147867,1.2786412340673161,3.4199319341947834,-1.9823508948044897,2.975312920219637,119
-47.332861123300226,79.13358178718296,-27.000984740748205,105.76567329375823,64.10506742020134,92.5696767987363,34.76850797626261,-116.68698197131685,90.0,4.355414729174874,-5.493667391615933,1.8824460301353614,3.3056352291468682,-1.8456427228037033,2.5341060995569307,120
-50.6393754734002,78.26623750592653,-28.595796535550875,101.39709819926117,68.55034024132225,91.19305017117219,31.984939291953324,-109.78582104219575,90.0,4.150339137596101,-5.199324567213742,2.6619997578477133,2.4346659547986476,-1.9367969120001718,2.057060919567519,121
-56.607736329979616,80.70316982880829,-30.574436352945607,100.55245463304894,69.30955169612922,91.55373090550056,28.725259750968885,-112.03034926174739,90.0,3.557566602833863,-4.923590190222891,3.0651046161390547,1.2237206565563075,-2.0740638413107653,1.5914635917713695,122
-61.63528488787775,80.6725541957609,-36.339538656020125,97.70086870589037,71.64024284349604,90.26382272149446,24.145360614747936,-115.710877092481,90.0,3.114086084307481,-4.804710654367656,3.3786058400969545,0.14404912858231617,-2.2332461591577544,1.2069893065732367,123
-71.1165326992015,78.70749510860885,-41.036984698694965,92.76464183168038,76.43420651077405,88.48927016357308,21.15565695350567,-117.537105911018,90.0,2.8332299494103266,-5.336514466166501,3.7864094866901747,-1.4067648673962339,-2.831346746957955,1.0370221882152184,124
-78.30035363032793,76.20584261051387,-43.074300857302916,79.6349976408816,76.31018288147332,84.59702445560247,21.040704198028457,-110.90513715768894,90.0,2.136968379011908,-7.230089112392333,4.088006524529957,-3.777645344785328,-3.100097482607253,0.7659492364340537,125
-85.78885520899848,74.29737168722593,-43.799523636496055,67.89286535016055,81.94779324385246,82.75923367734195,22.43379177120615,-109.26310385081884,90.0,2.6972562947476253,-7.938350709145636,3.814064690872944,-4.017355699075669,-3.760230853722797,0.8191189251162595,126
-88.42170566426927,73.43630042396849,-42.82582122854985,50.3844121791832,82.62002087736413,79.42276021481443,28.028244920149827,-106.08500564281462,90.0,2.805835659175248,-9.333784037492817,3.8035513406411856,-4.043584286151784,-4.093075060329495,1.7280436070788754,127
-85.13880994083841,76.66506221580438,-39.7746514833341,28.29882286208962,78.2769420184866,78.79661071378844,33.72395790469839,-107.04294732776583,90.0,3.1369512026218547,-11.013700646483032,3.2195448109243805,-3.49884144185554,-3.6543718694676053,2.9692709016732652,128
-90.90849953038116,73.46786042385588,-27.094980219545437,28.29882286208972,70.68177825727354,75.04485439917633,38.21301730845832,-113.82992355387175,90.0,2.510366681175115,-12.12040897303691,3.343019194210622,-3.939078228128162,-3.6432898531072873,4.470188775317435,129
-92.54617959207184,71.9219361828892,-18.931320005222236,28.29882286208962,59.71750436135117,71.94888553784874,38.289867916514254,-117.52835454003309,85.15104659595723,1.6433116035940778,-12.84925054524623,2.891501927020502,-3.9942159483086943,-3.182216749291371,5.36924633238564,130
-92.42968276606624,71.81906955422836,-15.158385392789723,28.298822862089697,45.0854704439248,69.17968207869444,36.99439033749954,-116.59366289567362,72.35042768628666,0.9288354790755955,-12.538525296622375,1.943977589450425,-4.119078081658825,-2.543995309830238,5.630165943950154,131
-91.58069478325596,71.99730972040909,-15.804755919158046,28.29882286208972,34.91882156767312,69.2864353074067,38.74983807358328,-114.0650675467344,72.14848409595307,0.6575259319381128,-12.22024026638037,0.7630125985306013,-4.6833306429657195,-2.0958490251681314,5.2107933767244,132
-92.44806931451386,72.39111327138927,-17.00255570011409,28.298822862089647,23.822799956766946,70.65141641936263,39.06059694566227,-109.02681912922117,-21.43718576106422,0.19007650195161185,-12.638977372485499,0.11350750164130077,-6.195237381171176,-1.8342828156875202,4.3450845699401945,133
-93.1391245937822,72.57239565443443,-21.31454937182709,28.29882286208962,15.405027770979395,73.54692078753368,37.77656110319216,-101.2332794334138,-80.60030556679972,0.7865494985249191,-13.150511072455663,-0.4000186189843317,-8.265352237868761,-1.6708832581095727,3.3069427338099096,134
-96.52298287983793,72.28178117611681,-22.187145229313593,28.29882286208985,7.000151958223784,74.52549866691479,43.06885261147307,-97.72252952086906,-87.84425849046272,1.3299660897195664,-12.887521673347146,-0.6709883806011496,-10.062847571439365,-1.5544316953919917,2.7830297586790027,135
-97.66761898097772,71.73237105669917,-26.79059269219741,28.29882286208972,0.18687389475017255,76.7817242398348,43.84968317216888,-86.78361406273423,-85.17626396677791,2.3093831949671744,-12.974895200424484,-1.109253964940348,-12.186611813890268,-1.414492260949769,2.076334224482512,136
-99.95947710808092,72.1301195973283,-30.050686296557288,34.51718251551804,-2.556465791355882,78.7176110101116,42.23423614654439,-85.35897278754855,-82.88309585770098,2.8830630249437657,-13.319773529041129,-1.5567015974076195,-13.21814898731506,-1.0177616838085843,1.3736186301855853,137
-103.37735459426034,72.25473983506906,-31.203612433301696,38.65414487477115,-6.619446831667512,78.96766085962061,44.576557026843524,-87.7813554323994,-81.22187967667818,3.434407520352192,-13.455326505235456,-2.0208399999093056,-14.534666176229358,-0.7821153114144639,0.7502369225024265,138
-106.16339475457339,73.00129170562563,-30.082556115689844,41.598087302992035,-7.509768632367031,82.76962628560418,42.47406548193316,-94.23912843209074,-78.45888551571585,3.8555899410119383,-13.62527451861713,-2.223594471745088,-15.743618421869709,-0.3773198242334546,-0.1336193506438402,139
-107.86645502434087,73.12843826340689,-30.831374164727954,46.358347463906156,-5.20807916051867,85.4442984531281,38.54067253130617,-102.04152518924076,-77.71869960575931,4.0100249081008,-13.822452754341397,-2.0584813241285187,-16.43710084839047,-0.18195225334591006,-0.9718869335352075,140
-109.38618386895862,73.24651112069476,-29.25561664460142,44.74845727332147,-2.8214634691063063,86.61368967481341,34.647142465590385,-108.67079628506637,-78.50304195919217,4.152181499802688,-14.215126670861164,-1.5834454175068198,-17.20900302119173,-0.21048701290030855,-1.7542959260017061,141
-110.49928148728868,74.2247598113548,-25.10014827600013,44.189393029518264,0.7388148395425187,86.28008456799512,31.25781176312037,-113.56608282162208,-78.35559939935975,4.337335209673545,-14.472532293128625,-1.2202632431304008,-17.763358411381883,-0.3438737551404733,-2.482564430791994,142
-110.37092135833588,73.85021285034624,-25.040509634297077,45.728222806211754,6.146543756036009,86.46645338164821,27.715684672032186,-119.25631961451494,-78.30685989193682,4.242347999245153,-14.167919886725414,-0.7117191628449949,-17.80439520881826,-0.5081284592936182,-2.788991578516368,143
-111.01034208820356,73.81839679066825,-21.73959131466872,49.88567152601047,10.137341294524479,84.1414017436504,27.181244953482786,-122.23813535523018,-77.93090088745117,4.230683348398845,-13.358753705448976,-0.20314158657849454,-17.3850671424045,-0.9070913106632669,-2.6825992752007335,144
-111.31116071904333,73.87425137812518,-20.808539175139586,56.13954403497785,17.07120874784298,83.40737525120385,25.70089070458165,-125.83229522784877,-79.30047307230329,4.137788017164414,-12.506531079448814,0.10710849532404772,-16.744791431545003,-1.3122054549890452,-2.7169876941883007,145
-111.52976925023061,74.89612692951444,-18.209374708901727,64.80451246413475,24.432005092718814,83.80476966754401,24.422360944829798,-127.04549862620584,-79.97256868998102,4.099373721394929,-11.511121045226497,0.3996328133531685,-16.793269312857753,-1.748135190695853,-2.412225635235008,146
-111.22222018885267,76.97009165706568,-14.838132939577923,74.4054442260698,33.20347453083441,84.76335684558074,24.111483910034696,-127.85759110573551,-81.93492527494226,3.938982384495504,-10.359074531910565,0.6587456960601521,-16.470303188922628,-2.135717076461252,-2.1678935561788713,147
-110.05531040042281,77.56299513495945,-14.87101631860292,85.19175258566617,42.041209927962456,85.17762714299133,27.144472135996207,-128.79207917500383,-86.1353264716339,3.6576616652645257,-8.86543741964346,0.8056609702858014,-15.616578871581547,-2.728883711043526,-1.5178161046313916,148
-108.67571094379142,78.64234680163774,-11.221869893083115,96.08784212765941,52.04644846192012,83.74516337881747,28.104480459300888,-126.64089223911057,-89.89321091690117,3.41325865112669,-6.956354558639963,1.0884484099947995,-14.709668112765128,-3.2758737807428604,-0.71429860018627,149
-102.90246192211433,79.15144616232399,-11.255186458958478,106.84322828003116,62.38494866798794,83.75165081076882,29.07525646738044,-125.2064788847368,-90.0,2.995013249617761,-5.3453602355489505,0.7357367885534356,-12.588494567004002,-3.4227199589475203,-0.1420854752632039,150
-96.6742241673609,78.41985710110502,-13.81104676912216,114.44988906242523,71.75473910329902,82.86185776328806,30.344642621210347,-124.39130730981313,-90.0,2.8243085205577096,-3.449238031384369,-0.09488856057760629,-11.134030817302584,-3.1919968325555903,0.112238158082817,151
-92.06771065891566,81.37058777240914,-13.658086863000898,119.76996369987191,82.43031863031784,80.96704595417154,28.51112543938587,-122.5028655929073,-90.0,2.6250661861251907,-2.2645154989092395,-1.0157900296840223,-9.837209121297303,-3.1574859678103846,0.3589698938427806,152
-85.62927062070078,80.93491229586118,-13.777995409865099,124.45773631718257,93.41311291895785,80.2786223254432,24.51489137329326,-119.2167049558965,-90.0,2.237350591305667,-1.5083530796465183,-1.746725452608447,-8.420541567581319,-3.206306961314615,0.9484148547516851,153
-78.82694250554891,82.06259259515842,-15.614581697650719,127.33996771610511,100.11769539589234,77.54837818310068,23.1487952334389,-116.52159218892047,-90.0,2.1173174117811957,-1.3487135834213764,-2.5660566599982206,-6.847982413356964,-3.2735617602185303,1.3261760074066087,154
-72.94503313775064,80.84700062900171,-15.448048418959683,130.44107030644327,108.64208558586533,76.42068954071371,19.7393074358453,-114.07876337719138,-90.0,2.208017503353196,-0.5209072456771545,-3.111959557611458,-5.498263034642541,-3.471789824273277,1.5719404422890442,155
-67.18435341224254,79.24348345946792,-15.5418868115583,132.64808186567737,115.38462356098988,74.86108127237833,18.91112621688749,-110.27570790782624,-90.0,2.4111213920278756,0.7671203354870343,-3.540221762097254,-4.529956671000936,-3.535939802054552,1.8379550564216334,156
-63.45303141120488,79.93668752290046,-15.049421111173215,133.4364593244965,118.9680936513582,75.69263635347282,17.261578138108895,-107.33094369414886,-90.0,2.6574857706172215,1.2917987236665496,-3.936281536335853,-3.6657324294677234,-3.5766742823488413,1.9590107523114169,157
-61.839991548233364,80.36501609852043,-15.345473901059997,133.6395162590629,119.26491077065475,75.77321135265595,18.063634654071162,-105.34720511951664,-90.0,2.902641315830182,1.1525378488104907,-3.8776296259718386,-3.0416960905483084,-3.607534268945286,1.9999342204517474,158
-62.38449495139164,82.9901799657649,-15.306210017390704,132.9879276804498,116.82049811033282,76.7625712799666,19.30003645788111,-104.95504152912477,-90.0,2.9797005527502542,0.576585361553164,-3.4673953658305217,-2.7962387336769843,-3.687119004973275,1.9600967491361994,159
-65.57431501016154,81.90262055650076,-15.485767118928607,131.7573038935884,113.53397985431428,77.99081873104659,19.852314761841114,-104.64293428078517,-90.0,3.1988108234148767,0.05544780427091632,-2.548368646655395,-3.112729431071351,-3.713664684348076,1.7446646195034161,160
-70.6525129772848,80.65219099560295,-15.87854689700174,128.28460669641527,108.3127668327445,78.4753728622403,22.387358934741044,-105.03491905691361,-90.0,3.2022773367554764,-0.37316233024163525,-1.6535287433682528,-3.8839959631521412,-3.6655473042282494,1.5286946075104295,161
-76.16785407267027,81.20804836437402,-17.104745043625673,120.95731596275945,100.07107744676279,79.10783794693788,25.945531083116318,-106.12729717632315,-90.0,3.2573793120681307,-1.2701040686624774,-1.2179061372208746,-4.385064249723343,-3.4301285268831188,0.9115415198869606,162
-81.18203856189113,81.09232636301577,-18.063148846926573,115.48807015595725,90.86877024138096,81.83944233020812,28.186421798670484,-109.6945608005428,-90.0,3.745515535614387,-2.7527295555262747,-0.7337002651572762,-5.283955129120182,-3.2929380524430854,0.21105294707440272,163
-86.0565711163182,80.29264362448998,-17.805833797859137,108.2531187566304,80.36354774868008,84.23464089339443,31.2898121339694,-112.61856008854329,-88.0004687893273,4.25967468392317,-3.879384520665396,-0.43398778810662986,-5.849904983846495,-2.9655994775179924,-0.6008709653795067,164
-92.85166128032056,78.63318145987323,-17.614127681680124,102.72414033429,70.54544247573453,87.25284868204535,32.62927734699684,-117.42615464804156,-80.66051755428494,4.893948278176899,-5.312068881079456,-0.025583697035848844,-6.578043443590353,-2.9241716835760085,-1.4674214705380186,165
-98.6364705558034,77.45691519049244,-15.298610426827706,99.23522885983675,63.22173701690962,90.1279767674664,32.780138907832324,-120.2634994666657,-76.64679284738943,5.517478196999094,-6.327113634050773,1.0383708805095966,-7.326846909143413,-3.0947575681351718,-2.150511895509092,166
-103.18682676405494,76.91182966899287,-13.765572787919886,97.37849129651082,55.16994883948983,94.6277952538573,33.82987019004519,-122.8479155666426,-71.89076148826825,6.000000000000009,-7.522865514212764,1.7871748014123392,-8.516515564660937,-3.020934561788899,-2.8966820030098046,167
-108.32498547148505,75.80430346383562,-12.201250336857544,95.78885959804524,47.821626092899464,97.26132592240562,35.762804091608686,-124.42239070818987,-69.3199490747731,6.000000000000009,-8.143499552053045,2.4621961601625877,-10.039810678838277,-3.007517517260218,-3.6118163612051473,168
-113.49580288636932,74.2027218056855,-12.74042504486938,93.339393714508,40.3001030926685,100.07103011508447,34.09441142892854,-126.28370693816588,-67.87407797324985,6.000000000000009,-9.105740063212068,2.7024374365478243,-11.428603771038818,-3.068647145989298,-4.5970567843241295,169
-118.02211098706424,73.7941029730744,-11.359133080168718,91.14709264490966,34.81528203966599,103.0652023196543,32.796243380602476,-127.74515362672354,-67.497606474128,6.000000000000009,-9.268928490294813,3.1005024370496987,-13.394973641843162,-3.1454962968260136,-5.165655426218555,170
-121.0353764839529,75.42691831367456,-7.937925448037083,90.6088971149455,29.355636499510975,104.19419381558826,32.17403186834101,-128.00319577351766,-67.31629461508848,6.000000000000009,-9.286171255557448,3.551402616041081,-14.779218170999783,-3.2544282573696743,-4.994183550916543,171
-123.13427394702626,74.79096350479469,-7.771916299404613,90.66715395142525,27.879288403876636,106.07024628922389,31.40768294147327,-128.5148396807801,-67.53630326543102,6.000000000000009,-8.767002678351494,3.9283204114813697,-16.18510998969405,-3.387957740042284,-4.747538793382846,172
-124.49177665214869,74.7910741480105,-5.991593206723381,91.76120935000682,26.389927602070507,105.59313192366834,32.04113212583291,-128.27994289208777,-67.854664743218,6.000000000000009,-8.113423526721002,4.149215899965983,-17.36099662278727,-3.544905812259509,-4.382541555956001,173
-125.14213484555478,74.93746277913947,-4.4571242455322615,92.57085424422687,26.555967118520147,105.46062292899832,31.555060274830005,-128.41050953322366,-67.91303097255216,6.000000000000009,-7.56969587677799,4.117977943787327,-18.603706623242118,-3.617551340266721,-4.193759282647928,174
-124.48253612086589,76.38520920814928,-1.6108234317677521,93.96834240332656,28.245791999840005,104.27864605171797,32.032470688907445,-128.34248871098868,-68.17161564626488,6.000000000000009,-7.267054407579442,3.9242202962167667,-19.534933186836234,-3.630531647890455,-4.2073277541776894,175
-123.84180855423263,75.91864353560837,-0.8967681620400388,96.56878675063267,33.94471130476439,100.8332852798899,33.425162627204124,-128.86004979612957,-69.89961223465534,6.000000000000009,-6.680240832902031,3.7348625003414644,-19.32239263995746,-3.7173139036051865,-4.055093185326839,176
-121.34165771267568,74.87230507480609,-1.9975664390090333,100.13244258863224,42.355514397437794,98.80236567521224,34.62112179779389,-127.96791796990759,-71.21004398237473,6.000000000000009,-6.160047758170962,3.426889681612134,-18.046634613987834,-3.6730105127027883,-4.01298791619624,177
-117.17265923028205,74.59501809394665,-4.022939407293179,102.59767517807556,47.8798536163142,95.97163058523175,37.46554553906766,-126.37762981765485,-72.33874101783233,6.000000000000009,-6.0211414294724,2.6170060487763336,-16.739563233345166,-3.415596494983778,-4.108345832803302,178
-112.60415434402447,73.98394398064309,-6.120611482499636,105.22059491739881,55.516622286243745,93.75295624414284,38.11348540329315,-124.16047228090724,-74.16681860548022,6.000000000000009,-5.599230281766501,1.8403503937978816,-15.618487446422545,-3.2260776084449825,-3.8986273033733436,179
-106.08219945072926,72.6410775420816,-9.221090205676875,109.82412406234927,62.009750457040454,90.69762755675413,40.87651136212691,-122.87853134748252,-76.12589342704165,5.723708260757883,-5.128975747910389,1.0254770917934701,-14.371478162382852,-2.9755029578638816,-3.233662249226488,180
-97.22719447731015,72.91944254275715,-10.944422374230742,114.36209206747614,69.18948134175226,87.15546759791252,39.649709170352516,-122.76916067258982,-77.16706782793418,5.072898721400282,-5.317676009980144,-0.25601943430074003,-12.495647962788048,-2.517410858839668,-2.9036560003176497,181
-90.30041552554678,75.65987490722313,-9.13150824714523,117.87503947643543,76.81121502254346,84.36840073840666,36.71233148947336,-121.98867595324324,-79.51036779320758,4.460152642642745,-5.19862141077113,-1.5016520805316458,-11.199021555662686,-2.130294183884977,-2.4362231676121047,182
-83.95479698780723,77.24073942063744,-9.886518557484845,121.3581252323484,83.4154176551294,80.591830926561,34.30213423157353,-120.87576071321676,-80.2320977831541,3.8982782276823698,-5.709704107158613,-2.797292286007419,-9.619537422172847,-2.060800533132191,-1.9844085585237767,183
-79.3001636062751,77.28401930543697,-10.172009659395963,124.40556301191333,92.20200755973059,78.33520285759471,29.63190656485877,-119.85402009900508,-81.11454818294538,3.2412059570402096,-5.785737568286228,-3.959211313828936,-8.145879240839964,-2.135279403311741,-1.23568002706356,184
-78.48305845009097,78.31199794332717,-5.771869716311532,126.5539643126663,99.78793039920868,76.81009314754073,25.032244627545513,-119.77671312428787,-86.07874300607632,2.6672726700334235,-5.28933156154001,-4.908715789411033,-7.307077019514889,-2.291847665389276,-0.47541810974658616,185
-77.21557440082739,78.12833830746867,-3.679590436718892,128.1731633854165,105.43816085550601,73.75827376505038,22.323645048028535,-119.25652807015057,-90.0,2.1951013704861824,-4.482593824020015,-5.750065024571312,-6.584032794129709,-2.4770662807870005,0.027834790248334358,186
-76.96855605838547,77.68748677529078,-2.8874825644675846,130.26734535544026,111.70890312240645,74.2608831971027,18.914363565609356,-119.01910486788282,-90.0,2.1683870693651506,-3.3093044275333092,-5.984824572897413,-6.044609776383995,-2.846937321321721,0.7188001429542733,187
-76.19773599304229,79.10609955611605,-0.9769245824856546,132.24086807285158,115.57738185582384,73.72682651566085,18.034951608234042,-118.5362082763216,-90.0,2.615737092362879,-2.3167957999576756,-5.883577500248161,-5.602811683594662,-3.236827574449599,1.3000620797157547,188
-75.37408111949317,78.6148011213502,-0.7722855276413555,133.41001251630675,117.38951854073527,73.53440290991101,17.885283066509935,-118.66362198508205,-90.0,3.2163876322459943,-1.700519963277892,-5.580233430843396,-5.1721849999083975,-3.713676354428805,1.679506252320098,189
-74.71048507578071,78.68262199743828,-1.1406868830714356,134.12934844120088,117.97709136277805,73.19381742013049,18.06062659825239,-118.51808139694124,-90.0,3.7146637814640804,-1.3077282993789645,-5.27225320498701,-4.565715992845052,-4.116165672156722,1.9249274036722077,190
-75.34760727464253,78.08448423602763,-0.5730093860960108,134.3287535759451,118.17527853836322,74.25764383777238,16.33124604696676,-118.88683004406755,-90.0,3.9170543725864757,-1.181420613115393,-5.005900287307917,-3.960171493176043,-4.437482884040666,2.0636316572064413,191
-74.3367020890409,77.92232151003128,-0.01742342320604331,134.19110532651473,116.93781759585784,73.63946230523514,16.963383336679428,-119.57824170271141,-90.0,3.8431946053328603,-1.2472659561470996,-4.664599104964087,-3.050156871055732,-4.615806164107842,2.027729185892916,192
-73.88227076157602,77.12107284786622,1.5696780988551284,133.09942332024673,115.1366125964972,74.15041130103536,15.37422869899288,-122.09195375896192,-90.0,3.6248241109795982,-1.5209571814063203,-4.2693809539418375,-2.1396137940229223,-4.814750782197334,1.7718163665064828,193
-75.76789915147899,75.21298799112418,4.705675877928951,132.70349172884562,112.94179030729431,73.93142471135381,12.704783538813983,-125.81725263953281,-90.0,3.549856163226421,-1.9243939500961587,-3.7686567885446407,-1.3784690599740839,-5.167606724374823,1.3234838548163343,194
-74.11186893807367,73.49532753986254,8.800350688968724,132.44850122136162,110.68287904389577,75.85172757754715,5.833746252652828,-129.54479483476217,-90.0,3.2206568691362105,-3.1918677517996774,-3.283982253426108,0.07611068736372538,-5.390531421540421,0.7192680124766669,195
-71.85687402439184,69.42968027255218,12.457225826869495,133.6967947118909,107.45720730817632,75.73060286292144,-4.516596402994495,-132.8924805274313,-90.0,3.0299401567172586,-4.48468329379582,-2.70343081049389,1.2872099724652075,-5.466712916946426,-0.005234535728899139,196
-67.45215943855632,65.95497091118528,16.79494912690533,134.90029212650506,101.26783651982167,75.61387810997884,-15.91695608377034,-136.3070097931279,-90.0,2.8496637189166942,-5.468038673067906,-2.0091595855258273,1.7994982239060267,-5.167004698414435,-1.0150424165781122,197
-63.00220244693025,60.89934981054352,18.92582071711033,138.29476768524734,97.03393650562475,76.29233953669352,-25.436583610961854,-138.79331625837202,-90.0,3.0934220500128284,-7.151896091787301,-1.4372980792026968,2.1902249027950638,-5.1113043153498126,-2.2345903680168124,198
-56.85030765663802,55.96534212254345,17.93521431851493,141.63954534503338,97.50490713915515,77.44688901319844,-29.0146090580662,-140.90620515847888,-90.0,3.147044854682724,-8.081143194208202,-1.0742082224785099,2.9001856869883524,-5.1462329049568085,-3.4790324930955667,199
-47.705258453953455,51.761190816630325,13.677788848321205,144.25652210257755,95.88892212669096,79.74536347298552,-32.249664070350484,-142.56833038032812,-90.0,3.2089512895167873,-9.160649743721148,-0.8625214802794983,3.422278563660207,-5.077925477706238,-4.6431814070010535,200
-37.9382857024689,48.54527799757692,7.708677434998066,145.16909926859927,93.45342114644613,81.49932280891824,-32.592052016671,-143.42284847760408,-90.0,3.1538712242854094,-9.698872983673912,-0.4856519386643549,3.478190472391381,-4.843828677134215,-5.532918168035139,201
-31.35902232960145,45.416680002091816,3.9155959645312186,145.50964281655328,92.1152147513425,81.59160152372063,-32.34085317676959,-144.39610004623967,-90.0,3.2515318542038854,-9.817747407865856,-0.11959907364015586,3.0826235263881885,-4.626328515699056,-6.352145468938687,202
-25.93052642056496,42.642474986799385,-1.0334565604472334,145.8654151554686,90.74894249487986,80.6917978396142,-30.569043749877228,-145.27375658037414,-83.95612621453952,3.3873212824101877,-9.737612555483166,0.1588799856863224,2.3519494529866107,-4.334194776222312,-6.988960239334712,203
-19.617794834884794,42.073875371589,-5.656293048716762,146.11351796706518,86.41384000548591,81.16045488580535,-30.501395004637434,-145.98794350924797,-78.70934538373933,3.640749959176605,-9.481715493338848,0.41762566182233435,1.3440441143398505,-3.981674961585631,-7.508678368417776,204
-13.793664369745148,41.71251279359354,-11.127258648510384,146.7710367402249,84.87109704759743,80.71954942027848,-28.396324072590954,-146.62475976217823,-76.9299836099157,3.738771473627819,-8.794318807414149,0.6894967260104083,0.4728500536190563,-3.726192049164407,-7.732922032002848,205
-10.304695446724105,43.54244378178121,-13.956884873781974,147.18710701013256,81.87150851838558,79.70821775321349,-26.937654317235257,-147.128416459501,-76.20537699543192,3.8903794977796413,-8.070746501253234,0.7725215867235854,-0.7429875302553939,-3.4561737455434884,-7.817445297651036,206
-9.034131248404142,48.04328410319271,-15.97773167197012,147.9959700959549,79.65507035484596,79.5302822422895,-23.758463471733563,-147.54852060757207,-76.95739904998999,3.696193413036178,-7.415555592816924,0.4825981163914711,-1.6138908996904633,-3.250523685145734,-7.631617315150238,207
-8.552522005753598,51.02152968635662,-19.106643177436137,148.0,76.02104949233603,77.63432640418948,-18.36607262729705,-147.85414846114188,-80.4107753075706,3.593845738255512,-6.715702225805049,-0.04547628322638069,-2.7592323051186485,-2.9890938473274695,-7.481410728767792,208
-9.659112068627373,56.36754462412988,-20.799183896748467,148.0,72.60746880446963,79.07622777935684,-12.101083288708661,-146.93266538783922,-85.39632649446659,3.44327292729881,-5.545008431052197,-0.5031468545545019,-3.951379132008022,-2.6534364387080918,-7.284220924692713,209
-11.684280703692547,61.679409037465064,-22.423061221300753,147.17761142793202,70.58885667421677,80.15164061858086,-5.958122939744334,-145.53853813653123,-90.0,3.389249510842933,-4.2704290081353555,-1.0252331802836023,-4.7794104207616,-2.2825844717935575,-7.048653239413466,210
-15.905428607102868,66.32067816445374,-23.398819620397884,146.50819097872147,69.47062194989223,81.18875787255544,0.12214739679891184,-143.840439255686,-90.0,3.3921898725620703,-2.503115110609335,-1.6792373585999663,-5.411324236932559,-2.0167494228970555,-6.556767619997955,211
-18.176119368292138,72.30057340544813,-26.31864255952691,144.8621689938658,66.51290656709669,80.94142960338016,8.518782557641993,-141.33434352355454,-90.0,3.4703679393354157,-1.313519358061519,-2.180710132897162,-5.822595977805916,-1.7412988842615897,-5.96638573625606,212
-21.030002309521503,76.03364169847859,-26.851176154751418,144.42430252202146,64.73904840709996,82.72152101911277,12.647942076689313,-138.66378028093942,-90.0,3.770510582862091,0.0985313104715367,-2.5347488014911703,-6.982858486088856,-1.5402810944199286,-5.058360802476256,213
-21.623532902658567,77.81998652741315,-28.898395228297897,143.44693890939766,62.50312668620419,83.1798248161497,16.463345933443936,-135.5151622908924,-90.0,4.098684395479672,1.1711898719073093,-2.7986961957297707,-8.022393878959525,-1.35832927711832,-4.176032737541221,214
-24.196405672136958,81.198266183406,-29.116121089336666,142.3190505340627,61.04796813924746,82.94173658560065,19.323687231767597,-131.9991202261709,-90.0,4.593642210666628,2.126108363265297,-3.0701244039529314,-8.8046110891053,-1.1678298366026654,-3.55865624064373,215
-26.413591636750546,82.17244138593776,-30.69718301037696,141.7487002888544,60.232312702492216,83.92066950928711,23.744138886604222,-128.16371118596496,-90.0,5.237492763652463,2.885370834594175,-3.1178752663045395,-9.779051970888835,-1.087777359687832,-2.8751254699535536,216
-29.320938476447576,83.46410806662469,-29.54173108785114,141.79723560228615,58.60090255700008,84.46847964647685,26.57586011289976,-124.9503206876128,-90.0,5.779964569676917,3.653887116803176,-3.216185021151332,-10.607503555695166,-1.1494570325009383,-2.0573649824088225,217
-32.34402927818742,84.54255613835943,-28.84684649334147,141.27388126943956,57.2728663854255,84.07324970716097,27.49839129263601,-119.3091385477341,-90.0,6.000000000000009,4.227315980993809,-3.0858433209110325,-11.26129223755192,-1.195785147573846,-1.1515603075256848,218
-34.84055258970259,85.66477635895173,-28.06435393377113,141.19490272517015,56.59159358632442,83.79244152597498,29.42028566774973,-114.44338450036776,-90.0,6.000000000000009,4.469307380757925,-2.860519076525867,-11.983745269503784,-1.3924180052751751,-0.4917964743886082,219
-34.64573953099163,85.29568449052181,-28.52400247163662,141.04494535812807,56.38459444719439,84.9182933283425,29.712567506698853,-109.84442683697843,-90.0,6.000000000000009,4.412999009984582,-2.646300871546778,-12.183126305699828,-1.5711741891060769,-0.06129895424840065,220
-35.12346673302589,86.30969299018797,-26.848273888812137,141.15748938484478,56.354226719642654,85.81657668192375,30.491736219911292,-107.7798266242939,-90.0,6.000000000000009,4.061821995916377,-2.3933703439823026,-12.160661446799283,-1.7611104333051364,0.08114348158433399,221
-34.20133973275732,85.45455746434969,-26.185312650358537,141.11914987367317,56.12732924413797,85.94476948432164,30.866712189196303,-107.3703886330576,-90.0,6.000000000000009,3.351224669301933,-2.086419626481143,-12.008085096808962,-2.0609957118773616,-0.06974187366706368,222
-32.74213616527712,84.82153945159482,-25.373393619674292,141.57629814866377,56.09162187249464,85.97418579374154,31.841307952969707,-108.96060751466098,-90.0,6.000000000000009,2.4714404694075247,-1.8129218859358347,-11.665595860789846,-2.2787583765701283,-0.42709399449983787,223
-31.676405243136788,83.6691510685254,-23.96927707507763,141.69412580044087,57.000450916408504,86.86070606045327,30.478287288824042,-110.76804799871147,-90.0,6.000000000000009,1.4451494504261242,-1.5029929992379503,-11.28082987186704,-2.511179556080931,-0.9139579180962092,224
-30.75390926678842,82.85590880207297,-22.957866999865182,141.0701050814334,57.70599042832005,87.61692033295988,29.178767085901185,-113.5376936381368,-90.0,5.601439614030099,0.23518321329605935,-1.2875897315981644,-10.329742507673284,-2.598830411930833,-1.4985741004841733,225
-29.531090418224093,81.53987515588581,-21.867331114168753,140.64778539463217,58.77766944816695,86.27911576934983,28.874249933781154,-115.8949446725377,-90.0,5.001568144003848,-1.000126181167935,-0.8809347131099766,-9.11547831809305,-2.7465074651933086,-1.9471028537020938,226
-27.160442191859538,78.3813683116667,-22.24088031554854,139.93731089359005,60.19586628075282,86.72546648018262,26.722253345771556,-117.97910454676521,-90.0,4.225137025362887,-2.427733864135633,-0.4767686215817193,-7.894627391842269,-2.798199041740182,-2.377942900185887,227
-25.127826030455076,76.8010017610893,-20.944569390665695,139.68251689934874,61.09921084524075,85.53281678034966,26.110144441434187,-119.95365464079735,-90.0,3.5639691434762737,-4.041625653525736,0.03810038322741636,-6.666617155613293,-2.8855417354110346,-2.795486625616981,228
-22.590563868844242,73.6961646281968,-21.600385985163683,140.04669919115545,62.95876164632282,85.9025588492634,23.281525503804037,-122.33860429047118,-90.0,3.160430464692069,-5.456482755652694,0.4649750413611793,-5.2986158895033055,-2.972042847117332,-3.2003844955918384,229
-20.88962468824291,72.7400359144963,-20.886781670273802,139.90028307835982,62.47466138516621,84.28449237933361,22.53733645298429,-124.44241779447853,-90.0,2.905200235355397,-6.8522700907910705,0.7236601386940916,-4.023351823657099,-2.972388952547803,-3.533688436579461,230
-18.748249274907455,69.6994210157062,-20.557127610596584,140.19857404699735,61.54032528135602,84.01809772230844,19.85561550893959,-126.21073231624288,-90.0,2.960478051939299,-7.804047850620262,0.7728079520315988,-3.5544043477721967,-2.9676496805899095,-4.020203062630254,231
-16.17316848893028,66.89436587148826,-20.673309298196,140.6696379024109,61.73357704523344,84.14449360933452,17.192984224860094,-128.00414491907048,-90.0,3.1568461899998015,-8.081056986312865,0.9133641134140135,-3.1610040040073537,-2.933685456842699,-4.461853902095815,232
-14.387513548397786,64.54537423671539,-21.149519850752796,140.72817445282092,61.65803413435502,82.52803060577628,15.948325157223309,-129.3391837879232,-85.27426921579854,3.3670485618347055,-8.181350521597858,0.942566751582843,-3.0995392929833536,-2.834096827821175,-4.864524834147846,233
-13.140095149192534,62.331507527346524,-21.213597194644862,141.69342020239654,61.76382382886095,82.98973066633987,13.409309996275088,-131.53816594594826,-81.8193433689345,3.60804097528515,-7.893806206406324,0.8283605459525191,-3.6333222455223426,-2.770706072219098,-5.265929529488349,234
-12.667391487178145,59.98400358633725,-21.552010042844657,142.54126903043021,61.060734094994025,81.98245284350307,12.398244985426418,-132.64758268598374,-79.2139572653608,3.781808184051186,-7.357420576568461,0.7572929063426511,-4.196159226153337,-2.6427498071801927,-5.395534213005432,235
-13.350432111014882,60.431393297831406,-21.152651399156845,143.31566091203518,60.46184527671797,81.45491139271498,12.312249932063697,-133.7124188800591,-78.42085832305641,3.8959724440136654,-6.91695457268899,0.4696882722665584,-4.726216936202082,-2.5263446099134117,-5.501959590214921,236
-13.985673388852131,61.280059926313,-21.320885776707442,143.76359722858496,59.427780882827726,81.23604846511606,12.63470739514849,-134.13105667866847,-77.62441055930368,3.9516808672102024,-6.633058686317925,0.11713196232589791,-5.284369584974996,-2.3719428749102383,-5.525445762624054,237
-15.540276624661955,64.74644339500917,-21.18577947281544,144.42852189981957,60.45259547450391,82.79397765933724,14.808257746277613,-134.8952276951828,-80.09927076106828,3.8998244850884323,-5.904167441292143,-0.1538729539665723,-5.618569767412857,-2.2364595746146128,-5.462717741236026,238
-16.288258676935886,66.29287957685706,-22.399488044422164,144.6428036895477,60.03218843984876,83.64417087085992,16.90167936311224,-134.4909111665994,-81.646188020834,4.021958428383934,-5.393560446294518,-0.39593472950757275,-6.287045483844258,-2.037592304525333,-5.432690396840371,239
-17.288515882467745,68.18072980446262,-23.987100361344922,144.96353989316907,60.37793377012807,84.63668254190493,19.441991334546437,-133.76206665751187,-85.069886865999,4.103849937431702,-4.696777059655137,-0.6442476255615048,-7.02704361522073,-1.849406835391902,-5.379606342428762,240
-18.184078426377813,69.84251833218147,-25.36718669639147,144.9168623189448,59.006369074754396,84.5771995258396,23.307314712067278,-132.40757845447223,-87.88567438911595,4.1922675015030695,-3.7725394253573157,-0.7489712886083221,-8.072657029447539,-1.5398634222003127,-5.207099900331483,241
-18.939718339117658,71.80340722061374,-26.972381248879906,144.35535549230056,57.357032555235655,86.35439096732742,25.28351246321433,-130.69580702306172,-89.89791358690564,4.3211346700881315,-3.270126890481257,-1.0137451082478248,-8.80364007873074,-1.2021694544284451,-5.097527575920777,242
-19.246076070688748,73.12542490538372,-28.12109687111926,143.50084484037146,55.39014532562305,85.55878894388366,26.90434347930728,-129.07722052912524,-90.0,4.35588510253991,-2.7455337546866487,-1.1608320548833577,-9.355162050297961,-0.8841555464124885,-4.898191623279177,243
-20.003871465233438,75.22959223806087,-26.691084660808254,143.40038677693963,54.32616505750047,86.6975539725911,26.857788370027528,-128.64347802810713,-90.0,4.3402796933512455,-2.189061999463043,-1.1685503607217138,-10.076195520990126,-0.6585675344116241,-4.572318615149708,244
-18.952475727103025,75.99660294186529,-27.629417086689475,143.1687184618159,52.1741531531935,86.33272173640061,28.52233245898388,-127.93525935193739,-90.0,4.3317024627178045,-1.9006174328907495,-1.1088253972575057,-10.438846007811243,-0.5784241319846144,-4.228788566902507,245
-17.775950705198543,76.15156368379381,-28.286464208645896,142.81466203729573,50.24482123477316,85.75558704462088,29.875199922252893,-127.77258558777302,-90.0,4.296404231776248,-1.6471216013194485,-1.0333569975615617,-10.29293062188722,-0.5382962500693532,-3.816495755199911,246
-15.783741358964546,76.37456829237637,-28.86223216592013,142.594650957541,48.781104965465396,86.5348748678239,29.252316897983263,-128.10439318891852,-90.0,4.312007928697091,-1.5448877099986733,-0.9669855897532859,-10.059921569454426,-0.5690169238370344,-3.4750231112455507,247
-13.972000643698866,76.37701709686552,-29.2717911630424,142.29104253143663,46.327045911447726,85.66456123016388,30.173009417222104,-128.07154561679397,-90.0,4.3707235798064845,-1.4579293868526115,-0.8414279088173102,-9.779178884343391,-0.6000761357163888,-3.1952741559447784,248
-11.931195616591326,75.68829758619962,-29.213975082547183,141.60033395408357,44.6056807511663,84.35064504046207,31.01469835221387,-127.6293754580946,-90.0,4.349920896694645,-1.3706237510809263,-0.6569868301607762,-9.154091828666637,-0.6675775411070767,-2.946618641860444,249
-9.30953543631676,73.3820242527668,-30.717798864488522,141.51195887764374,44.30568901098589,83.20480986733816,32.94004441888135,-126.75474448540517,-90.0,4.220191515549399,-1.1520853989657307,-0.519353845149666,-8.772483697468045,-0.773121638933516,-2.746574966823559,250
-9.397815420360235,71.5939026905299,-29.977338758204315,141.48943286067518,45.38967750078505,82.95953683694253,31.954377710964174,-126.46643415062012,-90.0,4.088538446396392,-0.7068951336861622,-0.21425784780728224,-8.514825546433899,-1.0152199391308423,-2.2649737972088366,251
-10.584369865446055,69.0796595884827,-29.05229877202449,140.72464471714943,47.10007590278621,79.9836502985263,32.57307796282035,-126.69575023332641,-90.0,3.9705932648574453,-0.345384333907501,0.019697349750582682,-7.351765421079418,-1.324095287866893,-1.9492081120363913,252
-15.982627424772039,67.96050052596368,-26.374345674089703,139.92676377531095,51.11136128256393,78.15630715839346,31.996189863659893,-125.79739912116138,-90.0,3.9626160598476536,-0.19989539964077177,-0.0063855384492876735,-5.586278470080205,-1.7621560161973624,-1.6750968841272018,253
-26.99651797710723,64.45246386671892,-24.307176659869214,138.65733781808382,56.27803002335713,76.15992678401167,32.28587480120193,-124.14672858852472,-90.0,4.10673047791294,-0.44070193403865493,-0.3351872707650026,-3.9188804379017297,-2.3972589683686505,-1.436802379488582,254
-44.721027520508976,61.88222808481748,-17.942032307718815,134.09603621481162,63.873555183474124,75.47150827161097,29.561037558305557,-119.37456750046158,-90.0,4.158931261772823,-1.020684397431116,-0.7689280703297363,-2.489521240940006,-3.1216299063791686,-0.9564900821345985,255
-59.566194845830324,62.271049051484475,-12.899489559062026,131.63673634504323,70.30976124916114,74.24625982982784,30.83695500990754,-117.81859652609143,-90.0,4.053958334911853,-2.4971070480160025,-0.8915389964128936,-1.5725607614015595,-4.023185869341167,-0.1295340160176364,256
-72.5959644451926,65.41731330216734,-10.182845543216455,127.92895879299404,74.46752977271822,74.72793097622561,33.76037331506917,-115.30857473613993,-90.0,3.9837796664479197,-3.945086431954203,-0.9402280164580508,-1.2935627203650097,-4.685630790809107,0.37322713447190703,257
-79.57469050759832,67.55329683781288,-13.057250504165923,123.92116436288913,77.46491870937689,76.28436437443865,35.18529363619565,-112.44945116952539,-90.0,3.9387979241511646,-5.449986977343984,-0.9682640162112837,-0.5657517550811445,-5.299518281709671,0.634780000226055,258
-86.44548359646059,70.26415729803414,-15.136543486169685,118.39964114802194,81.20510769943375,76.41232479823542,36.32893648350291,-110.8820296603976,-90.0,3.7789623720237677,-6.345171771457687,-1.0636224903661975,0.6216865344864762,-5.780661999224778,0.7924116529775127,259
-95.36894123051101,73.58561397686995,-14.405992375574755,114.28182792850573,88.05690553815623,77.99048942716264,31.895861972991213,-108.59419807209808,-90.0,3.3956304630037923,-7.456905597187329,-1.1550693834270598,0.9644308959891756,-6.240542214963029,0.6509556996219014,260
-101.26971283377272,76.69340940171921,-13.043766396240407,107.48634120154767,94.27225913409798,79.07709992798247,27.11749640799241,-103.86396390109724,-90.0,2.7034416683939257,-8.759637321952084,-1.3787473256361527,1.6811355130254617,-6.370612004093438,0.885646471186434,261
-105.81754808485074,79.54063338678006,-12.657601556368661,100.36970504821609,97.16517659175281,79.75920011695639,24.033047334428602,-99.46240646749601,-90.0,2.223172848374044,-9.208365648481141,-1.613748317427334,1.292966391521517,-6.066503976629052,0.698026994230873,262
-105.51006605775243,82.1588421879755,-11.8661621768558,90.39631946919197,96.8664586157088,80.79413147451233,21.413990720742206,-94.56050247796368,-90.0,1.3896981855313133,-10.587556454679815,-2.165109055016488,0.8294429843295449,-5.358313955469993,0.4109599161317546,263
-105.29948401085447,83.23079308236508,-13.085888498842955,79.02897053743045,96.945414606535,80.1097962580721,20.27684203818456,-88.36155534433931,-90.0,0.9742836318665038,-10.70887275678631,-2.752196946846944,0.27729546724058046,-4.5260034659295005,0.29383021290545164,264
-102.80815063718875,84.26161359870058,-16.25031977101991,73.2779469870568,97.39035357806968,79.36924127063078,19.988570865977305,-86.18603921036342,-90.0,1.1874298868910718,-12.534384297411648,-3.3714432855267904,0.27998207473867176,-4.465076517842084,0.3055979863428046,265
-97.60192571284097,85.4201868182666,-18.637159746653836,71.2526866485999,96.07862457779146,80.12776107974473,18.45135725091749,-85.21883269911405,-90.0,1.5367740144870174,-13.888290650376291,-3.8023962397151507,0.8014468723294539,-3.9662701254653676,0.4274826241290148,266
-94.8405641433756,86.68020985370407,-18.748749134408936,74.14817442326706,95.163984708857,81.08313276813348,16.890572783057564,-87.71532001289131,-90.0,1.9423665906858962,-14.848433316448096,-3.9461122859069344,1.232314665145446,-3.7172322803095805,0.629378498818599,267
-92.91891521626295,85.94320138246181,-20.834582664240095,79.05371794772411,96.01954593899352,81.71772153279291,14.800388663614951,-89.98337993921672,-90.0,2.38059796326709,-15.587751169948955,-4.051888865105008,1.5679206349351982,-3.814628567880707,0.9056342812700202,268
-92.95507760397427,86.21167617565419,-20.570046850652144,82.47073903491572,97.85065652010034,80.63702942236515,14.596773749897082,-92.59734918987364,-90.0,2.873200410936577,-15.618798996331375,-4.111670235864731,2.1530321068602993,-3.965614451785954,1.2986360603220657,269
-93.04348813811839,86.07802060147199,-20.53138686098168,85.55055597568746,98.42786463741204,81.27631907006437,12.182726553572383,-95.78810638426512,-90.0,3.2449837428609727,-15.3800232103111,-4.1425400301575,2.311322392922107,-3.8997430198272607,1.519835492891059,270
-92.41074721004367,85.67051444802969,-22.96304954024934,90.60930345198209,98.67428677809427,79.88833508823294,11.621452448064845,-100.52323547636006,-90.0,3.5474696340260703,-14.680103937346336,-4.364794073418126,2.7017990361477406,-3.9620054200403585,1.664508670120365,271
-92.68474165559438,84.19450291860795,-24.58955529160897,95.271529867286,101.59114625982083,79.42534123773443,8.447797764466241,-105.46176760349616,-90.0,4.0984285102003,-13.928529936032824,-4.739961137411039,3.121130572414247,-4.285325763742296,1.9534298832020234,272
-93.41426929412064,82.81172435848555,-23.776092804405295,99.58211718022241,103.95547068225625,77.93295803725242,6.881976104719489,-110.14498844784475,-90.0,4.696655899996589,-13.579460029202501,-4.980858874901668,3.126838803328776,-4.76728080093236,2.1656018323620274,273
-95.35211233345673,83.02049497217561,-21.338933374835673,106.78402091925825,108.3852835336114,78.28468354213561,3.448513200938577,-115.76779567129047,-90.0,5.415986285639382,-12.791653536122658,-4.969822155872119,3.359410094819513,-5.46002482056948,2.620550027037439,274
-95.40059791071467,82.34480055351551,-21.676423881852298,113.16192211935966,110.7740384814049,77.97608355612506,2.3289756214242296,-120.80519327123693,-90.0,6.000000000000009,-11.973048638786938,-4.932620562908768,3.1891844048344957,-6.0782576881991925,2.95869759821438,275
-92.62962239574934,81.04030290903496,-21.140972685055026,118.86863872237963,108.6461754885258,77.28096008062192,0.891165143888672,-126.2818874797792,-90.0,6.000000000000009,-11.310041029618361,-4.999771356507565,3.020219237346314,-6.457306966239397,3.142677926971271,276
-91.58240898564605,80.93485111997681,-20.734509384658804,122.96609355038419,110.26028217390657,76.13221316667193,-0.07457008020015429,-131.08350782511863,-90.0,6.000000000000009,-10.843216249184227,-5.295599378199048,3.566395959230078,-7.073538794949835,3.637436664648798,277
-88.28838130700899,79.16415745818546,-22.578183887462373,125.55037584984773,108.64211213555353,73.8974707171987,1.0189224247708888,-133.80801132429778,-90.0,6.000000000000009,-10.281651846652242,-5.354490595633764,3.8614511505394455,-7.300673784328493,4.050930687592962,278
-83.28840853227588,76.99615129887587,-20.780831256959793,126.58426300440082,106.8037163985575,71.27167587598178,1.4213831613216377,-136.1423799005786,-90.0,6.000000000000009,-9.75836215970905,-5.199232575834768,4.247859409738695,-7.345922537724124,4.463755498139839,279
-81.42874155154765,75.24002230403684,-18.979448520251925,126.72135077596252,106.51275182492347,70.18383487360042,0.18121290904883433,-137.59938612314906,-90.0,6.000000000000009,-9.047370994010565,-5.138400777305982,4.850236126597547,-7.55934564208625,4.920892995163235,280
-80.4568815460043,75.5505734382793,-16.693210749521732,126.038048829587,103.70039428840012,69.28687765213834,2.098617373076493,-138.09187293097327,-90.0,6.000000000000009,-8.557158589608719,-4.869582213896402,4.7741139582208865,-7.429718484966882,5.26066056542819,281
-79.55143867444669,74.79320256545608,-16.354570101206832,126.14935191012604,103.33057937169983,69.7021627891101,2.5012652183868958,-138.48355799965353,-90.0,6.000000000000009,-8.450801941601123,-4.629278810626356,5.056641311524432,-7.426520675039426,5.601310762260179,282
-78.43567326446467,75.33826197569414,-17.096730151770576,125.66366761813393,102.81514535752939,70.89159787989958,4.6646223399772975,-137.63602279609057,-90.0,6.000000000000009,-8.388099115954452,-4.231047024573865,5.674299257808211,-7.233517662959852,5.7278166550022505,283
-78.45684002869515,74.68629004677035,-19.52865962472544,125.46342812504358,102.17902037624938,71.87405519713204,6.728362793482009,-136.61503962671262,-90.0,6.000000000000009,-7.5133116768698756,-4.09763618870029,6.260355057827289,-6.929400563923892,5.625447525542864,284
-79.35430731248742,75.71821161233997,-19.960473436079788,124.25643632017703,102.08434633633581,72.85914707288468,8.781199685823893,-134.74779314441236,-90.0,6.000000000000009,-7.484412596172694,-4.106764214298042,6.582301877400243,-6.635594912824158,5.508362842762845,285
-81.31348472141325,78.72135581423551,-19.104521133297375,122.00154340043984,101.52464796602318,74.7316492607685,11.294871591845842,-132.13717779591963,-90.0,6.000000000000009,-7.551940390716487,-4.136143377419974,6.377186858335582,-6.224368729074289,5.197768638638725,286
-82.18402614849337,78.84117683084602,-19.869202611471138,119.89566510473277,101.7680609415202,76.64583204144184,12.651970498140312,-128.02368645224442,-90.0,6.000000000000009,-8.045591009377908,-3.8926494595367727,5.627435793296815,-5.767880711374678,5.072076958113376,287
-82.7545121711436,80.7376237504098,-19.397448783555447,116.75314878166375,100.55351455607618,79.04950309397472,13.97572858105131,-123.60493894466828,-90.0,6.000000000000009,-9.479473248453633,-3.36500858409098,4.7795019498600295,-5.245518058312307,5.04454774681048,288
-82.37790249707736,80.55254914545547,-20.831499474660614,113.55980935698189,97.5203246058548,80.11919173447347,16.399685106773763,-118.39880961186402,-90.0,6.000000000000009,-11.629838870466505,-2.718443610337945,3.348187004523972,-4.7868187079046,4.866261339728405,289
-83.19215576997345,81.628781131428,-20.135601425048467,111.56864126681926,96.6667476392671,82.23407103370657,16.53660791760469,-113.60122497052504,-90.0,6.000000000000009,-13.716016753320975,-1.8961290087124758,2.21688497009397,-4.549657439968231,4.7187918323473586,290
-84.93373215414123,82.32028896481042,-21.03510693571028,107.91475734491682,95.53756525983628,83.4926258608887,16.61849082580674,-108.54811431509343,-90.0,6.000000000000009,-14.219084284475246,-1.6675872216031105,1.3811958555825505,-4.10745111378205,4.164155829835787,291
-84.74653338928377,82.13622403795777,-24.089153965908974,105.62673667796105,93.59246727256146,84.43042702946234,16.81747264853879,-105.15438219460793,-90.0,6.000000000000009,-14.699264507846562,-1.6701037331612858,0.7070756306861499,-3.767434076769736,3.4792122007310406,292
-86.24226178384455,83.22522317276115,-24.83034453979913,105.57351128699165,92.8725464031658,84.50656152002614,16.838898334139955,-104.52961750246956,-90.0,6.000000000000009,-14.483061369205384,-1.9319277585609107,0.2407269213181505,-3.5806744900516208,2.7993158057115646,293
-88.89239428813296,83.95415119222578,-24.578742042477717,107.04388904145956,95.48799066151686,84.71060832792438,14.794638685947469,-106.10554744072464,-90.0,6.000000000000009,-13.126174354874749,-2.320401560766106,0.5079231680530539,-3.712458282357403,2.2166606975886296,294
-91.27527607994485,83.75116364735334,-23.780187172637962,109.20229867468797,98.08871327879463,84.79273002664819,12.41323020015451,-109.17587009019482,-90.0,6.000000000000009,-11.796941516357474,-2.8098929383442988,0.5541677840590732,-3.9822910825277424,1.6366182107785503,295
-93.38516058824955,83.26634687686855,-23.10810464588666,112.90799109595878,101.16500478694353,84.90446708352798,9.63415607840722,-112.51401908045366,-90.0,6.000000000000009,-10.550275686727987,-3.201815189711594,0.3932120385651716,-4.459559394969462,0.9473450494620805,296
-93.54636547089058,81.14926825737776,-23.70485488802375,116.05540681567203,102.68358936646793,83.72097088037545,9.34765583446841,-116.93556266748364,-90.0,6.000000000000009,-9.120065259724447,-3.6964307471039026,0.5622794607500815,-4.829420762238149,0.5388017295901955,297
-92.70776661296519,80.89252346206023,-22.6095162558205,118.52869186114856,102.42134266990452,82.23409722243457,8.703756694921031,-120.79789031187725,-90.0,6.000000000000009,-8.119056782910976,-4.284574336397456,0.6115234153467066,-5.051727440980243,0.11287587526217338,298
-90.24902299710936,78.33409833210246,-23.12666070833646,121.7194564873339,101.24125979055957,80.81354154108537,7.509792812281207,-124.5935339160366,-90.0,6.000000000000009,-6.999193027750657,-4.540047508537316,0.5412734256834412,-5.453302826761521,-0.06330088204431608,299
-85.33718273951729,76.16172930368174,-20.68821857259614,123.08829477245317,97.29686758031298,77.62412583639068,7.591607094791322,-126.72175552345114,-90.0,6.000000000000009,-6.477982392359856,-4.532508814103521,0.4393278016031692,-5.519199613545181,0.005107549902856974,300
-82.90500944228945,73.9737589697083,-18.350216411279884,125.27210475473144,95.5337205207188,76.18509785408474,5.606246450109043,-129.75694206281796,-90.0,6.000000000000009,-5.957682317461575,-4.492919622757406,0.21105787354808958,-5.892171314987276,-0.036767685286777214,301
-76.44086119967398,70.70882609922961,-18.633061058176853,125.21394689332064,90.25501226965395,71.9756548410402,7.8794446730912036,-130.18046195150993,-90.0,6.000000000000009,-5.680548508561007,-4.28452172764547,0.08337793660937574,-5.834999877469099,0.16036479554400468,302
-71.44730309425742,69.64578346475093,-17.503521087598465,126.41553035741349,86.47527723852363,70.87850926125016,6.326197813153829,-131.32211140834278,-90.0,6.000000000000009,-5.610411976211698,-4.16827381026433,0.15442156555747155,-5.94663604835595,0.36323216142300635,303
-67.12472784441196,68.92003245557879,-16.498686686129446,125.72659781367302,83.82466572919307,69.76262454144072,4.963436572806647,-132.24152637674368,-90.0,6.000000000000009,-5.752447354243239,-4.120008407777444,0.3051357032321469,-6.011205904886599,0.41170361548882123,304
-64.83157358603061,69.87195909234114,-17.768013409558264,126.37431798191476,81.90778764508298,69.9633546100078,5.114340223794309,-132.9095883677768,-90.0,6.000000000000009,-5.8220613401940895,-3.999850806792526,0.24066603106450069,-6.125170510526288,0.37021210575186664,305
-63.91509948798867,71.29719586738553,-19.42186684572141,126.39343707787245,81.09863728389563,69.93445577389497,5.10200897238484,-133.56264015495563,-90.0,6.000000000000009,-5.663256783928923,-3.9706476969736193,0.26321523185767737,-6.258253277284376,0.3463779089867814,306
-62.49947514791042,73.0410357424304,-21.141695646114485,125.30298804410849,80.74552473190458,70.02899256308606,5.527948345788903,-133.69335153138087,-90.0,6.000000000000009,-5.819564537068286,-4.021182146861447,0.4423197973874826,-6.297758924470843,0.344759698378149,307
-61.97761491588857,75.61102694780342,-23.685668558328178,124.02507853425949,80.16939362404912,70.87922374122046,6.9035461441296135,-133.0510693032641,-90.0,6.000000000000009,-6.097906070535509,-4.10467015727692,0.3839402788738674,-6.360252325826545,0.2793516444437469,308
-59.78330077877491,76.60964031416636,-28.068227774833268,121.71352910110286,77.72534272581993,70.65737464007317,10.672874417297235,-131.32554860416658,-90.0,6.000000000000009,-6.754619967435685,-4.098301459712996,0.22953456755634527,-6.2647946503675485,0.27242845799818577,309
-59.57807482848892,79.40975772530675,-30.437231769946447,118.69090405279874,76.69805760366688,72.32698923421412,12.874301824361375,-129.6712341552952,-90.0,6.000000000000009,-7.332528484570074,-4.098328614667589,0.17670947497729708,-6.217657613110964,0.22694098699809798,310
-60.86291423856944,82.38324907462128,-32.60714186176852,115.5139375390134,76.54901717791628,74.30702995064229,15.451901641979509,-128.17077521878875,-90.0,6.000000000000009,-8.031514214239431,-4.244072013629909,-0.1107796668952906,-6.127309166320462,0.0409024639847384,311
-63.3245985376835,85.40736549808547,-35.09793480067546,113.18102079196952,76.56803792358674,75.33144783379375,20.085188816644898,-126.00456069097092,-90.0,5.463582038873891,-8.685111403573663,-4.413269389577905,-0.6559984637358515,-5.897364825180459,-0.07208488045284316,312
-63.334751294668656,87.23402038954124,-39.24467726384574,108.64803771505572,75.18478894417372,77.49427502263863,25.142327263330237,-120.99484000172278,-90.0,4.518397779742746,-9.740772389532586,-4.458039173202814,-1.2681428627659181,-5.405846958040657,-0.12721291998657186,313
-65.28955718682397,89.51902110336192,-40.290328800050936,102.26661021523432,76.03878424477989,79.63195518444418,29.741959892878253,-116.17531413564656,-90.0,3.73473243169911,-10.411070244208327,-4.589146316470587,-1.5057778751365432,-5.054356661823343,-0.044393880625277216,314
-67.442831311115,90.39428863520887,-40.26914139200466,95.45398364546341,78.34602486485757,80.9771510436877,33.00694136855728,-111.70699564212822,-90.0,2.8894902925128325,-11.827313693146158,-4.651985205504139,-1.7700259738734916,-4.889407563100589,-0.05977181922104844,315
-69.40637738227373,90.3613254403337,-39.63478571883079,87.23288111125854,78.73970295936142,81.2670579817198,34.87506301664612,-105.41739963773954,-90.0,1.8827858569885811,-13.858333694398622,-4.516617757715812,-2.180414037780766,-4.790024429217661,-0.4107418987081703,316
-70.33309740272347,90.57519735274467,-38.785795892672766,77.46458617030831,79.02583329573699,82.81278587279782,34.616399081777985,-96.62092251288763,-90.0,0.9457013869755087,-15.598537580880617,-4.447978557855421,-2.4715290436790807,-4.502440165237886,-0.9227096181278186,317
-72.99977380437966,91.30088984876791,-36.599620301824956,72.93591650024159,80.36857419307194,84.17351068430335,33.75683935186388,-92.01416363816352,-90.0,0.17476650498639187,-16.830782464606354,-4.330188067359915,-2.78001809767201,-4.416106549256402,-1.2854678257217755,318
-73.21834649577774,90.00514199536832,-35.31389750361392,61.92692059699535,79.10113286952677,84.65329379163929,34.200012303578326,-81.98816818159038,-30.35139616675818,0.5984086866497502,-17.468831963320692,-4.193753247236702,-2.9708940235707515,-3.952345704991592,-1.5567429383382316,319
-77.33091367914481,88.19371952105499,-32.58704291253759,51.10629336745294,80.56078544890033,84.94887078851596,37.06252392432696,-70.55818092499115,-40.632006735943314,0.8709361763676685,-16.490847567581643,-4.103150883961677,-3.5903899960812216,-3.9243154187942695,-1.56078048702957,320
-77.84897537097639,88.5207026940575,-30.897088370188676,37.84635916942903,78.39692682458013,86.62004608136667,41.76640329562986,-53.518419571804735,-32.10322741376258,1.4533768261631768,-16.473560954512372,-3.851967334255795,-4.427751552066704,-3.421551887537134,-1.5976799126843486,321
-78.11292465651047,87.96616707384068,-29.63317171826938,31.8061895280506,75.64140061071679,90.03905612009473,43.37558880504229,-37.88122332852301,-31.374893760713075,1.906784071809484,-16.661074353891163,-3.3157492535052278,-5.565968795923958,-3.001991857367573,-1.858717167313997,322
-80.34455260067428,87.0911090607132,-23.83608279742976,31.73648656486357,74.16117366643378,92.42538866469917,42.03942586493294,-28.298822862089697,-31.512912116777894,2.4219046409504927,-17.119974280499328,-2.5898858762334207,-6.915953069308617,-2.6674037985717334,-2.0321187703911603,323
-84.15331894760725,85.72228922577936,-19.39890825776444,36.80379065178094,76.41631260694123,92.0012850407146,41.102493729551384,-28.2988228620899,-31.659493247353996,2.67456695383176,-16.73049584431361,-1.8697796519515257,-7.8769963773053835,-2.6108507885326255,-1.8971563404588732,324
-89.37328470363731,83.92640241941913,-17.41082850141002,46.885106124504034,78.5267160264213,92.1869942786695,40.44089202044468,-28.298822862089825,-35.1396362571343,2.709191069788333,-16.00217261436819,-1.1444722489799564,-8.610577314454256,-2.941727047141932,-1.6872911141731322,325
-94.54357956038719,82.797987155577,-12.627435517827724,58.10260142278266,80.50362291128933,90.89508333867158,39.72314920046874,-33.58978697203768,-42.46452948555027,2.6030951437655396,-15.838546414759097,-0.6411432444141533,-9.318145898092842,-3.4255342943718268,-1.4223271409393887,326
-99.85143033725352,80.42008212944303,-9.332232940648437,70.42130305583403,84.51658002451256,87.71738185678895,38.93571879514865,-47.45719668532425,-53.80677183948745,2.409205263393147,-15.52740457845116,0.07627056529105623,-9.919273046469424,-4.3935512405520445,-1.1570689176145423,327
-105.5364483665166,79.79718810412393,-3.1605950645065786,83.0997866782229,89.38521650914177,85.07559293921274,33.08706093620332,-63.40087923313223,-68.6322865764546,2.520626274773389,-14.845989716826478,0.8922050627337307,-10.16910041849874,-5.388084922946463,-0.876322941394882,328
-111.72707194937966,80.127325571459,3.645872229172135,91.89459639886918,96.4071620650955,84.50398692700678,25.527242481970696,-75.46709829849362,-78.98654433405727,2.9753671442960092,-13.814369309376044,1.4910434990876138,-10.138938060924803,-6.245994975996541,-0.6021082130407561,329
-115.64949142674809,82.82436174891667,11.42147358533674,102.59769874788884,101.9593513588385,84.30608655116112,19.75423269762669,-88.38605478058196,-87.08480194385368,3.4130038450969997,-12.579585867704036,1.9396889685478491,-10.49508678839922,-7.0654025275552,-0.3259461991911733,330
-118.32019198476645,82.64300301144006,12.975683735693835,111.64145315446865,106.74031796380449,83.30443741092432,17.095376184343287,-98.94649979943523,-90.0,4.0323787151131585,-11.191880292136283,2.3301514819123725,-9.880458954361487,-7.685649721007118,0.019377234105265186,331
-119.18444497860803,82.55972911164554,14.168806693890643,119.18448449054192,109.57038995762984,83.40999574194322,14.889607995212646,-107.36545940185225,-90.0,4.608017415889497,-9.951755903106147,2.6263434866004975,-9.00965755802312,-8.09816941343808,0.4731484221219462,332
-119.42412812640428,79.93747959235743,13.910509492756317,125.57319555899323,111.44538861151021,82.41618141833413,15.098804158083242,-113.88095110231876,-90.0,5.026299284442592,-8.263982772975588,2.720306922603544,-8.269619813421913,-8.364830815697296,0.73457935638822,333
-120.01537101871062,79.14789256049136,15.112539445938564,130.96809986538727,112.81115171575127,81.798006202611,15.184898883253343,-120.32105992969699,-90.0,5.521006406331581,-7.25831473407849,2.349164121650246,-8.193508427666163,-8.766942958655143,0.38669163918449295,334
-120.04834484952445,78.40341618425398,16.429104562721992,134.59425651295768,112.20140863039984,80.90271514279014,15.231964331953753,-124.77266031756905,-90.0,6.000000000000009,-6.624175730276336,2.108678575658398,-7.772145879037258,-8.911147269176995,0.14026963401180734,335
-118.12341598584844,76.68198978413102,17.425361815573797,136.46912767955513,109.21441329329294,79.9161393820815,14.877861399136311,-127.0964691839133,-90.0,6.000000000000009,-6.160849442713235,2.117821185851545,-7.395679619955333,-8.944867657252273,-0.11881958662558119,336
-116.15718307247515,73.85969614958877,16.37688348740445,137.59957097869432,106.72464514526769,79.73952798635582,15.789936286075358,-128.67175746637866,-90.0,6.000000000000009,-6.186445355589815,2.134485835870603,-6.772697943006743,-8.864466320147926,-0.3205279711703651,337
-113.08567494494257,73.1389120392939,15.237488464312445,137.84517896940002,102.52354185906951,78.13330072028872,18.15323878915518,-128.7878831944862,-90.0,6.000000000000009,-5.898107625969201,2.2316338957273585,-6.595235879592967,-8.598636659490634,-0.6428758892611102,338
-109.82650709504934,71.02446114044002,12.28730821677179,137.58605051126597,99.06684981828963,77.94453637034792,18.82294795516996,-128.63534981160365,-90.0,6.000000000000009,-5.4916240702215315,2.0835908702183557,-6.309687315938261,-8.391633002811338,-0.8675837356454861,339
-103.75836798124855,69.99464937208577,7.3258013288023225,135.3471629736206,93.54583648449925,76.63083076647973,21.895979293123396,-126.12777263610361,-90.0,6.000000000000009,-4.885973086567911,1.6481642927160312,-6.2668205241303365,-7.835228147035702,-1.1037441611268777,340
-98.72261683592505,68.01162915744946,2.696526329966176,132.62154244531882,90.23305316301301,76.0575241404171,25.347036750497892,-123.3261433437062,-90.0,6.000000000000009,-4.315981260231964,1.410339428626567,-6.111241876887295,-7.495638112970346,-1.1951493532151576,341
-93.55462288493065,67.71695479660862,-0.3658489461186313,128.5318655369725,86.2572721267857,75.61946375416719,28.665801778166248,-119.27217666977339,-90.0,6.000000000000009,-3.8205241308458335,1.1648362449927498,-6.1670100859301975,-7.03084379498119,-1.4479983748143073,342
-91.61161373152075,66.73030841413679,-2.7137407207397604,125.25088003294766,84.07903083748003,77.04022643515877,30.233622682677435,-116.11156952452039,-90.0,6.000000000000009,-3.9577672581703895,0.878284521614662,-6.408172903425419,-6.703679571566778,-1.896197080201029,343
-89.98876339688552,65.74938076426152,-5.437449343730058,121.7495502514678,81.35663875540033,76.74872948657377,33.04159647671938,-111.95552409226893,-90.0,6.000000000000009,-4.285482631291007,0.6808515793647157,-6.706686683264863,-6.443053487145095,-2.315100052944833,344
-88.51618796410455,67.23169699206063,-6.86313241277325,118.68363991969551,80.2144661351979,77.75351093818148,34.05205553135131,-108.56278907887739,-90.0,6.000000000000009,-4.5454129577183435,0.34531134297095356,-6.726073337153587,-6.058021388711176,-2.5722818134347523,345
-87.23940695694854,69.04089767030057,-8.362490311590456,115.52747507922071,80.1827329353296,78.73916588320367,35.18882041461229,-106.11392345906027,-90.0,6.000000000000009,-4.995580981581359,0.06890498574077615,-6.348280280107283,-5.6969769260187535,-2.7142652773022613,346
-87.44148063061971,70.37669348432462,-10.022308769512819,112.11947123232589,81.2095166704709,79.77723891759261,35.67432050720652,-103.16735275708369,-90.0,6.000000000000009,-5.14498401397248,-0.23546562765294282,-6.320029400277388,-5.280090372071263,-2.6582685245709534,347
-88.93882434814923,73.09518410129748,-9.478116100611786,108.59745166736452,83.0342195344004,81.37972999310861,33.8694771350921,-101.04541332946455,-90.0,6.000000000000009,-5.744846372354941,-0.6875563165111822,-6.321119130165153,-5.010928401522077,-2.6718076992104,348
-91.52698466708009,76.19163688699552,-9.000343571216026,105.8944041441069,84.98125000759222,82.27453928397176,31.835259557671726,-98.83931994310561,-90.0,6.000000000000009,-6.511757412732696,-1.2922914533636396,-6.093682382239018,-4.924638050678035,-2.6706998084887332,349
-91.85181999740372,78.44162443681287,-10.138737784422947,103.51729120064616,85.64989937004023,81.77052581964968,32.315445523421445,-97.26674424039658,-89.78764652214619,6.000000000000009,-7.617171705465749,-1.923325993430632,-5.317140842741512,-4.761051618760061,-2.5350597443937084,350
-92.1858301053506,80.03037345498703,-10.756952288806682,100.7802233809594,86.73644599027263,82.61198532639722,30.764168022832756,-95.88448438493305,-86.50293689586121,6.000000000000009,-8.476521077292457,-2.5875832258318776,-4.7800857394254415,-4.608230596651491,-2.432629143542494,351
-93.69190164865961,82.4225959753568,-9.776363011410098,99.61400728363617,87.96620216417939,82.89980034856433,30.87681206462475,-95.58895550445763,-82.20858712829163,6.000000000000009,-9.341485195614315,-2.8980110479353565,-4.666451284444946,-4.524970320123624,-2.131971434875946,352
-95.04973035641738,82.53633435885375,-10.58985108722521,99.21266834902146,89.89362145877756,83.11179778691398,31.043279866037906,-94.76750026086933,-78.1654023525872,5.532971059713519,-9.686019105305256,-2.794203523930338,-4.722774551522673,-4.399035541474328,-1.6293713247174648,353
-97.39737762338265,83.57136493459026,-8.890633750691554,98.30853585636177,92.7758076426087,83.20140516321655,29.349201371546037,-93.03091424273731,-75.01162633188456,5.019575148618712,-9.570191666928025,-2.7425716352784155,-4.77511563277772,-4.4479564173576644,-1.2191582558115595,354
-99.39730406537798,84.49494614723322,-6.635412135283871,97.93296220133077,95.09705432844773,82.19312400605105,27.03103189266789,-92.18278436656198,-74.13626566846622,4.7231716695643975,-9.180580279556448,-2.750718425086218,-4.689900210221789,-4.608668961577294,-1.0600104526432848,355
-101.78771908344206,84.8080197107933,-3.539521868363281,98.82849227769199,97.80790583424978,81.798923833444,22.67977525880106,-93.7020607398612,-75.8029447865925,4.555415772240594,-8.57471046439635,-2.6790463621235596,-4.312977857577872,-4.921775173092345,-0.766000023217452,356
-104.40014327643122,83.83838495469152,-2.278141673623175,101.68678977577855,102.24435762633203,82.32901785299303,17.422573080299827,-97.47348454249553,-80.89586458181394,4.330849250609551,-7.611202564302922,-2.532683887888804,-3.838496343917599,-5.424358209577612,-0.5493458188164209,357
-106.14707331933023,85.05306191610394,0.9035844853311373,106.17818404498257,106.61444134724809,81.38028609358173,14.226788581388808,-102.02180486263391,-88.38265126101507,4.148983962385843,-6.4769815442684,-2.418206057162387,-3.080864570306729,-6.055498344886312,-0.3148704077597059,358
-106.80804759581378,83.11403469286688,0.4041526958837933,111.23891836473894,109.618572499963,80.52448999486518,10.81266691884568,-106.7430194666558,-90.0,4.10544289865134,-5.319305358585836,-2.1972000521443418,-2.387564998264022,-6.536975476463832,-0.05595454346733534,359
