JMW9912/AVATAR/Dynamixel/dynamixel_control/data/csv/poppy/.data/waist_test/5DoF (2P+3O)/0407_1551_WMCA_Dance_waist_and_second_Waist_poppy_motor_degree.csv
theta1,theta2,theta3,theta4,theta5,theta6,theta7,theta8,theta9,theta10,theta11,theta12,theta13,theta14,theta15,frame
60.178609262568926,40.71628458369965,-74.53728161672325,63.168621282721396,-53.05031920648026,31.886585400205973,73.01416617300251,-83.61950590879233,-10.455021489073225,1.5834420755185565,-6.960736768844729,-1.1823844231307301,1.1562913723494652,1.961819866963327,0.06859205493716197,0
69.5453834938495,35.52634094800461,-87.43260321110857,57.612365629377415,-64.37956957428489,28.085098732068083,87.12948611366974,-75.00476110797153,-14.872152140018299,1.4272224672128166,-7.404619301658937,-1.2761731369240281,0.26798536687652996,1.2068962213312047,-0.27668104506582764,1
70.60189955865928,36.73019589967301,-87.94224967613792,54.7373154537222,-63.70571047784597,29.421986860093835,85.74488008562085,-70.84997433539274,-23.85639108984812,1.2329246160092804,-7.6439610067800485,-1.0561382660419814,0.572303287118047,0.7493030869893628,-0.19157802595489748,2
74.86782884105472,46.308634707616406,-89.77072747853218,40.53821576491049,-70.1009774715476,38.134886771756456,88.45308123352414,-54.82092476955741,-39.69520292302606,0.7459012776104965,-6.486428837149219,-0.41366136349582155,0.8572203085498816,0.41190624213186683,0.2666677299516857,3
78.20981388130028,56.006330844313524,-90.80841249037343,28.298822862089697,-74.51390999131769,46.30913818794587,89.74284671976346,-42.68335807070076,-39.411043438566146,0.6446796319927679,-5.764445795882351,0.3666783867380927,1.1041154587508608,0.7424157274778522,0.7132197320259185,4
79.55620012407718,59.85303024891093,-90.35762440513096,28.2988228620898,-76.29536572521135,53.148267570533136,89.0507440114881,-33.7985352168225,-23.958049077822455,0.6161513033577015,-5.51279609935946,0.9662003353997483,1.3644144804083984,1.1558187857339048,0.9675783571785872,5
79.12464535834906,61.77097504451264,-87.93766781665727,28.29882286208972,-75.98866215424128,55.21316406674994,87.06367445692663,-32.009213953240085,-11.949215188439565,0.8285837568117085,-6.309001027817903,1.3907130690360106,1.1034861691478273,1.8033970094552672,0.8963010436822719,6
78.2609682044647,60.961802213050014,-84.97659748591259,28.298822862089747,-76.53562483074279,53.75914047102211,86.6091511482066,-31.527307496295137,-13.914702103333846,0.8401162335610554,-6.795187709597638,1.3243098244165257,1.1756856063520273,2.0446943505308766,0.8792440155395634,7
77.74872419997276,59.22955215847532,-84.4248329502666,28.298822862089647,-77.11061799232738,50.87140027806117,88.7480473522179,-33.28523661857978,-23.247266276187926,0.77512213310049,-6.8605777991974115,0.9203968325690737,1.2054589273227831,2.2953323341959684,0.7151201573969467,8
77.05647143691525,57.63676288782369,-83.70190016560356,28.298822862089594,-77.29220847046898,50.24870341429932,88.37166327381327,-32.092780169720136,-49.492197434995695,0.7232010870520531,-7.001409238707088,0.10525561628494537,1.2155321421984193,2.243806988770991,0.5663310751242805,9
75.42769035476783,56.56128114895641,-82.80200508290511,28.298822862089544,-77.12153836619697,49.83924609685204,90.48597593283502,-31.8601078866362,-64.94198843187796,0.8503142957517322,-7.118541381835103,-0.7712757181995323,1.247890040429915,2.2614989503248863,0.3995862088581124,10
73.18452393048157,55.114583998773824,-81.52122501553367,28.298822862089875,-75.40534472999191,48.713233566662595,89.56002177270827,-32.647140803505714,-79.92451327800188,0.9778897454514487,-6.674157592217441,-1.5629537405464358,1.215867053783428,2.122932016061456,0.18137712256146712,11
71.91662085066578,54.80182092297949,-81.05181616850278,28.29882286208985,-74.06297232490373,49.1630384594373,89.05867607465643,-32.42919175125177,-80.23972899769984,1.0914924256009169,-6.452533672874812,-2.1230166637897643,1.2613247165268764,2.160775391959248,0.07552854852835486,12
71.12428691385952,54.795286686070774,-80.90718255630517,28.298822862089647,-73.05581364022147,50.003617654962284,88.80739742759823,-32.17700472013976,-82.65556539591992,1.1286672740111747,-6.142567701107502,-2.424407917005438,1.3521131256919856,2.070233832345108,0.050710163006969546,13
70.56658290240917,54.56753427070458,-80.78625303238357,28.29882286208985,-71.30290051235826,50.65677299011549,85.79551079839405,-31.74868386427097,-81.28377455861668,1.1441285849431826,-5.664197834810807,-2.495537132471918,1.403398558836908,1.9869836721673657,0.09355065860092956,14
70.68295782539073,53.07864349208515,-80.12378297443519,28.298822862089697,-71.16676367461179,49.90196153617983,85.81865045454452,-32.316855289463,-82.6248102691605,1.1500838327397243,-5.402304216920441,-2.616915345131866,1.2020212730228628,1.890729904018463,0.11372248730052092,15
71.48538177214363,51.20431216352699,-82.21965595570336,28.29882286208962,-71.19129115679223,48.371034337242826,85.70487987182449,-33.413747441544714,-84.62684693619947,1.1282199163366955,-5.129563263565711,-2.7013719246725216,1.0477196643175448,1.8155712051767758,0.21429918699156625,16
71.79890357568313,50.08743155228071,-81.87899915004348,28.298822862089647,-71.04951038897039,47.313959444973555,85.50461405177083,-34.050706441486575,-84.716657000037,1.1011763603811717,-5.021869851619906,-2.6816919521832454,0.9211536860658203,1.7633613341397874,0.29587982726153156,17
73.27493672792872,46.04168622402231,-83.79011950084477,29.831955398054966,-74.17309974177405,43.279970358258176,89.77343950749184,-36.50399192967608,-70.39559539049579,1.2417372108594753,-6.678540096556317,-2.95630312780622,1.5046663775715448,1.9197183904617747,0.6155430198892775,18
75.8123366411103,42.03968190989015,-86.09774713280002,31.026575144585824,-77.21338158427312,40.286502515956855,92.22434082997081,-37.269780860906174,-60.086760717140976,1.4423936251974696,-8.213977336857354,-3.3251321627170345,1.7223288285658562,2.1097305995834335,0.8549281125057536,19
77.1951169123467,39.978992724686805,-86.45844600481351,31.004025450369536,-78.40732674977023,38.78409740649071,91.91776683314212,-37.16263170311537,-53.75006406365192,1.5439414905210371,-8.780739471311854,-3.4009376764987214,2.152804150863491,2.242056714061752,1.0348717927006714,20
80.14311844620165,39.972255343663555,-90.5496280408163,30.38605101908572,-80.63067177044601,38.94976414733721,94.69712877582695,-37.01612565295114,-50.30610343289727,1.6927221909862493,-10.047617291908919,-3.5588342490356784,2.615707401767705,2.4736191659398514,1.2789652447259487,21
81.56851356407174,40.478124897298684,-91.39774385058502,29.419468457190625,-80.88528059340048,39.28880257448295,94.08954669985107,-36.68624640197514,-47.922861331705555,1.7617977844720556,-10.869221621343911,-3.6401354336392444,2.9847029487682244,2.5827866143094966,1.4670220817313404,22
80.11458776324758,45.19569913320695,-87.62237249501274,28.40103408927075,-78.94045858486483,43.17750521670426,90.56013812254392,-37.28604873452271,-45.814856282501154,1.5897274519609343,-11.296149854433088,-3.852966328759854,3.836782602389335,2.8716384988345203,1.8485633780869408,23
78.96269222238604,50.93330163085151,-87.3001394350365,30.56211959959714,-76.16347940535226,47.77962885967384,87.63191215677664,-42.29376464250697,-48.242015239838864,1.35979826008979,-11.822595004597055,-3.9457310075153695,4.506326301089933,2.853001997664316,2.016534513614963,24
76.83266397688912,57.03623557155088,-84.61127036847898,38.41757614575483,-73.92274968286054,52.88152904327273,85.51268409413186,-51.25280368461428,-53.14377481814071,1.1023807430513664,-12.08571899880124,-3.8542331085323673,4.525834808378341,2.683518671210447,2.0043806320101263,25
73.14157105620733,59.301325963440185,-81.29753170228791,49.91233830964683,-69.87141809746862,55.29471219303288,80.26048844171237,-60.775879031999686,-58.725466676009646,0.9782223493013978,-11.252219191007685,-3.4622872969997367,4.214151532175263,2.5430362246005322,1.9202749210586594,26
71.16898492453524,60.33677993899931,-78.27970200284521,54.26367828402819,-68.37178569045405,56.0329509384773,77.66054138430437,-64.51369822634763,-60.8629483892409,0.9772951736132045,-10.741192395362106,-3.091157749685446,3.9405006028360767,2.515345979293129,1.8302168022903917,27
69.54619675926489,63.43522596854348,-78.09252057375066,63.1043173553741,-66.35128165972637,58.940417991208406,75.64574699566649,-72.86957026095888,-77.11089257407089,0.8260296962064709,-8.69056883848645,-2.581098867794786,3.6125737862436518,2.277412164512951,1.3751800608078701,28
68.36742151487793,63.91776347087397,-77.54150263261808,72.64715042823994,-65.34992499785365,59.47077077791427,73.58200866492712,-82.11504304216413,-90.0,0.8541356886141969,-6.564268659072002,-2.0837505604162705,3.0145544718887796,1.9906447838672734,0.9600064389793324,29
67.2794487629974,63.429318418655264,-76.34713325587813,80.35563159040254,-66.91652103906605,59.254657140429934,74.8297768103029,-88.80566679033558,-90.0,0.8588269600378219,-6.237967004713985,-1.7482813026852364,1.876966103707098,2.04883233279183,0.6802023488692348,30
66.98562901149523,60.87494937568491,-75.22590089749139,85.74304426618443,-65.77700227079006,56.286435858560594,72.15409184331742,-93.77078523008474,-90.0,0.7256903696386824,-6.665779746313002,-1.4167028762257423,1.1482443694575397,2.124891381492722,0.4615575233787412,31
67.38051438073757,59.260509788442135,-74.52026243642626,86.7428498336796,-66.64384747643915,54.17060797007663,72.08280064260494,-95.42396967245148,-90.0,0.6935876196738736,-6.643397613572677,-1.2068736555061907,0.738667896045331,2.0402817611155055,0.37495657168002916,32
70.34194797147731,53.722522917785604,-75.60784611339824,85.82154825044101,-69.83142276150657,46.747838110876216,74.25692965793824,-95.49560873809563,-52.33587670249484,0.7138679229366192,-9.13810548403796,-0.9178766826289833,0.14589982320819384,2.3577601191909086,-0.13540287177024599,33
74.5431396487462,49.23886974676052,-77.34438051748793,84.49026307895437,-70.89277594110254,38.914009512623,72.67525073684725,-97.67365215150582,-32.47513178531755,0.8638299204918343,-10.54066297201937,-0.6764704528286175,-0.12832008476703943,2.590865349684102,-0.9674231771440251,34
76.93467888832666,49.482595021326595,-77.57741822537113,78.29509904921086,-66.89531944651971,31.481038711781327,70.26186365912143,-98.04643037162778,-24.892171094451268,0.8840470687814985,-10.912587302168632,-0.4680947846346382,0.33559249012706854,2.493756067112874,-2.3789625496974254,35
81.59602999490535,51.90406213017304,-81.3720545992966,71.19466954321885,-54.00209826839037,23.02105355141089,61.853725301194984,-100.56897233929746,-22.76580550813044,0.7041641673074142,-11.205066285730801,-0.3732871024890971,1.0613554315960025,2.232549157435209,-4.599756026809426,36
82.41795680338421,54.64462929773994,-81.66595518837146,66.76685092381285,-36.46993701699032,21.079615671645865,46.54625680579631,-104.15540445783782,-4.036060612236468,0.7585773321569538,-11.525116786446592,-0.36760479451018674,1.4282516895588018,2.1388233947784334,-6.019343023192254,37
80.55687015312901,59.59571530135846,-79.24259205744787,53.64735817248627,3.9597226091897832,20.567829703398125,14.527903797213094,-106.45481985142665,25.41247378423627,0.7245030760960938,-10.039137685119451,-0.6516018013756923,4.3885126673549255,1.6950277806911929,-7.963472496605881,38
77.97076132262515,63.084622040889464,-77.94607943524703,46.46532415696347,37.770694263908624,24.554986785394007,-10.227596203889519,-111.88981395821956,61.026240738880524,1.0625669814340162,-7.913357133617782,-1.118080839029839,8.358832063286654,1.0653765328040732,-9.159993611736706,39
73.0007754605134,63.941126242460214,-73.8624516031985,47.123898531413325,55.35309299727028,33.129080731906086,-21.215665581537184,-115.75973223339616,69.7137167472023,1.46847714301567,-6.448770531317514,-1.3388292737631846,10.312278669789112,0.5774266673708421,-10.152092104279836,40
69.48056327210074,63.333451935524295,-72.09529388707226,53.394175949444815,65.96595912680911,41.219321419467725,-29.623531724549295,-120.514564374849,79.99738553306923,1.6870949095009409,-4.741322885096432,-1.5445550091159803,11.726637016391885,-0.04994145903688023,-10.950572455819874,41
70.00794643690104,63.05019445408978,-75.08219691245417,54.00888746065541,68.28688807500856,43.405359410574434,-33.016486035210605,-122.50358348458634,85.80431035023317,1.842271384696394,-3.947112124387869,-1.3269243080820055,12.075056693011623,-0.26535711674281504,-11.48054628152407,42
68.84014884095674,62.419113548828946,-74.66724173908777,64.99282844915555,76.39940084107295,48.934471749520235,-35.14980043673517,-124.89943591604401,85.42705118819846,1.7287548689403667,-3.324446479768297,-1.299111819559088,11.545924811148524,-0.37388902550195297,-12.388666972545849,43
70.56525499902516,61.72273674399836,-77.19672047089954,69.81413105514069,80.75305330486141,52.917185849515114,-36.197447292458484,-127.60045340028623,83.91908767708081,1.6857365500389756,-3.4050367117591134,-0.7518724925379517,11.12441912572795,-0.338929387292651,-12.743527075035187,44
73.05226769814591,61.57971386308463,-78.79703778715313,71.08196522666786,78.4559282575553,50.73695821549518,-38.14006058830601,-129.83682773550677,74.51424637561597,1.644540863230364,-4.2763774778997785,-0.3546710106508636,10.091490318029868,-0.14880737911187014,-12.498271724077695,45
75.5135261231813,61.57854307056532,-81.11978683545209,69.80603302146014,68.35790581597578,42.07790783325853,-38.59201021266461,-130.49872313279772,61.830353015265864,1.5859720739134235,-6.1242648424177855,-0.06491746205268813,9.775816533757453,0.22273150945923503,-11.063044833387842,46
76.64716614268946,61.92533253555547,-81.01405643180429,70.21179675672931,64.29189436061692,39.01760908640554,-37.83761839904085,-129.37291148078427,54.80768888448948,1.5738486428163123,-6.776430777407095,0.07808775037794902,9.601467980582475,0.37914220184804404,-10.454369411092834,47
75.74367613340621,61.71509863478745,-81.22280028967305,67.03677068389437,36.548423596557065,24.1170760828152,-19.175193182007447,-125.2778149610504,49.156637444581605,1.3045948827706544,-7.680506313141635,-0.14787966782915868,8.85351891497467,0.8705472609747625,-7.978561941190934,48
75.3765052438782,62.95454511737558,-81.14301471141934,64.97589051641889,-9.385520221278234,21.073508146030758,22.065304411698207,-117.0253487169129,56.813641047790505,1.117723545647448,-8.286899920124364,-0.5059987449135352,8.161153395269825,1.1633819423344245,-5.5329255036275775,49
72.726032134357,65.46186838305752,-77.29611247835277,62.13084604509598,-37.07944162828121,32.818776611917976,46.24976464791386,-105.43601905708711,73.02167185338679,0.8830513641828482,-7.667268351315437,-1.0563007890129332,6.443693619041081,1.4538568285219164,-3.756886270343405,50
70.55479422902391,70.0050724636391,-74.91062269458087,58.743199255173984,-49.738379228502026,45.56474023084011,57.79181175502895,-94.14486046900585,84.96988656650957,0.753608743243642,-7.097126273190488,-1.5917034492465998,5.787368096207882,1.8237177252943553,-2.098258888699118,51
69.1965712459457,70.95124549021968,-72.14158862664414,59.720974677409835,-50.05260236073907,51.05021054244614,57.68902713422772,-89.98495613001693,78.18398311878015,0.7332777423780124,-6.874486922914613,-1.843104924454346,5.329478574678061,2.0467560875567745,-1.640369236626992,52
64.86272139153583,78.18303799658126,-67.00157778406262,57.333728271165114,-54.61538011882421,65.54832685068834,58.34276842862548,-78.55219843834345,79.26900388205652,0.5346225624129031,-6.1518711795186665,-2.048440522220071,3.7947341354339312,2.3994890631000096,-0.43602275000608426,53
59.399796996724135,83.29560134563373,-61.76779198811165,58.63198084503257,-54.00197255220308,75.97311645185663,57.50746315156662,-69.98187427843413,61.36296081576296,0.3698067837766336,-4.783619242825444,-1.8420296036054336,2.024815324676831,2.9640891830841314,0.3066157954252058,54
55.47139823858546,87.70170840187645,-58.32098496739228,58.351245885447895,-51.27731921500547,83.72220474175542,52.60039322363527,-64.46455370934555,20.599578541098534,0.3576998604688296,-3.6264284996247866,-1.4390088831304542,1.2300635834519882,3.4129769414257165,0.6154511825933691,55
52.39782731494207,87.1284316709915,-55.83089739307462,59.22876233862798,-48.55122175260168,86.1514101011982,49.88385404459145,-61.98289227045613,-4.534855013738835,0.5760232504186209,-3.8328482998601308,-0.8302118602352296,-0.5740383177489161,3.8954112537840495,0.4919066897925924,56
50.31678317462156,87.56251491025279,-53.266102817634405,58.933230455201645,-47.221041189950085,86.57827613498556,47.828423259410265,-61.56623058663145,-19.273963896147688,0.520875938058465,-4.022493838586894,-0.4313737005970211,-0.9647898662972165,3.8910656892942375,0.3328869449081576,57
48.94378592568893,85.4294415673486,-55.02078106527928,63.25394900573874,-45.333731804317395,84.97488882653771,47.93078232530732,-64.51519294826902,-28.522968560193373,0.6763399217940174,-4.768343441082881,-0.06426146598792633,-1.4916831816930765,3.910562281871895,0.19013070101098756,58
48.15608311506411,83.25345049554417,-56.34278491019096,66.09732348868219,-44.18592567250228,83.8528203854631,48.37874563994161,-66.28062058706733,-34.98304355535773,0.931350551167621,-6.303086263091212,0.4675330766587082,-2.367860374278837,3.824210015427672,-0.08630897307966323,59
47.63637819098011,82.40164405334849,-57.62179258845823,66.41661507467278,-42.5766771122941,83.50226374011021,49.02668999559205,-64.7107252777813,-35.86923629294994,1.2834122976309406,-8.119049616298838,1.0165723702999923,-3.477574404764653,3.7683093816440945,-0.5279052123604492,60
45.27609726056801,79.81318581406732,-58.861802276734366,71.06707487247641,-37.91733766715642,85.64408307769861,48.078033766002314,-64.66421847533296,-46.829571858483156,1.4660890505226187,-10.723549226875258,1.718444564982818,-6.975808976833264,3.662784099924776,-1.7621305880006117,61
42.98553756683427,79.0429011793432,-59.707991084544155,73.7564477641612,-34.28813775135896,87.42117806061174,47.69221830777437,-63.66078848750903,-58.06804459784607,1.7452182065270183,-12.506451782951952,2.3942567883542045,-8.792570052606168,3.461607963906822,-2.8595666230926096,62
38.40306542812007,75.5692958517494,-62.83134165117149,77.58353807391508,-27.989468458369707,89.36790602706341,49.142811973319134,-61.48204199021924,-63.55236342653943,2.887118372031366,-12.983644095018906,2.640076992388284,-10.074288725540875,3.437094037724941,-4.101731437625214,63
30.557780099098533,70.35633750809335,-64.22278664391459,86.30481131457287,-18.217409599864315,90.5488976025196,49.2286044929722,-64.88222506831887,-65.96196578279616,3.4926381316293016,-12.21183549330806,2.745979142974595,-11.221232207907898,3.148557114151814,-4.589511952380963,64
21.51863002974573,65.757704431136,-63.43963133662127,94.30521071155337,-9.334500203828734,92.88864049872868,50.279706590478206,-65.454661444227,-70.71420438047929,4.09667827311313,-10.914051809414369,2.600109421172857,-12.425987040853588,2.8079005360763034,-4.6655941670058345,65
4.245970709533134,63.549032982274625,-56.72248746262315,103.21562617796368,2.328606443481728,96.98930489809992,50.22364738738049,-68.3418210536593,-71.64270976167121,4.64223385920974,-9.145232660737353,2.0211063787626373,-12.922411708348028,2.5026348237246614,-4.081837532369118,66
-2.696509961264917,62.958153651017355,-54.652081568318984,108.45376618655104,5.265341446627409,99.44260264534002,51.87912437574786,-68.10418149931108,-77.62678171102912,5.019204871462849,-8.05944815526225,1.6644464757215645,-13.31698424354135,2.109280149010614,-3.756477882408316,67
-8.662321842715073,63.74654695104095,-52.85665926186867,110.39741103418997,6.9496866735106515,103.11256146083345,53.17980049584845,-66.65830405983834,-80.25329239524487,5.353839732799506,-7.004642037099956,1.126755770180679,-13.863058989060889,1.9669003340476647,-3.3959144466098174,68
-15.166991728407282,66.26895350199352,-50.093635781112106,113.32407325679011,9.507547264709363,105.77253056793589,53.79736748521642,-70.1119271922869,-82.147317966528,5.6402615512108065,-5.519555233765664,0.618162973536386,-13.367285138164425,1.8297282559557044,-2.3613846570978976,69
-19.588434836012073,66.05584800135439,-48.23050200361637,116.6588800715538,8.928056550520125,105.25243404813784,56.919717895507205,-73.5473699982626,-84.95589460434397,5.914163523916857,-3.9097938223999495,0.25814412201068165,-13.331431494890843,1.6425530998669164,-1.4312383853025945,70
-24.685416094263353,67.43015841011257,-44.76473141170725,116.93889274786545,10.430413929330818,104.52206397766673,57.3103316489238,-74.47376664547915,-81.07325965747874,6.000000000000009,-4.250986885348433,-0.09595323329632859,-12.830504766433553,2.021683840655858,-0.45829283492215406,71
-26.91212416479358,68.75031745645647,-43.71811181306643,117.38106319326758,11.442708898608318,103.88575746407635,57.881838281339604,-75.39047970697054,-79.70641441942672,6.000000000000009,-4.659323607035817,-0.26529868256898453,-12.274697550254176,2.0164428048090617,0.0910920422477779,72
-27.044470188232467,70.61373685646308,-44.08120856639318,116.80342922682145,11.772772121116464,102.28140046315846,58.3993366014576,-76.22423420784366,-74.66158744638301,6.000000000000009,-5.764482017897068,-0.6128422860215104,-11.12879683591462,2.385984188904391,0.31534280040771406,73
-26.111600057252854,71.15995120811701,-44.21823931700215,116.6400417222741,12.167610463576757,98.73356368030012,59.735023086551124,-79.31383744097286,-69.78698857035404,5.898576590451002,-8.328415786426376,-1.3368943729113358,-9.361514136297949,2.839624530951917,0.5052504099667459,74
-25.859408404856946,72.14374819490851,-45.08438817269495,115.34304102900818,13.379096854927953,94.38500265285802,58.60032089368209,-82.48949866954268,-66.43654305843003,5.684871775497169,-10.889729403932309,-2.429059939111893,-6.961444826445872,2.943314429263634,0.9755565510840744,75
-24.18406858185093,74.87434646875673,-47.06117089432172,116.68339253317647,16.194370120765242,84.86401243103727,57.53394531349683,-94.349310932503,-68.50035069997833,4.3554043016864545,-11.758248197560535,-3.7202568668184925,-2.475097410474856,2.375154713613958,2.1597022932092145,76
-24.3620757312184,79.47860638357274,-47.51622320416713,115.86560589927585,18.82590800826166,81.9432234305525,55.281906991064886,-100.08338749481949,-70.6080310175869,3.587861886706301,-12.209566565140566,-4.398215201412769,-0.17864698592467934,1.802514860308497,2.6261510210844428,77
-21.67079599748135,84.97283520089537,-50.12081786410305,110.932458436603,19.307690619838553,80.20199556020603,55.07806632949322,-106.44908371612259,-66.76012916803121,2.7482605149229706,-12.45266230722795,-5.177673144148812,3.357158717797686,1.4511429206950592,3.3198542614471975,78
-22.607218753737705,90.45893621143044,-51.321446853159955,103.86158994518645,22.513792532630706,75.93423274947766,53.35482251249445,-109.82973069322968,-69.07400175517131,1.703785097298181,-11.772110583179359,-5.530642147465304,6.701615324391072,1.1487421687596384,4.136116927560691,79
-19.856522616496456,95.23825090863626,-52.939314673113614,90.32656657380177,22.040900336586294,70.48255481612307,52.23104969959777,-111.82957888766789,-54.07450876235367,0.579593556649417,-11.946290722274892,-6.055628479873917,10.545913622011286,0.7320593589625457,5.13367570828799,80
-18.131152805912727,100.6087793585633,-54.73865301027853,81.74140678630651,26.574323198990253,63.543532794078594,46.31394803713927,-118.26063730595338,-54.07450876235367,1.0968163723575242,-10.815669846207934,-5.856410184585115,15.207073025824577,0.3353795615914072,5.966771073636422,81
-16.687109259826713,103.62083207489927,-57.52209553578723,75.54200649181358,29.091974682451458,60.49977571908433,43.037787480773815,-123.47245652293003,-54.07450876235367,2.1070844557162283,-9.787660777831476,-5.391998747049786,17.61277597677733,0.3078014122980138,6.029150559745569,82
-18.29434979294638,104.99999999999999,-59.13024763248024,76.3595997592442,33.4101692370725,60.51706344371019,39.420250326413544,-126.77998294338433,-54.07450876235367,2.5509880580429676,-8.777894025985928,-4.5262570411015774,17.675377093319494,0.16070652535036675,5.443309260929981,83
-20.591082296573997,104.99999999999999,-60.71747252206985,77.6731161773542,36.91388989172505,62.24127222597087,37.76722044306426,-128.30741034141684,-54.07450876235367,2.7369579604130756,-7.414234668413816,-3.8597088626006064,17.714360441273445,0.007468975748770902,4.831226697884654,84
-22.050026824312834,104.99999999999999,-63.5924409738867,79.84185820163586,38.79619922392208,64.78809676117298,37.33480217230001,-129.20743193536828,-54.07450876235367,2.8148989517541514,-5.919486689235198,-3.2530825941459853,16.83045887711075,0.035068039496242064,3.9099839860169574,85
-24.614674241690608,104.99999999999999,-62.17133831761263,81.18094316795677,40.509604128173464,68.26843705819309,36.58068490178307,-129.80470384666032,-54.07450876235367,2.73645755726363,-5.373287005730486,-2.449752820863365,15.690661858390117,0.5697908170745737,3.402122116120994,86
-24.9515688659631,104.99999999999999,-61.80986470906395,82.50530765896976,40.44687645450464,69.5822032145858,37.24428419820748,-129.87331909186102,-54.07450876235367,2.604451748646755,-5.102162587408235,-1.8949217974270691,14.829606743918191,0.7907745363244515,3.0674401767539496,87
-25.443323652606544,102.41105553166815,-62.085334436666216,86.81209842495747,39.53004364566044,73.0074405380642,40.042087044518034,-129.03421847638728,-54.07450876235367,2.266508692571909,-7.00581148295486,-1.142236392959711,11.715245069359995,1.3613260925154589,2.4960464402983686,88
-21.22960661146563,98.38830050243944,-61.79704627685237,84.6598780559883,36.175422565835134,75.42336762175019,43.87363366799906,-123.31887739867481,-54.07450876235367,2.075674978237292,-9.672799140262953,-0.24446360276190326,9.112980834757893,1.7949225068491608,1.8485279532098609,89
-22.508726075517487,94.1380460350367,-60.763014927871254,91.26682504649057,35.47493474017459,78.20207765226506,46.616470171318404,-119.19971074910623,-54.07450876235367,1.4461209535978616,-9.83327140832244,0.7655354317949092,5.82631046496176,2.03444085977805,0.699586856981756,90
-21.512115004014497,89.93687449960083,-61.534414063956106,97.59110021948983,32.91065944516129,82.68346817618814,49.818018729439615,-111.82004593073249,10.362084722546442,0.7711494585891334,-10.455479812832856,1.6134005601004735,1.746245678485853,2.026301784180342,-0.33045789245911983,91
-20.917272135566332,88.11497638053214,-60.63642299092653,100.27604931155446,31.88025313885364,84.41632056356411,50.79068881385689,-104.50269788932556,-33.94245583302543,0.9652918049635784,-11.140874670754368,2.212037967546874,-0.0072288513679055685,2.04894564954186,-0.928603793620366,92
-21.878849687493805,80.80914021716326,-56.22337032689518,100.86815940161638,29.715319481507912,87.17356537906355,49.24823955942901,-90.7175515357742,-61.04068839573697,1.8454049906695102,-12.072213113367955,2.508937300759731,-4.693714017374472,1.9115743675162467,-2.25109861092718,93
-26.56639810425284,75.87164717846788,-51.364003791691395,104.87021177592143,28.097994617817697,91.0348771786847,48.57643722436278,-80.97555413965955,-68.5488123295275,2.970850216191279,-12.681795022497335,2.867419017486331,-8.52107920050491,1.6906289875354472,-3.226942567205743,94
-28.746343141219487,72.13014704442074,-51.135760824999146,110.42538844218797,26.274648992187647,94.45899230342019,50.57803025860322,-76.63045552457389,-72.97064408746698,3.6323258413040507,-12.720596894957314,2.7483299324360817,-10.498637674656042,1.3056996463361508,-3.644507991488165,95
-33.57704508385089,72.21890329694014,-48.954348652038696,113.1352511025305,26.362002392428277,98.63944859402383,50.69556434121298,-72.57384843508673,-77.89230239656803,4.085890758465102,-12.294530809250917,2.310893309487235,-11.528178570482854,0.8838570205546328,-3.7607688520658957,96
-35.500721148698034,72.04930600217433,-49.059607937257354,114.71256300792027,25.89839155338974,100.27125808166657,51.52824556765213,-71.42639056504733,-83.17036754530555,4.203621148843634,-11.884910469286645,1.858950399420629,-11.796082586782042,0.6811183270716555,-3.6164370962112313,97
-42.82541998606491,73.09368657574039,-47.21026322022579,110.67749175586142,28.959117823554585,99.6235529011313,51.451095868137166,-67.50184994610592,-90.0,4.053757796584167,-9.207549129007333,0.6955256848959349,-10.870759908622524,0.3206802778693096,-2.506637796917014,98
-48.404286950974594,76.25131143705381,-43.732798650834,107.73577757419534,33.50347298615097,100.18117649383036,50.34595539794473,-65.95689187856256,-90.0,3.7411962452697645,-7.430593620448383,-0.3581580063988149,-10.345203153776568,0.40520630212633485,-1.2759160750589336,99
-55.095760142678394,79.31516879584733,-38.10774011178662,106.72978778040911,35.704833812960786,98.66141651647197,50.62248966609456,-68.66543997848372,-90.0,3.411308190924675,-7.505291293506748,-1.1831125685985924,-9.902582222467817,0.5271757764321924,-0.07679286905591352,100
-63.708767824302136,78.43826074672248,-29.556358108482048,112.04700192752178,40.857263201113696,94.42640906489481,49.19907228471077,-82.67579560240655,-84.15544744649222,3.264205150216872,-8.288183659453876,-1.8701963645888378,-9.316143880778332,0.48475534025774336,0.8810873143404216,101
-67.33302249964619,80.03118299414267,-25.102867875608872,113.94699816764039,43.38422219334429,93.75077467728256,47.745402801980546,-87.46649473488085,-76.49886920146001,3.0883536516332266,-8.977478027790571,-2.222616185063045,-8.91399322126421,0.2908306479628604,1.5300062426506282,102
-66.64552094078387,75.75739537727279,-18.759318063490745,121.20392652873811,50.41965251725607,78.64153181647359,41.917845114233025,-102.57162752182107,-70.90833983340383,2.6792699188578672,-10.596960213389028,-3.021601603625906,-5.324084809889769,-0.1251583816422432,2.9616629567199073,103
-55.493884934887205,62.87472160461436,-15.18568285007565,123.56844206403886,53.29800573514193,59.65631569436762,34.53731685806629,-113.65287704121491,-68.69069002623442,2.2026576717649164,-12.969279082506343,-4.186441300652025,-0.8977698118756678,-0.3116060043013519,4.121766716679485,104
-39.75523593977707,53.03822915263869,-14.373373903204607,118.19089011415518,48.577047874670335,43.278331201146315,28.60539783468278,-118.63483028307739,-78.52423865017755,1.6505020120528258,-15.158883792216335,-5.242171189792872,3.0752004437103686,-0.6297952969871077,4.399301606102164,105
-14.054460804912075,37.08979528575769,-27.429530340553235,102.82218778791432,32.98496890137236,25.058709413366948,28.230468811918353,-112.76620037971023,-90.0,1.6637735494459929,-15.307302641487125,-5.281788707918522,6.060043999196618,-0.5948739449914663,3.686075794799599,106
-1.0633890436064493,35.1204637459246,-36.49569030942795,97.78603678647822,21.490160977019944,22.52951485732822,28.27283403321586,-109.64140721782694,-90.0,1.6015019213341324,-15.803705276830902,-5.333178086620214,7.386631676960108,0.024296473826913162,2.9765485071318434,107
21.31807242482644,29.918135372395575,-53.62560825436001,89.34012549430278,-4.553489900428059,17.147596908336915,43.05695757330691,-102.47732696421343,-90.0,2.355843727157221,-15.265560010774415,-5.003496842843226,7.272743749760513,-0.06861461443556931,2.115184327649482,108
44.40582877179976,29.99616424050903,-71.0867437405985,77.0703974530862,-38.70758342143441,17.80408556674185,68.997154656274,-93.32392377373198,-90.0,2.6652198001160734,-14.31956973810275,-4.5951793204269045,7.064826738810428,0.1427771490110274,1.404400261365575,109
60.608339217713365,33.748023085526754,-82.66234052419759,60.3546751303489,-57.01527410013211,22.78755813502556,81.70203166228453,-78.77089283524747,-90.0,2.6661704831854474,-12.76096715109678,-3.9452712951262,6.601209998359543,0.4691963797400848,0.8541284510119768,110
72.48631090314841,43.25510042071751,-92.36224237794889,40.80905801375226,-70.46332212194801,33.168937778427214,90.98216263264112,-55.086699887875916,-90.0,3.0814359970396317,-9.882076940952713,-2.8155067386962354,4.695492107184616,0.5282475294390327,0.15293761809413817,111
77.9640138613623,48.45157369388785,-97.48486357524423,31.89203081648962,-76.07379586770078,38.71309426959372,94.85541643620788,-46.05865728705335,-90.0,3.1060267891069606,-8.644530427166071,-2.3712450783871026,3.332942751275158,0.8781417705218887,-0.21868832829943888,112
79.73833020200037,51.31295041834179,-98.31520123110565,28.29882286208962,-77.8001059933875,43.41418873716387,95.13818338531219,-37.700863781643754,-90.0,3.318430500144893,-7.511174267126088,-2.08707402219931,2.4119569618392016,0.9003500766340704,-0.2510832601726218,113
81.42920899381942,51.20571727907373,-100.27457170123697,28.298822862089697,-78.35373233702202,46.11100664759164,94.67581951359826,-32.34572719288382,-90.0,3.1910544342864724,-7.3284918363317795,-1.64648940163361,0.9225359165840972,1.224051678322381,-0.2453056345877762,114
81.23385466400808,52.60845594891707,-99.40637430617926,28.29882286208952,-77.54734252663526,49.03340650503059,93.26616240342342,-28.799632223600128,-90.0,2.8843253174027943,-7.6579571236142625,-1.0121525526114767,-0.2098006207101411,1.6141479446269158,-0.3275989556496861,115
83.1659794043991,52.90295429221465,-97.93424382495444,28.29882286208972,-79.74584972546033,50.493985937142064,93.14285111905784,-28.29882286208972,-90.0,2.4586602291298503,-9.738598435101263,-0.3065749814804699,-1.9191133687253292,2.093048376378407,-0.6335532599081244,116
84.18154714791069,52.59823455196173,-97.04837016683427,28.298822862089647,-81.35083674081696,50.63608004168255,94.28155682555747,-28.298822862089647,-90.0,2.3639597867717876,-10.785845269804264,0.11656005939709121,-2.723168232895675,2.101949753204068,-0.7707011874942341,117
85.14829824056035,52.10321883362498,-96.47769325535164,28.298822862089647,-82.51226480913321,49.937539591191545,94.83740103600483,-28.298822862089697,-90.0,2.1994754985231695,-11.778368741614658,0.5800662517910754,-3.242703970797426,2.3207525553748503,-0.9397143751148038,118
86.1576883765621,50.50038972239536,-98.35686338377197,28.2988228620898,-82.99309291442555,48.31033750071407,94.56107113297111,-28.298822862089825,-90.0,2.0966785239826855,-12.648739050107352,0.7824356775467824,-3.585088360462234,2.417519731973555,-1.1087398100916876,119
87.53436216405015,48.28568050618303,-100.37639495826296,28.298822862089697,-83.11099871984008,45.432532983288006,96.85375331385131,-28.597877775907286,-90.0,2.1136772893268216,-12.790289130231567,0.9647983737949498,-4.299879641900505,2.4516586025135325,-1.3998431177497621,120
86.43727739982312,47.058023802369135,-99.47334218824844,28.298822862089697,-82.14503986509732,44.00093641504574,98.68603382972206,-29.3849433212373,-90.0,2.121923888215431,-12.463107321105706,0.684443390751187,-4.581104256328163,2.300553811326353,-1.4165119578042809,121
87.04059016601649,46.107245007812566,-102.05578285315588,28.29882286208972,-80.82825501599056,42.68292105287101,98.20380303458896,-30.237694517912942,-90.0,2.0980303356231915,-11.890332013183132,0.38290214623750324,-4.998284935905545,2.2378125295124454,-1.444564041916701,122
86.70927381693825,45.133661047654925,-102.19799448946326,28.298822862089697,-80.04014900034346,41.175417292355064,100.26441786425676,-31.2479770451649,-90.0,2.1503482133226477,-10.865227345361719,0.061823900281959554,-5.047982245891254,2.0013080474385676,-1.1924532233357326,123
85.57741424307002,44.58072227789021,-100.08895650089505,28.298822862089825,-77.41304004958238,40.9062738042982,96.82231165696213,-31.56063547943062,-90.0,2.2675254421083175,-9.255352199538613,-0.24008797823124278,-4.837753168822951,1.8253672404545285,-0.8552688821514598,124
84.10448010892603,44.52535567754919,-97.80456847330147,28.29882286208972,-75.94829674621307,41.33389349788736,96.37868479559845,-31.639611683076538,-90.0,2.3708456003402434,-8.017253690050307,-0.4858555275106341,-4.428588899961019,1.6872502238413452,-0.5047447656175756,125
82.02432903919612,44.70870610099822,-95.78905566592042,28.29882286208962,-73.86701539044496,42.13569962713283,92.64407647167832,-31.57320224732628,-90.0,2.6767458692391983,-6.613775875573409,-1.0080059279769924,-3.360401744948782,1.4114353540942963,-0.13586296632361983,126
81.04103471354402,44.529926805294046,-95.96742858225564,28.298822862089875,-72.55588283806,42.217366309057944,91.81972748368395,-32.05457007520157,-90.0,2.797163619312526,-6.010362485769744,-1.3015718141199142,-2.848215051931503,1.363503373065834,0.06307000279886074,127
79.57117499386874,44.16773549113838,-93.29444135696681,28.298822862089594,-71.11629190652411,42.036742019711625,88.08400088066023,-32.986740870657854,-90.0,2.766071565109192,-5.94932584769043,-1.5772226290456888,-2.1873990419696696,1.4936366979656865,0.27811454064180996,128
77.45012137519524,43.0491770601234,-89.82273440982448,28.298822862089697,-71.65194553570304,40.620939999405564,89.64095021419352,-34.47754141950528,-90.0,2.4861951385923806,-6.684034640444748,-1.9388085128478532,-1.4071103360878,1.8555898252749856,0.6135575391263908,129
78.22787101334838,40.2034959453226,-92.01084593850683,29.234141547187235,-74.03851124716545,38.31882886748744,91.03329897022881,-35.80933306838037,-90.0,2.242125583793197,-8.48866020728428,-2.3351343113779093,-0.43531618720722065,1.956810625805977,1.0688038631346897,130
80.51800046278558,37.02930093328053,-95.41198853950287,30.333422586494247,-77.49204391889072,35.36666601830761,93.152915060039,-36.810166115845824,-90.0,2.1268706746019173,-10.024357862172081,-2.776060911932046,0.6633056025074086,2.1237830493655085,1.5544831533498298,131
82.43682157893483,35.833074630050554,-99.13869218401973,30.390924986184725,-81.19711354261118,34.17572054859075,98.8818829720957,-36.95533573100057,-90.0,2.0061852573839256,-10.957660767052198,-2.9744808881605547,1.6684506913201254,2.1569864978282136,1.9477170335747866,132
84.46638643216863,35.915125622355234,-103.32604388115963,29.985163130945217,-82.36103377004176,33.94859622421093,98.07814418509587,-36.785266909497075,-90.0,1.89473366087921,-11.92648197334894,-3.096323305579145,2.824402887411553,2.2652871667493084,2.2923986977943094,133
83.94411290335456,37.21002908669351,-101.03506456025654,29.110482019779482,-83.00385087096949,35.123405614893365,99.80636033765838,-36.39710940588022,-90.0,1.7503550994901649,-12.74714464198995,-3.2527277528637253,3.776030653142955,2.288673204927774,2.5614420816481673,134
82.16729623493666,39.85848145279833,-98.78503476840504,28.298822862089697,-80.35658808934004,37.27542838665867,95.24046140556759,-36.02646542688684,-90.0,1.6911839801301554,-12.782704131316553,-3.3567349104925097,4.617833046491236,2.287436316764467,2.779665926252537,135
78.6604869409399,46.75983744261348,-89.87651193348438,28.298822862089594,-76.38097273775954,44.30006326015412,87.77534296571685,-36.2315292745524,-90.0,1.8097530200174237,-11.883604608754604,-3.188540559612014,4.719236293631753,2.2702956691859137,2.5807479073469546,136
77.06430998258382,52.42891873631066,-86.56384472046621,28.298822862089875,-73.9624234192819,48.75671579219544,83.70228450117273,-38.01404447522463,-90.0,1.8720877939358036,-11.243056774028194,-2.965561217462333,4.665471451415153,2.234510469160247,2.2876495585929835,137
74.29863537917605,59.179145215489996,-81.84598796569892,29.856785310718678,-70.75733537297052,53.14937885667877,80.01043825789282,-42.89649757684572,-90.0,1.9131915612941939,-10.418061322150985,-2.6103881277219645,4.17497603562168,2.0775553814763894,1.8138869573654177,138
69.95351738381133,62.66649922055009,-78.33770083189273,39.95731537592205,-65.6721833201668,55.68535817869192,75.21655068334238,-51.708262024050754,-90.0,2.037586892766455,-8.968652566634812,-2.1655414722247337,3.739296860356999,1.8453937841443468,1.2780011638877802,139
65.60763813499986,65.72108940218739,-74.87090190218092,49.24000189498312,-62.28284319877863,58.23665645211819,73.62491522500086,-58.70495974217177,-90.0,2.056963320820643,-7.410544956693608,-1.7823413118461713,2.960235677887224,1.6256191080747957,0.9226377878335605,140
65.2039724593472,65.95499628376551,-76.82559173398099,65.66654175262089,-60.46548644165861,58.896201095322155,71.58137779074528,-74.12109215261354,-90.0,2.426536540742914,-5.747899431204985,-1.2257257444495768,2.149261957938616,1.3498473533418884,0.5944757673938004,141
63.62705746578089,66.66133101284386,-76.7400528202723,72.33868367288332,-60.41059068343484,59.490919425389684,71.96159859427353,-80.48390031821079,-90.0,2.390729040179984,-5.467624726145274,-0.9474678144602616,1.8240894680190278,1.4452209280904527,0.5799234891395049,142
63.728267425368095,65.18664163943438,-75.98221231062239,79.70646611876293,-61.88456676012286,58.047660636488644,72.39722530489821,-86.6911990454047,-90.0,2.231327102537489,-5.881126081239702,-0.5229745949648352,1.0457192432527957,1.7143366401822657,0.5089573303842058,143
64.76644984034175,63.84994385294396,-75.18167091409553,81.74210972474427,-63.721615420491524,56.23044604677532,72.67411022782117,-88.48189223324601,-90.0,1.9246271914853539,-6.750974566340936,-0.22342988159371177,0.400673096817423,1.8711774354727262,0.39134309858431376,144
66.30298868284774,61.827161710892156,-74.40392429094187,79.80905392786053,-65.04109536458907,53.172551789416,72.4030341808371,-87.07026544198419,-90.0,1.6497624261196728,-7.686313636455333,0.08807983045352064,0.013084870360091887,1.9893506848306253,0.20749709978492942,145
69.59154031153795,58.32794232823084,-75.8451299978959,74.10297481797274,-65.65564055764237,47.55412562788283,71.91670161584933,-83.27018434920676,-90.0,1.2589078408894245,-9.198443806997396,0.3799335757590374,-0.468964125720224,2.3074714527435205,-0.4767891790277195,146
72.31220298689506,57.60068053247866,-77.56992893326637,70.43220652841646,-66.53323260507347,44.25243988909276,72.3800201860143,-81.19584009174704,-90.0,1.0195192384533538,-10.325755002909853,0.592986582670228,-1.1605300970133432,2.433691112226677,-1.1847028391203167,147
75.10181185032529,59.48012334225493,-79.89033747022465,63.456279694906506,-62.711457361614464,42.00876827523874,69.49971385390943,-77.39768284347898,-90.0,0.8865274099241649,-11.410558725457369,0.6839787939857704,-1.4352353515565053,2.4239211955860576,-2.251012229966718,148
76.7423031459939,61.31652608832345,-80.03122648650698,56.45027079148963,-56.87024729408036,37.529570461973364,64.9726117362029,-76.0803313037874,-90.0,0.7531816818893592,-11.915587928055784,0.5666881000654391,-1.0020357699272986,2.316513786878629,-3.4980687636020003,149
76.39289800847746,64.82616648141953,-77.90145759171455,48.00585149655275,-38.93196680127053,33.20125253019659,52.31183053488514,-76.96740467976278,-90.0,0.597771115371139,-11.015572915591516,0.3305495981725042,-0.12336750039185726,2.3301841426969063,-5.326236211078657,150
71.63231667658171,68.0218436531054,-75.1337701077545,45.440396768131755,1.8377788996277593,32.38639759895951,21.507080910284206,-86.21192616897602,-90.0,0.6539656726138204,-8.669333134715629,-0.3753411752467328,3.2436474731900966,2.0809116796249567,-7.652465466115564,151
68.47482072407601,69.0399420911773,-72.97074909223097,43.53256931761237,17.53009770533406,37.61742016470943,9.261229166506855,-91.43617593142297,-90.0,0.9072746916564781,-7.829641346255947,-0.9581138356055906,4.624404228095364,1.8167169014832698,-9.010741869663523,152
65.63426983414224,66.92650521100319,-74.66411863520224,49.57056469407027,31.19554157877922,42.78456387137414,-1.038670282130105,-96.7931432010207,-90.0,1.1044503597315949,-6.577977515889571,-1.128738230011662,4.82066297327434,1.646552983120397,-10.051082565582176,153
62.319227723939754,65.99687699237833,-72.26283989491134,55.494970912216026,43.667249136076414,47.94463348476711,-10.811547654187072,-103.5089035788197,-90.0,1.2394085744072587,-5.566895116482545,-1.2748928048573285,5.894109864121063,1.3253607116611121,-11.017903526272445,154
60.299821035113524,67.9390733791718,-70.02991454990985,60.37658488775193,53.476491661807096,53.382347459723356,-14.981040480985286,-107.04401200623172,-90.0,1.35594924779506,-4.947251165896758,-1.2195336843511075,6.500591878671256,1.1051360527701204,-12.20861805514266,155
62.09022229234404,66.56354661489776,-72.26405542140066,65.45771654033204,60.43973250883355,57.1253805929382,-16.042648064295403,-113.72598027597105,-90.0,1.3465257428015411,-5.929428917148428,-1.2107734723372336,6.441720694521455,0.9099703342123581,-12.869126887824683,156
63.8349541493821,67.11693260532691,-72.75865363699762,66.12933798574525,62.17699331611466,59.9365284195372,-18.284352119235628,-116.62513259783213,-90.0,1.303027845556065,-6.289586057153405,-0.9562500086335498,6.5051706999586,0.7119309703950494,-13.176616993220382,157
66.26872304230297,65.48720065963306,-75.56701273024665,65.59209600595541,61.82942217450419,59.723279797403954,-19.671293999963183,-118.84785227152067,-90.0,1.1829951701504526,-7.1346449152954525,-0.8343382484683943,6.68626550354237,0.8643703983163326,-12.987054882680244,158
67.58057103115154,65.051449066673,-76.53293193186241,63.9400182956056,57.126653551918125,55.74721602360407,-19.66638829037565,-120.83741670207483,-90.0,1.0330232308142335,-8.344673316708079,-0.5593348228976646,7.277637430797099,1.0448728882116378,-12.015148307702626,159
68.4838834180621,64.8751954772811,-77.66392094603252,62.7903381041263,51.146463220625975,46.79540169801804,-20.084017582857232,-120.69082421020421,-90.0,0.9594663919301779,-9.051058541095053,-0.24345279043856996,7.709241062034816,1.2291004421150933,-10.466157521816971,160
69.46735675383749,67.95798720807922,-80.02263993116675,59.01843411236381,19.884715978815095,31.523571773498606,-0.1968630715414894,-116.31350543724479,-90.0,0.8774093678735703,-9.832238694041502,-0.44315445651949253,8.389893572822194,1.7087242285059978,-6.952420187007686,161
69.37471262680069,69.30997953233422,-76.1486995980503,59.097672348973965,2.746937468549705,29.957354401699288,15.09283442288814,-111.61042308095769,-90.0,0.8352888627513779,-10.842744903485611,-0.8390996938118961,8.760169427851062,1.939150931898353,-5.279503742551503,162
70.08647092641456,71.7290762305312,-74.65943683895699,56.44593701307955,-22.176160533244396,33.056149171760126,37.01795908830478,-104.43696227743997,-90.0,1.0196754094565692,-10.893000948682126,-1.2146263010435185,8.721306860525802,2.116916022659991,-3.5485502908277065,163
68.61642907003959,75.58039943785059,-69.85157360180307,53.58723939733583,-36.37037694859518,43.60722400737326,47.7642771306568,-95.4112493963827,-90.0,1.0793684726090562,-10.586561270272536,-1.58310104496195,7.842471744383272,2.487649712642348,-2.073120466846721,164
67.11259469855574,80.10247828840912,-67.07485904136018,52.27955461303056,-45.03161889906437,54.513334854800604,55.22978081265378,-85.21764348496438,-90.0,1.0071016764641356,-9.659762421195346,-1.7189600081758623,6.346751964316307,2.8999660059773977,-1.0157431411088447,165
63.6734393245268,85.62684606551389,-64.37734243113918,54.44010388552286,-49.756122179943716,69.42706794540342,56.443440758275294,-74.7261389707099,-90.0,0.7674388647452365,-8.223169798238143,-1.6514083920937117,4.128732705273977,3.3290791905257526,0.05740018462463001,166
61.63442128769072,87.75968662521473,-62.19204877728167,55.834256426094605,-50.556760324238084,76.1760429359649,56.309486677960024,-69.16529025841605,-90.0,0.48895557612074925,-7.307289927759553,-1.483883310572381,3.2402922636001597,3.6950926608703143,0.41722352032066595,167
59.66219361801806,90.54127222333571,-60.017561979888626,55.111270178572845,-50.366580382426726,81.39328441788324,55.687371018841105,-64.4658659026388,-90.0,0.36046172716283176,-6.085273272646372,-1.1184985705159871,2.367803702159551,3.987344647034348,0.5300174529765403,168
56.60205110814638,91.31885623992478,-56.97991877675339,54.18135074274937,-48.20556757086357,84.77276132934747,52.40225571969127,-61.32830134357662,-90.0,0.2626799234577336,-4.7964272267874675,-0.7543968827132409,1.3716566650629656,4.303152932424522,0.4551709000454067,169
54.37714506332409,91.3779196976163,-56.4051451366169,53.093975393393364,-47.17540053436061,86.98686682834825,51.27713263692177,-57.36737290498641,-90.0,0.10618277434103407,-4.234398358660569,-0.6266017203977285,0.3220821042730287,4.374151800914516,0.41095441043921427,170
50.29788517698844,88.25808128093531,-55.74282132260649,58.695391566904185,-43.52961091747504,86.53602434684979,50.171930686111374,-60.357288450200876,-2.173353423497032,0.3298297768248996,-5.402108864068959,-0.11682608098492382,-1.1154784547782917,4.520928082054371,0.18227620944322145,171
48.7932195673936,86.7062450774842,-57.4373613420562,60.80686600562735,-41.781397095908275,85.80880452705817,50.48116068572476,-61.83695514206259,-16.17835643220209,0.31613061522428026,-5.860108413329937,0.29958249255803354,-1.720661547551992,4.237928358240266,-0.003994105632700597,172
48.434834992388446,84.95476353536627,-58.71729569507173,64.88780471758565,-39.89060927913368,85.0504753322311,48.90392695975997,-64.43022168767912,-25.297151417454987,0.42150142600668034,-7.742968939424083,0.9357577178316846,-2.9312248032869475,4.041601808706813,-0.3514214503806891,173
48.02600466404609,83.43231437725326,-59.58314547522978,67.9578125947027,-38.53701804910462,84.70201070404512,47.73008441149356,-65.58876008569557,-32.719667476366105,0.7183850682550921,-10.257616905352535,1.596712867991391,-4.382943128972628,3.8824324034526856,-1.1110024298955767,174
46.566658954157745,81.47663482596938,-60.10095971868046,72.17991254491395,-34.445883483550645,83.83284580012563,46.59533834662116,-67.442442511098,-43.45229233458397,0.9082573529653615,-11.770542808493678,2.0983659402273003,-5.895986949514648,3.7674796719428114,-2.2259254899400043,175
43.318098158431816,78.82962244657426,-62.09988027179101,74.3766992728886,-29.974312264103663,87.51054863821543,47.381923891709114,-63.693306528872505,-62.48965904694685,1.4986949638255807,-12.761587567536484,2.353638114180554,-8.316334110602517,3.579067432880445,-3.4465208641473124,176
39.08821775286873,76.85807091099356,-62.76426958251093,77.63311047864349,-25.637790740173898,90.39617677942965,46.992908922469326,-60.015824390685886,-70.77815092006112,2.2764818581608672,-13.101748879919985,2.3829912065500296,-9.965101063292208,3.4449877357845726,-4.385911521737347,177
33.634623702794094,72.39996015520722,-63.46018367901662,85.28568548073376,-19.9033753117012,91.70081751693637,47.365872078220086,-61.89134898866115,-77.60841316837625,2.9769074420097517,-12.30565260480118,2.258657818468517,-11.266114447732244,3.3214089632538517,-5.031341067469618,178
27.397457130005524,68.38957982508083,-61.97747581691486,92.22880681886605,-12.251796671434104,94.75015687712423,45.07614365119851,-64.30631068523535,-82.4247235869137,3.45515397315066,-10.891084431379925,2.0130287449139113,-12.442385854521286,3.1314676716811993,-5.1965841742725765,179
19.622415329896885,66.6135505864568,-59.301137503917786,96.99850291462046,-5.84226598538288,97.22314902633964,45.435396091102575,-65.97603700798713,-85.40149799759932,3.8497604028057317,-10.008291054589996,1.505711450128149,-12.716069266819558,2.8366444778577957,-5.040788363620582,180
3.3759925649208076,66.44097013901188,-53.567421207587664,103.68784342626894,4.393474825106394,101.05291255515691,47.13144677134373,-71.24387280843305,-85.25892044908016,4.3906208818012695,-7.944033570599914,0.6333897976478253,-12.062751934005428,2.6707699358012196,-4.148636131171212,181
-4.355656839675578,66.48555505859731,-52.10731857631661,108.84578422886703,7.6008551006046154,102.50284251698942,51.060185434920676,-73.50447883327615,-89.59275075117273,4.798423637723406,-6.604534873037081,0.17656042064665098,-12.079642626210934,2.3340996090515223,-3.66319469240824,182
-14.105219917555027,68.26566411152494,-48.91717993076666,113.26826214977575,13.720909642144772,103.15867352587883,51.06686720231471,-76.87729325726592,-90.0,4.970513141861939,-4.756797739248148,-0.3168100963484539,-11.902164638077211,2.3738896862115566,-3.0771951065565606,183
-22.19920356215375,70.66658855487869,-46.578407902264935,115.64561280201889,17.12974990573417,104.50075260766073,55.636751844743365,-78.74761209369852,-90.0,5.179345702411699,-4.2014130268666365,-0.8578646371375677,-11.920953473383046,2.43810725635362,-2.1014020996811467,184
-28.16738598744271,71.47631285334568,-42.57858765247449,117.37917859038559,19.834743799926105,102.43909238720512,59.05524357297666,-81.93312292237243,-89.62641558884735,5.251261690737577,-3.6124115103971675,-1.415838752165045,-11.46793133113326,2.488093747924699,-1.1285411645234658,185
-34.65214636184628,76.58955396319837,-38.2424175684766,117.94460553851621,23.38219805975403,100.39383211449417,56.12074821823926,-83.72756304247244,-81.08032922895973,5.111949598558493,-5.678822606012687,-2.147908541320475,-10.318300119324732,3.129395988825019,-0.1155243756702785,186
-36.50604849816091,78.83514323208608,-38.37454926783919,117.5871417793834,23.58869302294669,99.0603360386442,56.35937040054772,-84.63688755504464,-78.01675926296345,5.139694129920363,-6.719790664510159,-2.58653411487469,-9.30508199383242,3.081848592827649,0.5499050875271064,187
-37.25121291125093,80.15739079926628,-37.60624753523035,117.1942945728057,22.460059093359007,95.50399326497597,54.51231789172778,-84.87942908679535,-73.76243865966374,5.111931412151455,-8.038115646110585,-2.9182582825173027,-8.007773292691063,3.047799113243586,1.3014979530888695,188
-37.07700524892985,82.66314732368754,-38.179921343016595,116.65942998663415,22.340376759611694,91.08821959375368,55.82651453112718,-87.62734342997287,-73.53983691446409,4.640753306599152,-9.503463886462063,-3.1575044671903387,-5.7526976099339295,2.851379149885709,2.2076570274756033,189
-35.312028481469106,83.79774655878359,-40.62276094609751,117.06065019126973,23.166750171185424,85.55231590959497,56.742357560671245,-95.18794335827204,-73.50034513831201,4.000250352955442,-10.55635741221228,-3.4315980092414944,-2.571514298163007,2.2982252760297697,3.375603806295126,190
-28.58447366385207,87.71844742216497,-44.1677498082577,110.10203027857212,22.172446344558747,79.43458843066503,56.72099992011787,-101.72343471329488,-78.56031635044249,2.7247160898129663,-11.50981997253634,-4.467021805541862,2.7561153707895873,1.787757449233453,4.369858104901519,191
-24.364212398436965,91.44024621644934,-47.69756485485658,104.97822013117464,21.6209800715114,77.80085624940635,55.84166945135638,-105.63169283348914,-81.91632024888115,1.9883186980756413,-11.961584150067525,-4.871970610561546,5.474689193114585,1.607034207034827,4.705839609901585,192
-23.437778618358056,94.56970720563666,-48.90653001248776,98.06893414677579,22.977974798766844,75.04690244897232,54.497607176384804,-108.37125805987199,-90.0,1.2434527802901465,-11.472659307394839,-4.887465703462213,7.839993369129471,1.3395361282288867,4.790355601834008,193
-18.445853339672563,97.0901403432554,-50.31934144939298,86.68626568256313,22.386275891371834,72.59899455594743,52.30204214047496,-109.98860757684619,-90.0,0.7499472540905424,-11.777354834077846,-5.014742523944722,10.702160814502713,1.1515795501940163,5.100811023787256,194
-15.709719561656007,99.61916212716815,-49.79655818816226,76.91313834535062,23.13583102961383,70.55470453866623,46.618676980528555,-112.2833037587652,-90.0,0.9184072722283366,-12.000800822199338,-5.15571394854151,13.172869538468738,0.9741838819846232,5.16676987991079,195
-13.243790420263982,102.91859360592825,-51.80333261506633,66.68377388450804,30.361308668659056,68.56812211201967,40.586179169526034,-114.7892455428115,-90.0,1.9525960983168902,-10.899244138297053,-4.547502262407178,16.27421004242332,0.8004783151095194,4.6939993270203315,196
-12.719126139046066,104.99999999999999,-51.924081739575406,60.43664602157233,36.12004194605887,69.41541109486755,35.232294498586356,-117.14797274201574,-90.0,2.7586086715939406,-10.186803672140853,-4.139285543695945,17.77726444139561,0.6852359724392469,4.317804194155006,197
-15.920927364766218,104.99999999999999,-54.043732237973984,61.82266363355504,41.38465208694419,70.08139998144017,34.08930379616961,-121.34921999114145,-90.0,3.245792254489644,-8.738493871024401,-3.3364005434601673,18.26033826202142,0.7968104400597729,3.6909371294188458,198
-19.10567053137551,104.99999999999999,-58.60583309694092,67.11554034336059,45.40686644655153,73.29901921128295,31.497330098652082,-124.86863602290299,-90.0,3.2155808976619746,-7.817432667182177,-2.7382854797244316,17.489108514364204,0.7097005348309215,2.539198053728555,199
-23.126331209670415,104.99999999999999,-58.58074029350901,69.71901792878776,50.42966186104381,78.44176798391288,27.719038510279763,-124.9408308574489,-90.0,2.9471225467242093,-7.846449123922527,-2.2529595366566024,15.809652292045534,0.9711231068875308,1.5161064598186722,200
-27.317611640318784,104.85181737114664,-58.281395678640685,75.5391271682733,50.693963902772786,80.55595635276057,31.53084946865076,-122.61559558789791,-90.0,2.2442860390156496,-8.92906432774399,-0.9070982797373619,12.177521365472932,1.810409392213819,0.900825909412845,201
-28.01912151468453,102.2445582454372,-58.42488851736492,78.50455636098492,50.5708688772536,82.56243521394597,32.428540390653836,-120.23173425753579,-90.0,1.753546175404862,-9.617973715596877,-0.16683627979013607,10.340323683722591,1.8866567171916648,0.4699671802290501,202
-29.170184510616536,100.22143575693468,-59.54583902546293,83.9147600685918,49.56917607457125,83.27360744032872,35.2550009634737,-119.4187514051261,-90.0,1.4005710900598818,-10.270523676209644,0.45374760757225613,8.690052411189814,1.8479895905356734,0.19473945025982803,203
-28.705701645844368,98.18614945922972,-61.72585503536675,86.54118784414456,48.175841058835324,83.37283476073445,37.73601966376525,-118.97037297049741,-90.0,1.1691415910486507,-10.237202071765811,0.7192490899480338,7.767703986326724,1.6406794366614692,0.10518219406416532,204
-27.98532109088594,95.51545231774331,-62.925904109851665,89.52723046294614,46.31862122998032,82.99127337744522,40.31966805910895,-117.23868501370076,-90.0,0.8012177487887565,-10.05013617015338,0.8802730620019689,6.515359196268031,1.5209006700257288,-0.04792808366212187,205
-28.175653931805797,94.6926402012044,-62.74720778744823,91.82666160017503,44.703369805409295,82.04505926541354,42.33668001360836,-116.23306186620331,-90.0,0.585759618045577,-9.91847467872293,0.835115834243713,6.004334612055837,1.3609788546979067,-0.018175542894663388,206
-25.76055649117788,89.49974947833093,-63.79304422434154,93.93572352539752,39.92807308074306,81.46596875419847,46.33596879506867,-108.55613479808538,-90.0,0.2985095344066845,-9.524423900433657,1.1798704340851287,3.431006992637909,1.2173747175558312,-0.5900018002283394,207
-23.422296005632166,83.91953992437449,-62.240904411790034,99.54237394128928,36.33175975093562,81.91207422162537,49.20955192587221,-105.20616810850296,-90.0,1.0770546647211594,-9.784459356928055,1.3368121846095795,1.3877662437814362,0.710889046493995,-1.0953785075861482,208
-23.371549801009888,80.68564603235326,-59.59951093146753,105.23993692499275,35.23212321616942,84.17822773144859,50.583133493001604,-101.92041167671151,-90.0,1.898412047894461,-8.927202792920154,1.2173173369862844,0.06652174669811523,0.2912615365332715,-1.2413354990299308,209
-25.361581327167748,77.26923478908697,-57.94914507396592,106.76013735077089,33.73186658990764,85.5727967726594,53.07536686934295,-95.37393484973508,-90.0,2.4991105866253878,-7.737768711074987,1.2397446479284828,-1.3262258230103068,0.21052921069247837,-1.1568872030873325,210
-26.817898833898507,75.24558838794988,-57.21101668830155,109.64508572653153,33.793675218786426,86.45136515138304,53.25465234291073,-92.70831163285195,-90.0,2.8657268120658066,-7.104889840265739,1.1605025189766587,-2.1445528478152243,0.08281718549077748,-1.0462093481956594,211
-34.75815203316237,73.6658891946496,-52.33846524190567,105.95648637020366,35.04685547381849,87.49615882870891,53.54531124258476,-86.34904767163549,-90.0,2.943847998734948,-6.110583489655086,0.6933430414344295,-2.5272019199587463,0.015863482352568924,-0.3912360056460219,212
-45.70181577116725,73.06631911597174,-43.560214475584644,107.24591079457151,38.461832620413695,89.08318908510256,53.42724810551767,-84.5255784296315,-90.0,2.831580540931148,-6.036730008889271,0.21819554574812014,-3.5319286642075993,-0.050628202417356376,0.3266744035038518,213
-58.198929516748926,72.60656715673143,-32.94651623242486,111.64689863574579,46.96681911625706,89.50671845226941,49.29776460630736,-86.40222026809592,-90.0,2.4942393069231614,-6.102293905439834,-0.055477852103269575,-4.89069562171338,-0.2213534153336927,0.9348332600350966,214
-71.26472336849606,74.62527943368295,-19.13446466769809,117.55584196912777,58.65392048265553,86.52939234807177,41.33336725126047,-93.64048063072089,-81.82155439330015,2.0332888417351955,-7.156878086064623,-0.5178154420456313,-5.083852213314998,-0.6585307231606558,1.461334987949537,215
-76.31345333835172,77.8108543882032,-11.995706790996758,120.60998832415046,62.58288477788116,85.76985181424352,38.71907081898331,-98.31162409769617,-62.497665275998344,1.9591868717293714,-7.873703335149225,-0.9587981145608536,-5.527216118721604,-0.8336639299526175,1.5619435403049229,216
-72.66025207314615,78.68123553645303,-0.7030204946995972,131.07049734491818,73.06123297314146,81.48990787387015,18.908529171468594,-109.8437081563804,-35.46028094248906,1.9821908969889745,-10.57496880287582,-1.8612486467844551,-2.0172942776451612,-0.8594875993161724,1.960561893832615,217
-64.06792996051709,76.68107297609369,3.0203806327905305,135.51255835450132,76.89019278923891,76.48663157272641,0.42125138721343325,-120.0837659483281,-23.02219102039375,1.9971324421600358,-12.857771091237014,-2.893816660975519,1.3944313856953874,-0.9148717857670189,1.706140814483745,218
-53.49400672506873,73.83957872193929,-6.334414397319025,135.01943119365563,73.52452562819646,72.56710568977356,-4.493516117946453,-127.8640241313854,-11.72078259283338,1.7798049970450445,-14.232324473721315,-3.7420866470941045,4.103896069079546,-0.8597942897007949,1.031905325813872,219
-47.47928626463212,74.41333435822354,-19.17261324449367,131.4973743218296,68.10259971067424,72.53099664225779,-0.9072992845763146,-133.05045716939765,9.416925050885748,1.066800100052976,-14.706082181364572,-4.743362146803841,5.522030389868117,-1.0220848954582085,0.007614858069944527,220
-46.767490840962004,73.36352482465544,-23.697426204023678,129.1050419255921,64.75173648941539,71.65092322151304,2.846495915621348,-135.75726846814223,40.79655380733342,0.7788945330528535,-14.973407304959746,-5.023895547794541,5.307828207003844,-1.218225392589889,-0.61908953025037,221
-50.672217074696846,79.85048477563332,-32.09889299606518,122.88917735774189,67.47062665699197,76.33734118753678,9.23404216884434,-136.021508489493,90.0,1.3665803210783232,-14.438129483696567,-6.4067214283849605,6.548971920017579,-2.052029084966032,-0.8790284104410604,222
-49.32743333562881,83.53502276653414,-37.704860887865095,108.13578463078284,72.45790620494873,77.93001011499652,12.87590292450467,-131.8074563142914,90.0,3.0048056148864677,-14.679241190363124,-8.167487803763432,9.066274064966692,-2.8975825216571027,-0.605075376109323,223
-47.79311094566909,86.22347269293276,-38.999668704904174,92.72004712539018,74.65668117705768,77.25552350920773,13.185980073341582,-126.77072642427284,90.0,4.399219380224495,-15.405451251917295,-10.149133327133393,11.068994730780748,-3.663098894826426,-0.143182454257586,224
-48.578397570013514,88.00380601976906,-41.50759012425506,87.11741458442985,81.89448774480937,75.02681726656913,10.55427302699434,-127.79947025115764,90.0,6.000000000000009,-16.069877700726135,-11.792032049701458,12.940541526548065,-4.966522468124098,1.2756725930423918,225
-50.78579688264348,88.46997470514509,-40.77694917751396,85.02613575520078,85.78514764726734,73.4987666409828,9.620368319773544,-128.4813914061469,89.4323733985763,6.000000000000009,-15.949197267966852,-12.705627776529179,12.85506323101171,-5.433699194878197,1.6687289386516906,226
-53.65045990414155,89.7591422667102,-39.88436214497737,68.25605703531855,88.4775868738538,72.79848466885652,12.279135910828181,-121.07105561715875,83.11373351915145,6.000000000000009,-16.88938673001079,-13.326781359342151,12.711360503200982,-5.385301554510895,3.1085101284318886,227
-55.75936665751915,92.54201160734675,-37.08321902819291,54.01229521260109,92.91687821456327,72.45345336487462,8.403489880153769,-114.52086401049779,76.78845521921582,6.000000000000009,-17.696933776370628,-13.772003814201149,13.177863281795839,-5.25003913700105,4.7648362321587845,228
-57.90462641235381,94.91219554869586,-38.02589962378689,44.005966080075005,92.36202396027062,72.13546851363004,6.934717145872376,-104.6967151292138,69.95422110019805,6.000000000000009,-18.133954120876652,-13.356250988468753,12.587318567498878,-4.056858583282122,5.510921485735701,229
-60.885900203351994,95.36693982682077,-36.722473256604445,47.64002802282193,90.73327077566442,73.5546981306724,4.719971526485917,-98.61589049642474,63.966657275112865,6.000000000000009,-18.434618894086302,-11.612932805404846,11.047643357183713,-2.320406782774567,6.143749506366711,230
-61.961665447815186,94.86120026773723,-39.26023913507959,51.60992370576526,89.9137298692451,74.408456900338,3.55325429273095,-95.31941300156434,60.941309577542356,6.000000000000009,-18.501439328234245,-10.388157243980253,10.313028485106376,-1.377565322729439,6.433337021171752,231
-64.85683838413365,91.58305076852695,-36.38899856989656,59.90397530054146,92.74523561080471,72.32078454392668,-4.2902679464392595,-89.8750224403074,60.10311461229324,6.000000000000009,-16.080762499295943,-8.317192368415641,9.782671637039815,-0.7580636051925896,6.654245843419322,232
-64.89780529984878,89.8964831751553,-32.105118199458815,68.96042252428144,90.68579597733687,69.56907859025931,-10.054886556174786,-87.44098287869615,57.25191933659208,6.000000000000009,-15.280543441526179,-6.226683321813009,9.134833015509955,0.37688085233125784,6.557469403966236,233
-64.86482798741797,85.83716475543496,-30.792337707760357,78.73643146055551,89.70894897604677,69.22246328477578,-14.480888846050028,-91.18520795527898,57.48556258460839,6.000000000000009,-13.92585619038518,-4.538639672708597,8.58420545333096,0.7965306689596748,5.8131546256641355,234
-64.08176432981924,84.07896454002321,-27.381193310667253,86.3997908046214,87.12924494312422,69.05979368556042,-15.88308259484136,-94.89124963166336,56.189943491942266,6.000000000000009,-13.37083739186422,-3.2652063913580687,7.472763754583293,1.2207934220893062,5.036402614690806,235
-63.25904648468761,85.0435384297507,-25.995149375569405,86.80905420741306,84.39107346298906,69.56623750439924,-12.896154849541773,-94.6215096025626,55.06052926791641,6.000000000000009,-13.324809478997228,-3.0527798385978815,6.737074650372463,1.1961731683562593,4.717149718614663,236
-61.94889126806066,83.08028798881833,-21.64927342075754,95.54594208609767,82.03142859405268,69.61447277166756,-17.00950296835631,-100.46389761154062,56.242257366181086,6.000000000000009,-12.865742869156561,-1.931470716653871,5.643481873140938,1.2832529561965456,3.9615699567044653,237
-60.02366849864335,82.47427783200736,-20.311279062115677,100.95627689623366,77.39261435358138,69.38059413500362,-14.667227778589233,-105.25700339613965,58.2944116811395,4.982306812968279,-12.214723105724389,-1.1320041506063798,4.402717101300678,1.2306844423826708,3.403013444648946,238
-61.02932394305371,82.19591428957072,-18.57652958450102,107.71321862238923,74.55731597855107,71.21476662725817,-12.049472286024063,-109.55029841793375,63.29867864277977,4.137970271237968,-11.009823361252987,-0.6108267529512553,2.8669952477517753,1.0831085068981121,2.826705580131547,239
-59.960724772009115,80.87555153718682,-15.021563025673519,113.163836207077,71.43088386603658,74.18719428812398,-10.377777872122296,-113.43133295440123,68.75942096474004,3.4908590588150705,-10.326273868856463,-0.3102768259193695,1.652477532409635,0.9670389934618608,2.3661208928877326,240
-59.641241677624755,81.65171694140126,-12.421781263498456,115.04983007192176,70.04208941899967,75.8722643795963,-8.583427741760072,-114.26210309606395,74.2191109476422,3.040205371838684,-9.808290972163364,-0.3638242374909077,1.1010493930753213,0.7469152161891657,2.150490325781211,241
-58.91387994448703,79.0390325972581,-6.322605443208421,121.09847733675129,69.64167818831277,77.80526538296044,-7.365731945045047,-118.17411191897438,84.24782166147477,2.7210479525541444,-9.264921790324024,-0.12731260058548838,0.23917750973216906,0.3763715017704675,1.8588662088800338,242
-58.062753796742506,76.93105172891836,1.560004699463942,126.7355410357249,72.03991949338526,78.67351972343471,-9.437030130567962,-123.22261275200975,90.0,2.313577198687908,-7.815649708063397,-0.3009484545120164,0.6209147320046222,-0.08079452544201432,1.3829549569413155,243
-58.54728269090178,75.50488909044252,6.434235853791823,131.7338512516667,76.31958464357986,79.80407286189494,-10.493322158242991,-127.37106352693162,90.0,2.0490171629103577,-7.052138061034081,-0.705506621214259,1.368885616076047,-0.2490484801320934,1.0681482352149594,244
-58.915564022494856,74.89135784286746,9.071812164000885,134.98514133089392,79.08445878526723,82.19655056453179,-10.231841502001348,-129.26113672756878,90.0,1.8728983080074795,-7.7414897673282175,-0.9767670813013949,1.8894515812884294,-0.3062406518228751,0.9777304188241387,245
-59.668697640350885,75.0564737671431,10.67517283715926,136.12088197086985,79.96408895933101,82.77473907536447,-9.191306325634946,-129.48789865127904,90.0,1.8703667248643987,-8.37200120262361,-1.2166758930797126,1.548850812034375,-0.5558906078691614,0.8410391683000791,246
-57.911975803461736,76.61725389555069,-0.8343348963436014,134.0409029424471,74.10302607513887,84.72311387156063,3.231702456998167,-130.97260875250583,90.0,1.7991219069708915,-11.54670970489268,-2.1168816092833933,2.040726833029657,-0.8139320753611579,0.6970819764781147,247
-57.139203520814974,77.92203055530136,-11.471628012637412,127.203681231133,69.85520537625385,85.56750796008403,14.960063496372788,-127.82034516772134,90.0,2.1444381186956143,-14.066437600920235,-3.626888033848952,2.557461217019785,-1.1192272575631028,0.6179419835196805,248
-59.39520908244393,79.4464449266443,-16.799328900344765,123.91315169626061,71.85863149212017,84.43010429189145,17.417865195730105,-127.4337398578167,90.0,3.108835323241003,-15.882454564189626,-5.381582887599219,3.740385268116528,-1.9767784336915173,0.727072707639988,249
-59.98471872350109,81.5072902615058,-22.819469754102712,120.05987578857187,72.16694288195322,84.50104348517617,20.321561269546713,-126.117425897483,90.0,4.089863439755034,-17.308743145365224,-6.983997112238443,4.442468195764862,-2.528373439089008,1.025783006349333,250
-59.91077843808699,82.02028051554122,-25.467184129282934,119.16881284238553,72.76139756618316,84.61476344532336,21.553126874560583,-126.53850551271998,90.0,5.027939523093015,-17.759550761207436,-7.820500005235335,4.162132069223275,-2.8354061626208233,0.9926181998758882,251
-61.97445250582881,80.30318623216606,-26.105572883350007,109.92150322786715,82.54004618729975,76.68239948595655,12.2713211421779,-127.74030855535277,90.0,6.000000000000009,-18.814698209915516,-9.490109785512118,6.318970497021476,-4.373264478290784,2.0104509014181775,252
-61.19144126777589,81.14851978593802,-28.188767528933226,92.50537984098005,86.48347284961363,71.8066948342441,6.421242205950516,-125.66528082569617,89.1592068386673,6.000000000000009,-20.4332916648525,-11.278568611519368,8.047232327555637,-4.99271410293289,3.0861858289340383,253
-61.202522840934876,85.0116659258665,-30.649009863161222,73.03197296002416,85.6720949169245,70.5789340314249,6.39489813834717,-123.68485270851254,81.91040033259951,6.000000000000009,-21.70335921595498,-12.576274760386333,8.123643340156539,-4.836337428833474,3.8263513101613973,254
-60.8249498024623,87.93880855052221,-33.18777140008181,59.52902481680244,87.9513119420008,68.47388669840198,4.633005576966274,-119.77526283023776,77.1146229992661,6.000000000000009,-21.371233292963446,-13.52661150390671,8.162437821922929,-4.696577695820547,4.583346276271574,255
-62.23398210428318,89.87588889604793,-33.86829649091252,59.96412733496273,90.02545334495962,68.04963008079297,0.4933007049861689,-118.68047672996772,73.76796558779593,6.000000000000009,-20.49725444126441,-13.808550842193041,8.239476451995838,-4.287341697846503,4.7584153296494565,256
-62.13722987849082,91.821712953188,-32.98892671913523,50.22898279870107,91.41328000564648,65.94262157714934,-2.367272544970266,-104.38488388321365,68.4152131664341,6.000000000000009,-19.202609514890085,-12.756142553315405,7.9972191935620005,-3.0558815773796644,5.6232511829746,257
-63.69591164523704,92.28894047886557,-33.09672578900669,50.27657131763256,90.33147080983073,66.58362368999832,-7.8375138165674505,-94.60488651767926,63.520451749138786,6.000000000000009,-18.010359258619978,-11.12782568247006,7.186269792623122,-1.6397200428371221,6.102210007901707,258
-65.20933970636356,91.45418868433093,-33.03168224192898,55.08590109476367,89.39442343947917,66.28157137969154,-12.75768940784168,-88.17480650834796,59.70272507490945,6.000000000000009,-16.67375007500567,-9.310554535884187,6.585775796318512,-0.42037369651658896,6.289936960737015,259
-68.34892330686242,88.8914881370244,-30.537129364692532,65.77945551007618,88.6870297013088,66.64560472504643,-12.108869940565732,-91.99192062795848,58.18717027590518,6.000000000000009,-14.886098725681775,-6.868292253601675,6.241473234305221,0.19213435504585735,6.299880016616514,260
-69.07068464476099,87.47037885404227,-31.15202460063346,69.29130012189688,87.3841343112634,67.1713497404456,-8.749458342222324,-93.0442899898326,56.474982193783056,6.000000000000009,-14.097158241752762,-5.6960004777611815,6.305146293972239,0.4126330158240778,6.139916250618725,261
-69.67081110475047,84.02303402615475,-24.47069979359307,85.07128163779282,84.84834355012782,68.55565301903346,-9.47222337676905,-100.20929657323674,56.91652377837256,6.000000000000009,-12.074961959813146,-3.0920863209778537,4.751169579213257,0.7404094872319387,6.10323247523083,262
-68.5782297414937,81.71605260180345,-16.13253093029753,101.36574965762122,83.32350373231685,67.44104528841983,-10.070496167068162,-105.50114123385782,59.10868129285447,6.000000000000009,-10.514220351651465,-1.619246312146147,3.1563980178060307,0.8824536073441178,6.378118347444861,263
-64.34830497229737,80.01439066365745,-12.79384977696289,113.5019778374137,81.56753774094575,66.12105039825663,-5.169367125791854,-105.45490635264133,60.74014139650424,6.000000000000009,-9.487117580027803,-0.08948832006606766,1.7716748485111973,0.8783234390454538,6.729149893295659,264
-59.137993606517185,78.23548859789943,-8.491650704669642,120.13313542603358,78.08689104640187,66.41800569436502,-7.251842445675492,-108.12804714217482,63.806799436652945,5.675185376292769,-8.887363971889283,0.5862688851813086,0.7330831878062912,0.7935423903077851,5.943310406568672,265
-56.36232963316806,78.67252982858507,-8.347050892305205,120.41964791582011,75.82226560418417,66.18776281856171,-6.919646647637904,-108.4391984729818,64.85447746360595,4.942512578286729,-8.597191234244226,0.48601820179433763,1.0313375490570746,0.6311468744029414,5.544608919292246,266
-51.70633407445164,77.57915217715473,-5.549823435715176,118.16480889853047,64.61320215857786,70.19930749202396,-5.710824946980872,-112.05451551517334,65.72353155314978,4.073818261597247,-8.535915662474894,0.5849411125754888,-0.07388416333490211,0.7656379168164413,4.020175769207847,267
-49.98038560294359,78.70965816969115,-5.134507111784101,118.17049658042151,59.20551858301915,74.28929846970532,-3.2879061682260904,-116.4562497514342,67.82486500670734,3.060727058027426,-8.469401434389681,0.4546509059937868,-0.27198471592893175,0.5765040165416911,2.9635477495512195,268
-50.82002822931293,80.07290995562126,-8.869827679473511,118.03114101023338,58.10751472903462,78.00634004730962,2.7369572278913847,-118.3605692335962,67.91544510389913,2.1236099147446668,-8.271157939887765,0.21080325330752395,-0.38317288906983893,0.3030106146363912,2.167739121903876,269
-52.18192390587712,82.8263330295866,-14.312177188685677,116.83630581759463,56.982387904032535,81.02516336677905,11.161655828022448,-117.79268736712808,53.14826576241294,1.217671368454362,-8.427795847572117,-0.11320460774050621,-0.7748139759554443,0.0803612004854731,1.5700208521062538,270
-52.20661765395893,83.62582500480644,-17.622072854665088,115.95726375571817,57.826214739105495,81.75155928040212,13.108236355776512,-117.26828742323922,26.700536335938658,0.7928567953143104,-8.475654333455584,-0.46683681908308633,0.2968212190178618,-0.13233580602707123,1.4826906070208046,271
-54.556579446072384,89.88163410306855,-32.82567828345012,114.31415486133858,58.23197431238809,88.8077402027631,30.32592161133518,-115.9544072579959,-28.667058827073696,1.0688554808982256,-7.829992239638527,-0.7668874527611027,0.1122457624156887,-0.09369760467640206,1.0253464199091,272
-57.79439463124783,91.02833714879861,-39.79245424906777,107.995060328588,59.03546940526146,91.921769165219,39.63020992397542,-109.093259202344,-37.26725270787768,2.026762851800401,-8.829235291996358,-0.6513117824286175,-0.36816599361019176,-0.13275080437283904,0.8496960249796358,273
-59.976837926116886,90.45258490189723,-42.15442751827744,113.19912594868293,59.673139616788355,92.19629637747644,42.053176243537,-114.9821196198065,-38.962014932820246,2.5909570091301353,-8.583543682413518,-0.6682907696105114,-1.1192274520032854,-0.27648346547124597,0.7596666612472731,274
-60.52195701800413,87.6720126489789,-37.813777512554566,116.71893486773804,61.87334867098944,89.13891300437349,37.64768535690358,-120.47215401171941,-33.78859460092848,2.9255089757932806,-8.715774323390683,-0.45704404690171935,-1.5466017628959121,-0.013583432556244921,0.7583995288691296,275
-60.07087117815413,86.50662409948067,-37.202362277926795,119.40321628231773,62.872852307302175,88.01864714553632,36.027063546830846,-124.07281490213833,-31.049663303221735,3.3210037631771936,-9.113538949200375,-0.22685623995976892,-1.0820226898055585,0.12020444461323518,0.7839600774956516,276
-61.45655527286221,81.21241454732579,-28.221970543291132,117.63838037038003,62.350220822280754,83.74185942458031,26.894617339279762,-125.39737396343355,-31.720328581209206,3.128779345493747,-10.136778976510044,0.8157122117986743,-2.9367256372593427,0.3815434439485105,0.7772974148496719,277
-62.94788727785605,77.81267800762214,-21.25013642980813,117.5732106640711,57.8081374474927,78.20091075179113,21.675420945242973,-126.5250692687318,-42.09680045977599,3.3874946928263148,-12.032009334986496,2.1651228568347816,-4.537726941795892,0.13018191369999882,0.9588352548969449,278
-64.40301915190054,76.64811218010716,-18.77761158498451,117.3512706908772,56.86704804865374,74.77460634050726,15.634029887682757,-123.60091441718015,-56.714749307089434,4.0787414251768395,-13.05951334515383,3.3500702855009057,-4.914074775281045,-0.25763826190367384,1.0975008089298561,279
-66.61403875029912,74.90066052351328,-20.198162648557414,121.46512642798729,58.00388931161934,72.24894529439668,13.043055697459456,-123.35088489589805,-69.01499492058065,4.818065456476173,-13.880300085167663,4.853096515697865,-5.03321875599021,-1.2145203966228386,1.6393365944641123,280
-67.00189399319672,76.1764532706423,-22.374699210756138,124.04857663365233,59.05325331519801,69.27626691568827,12.173196543722334,-123.6329631038725,-73.50284250769693,5.478386317656978,-14.086471878105886,5.467871087766536,-3.87951189298995,-1.5736366778241957,2.185312694882425,281
-76.49136968422131,73.73748315166482,-17.049197677637036,125.61249160826706,62.233759143555964,70.66364921317256,13.283148606331931,-120.93521468055798,-76.51427076370453,6.000000000000009,-14.983334034238379,7.040232112454868,-7.024277002844751,-2.678682659878627,1.5795298685906787,282
-83.75360310807652,72.71165233362036,-12.152460114240501,126.57371286774746,66.54067737937416,72.85795941649566,15.528554822413792,-114.92390330428182,-76.6883238213966,6.000000000000009,-15.163704519366732,8.581883546184127,-9.176175144929662,-3.6692448666735573,0.7912365950416586,283
-93.04521261061772,69.5464390040311,-5.474403907653409,123.84743442161479,69.27480827859522,73.6902646412293,15.532274990489494,-107.9431582202784,-76.02950188244998,6.000000000000009,-14.903901343213523,9.201882957860885,-10.37176912456341,-4.462093775632337,-0.6685677780147847,284
-99.19648881792043,68.42868050501477,-1.1323628008698845,115.60483991171263,69.65313571012372,77.30710543083265,18.81219043863318,-100.9827548612171,-73.1192660140128,6.000000000000009,-14.424709229089336,9.174989696839502,-11.23836169075075,-4.406756702914979,-1.8308408211685605,285
-102.46666721987584,69.66074905530178,4.2419224366390225,111.97409115257851,71.11436966996379,79.5784834621764,20.409179148036056,-98.9519981454077,-71.21827675378408,6.000000000000009,-14.028830115780762,9.135341943028704,-11.543583958280072,-4.287178785423602,-2.0930969272225517,286
-97.90979502713654,71.24719101344964,2.9387575766957488,101.35501984637601,70.99110107010412,83.29421984758523,24.199223126246725,-82.6328518552938,-64.99533711111411,6.000000000000009,-14.043086873764812,7.33528765311855,-11.633616002051571,-2.408624562376373,-2.94403090853883,287
-95.28662804357974,74.02519585721285,4.060715255554825,93.71509223449212,71.65174514764229,86.35564260379955,24.096991255104314,-73.42904110592262,-60.750879794815404,6.000000000000009,-13.794010160881678,5.410047871228507,-11.890471508635656,-0.7873335213908383,-3.3179213701313213,288
-92.1070540320439,77.61626044752916,6.360548617966804,93.90932788368528,71.90156774880656,87.86150753830756,26.6991089787439,-73.98029232856447,-58.04436468047332,6.000000000000009,-13.382483002272446,3.5461203643565424,-11.54552444399783,0.4254090995360063,-3.0486876484451657,289
-89.90087507074007,77.8438065085723,5.920221872928546,97.26776660649995,71.49308692384358,88.44238431961853,29.18009700410998,-77.09337322892571,-57.236279305382176,6.000000000000009,-12.458578925018747,2.0828971212052676,-10.834855757047812,1.0991380577017593,-2.535218884302968,290
-88.79140235667668,77.28508579687485,4.568238345514367,97.18398948797991,69.96424213293258,88.27055418565361,32.71613472114943,-76.89045788635934,-56.663765032454215,6.000000000000009,-11.944914668791071,1.381899482507186,-10.276174773205573,1.3100949017846384,-2.1635325418500733,291
-88.0862401666048,75.57774364702985,5.2111693449946115,101.67707971101851,66.93008634737504,88.48320204490769,34.86346812555152,-80.52985308695725,-58.49554417731192,6.000000000000009,-10.96721568455601,0.4187872141772667,-9.73762753572857,1.4060069384603138,-1.635829428255119,292
-86.86933808419228,75.4629753424221,4.499778183218333,104.71054963976624,64.82550507923271,89.54396714069397,39.79481151995213,-83.189014805065,-61.468659316739696,6.000000000000009,-9.674165988619054,-0.2050137416428734,-8.484670143368005,1.2877584684414174,-0.9533341699149706,293
-84.42673134356603,74.08811988066556,4.614841116656257,107.61770219641853,62.688042290811254,91.28487760940429,41.78735201650174,-83.20914743115847,-64.61671435649981,6.000000000000009,-9.16229346654615,-0.6816818408203554,-8.030357661777092,1.14764906859881,-0.9520775632491469,294
-80.16644262075418,70.97728507999344,4.7995740125663735,112.62992236044978,61.44709313157591,90.73201763979674,45.90369395290298,-86.40135695823031,-68.26402601903062,6.000000000000009,-8.718914982382936,-1.348829202275434,-7.088324770904096,1.0383280759329094,-0.9017572970842858,295
-77.41976378093534,70.26667379212783,3.2389157790582814,113.92339836398007,60.22256343405941,91.02097535480247,47.37571759529301,-86.52060552767284,-70.02733215174187,6.000000000000009,-8.606994758967542,-1.4956449651504735,-7.077491876517864,0.9383870085116489,-1.1179349717037848,296
-73.3226284783045,71.58737275171006,4.729314509180898,117.8547246550133,61.399259208180275,90.48278511316236,44.071888668194376,-91.14067877420138,-72.8821258851007,6.000000000000009,-8.705670928364393,-2.046140698842089,-5.947348333974433,0.7861139846604696,-0.8908313795500415,297
-67.26778964572772,74.19126938759,0.7394870650739064,121.74772063133283,61.99793897962026,88.84051529470297,40.309895995778774,-96.6089808651728,-74.91548678820713,6.000000000000009,-8.527431670893124,-2.6547146097371677,-3.867601832199403,0.5838816508863094,-0.46836230844681676,298
-63.654364606770564,77.03310244677887,-4.495699755220054,125.53884037134524,62.59875647750033,86.43729593570788,36.351989357358526,-104.55447013892014,-79.49993645931382,5.612390373251671,-8.06513591838568,-3.122374370441552,-2.197017486889134,0.1889106361978329,-0.5093197798695379,299
-64.96285664170452,74.96548234238291,-4.9150479043536075,129.60305773255303,63.676067910655654,83.17338926362453,29.458950029719862,-113.25875110026641,-85.78087693814227,5.264080499297014,-7.15846720801439,-3.157915372840504,-2.49011632365795,-0.28288365571048946,-1.040162981525959,300
-64.5416253337356,75.20991641548046,-4.836928665181481,131.57217997729708,64.22399934330534,81.62445210104562,25.402725725094825,-117.42464118436928,-89.72016361241526,5.125110339165944,-6.9236912580707575,-2.998949015514195,-2.8399925374391333,-0.5661386202970775,-1.488222063918871,301
-56.035684133451525,76.91146386331027,-13.45627385454377,131.6978667787473,60.84017054010988,78.82943630329642,17.699417145129654,-124.72070242113145,-86.78121775943626,4.588516833131393,-8.531398305640476,-2.933577715726446,-1.2608161014917727,-0.05324472139743342,-1.8607429139684364,302
-47.92388935398867,78.17345466852694,-24.408064824711555,127.93742632374732,52.521375325196765,76.13216305147625,12.651067342895903,-132.40436642424004,-84.22250680473442,4.201909444487361,-11.104516817775306,-2.770963347610146,0.5981688505401378,0.1908584104093837,-2.5074673207321783,303
-41.78024942708304,77.2771255285239,-35.25633755493106,119.93539745178488,44.957725355791005,71.97566476381331,11.04056588162263,-132.88717657531143,-83.37131329481379,3.924406408199006,-13.37007788609669,-2.0948650232243313,1.9781533666479862,0.21111186307763719,-2.9120919870291377,304
-34.87291837124555,73.16252801457127,-45.96445241203998,115.051141560238,38.658361807182814,67.54402672260437,12.41429835777145,-130.51995098682963,-85.33384997902884,4.050705485612245,-15.02638354296,-0.9073506500982772,2.1928703666438514,0.06379536437306124,-3.350728361186816,305
-31.974861491834826,72.3671268175252,-52.63015313499394,112.52718746166191,36.46074137940114,65.7414196554989,14.109017601732187,-128.29923066310846,-85.1475372390054,4.241543520498191,-15.704968946619957,-0.31889447263285176,2.4885466186778062,0.017840281503319854,-3.8252104418559454,306
-30.99547565463258,76.59570818702434,-58.83604311549857,106.25727430680462,33.762191822923256,70.4019821385563,20.18911016398376,-118.72322240678739,-75.83970710720358,4.591997212011198,-19.44846113657501,0.9215801057801415,1.9872373107813557,0.32567942353626705,-3.110719513173952,307
-35.56790517255737,73.30381726984734,-62.19801522459022,99.03896002031429,35.13379870202667,71.89811584431163,28.783460034031663,-103.16465422914429,-78.86354797858674,5.046969060553783,-20.410600638773197,2.56464834818555,0.09714682264233253,-0.2735115352730516,-3.2578501509424567,308
-39.917458380061156,69.09462758060693,-63.55547583433477,91.94461824407757,36.835775239531706,75.24303065104557,38.87245288888763,-89.2311275113875,-78.45627327514913,5.747022342376691,-21.253632702167327,4.389246368178137,-1.7054682247069912,-0.8919546070627133,-3.4251804816252784,309
-44.7932335598707,67.681544794278,-60.50858208310102,83.19841064621959,39.02433604266667,80.20307810724663,42.17792556239798,-71.37430798546548,-75.72597331172973,6.000000000000009,-21.6752956097823,6.019026644112192,-3.3330214962056464,-1.1470664846202328,-3.4575001369325746,310
-48.58519443440327,66.20768910457888,-58.820865250314476,82.23817761399663,39.746460786691976,82.49970135896368,46.30874273368937,-67.4019856375483,-75.29120491599825,6.000000000000009,-20.43154680877163,6.808320068263845,-4.259936086132083,-1.3636914088002872,-3.464280638724402,311
-63.860341611496395,58.946117182620156,-39.16914830758829,74.00115135921523,42.09531420293893,86.61143353492594,46.022980171289426,-54.75302368020141,-75.03587755492545,6.000000000000009,-19.156178970579777,7.916519542087015,-7.106056555738007,-1.9077598680137804,-3.919194067543027,312
-74.32944834787239,59.25984780245492,-19.265914174733414,69.34223267537713,46.1158324728975,90.80408582232747,43.416131520257444,-44.19955116440804,-72.94726260802985,6.000000000000009,-17.488123724139417,8.567095305400082,-9.844736813592094,-2.1408442446208857,-4.178982086963963,313
-81.48320353258478,62.78424739709351,-5.2584698949306405,72.9171803008712,50.5520637178888,94.29958966901275,39.691512557518536,-38.23718706019048,-68.9115918439551,6.000000000000009,-15.969962333747894,8.115897028591291,-12.404184711444508,-2.0618892762165055,-5.004675762254159,314
-86.43950028955368,67.03957302376604,5.887217732901172,83.90895260792985,55.618000255972596,95.7084476346974,37.47012898020274,-41.5569013775084,-66.64843827377274,6.000000000000009,-14.395444753503627,6.8409517769288515,-13.978700250055814,-1.6403993003185324,-5.265963966294311,315
-88.04983042867772,69.4788149215532,14.164031685020076,89.41331464539252,57.17992193876252,96.13351925701458,39.28832463160792,-43.04055052471611,-64.54259494636136,6.000000000000009,-13.457798254307736,6.229966383742331,-14.942229957723812,-1.1909810748580065,-5.048963376601605,316
-89.26855671471985,70.45947653707972,16.065039820560354,103.5750940376704,61.021946604549996,93.75792077145604,41.162540004061135,-59.27457985544167,-63.77943011564277,6.000000000000009,-12.040256829948934,3.9930476163131727,-14.388802872657964,-0.41608479671440457,-4.400321757373684,317
-86.41530448166668,72.27600264857404,17.422632737187193,114.97017123923543,61.753601749566556,92.42962632760792,41.355328035918355,-73.18254222289787,-63.11354334019038,6.000000000000009,-10.90784780583711,2.108902762325275,-13.567221431122151,0.25955646862914455,-3.86084480168338,318
-86.39135788671271,72.31569270696997,14.592478263621635,118.24587756505794,60.07421177657778,91.76914443662295,44.609242673465076,-82.84197092077,-63.37491839296138,6.000000000000009,-9.539478353559659,0.4332991130792174,-13.183855084395939,0.8106329752708664,-3.525536688003281,319
-84.1801207207367,75.95852401137954,10.386399129688161,117.84413688726562,59.81327105657848,92.98327976701538,47.49755533552834,-86.32520746577897,-63.77262656598506,6.000000000000009,-8.412696184855527,-0.9512880271028252,-12.049882810674337,1.2178063686748375,-3.1664842272870652,320
-83.548922102895,76.4424800671658,6.797139167931323,117.12937344490854,59.85247197860814,94.09703739999604,48.896247378131775,-86.12399795043714,-64.20021639585939,6.000000000000009,-7.70342227234456,-1.5079174100999475,-12.087562445247443,1.2786147438313233,-2.9072409915208994,321
-72.93576512652022,74.56707800863553,6.504052259623152,122.71576067857961,59.665008546900815,92.74546300914012,46.48004192555214,-92.26627990557877,-67.36353034194194,6.000000000000009,-7.305529868835846,-1.9601847324707207,-9.83484578169113,1.0979038027338208,-2.3956146676729433,322
-86.77176434125408,71.81332524277286,2.8226215004917385,119.95836013601894,76.89842307437439,74.44183046285549,33.659875288252024,-99.70254556619375,-79.10608866064479,5.63326506315026,-7.9249679083120546,-2.9136929541311285,-1.8704913902993945,-1.7792409242490268,0.2245697961695638,323
-97.4433435084548,72.94991075286273,5.782553219519584,114.68783997705924,93.7663111369771,66.55635673263251,15.772314928583475,-97.12861274287815,-89.4312912647098,3.747903030941224,-8.559257291915191,-2.975420352109489,1.1800563800040684,-3.4716640944223505,2.4892303829532683,324
-99.92476813844077,77.22051296778648,8.639304850936865,115.41042613203892,100.10358381381481,70.21591973768241,9.508502655721243,-96.16387156300374,-90.0,2.2552391699142036,-8.18388956631988,-2.5653866426787237,-0.7294428280685433,-4.051439395433293,2.617520815078845,325
-101.98775219823649,83.09967100668167,12.192405260863826,118.48745472980566,102.90048774174853,76.57062341199298,4.239441144662791,-101.16836881464855,-80.10801856179476,2.2209486956458027,-7.991653444063252,-2.3400645057992655,-1.4673824568760843,-4.260161897509265,2.0116703481639373,326
-86.72827439691595,75.24134414399839,21.89909009646172,127.8133528459585,94.71395141079111,77.87349547811232,-5.02621004346095,-114.45818771602723,-45.26814106275986,2.3323135358537392,-12.442338528859272,-3.24303364748031,0.4273525115298424,-2.568348533697915,0.9693106696512442,327
-69.92983626267352,57.27934524976655,30.587175248192505,137.71186726920786,77.41695092328476,68.78817124093874,-11.901322610668517,-131.83963563696815,-37.808859511676985,2.8879720463828886,-15.93582940871201,-3.6612367682747164,1.0536700073685754,-1.055246416839264,-0.2745147820757202,328
-58.15102630529621,39.993646861940796,27.07009455810904,136.59483490266192,63.87717178464572,57.45662743993026,-12.724787420816233,-137.67271518238445,-45.12815865788932,2.865460214270979,-17.20524985032042,-3.834380949710251,2.5515222948361282,-0.21793691976579782,-1.1522378220128768,329
-54.7187492914203,36.05221017991762,22.32838819518873,135.5187770944612,60.99061603147784,58.21827347486878,-13.589933714448465,-139.6539124038243,-46.567435499717114,2.88640958291748,-18.545601935757915,-4.239239932319057,3.7649186094722147,0.08106415106093179,-1.3105762374961478,330
-42.83904247194611,26.883875535717934,16.241366202158005,129.1355947629629,49.98070217112934,44.604386898958985,-12.055314698821636,-138.05458153572712,-51.29878782079692,2.3755228136585904,-18.8887080279355,-4.2599535983467165,4.432301867250998,0.34335863121433224,-0.8161286065513521,331
9.726889396593739,14.666264375980024,-30.956841642387683,111.72737323053468,17.927345900374462,21.4342894500176,6.91372006966662,-122.6024825220859,-83.97814103942444,1.5443017731419695,-15.94845935432579,-3.611702501856585,4.311904255048969,0.19457504184326235,-0.2397936826348242,332
55.144120749693926,20.61523399471598,-71.58208369981907,89.41115220033257,-26.125170532659695,17.45309144209521,43.54705301468751,-100.90085382308641,-90.0,1.4793596399679,-11.880816718880821,-2.591926442670541,3.2868325282557738,0.28355760255784174,-0.7265280129347733,333
73.97708130136307,30.75448201103058,-89.1128508001022,60.3166841958993,-62.369618401104795,25.025766649856756,77.43851727098283,-73.5317121210233,-90.0,2.0969926886376045,-9.058051670756337,-2.03790009200204,2.1086527403223796,0.4155405308872183,-0.9201778197463486,334
78.9170638367678,34.018069002834096,-89.18807497783692,52.63479689938862,-70.95121474707207,28.350208186601414,82.64859537800716,-67.46315191129474,-90.0,2.2440870863444933,-8.544768096024205,-1.7275294559685883,1.2581034469144485,0.5962438989940527,-0.9902005524837637,335
84.59162231529177,39.15795449783521,-97.2273580181719,37.43365324317982,-76.57867489690994,34.347118814715245,88.3711997859984,-50.176821105355245,-90.0,2.9004110102813283,-6.278135990949032,-1.124769357462753,0.11684019460902295,0.22460721883848161,-0.8354905474164644,336
86.34380155506777,45.83917154135695,-100.3162526805603,28.298822862089924,-80.66076411722216,40.48498268177416,92.6047701548105,-36.45494576764866,-90.0,2.92874303500647,-5.391365677603051,-0.2562248381503948,-1.1220067436001988,0.24489146797392727,-0.4242166278191318,337
85.97339753563189,51.036803912523716,-97.62375554979215,28.298822862089672,-81.9211063237852,46.868572865793155,94.50748409034496,-28.967907082766047,-90.0,2.677548842812931,-5.9239366229334705,0.6611942560467616,-1.747754784210582,0.5889695211605845,-0.19232924264623305,338
84.08662585411193,55.23639377597436,-91.54957829809264,28.298822862089697,-81.36370634931525,50.53962862810761,89.74581470283262,-28.29882286208957,-90.0,2.2493577381454353,-8.018018308544221,1.261781261775316,-2.0563019856480476,1.1726629046762818,-0.14399979961758072,339
83.32877164957563,55.45730483441769,-90.99515620022606,28.298822862089647,-81.72286140920654,50.1835078954907,89.45527775384943,-28.298822862089825,-90.0,2.3027655010027304,-8.739100556106164,1.4856774862384052,-2.005252979181372,1.1374608079049209,0.08755159575082232,340
84.17271685637641,55.024904807765715,-90.36403433034067,28.298822862089494,-83.11877841871002,49.51022672801859,89.83812425430511,-28.29882286208972,-90.0,2.170525010399556,-10.116257248088496,1.63116005123686,-2.4014501098002654,1.40427643125309,-0.07245961973026423,341
84.72554393941817,53.524677978315644,-89.16725598213627,28.29882286208985,-84.7568730553644,47.24076667928174,92.61164035923501,-28.298822862089697,-90.0,2.2609883292738955,-11.610886027324382,1.691920500134927,-3.0274506914070507,1.8350252347461917,-0.5376761075705458,342
85.10479727838211,51.134181977037485,-89.91770980552967,28.298822862089672,-85.74618569868234,44.50024786914218,95.0923723854384,-28.675153530905483,-90.0,2.303273920257951,-12.909349932944147,1.5131926077870623,-3.901353029691896,2.0166293363830765,-1.0654360026052343,343
85.67438945098732,48.72915064293999,-91.25074734159126,28.298822862089875,-85.49096633962999,41.63255978095133,97.09643107803191,-30.311329590215163,-90.0,2.333015122223038,-13.427535676657872,1.3691368563193211,-4.603287298119027,2.024821208952856,-1.4473530073033198,344
86.51283465475176,47.85880038948003,-93.76579340287603,28.298822862089594,-84.59404080105213,41.39125033540598,96.82028168011226,-30.402609648845754,-90.0,2.279268468592207,-13.403433226564974,1.181848721476039,-4.941783858809813,2.134203381759712,-1.5691589317310088,345
85.34941419281999,46.98825785392719,-90.53928059134243,28.298822862089747,-83.2813802826097,41.40158054301962,96.46368687308758,-30.49804393158921,-90.0,2.305815616415848,-12.951742015657134,1.0132606212028654,-5.209744109900263,2.080411323079594,-1.5170233921459721,346
83.87228294735131,45.44150195000337,-90.67977007472605,28.2988228620899,-81.2638951447428,41.18507139225054,95.6464974855526,-30.697884985189944,-90.0,2.685549275783371,-10.819507737137895,0.31023347242947696,-4.881205956161027,1.425175393220161,-1.0101688184955606,347
83.16783435838698,43.98313301174699,-92.17014120327417,28.298822862089594,-79.7879817618704,40.644197959224805,94.87632138952618,-31.342728823722933,-90.0,3.262884973338157,-8.164857958890924,-0.39016846731266935,-3.827654160992021,0.7524269305380933,-0.37298275135788966,348
81.7457832876373,42.13679386966496,-90.4879654105013,28.298822862089825,-77.09702338541447,39.229457356026934,90.6257595489986,-32.8970886277716,-90.0,3.61749202565126,-6.1664279259685655,-1.0266782661407055,-2.7754755809348017,0.44347703032122626,-0.014182138328629454,349
79.86156870096231,41.75107757485774,-87.75449239677683,28.298822862089672,-74.21751086304269,39.25870199900638,86.35208607025523,-33.68838656522632,-90.0,3.715924071443693,-5.350964057075657,-1.3761057540558617,-2.1704030733758626,0.34438093297255723,0.05071583762070281,350
78.74236378666292,39.5561362034599,-87.26647080591933,29.973928666020775,-72.86791205553766,37.56132506109355,85.03166751420267,-35.730664214993865,-90.0,3.6323259146720686,-5.148254160015566,-1.657217429567254,-1.7772009250956902,0.4251760963568458,0.14455679586957834,351
79.344809069342,32.758470848566525,-89.28913788230355,34.2262752730531,-75.23714816751571,31.949392713383006,88.31703353583262,-39.83257901107241,-90.0,3.1978915898331137,-6.887349090412666,-2.292166256351842,-0.4582619015872718,0.760408474352748,0.38974698427759535,352
82.02195307710102,27.959467752858966,-94.97235861532879,35.712672641244325,-78.87245065963411,29.750752049203285,90.76575592625746,-40.04433601212946,-90.0,2.9735544008621257,-8.64075054676479,-2.876508262198982,0.564632519093328,0.7903655234738005,0.9015160011581388,353
84.48573714469183,27.477037215994965,-99.05999066283233,35.22170696498881,-83.32093696212405,29.43454219814275,96.61963537087533,-39.40302368174061,-90.0,2.71188042540625,-10.364488905301332,-3.2497731638330634,1.9292116132051584,0.9179781132945519,1.3658620165596371,354
