JMW9912/AVATAR/Dynamixel/dynamixel_control/data/csv/poppy/.data/waist_test/5DoF (2P+3O)/0429_2056_Anysong_2_5DoF_smpl_motor_degree.csv
theta1,theta2,theta3,theta4,theta5,theta6,theta7,theta8,theta9,theta10,theta11,theta12,theta13,theta14,theta15,frame
-80.94516080190596,81.47720501108606,-26.04070885649046,28.298822862089825,87.77551874704768,77.60745517495484,15.005875146478166,-53.66828073918612,27.598409163339173,3.468021974620322,1.740470415570163,-0.391416418606264,3.088577713914865,-0.9800611137301977,-9.24078234703794,0
-83.81273289454967,78.78161327585434,-24.040687302381617,28.298822862089647,86.33287506874524,74.7631441766079,20.111773941795388,-57.0299487413549,31.356933855957127,3.7459958013031063,3.222172371475425,0.39420707508635183,2.335825372264546,-0.6101966225977962,-9.103037115260008,1
-86.69785497296462,75.7534060875352,-19.64426786295461,28.298822862089697,86.08948406348009,70.60010633704702,20.34709775183727,-68.0299487413549,31.467712421443558,3.350679599479606,4.112591251258447,0.921024538440399,1.3902988791467779,0.3815904151489268,-8.48420341863942,2
-87.67633905031393,71.38748026983855,-18.002397700725037,28.298822862089697,85.48685589551447,65.67684874883678,18.81142744102814,-79.0299487413549,31.1416415321943,2.9036087880827646,4.294594605597599,1.0470846622041126,0.14365713192196314,1.1879230147468596,-7.678033374880293,3
-93.11019443981371,66.364068033709,-17.037798001715622,37.65739051186596,81.17991707923346,62.5631099174794,19.313371615499715,-90.0299487413549,30.581694772802766,2.619059948297629,3.8018646837937395,1.1625241968753268,-1.1385532809832866,1.771002534596856,-7.102663845279793,4
-100.99953685538617,61.56070323621933,-16.94191675691523,48.65739051186596,72.91327030219107,58.74044310669296,20.786999403461554,-101.0299487413549,31.27469022834885,2.171196294644208,2.8166313201070206,1.5314372028236811,-2.3911123925153253,2.2789761542776734,-6.191482474664004,5
-107.45874138749046,56.19808332425866,-19.17456122183262,59.65739051186596,61.913270302191066,56.25555396515116,20.96282369086478,-112.0299487413549,30.073056703929254,1.6360187416655616,1.9758442427910583,1.8357470909493248,-3.824091204441108,2.9896103085479084,-5.484130237920369,6
-115.23396975910548,51.40921738994743,-20.00279202945247,69.23442732992079,51.07372652634206,53.05637661369212,16.46755885388681,-123.0299487413549,32.746725288557656,1.0287159334644234,1.2824779377638464,2.387812715751088,-4.891415841787227,3.9967413224966637,-5.046219504699334,7
-122.57162251680376,48.33352320714701,-18.070267688051388,75.95123553208583,43.32653271753347,47.19710738924855,11.303238791392634,-134.0299487413549,43.746725288557656,0.4895517866494144,0.9559162660201498,2.8123747975184514,-5.432609676146527,4.6979490854988635,-4.507889221705442,8
-127.05138205695616,48.217183731220835,-16.80672081213645,79.90168327484142,33.298353654761875,48.27576663999058,7.6510079033698775,-136.0856940867869,46.24573293365609,0.06454447576238095,0.5377480771496758,2.966964209875108,-6.250080342216906,5.219702418421322,-4.268037534172152,9
-128.73288380055484,48.25976245576743,-16.41598642140411,82.68207537618527,27.82387536965913,46.45082162414152,6.221232711647605,-136.14236606393067,35.24573293365609,0.07150583344913093,0.4059190874136367,2.992366612735281,-6.481787204192114,5.434768720000963,-4.168056966271774,10
-127.53338362690056,49.63902329600677,-18.64588956362158,83.77458871505236,26.656878581188753,49.825929520630204,2.9198307491354867,-136.4956423522198,24.245732933656093,0.17725264580085306,0.39540709572388083,2.8102368029621303,-6.615606055417174,5.4042163470282825,-4.174195038734266,11
-122.77935761666119,50.596782887222574,-24.274681636749722,85.42120750688612,30.68612097522384,52.716277215738614,1.496307345232359,-137.85156418680327,13.245732933656093,0.42764048726917564,0.3863042002432368,2.5084193804041788,-6.072572110396965,5.332219434204304,-4.380173348519083,12
-118.2099679194763,53.560720798977975,-26.742801173053444,86.40155064430124,38.58322568468907,55.7943692606254,-0.18425399704148201,-138.73384912093368,2.245732933656093,0.6977748126191357,0.45225832611699446,2.113690641337294,-4.903555096454847,4.902251109604783,-4.553434875458794,13
-111.35332794553716,56.079479547646486,-30.71865193861711,87.10582406035263,49.58322568468907,61.66303321983596,-3.0240638894989322,-138.58982490470228,13.245732933656093,0.867258774825785,0.4252500422364891,1.6904560184632658,-3.021695323091445,4.0961488252001255,-5.408205718487883,14
-105.94400512652985,61.324318633232956,-28.802972946927042,87.39865597278411,60.58322568468907,65.77076196274164,-2.4188428332768295,-136.83827042524518,24.245732933656093,1.0744003543294178,0.503826840244119,1.5622986888216657,-0.8733400516305069,2.947994690152925,-6.6675825207595425,15
-102.30644989745736,63.99152553856118,-28.748934592512303,91.42571106652213,71.58322568468907,70.89545603996511,-3.6429920151206177,-133.80150879253847,35.24573293365609,1.2424585067833984,0.7082438227039757,1.9585120226616424,0.4927450422517248,1.9419722221290785,-7.442036447868011,16
-98.80838857441344,68.04361681489057,-24.607985950671246,97.57175975567077,82.58322568468907,74.03416724779466,-0.773366725183007,-128.5232741989052,46.24573293365609,1.560781940471408,1.2134045969249247,2.4009257902882832,1.2442324537197353,1.3032765461153109,-7.56457443551236,17
-94.34934071919504,70.603358955694,-23.34527567767014,104.06195959596954,93.58322568468907,77.6969215937619,2.0581885474465667,-122.49115277767454,57.24573293365609,1.7660286759885384,1.8409187714785353,2.8935374370085967,1.8305838698907388,0.9495781399423314,-7.326319739691498,18
-89.56890679440085,73.58395397749732,-20.01379343629591,113.59881167696724,104.58322568468907,80.37027801514793,2.8984299686723536,-117.70460588697568,68.24573293365609,2.131534289755991,2.3269850664527367,3.360987226496781,2.2647545257206603,0.860265431017706,-7.21057757201104,19
-86.05588331158702,76.1810839889322,-19.324549033580414,120.23700717903716,113.12863622869291,83.95411372304098,1.4441199214913851,-112.78652658621715,79.24573293365609,2.495845478393698,2.5133032217724103,3.757192873080782,2.999226536400585,0.8782054279435254,-6.826567531162344,20
-76.18160696571384,79.468056686344,-23.550174646824406,126.33786799752784,114.32530326730668,84.50571706811637,3.697375383030553,-107.27473188358073,90.24573293365609,2.936626757822838,2.5825675722611923,3.604406050731676,3.8688437938112745,0.77234210212455,-6.524491267819208,21
-65.19769088464574,81.400267647623,-26.440670858767614,133.6906732252367,117.30936921160287,85.03503329350349,2.552562459804612,-103.44246909135497,101.24573293365609,3.6851261417345893,2.3568855542238656,3.8518590016666607,4.692398772854605,0.41366433858197965,-5.368928888498414,22
-54.19769088464574,84.39645743324087,-28.314279644314293,140.34843693928806,120.00338301156988,84.63729294204447,2.318631983488929,-97.39155914798089,112.24573293365609,4.303026654511634,2.6109503346837126,3.890722781185073,6.0238708540507115,0.46519240805499334,-4.474342398159334,23
-43.19769088464574,86.38874636263182,-28.754865143631477,144.48704614463418,120.41524905740704,84.42665880805066,2.9155130085725602,-93.49157568609745,123.24573293365609,4.771694820711261,2.582397595059487,3.9799830968031746,6.646196494922494,0.6716491223662968,-3.8470976164767197,24
-35.60691621445664,88.69425173291533,-26.48461010313398,146.47001703908677,121.0476031160148,84.98997519685983,1.6048446765798436,-89.97962939751633,134.2457329336561,5.1077759350130725,2.4234117841709844,3.87560925888984,7.615913635640216,0.547638787998738,-2.7134472680053237,25
-33.22753566300588,87.87983647754398,-24.234278291071274,148.10602943086553,121.39446135579591,85.316067177375,1.2380743490970603,-87.00483700157001,143.43892750125795,5.401431415283502,2.155525486028476,4.0623327292443445,7.104347347455726,0.6095737666953993,-2.0349550560308205,26
-33.01218913785608,90.35276216066319,-22.852859895116975,147.21472485511546,119.33543080150426,85.25284435275202,2.4675138253466367,-84.14413357983076,144.19702343415935,5.52662359648908,2.1507530104372434,3.9551763367349086,8.022059267369034,0.5521769179475912,-2.174234816425337,27
-37.56819615819502,91.84667255097305,-23.167449991066842,145.9006374625251,115.94789266685588,85.78325341080841,2.4399708294708553,-84.96735416347285,145.4992836900457,5.378954601009986,2.1871374542076567,3.975289191895082,7.584907620363172,0.49774996650312914,-2.8326045172665335,28
-48.56819615819502,92.54415223931773,-25.870728239188296,142.48792948924958,112.91974681972742,85.1754529072984,2.464955290080399,-87.93625399037056,152.05964844360753,5.162964681286644,1.814217339309328,4.317177816714351,6.576737096076664,0.15713092828403433,-3.3670782327706763,29
-59.56819615819502,89.30060262811187,-29.72796079457727,133.9760493995712,108.86596091207748,84.45833174115857,3.48341583868998,-94.14925486288098,157.93576168453836,5.0290064111859065,1.3299032576257483,4.718335670790094,5.36603044881903,-0.6289809909009411,-3.3886728411932805,30
-70.56819615819502,87.4469450802136,-33.39823653841876,122.9760493995712,101.95101723352177,82.22724629625836,5.997004300155927,-102.70765880129055,164.10356643093476,4.460945262597611,0.6808886531147214,4.831541907939158,3.5543552071986655,-1.359759726574321,-3.405063562566368,31
-80.7337983573127,84.63203442695811,-35.013781965133134,111.9760493995712,94.94818673336339,82.13983639782778,4.949424453893536,-111.94951095885295,167.56280822034768,3.967783050109277,0.29327323149984075,4.979386965698228,2.2910208460501913,-1.9960378732308066,-3.997571716523765,32
-88.1802108705511,82.66227804020208,-34.48687302762876,100.9760493995712,89.44481026887338,79.45809066874853,2.489046870929912,-120.28588885357775,170.17274783787397,3.5512013226479846,0.06468383959411153,5.136190619548716,2.1585615798195397,-2.6093057616432436,-5.0767471567195015,33
-91.38913184313913,80.67043991547027,-34.32132716843259,89.9760493995712,80.27829388098641,73.76220799104617,-0.06342185852428324,-126.75407653881422,168.2348799449976,2.938980050545052,0.19432063784026554,5.10216760764017,2.344249329880234,-3.3265215965093176,-7.041581402943576,34
-95.59168743310371,77.99250821393113,-35.65184638834267,78.9760493995712,69.7887552865049,66.71045802836876,-2.3387727590019125,-134.83743076271418,163.29032844333284,2.663013464489674,0.4631266783126022,5.287509614040634,1.9445112782049228,-3.9648331703240127,-8.511189097682738,35
-98.26935412413118,73.90141597598084,-36.753632791988764,71.60430329288342,58.788755286504895,56.244540992394356,-2.561671137739081,-137.13308552546593,152.582899149588,2.5126107929685,1.1634144151934012,5.3235932735947955,1.6066166563279136,-4.5550449054886535,-9.504945580588052,36
-102.3975980045377,70.9220280443004,-37.084359687783184,72.51634745218146,47.788755286504895,47.430788102300795,3.438328862260919,-138.90780593134363,145.21066638769534,2.3691945658058935,1.5834810044498489,5.22775785472316,0.14303393782019844,-5.347500851969601,-9.970286214598687,37
-106.00385009826837,66.908487930898,-37.2733935891557,74.45933769350104,36.788755286504895,42.1446969182772,9.438328862260919,-135.48144591242254,135.85212146086997,2.2439462123272844,1.805366471142143,5.185863368530882,-1.6514211487011017,-5.837317230479511,-10.963508643557233,38
-109.45096180170465,62.7454365694032,-36.54818172577136,77.43652474118136,25.788755286504895,38.76610656617123,15.438328862260919,-131.76949735385782,124.85212146086997,2.3417194109760704,2.362889744932563,5.1468662940222405,-2.928052592498509,-6.344902702994199,-11.49192801771367,39
-113.2478173167305,60.63612247236294,-36.486670148038925,81.28525201520095,14.788755286504895,36.43325566083842,21.438328862260917,-130.28806257705673,113.85212146086997,2.409095262628819,2.891784452167885,5.06577267306532,-3.943977769336044,-6.805576900535543,-11.992973557399356,40
-116.25069408720302,59.00368333319915,-32.70621289463368,86.59299093038581,3.7887552865048946,34.283259603552125,27.438328862260917,-129.45674119215226,102.85212146086997,2.7342811549587,3.2276334516485856,4.9656428943875515,-4.541298260003735,-6.804988077370449,-12.118832235334406,41
-118.85751420208426,58.25158803201086,-32.157451318118525,90.97604106195057,-7.211244713495105,31.947033297488954,33.43832886226092,-130.05780008596886,93.7099177426765,3.0555723817959572,3.583282521494863,4.873548919602539,-4.656242235796268,-6.565400123763182,-11.644756764450866,42
-119.63338270484833,58.54959998411819,-31.804998122565777,94.48759938219787,-18.211244713495105,29.00596489718572,39.43832886226092,-131.3452000039891,86.92659437515508,3.2859738899310105,3.6769046017986375,4.765908878172621,-4.282392548381718,-6.047520367073568,-10.892740388691202,43
-118.6940546624578,60.20870935918657,-31.8280846032605,98.56484115223518,-9.303206027456417,27.789657040826715,36.731243662156295,-134.48592272880975,80.92479564147015,3.3791763852823866,3.465656740315948,4.616925046077341,-3.3795441312950256,-5.348069904429861,-10.347248273469853,44
-115.68935060444493,62.11909027764286,-31.240746961369865,101.98665243456041,1.696793972543583,28.667876129355776,30.731243662156295,-139.36542299872335,78.5945590027084,3.770986133703573,3.4660954936293087,4.587203925354755,-1.7854456300599344,-4.333784933802224,-9.933352967248695,45
-110.98131391483989,62.72660821389128,-32.91384597647034,105.32385525496682,12.696793972543583,35.499075022762604,24.731243662156295,-142.0366566155284,76.46922207657835,3.9279537314420145,3.4490289548131683,4.6716894215978675,-0.5992376663158108,-3.21799868790739,-9.992707346156564,46
-107.1828560130222,65.48098577236955,-31.884571957585255,109.55018063818534,23.69679397254358,43.81844913027211,18.731243662156295,-142.19845824845405,75.22548561525443,3.981228289173006,3.468066123510656,4.529285388427233,0.39250434305153165,-2.4535898649855334,-9.434407555406262,47
-103.96728614442772,68.14641715309551,-30.357670791234213,114.13884035789542,34.69679397254358,53.882983816400035,12.731243662156295,-141.4320267327752,76.69701883920918,3.9422523693519205,3.4952205265728935,4.353828358558566,1.3258337970656133,-1.7966520657131544,-8.552044151161432,48
-99.2158650255684,69.42829860633253,-28.526038917834356,119.25837198580581,45.69679397254358,60.79083175932922,6.731243662156295,-138.9468117540274,78.07203001865145,4.018950715351428,3.3688902359665294,4.074610280944093,1.8100660139488227,-1.1236543340170726,-8.192163602307009,49
-95.44011855503878,72.08025028650599,-25.988903380200885,124.8217227346082,56.69679397254358,69.39195883734247,4.115107070594379,-135.94437066548207,80.31839329944599,4.014899441986328,3.306410954237977,3.7325926164464107,1.4540919214994736,-0.4050958891739532,-8.065703032712335,50
-91.94399733953593,75.33776405370048,-24.042330426132583,130.25010195654085,67.69679397254359,77.28596179970648,6.633406569284824,-131.75697204216746,85.94003762013902,4.214643994323585,3.130077552527844,3.6194321074153564,1.019744886879845,0.1287393619035432,-7.941845091183689,51
-84.71170079384612,79.47509510130601,-22.90903024460677,135.38594898913823,78.69679397254359,81.2833280738809,11.874116858017578,-125.26050075133438,92.96442747000282,4.470311011356524,3.2288654170744655,3.273574621266878,1.2898315732778676,0.6092335019853504,-7.833496987992907,52
-75.16944235860495,82.33923958027323,-23.122938493696335,139.88107371119204,89.69679397254359,87.06574862795912,12.642706890866585,-120.7074621078494,99.91683075892134,4.832570518175322,3.330887125455804,2.8350516931858247,2.506032175028846,0.7962681192111145,-7.417694843524898,53
-65.1044479557561,87.0956429619234,-21.59610679489064,143.8581755974028,96.48120859120394,88.61052722396161,15.923758854984488,-117.68431492460797,107.53075412109742,5.100285106696842,2.9124669336907187,2.5247017149075974,3.343006166939227,0.5931611737144602,-6.35606571281935,54
-54.1044479557561,88.89655331800108,-19.0258073364679,146.9301616686375,100.39198498978686,90.1573196214937,13.569261656948822,-116.43495022259539,111.02489187360351,5.559134229399894,2.3417285272866626,2.312579982208913,5.0778889955484905,0.3956059379448383,-4.96196883108465,55
-45.01347512823163,90.34461829184248,-17.218388067671704,148.41392069830303,102.76452283032114,91.21394014374141,12.22400919111514,-115.16760195714032,114.96441763516115,5.596825784556683,1.988660129503221,2.2728668812519803,5.694312391348768,0.5770176329803864,-4.299207233318761,56
-42.118120646753205,92.4687658422058,-17.15068200224817,149.14741688763613,104.80825189430091,90.30799605667694,12.47300718795091,-115.6739185762088,120.07586624660367,5.626839785501641,1.500867036649631,2.4146340433602913,6.079422740086926,0.3470689456278206,-3.439585524669665,57
-40.54423917504814,93.23932480053679,-19.644987580200752,149.50340696813956,105.42506164564863,89.56899047911578,12.734240032824028,-116.91002341400822,124.49923444044643,5.63520564624215,1.1322816445452282,2.549508826644337,6.392365758043306,-0.03630232465085351,-2.956078462467981,58
-43.28614513716436,94.46320133841448,-21.56450595275267,149.1430998593184,105.69460155554472,89.19517548424194,12.540614393678062,-118.06004712954899,129.03420324576734,5.629838829882543,1.031559573412467,2.685234199091853,6.360668231611246,-0.24530635562814926,-2.3383628706012884,59
-47.366648182480176,95.62715591124997,-24.20675075829512,147.78520008606654,103.47869056382984,89.27023458937836,12.241056845826975,-120.15226302956816,133.35679589956928,5.449469802899279,0.8058929185677446,2.7731312510450685,5.804590855971428,-0.6059922113189229,-1.9435227417428764,60
-50.10085273963823,93.92332411767433,-27.665543910578933,145.64983406814335,100.4794741816299,87.43563910237528,13.11774282140529,-121.17390137921136,135.7843421901171,5.323580583679729,0.8772843476075091,2.8399749196912913,5.3213877738816695,-0.8573019155489274,-1.6357000729247289,61
-55.68501803550119,91.78812644851136,-28.22102787129335,142.81677028810168,98.10453399300052,86.72428720575795,11.43853509103269,-122.6061733825867,135.02728200390916,4.860258050888092,0.9801124402579208,2.907153022775506,4.432886997442042,-1.358954512188192,-1.563624244074933,62
-61.79427167295536,90.66335168551325,-31.13266950604975,138.93881140195194,94.02104765952978,84.16411900170351,11.68548394613769,-125.95642938406111,132.9237583931054,4.210163716551541,1.0491678738599377,2.9257243221846005,3.759076230024671,-1.8954496055175982,-1.5157266547299744,63
-66.48826505287155,89.01546475578002,-33.186429059972255,133.0462052136921,87.15806977416645,82.92983238150583,10.034035789057793,-129.14899410417766,125.92918026465871,3.6666321556635126,1.3496703478092507,2.9735604221499456,3.427906056053455,-2.590772376788476,-2.2649228443356404,64
-71.11649370222881,85.73710641553183,-33.99500497522688,126.31080536547334,78.88690705001738,77.6259016101837,7.880183117016113,-132.93894715496432,117.5133738452579,3.4078242759893125,1.6889185052330777,3.171133430542357,3.3020318949573007,-3.755819961388284,-3.4463657162793586,65
-75.08249282243527,83.99221363306584,-33.058662172974266,116.70559514673472,70.22476520803208,73.6506425441633,7.515541583377284,-135.18406397479805,110.99913261726465,3.6460451167582253,2.039533421916288,3.295841144307647,3.158441666849082,-5.013787216121846,-4.4856675030501805,66
-75.07494404139962,82.05048039909566,-29.77476713446874,106.36511620071431,59.22476520803208,71.54257071103696,9.077189690282195,-135.34282078173015,100.4685875301232,3.921751727505079,2.3106510347838034,3.1195076167530438,2.836846733260434,-5.909448620516529,-6.406622925369191,67
-78.6610214106758,78.73875348479645,-26.414881141439903,104.35435102761306,48.96491718351712,63.5339930406909,9.314538476444449,-139.2371275531176,98.07761838685866,4.230050700283549,2.8088493936243872,3.4389389783988613,2.7570418460018438,-6.9412774999753974,-6.770684171755703,68
-81.24332651742411,77.46116273800457,-22.50449775953383,103.76095207469923,37.98610527577582,59.497187758530856,10.671031726626639,-141.33994262478498,93.62959338348597,4.590384328599629,3.60075481683076,3.4374834734237694,2.2767284921775928,-7.756755974410691,-7.408669807865005,69
-81.24406220503859,74.64480955206551,-17.66381364110752,102.5627090173056,26.98610527577582,60.44527484094303,16.33582485240836,-143.226509095881,89.43044237392805,4.912929273225834,4.282679907926221,3.23872667593058,1.43387230995308,-8.175299850914687,-8.507100116488704,70
-81.79814679974133,72.30419009380597,-11.66381364110752,104.70896177654203,15.98610527577582,58.631772435589816,20.930304485656343,-144.1167467879254,85.60017457482246,5.451752385311527,5.25347323188683,3.1129513479852124,0.7621798819996181,-8.48234434392131,-8.85013405549589,71
-74.58322411204459,64.68571041173159,-5.66381364110752,95.65800201024251,5.895906296466433,59.599016373759255,26.930304485656343,-143.4712580267716,79.10524375059468,6.311816718910107,5.751321969511837,2.7497534301193456,2.401562250962132,-8.651824508752517,-9.179694217283958,72
-72.60797607680746,63.3985121066192,0.33618635889247983,90.79058138882668,-1.0610161232686126,63.621525636439586,32.93030448565634,-143.91363704082406,75.3556980667443,6.930475968919214,6.423863687325166,2.399084214965111,2.699308556515008,-8.932611130943863,-9.313684546234459,73
-72.62528549447511,64.43657366701123,6.33618635889248,98.81992062677915,-0.7791756372083776,68.05517590510861,38.04598186912146,-144.42476629677776,73.46356054396135,7.081990399089486,7.392915578860277,2.0997075534189404,1.9502546297011685,-8.169359744812011,-9.140154919792868,74
-72.51870959717324,64.52693893205456,12.33618635889248,103.97723275193687,-0.21743046825179652,68.6626207922744,40.117381989121085,-144.91086709579142,72.23569262999155,7.028901054714549,8.137475522935206,1.9492013386621947,1.972170234721746,-7.246957891798108,-9.07825544950822,75
-75.5269288396337,66.67440924070628,18.33618635889248,112.02666243312576,3.3149590653554757,69.0678616223769,39.424790777153525,-146.1580336475204,73.15537485579812,6.671897353117687,8.53866954773692,1.979966065531115,1.8727978013934883,-6.506465466169676,-8.33614224371297,76
-75.18873018059409,67.09082994207512,24.33618635889248,114.07761239263488,12.29607584557097,68.33678456663606,37.96895834965391,-145.5843181882898,74.45596300171631,6.680054504282697,8.62600280968779,1.919075123151766,2.3997041504132017,-5.8360641658092,-7.712720396170264,77
-75.40802122490875,66.59439680470226,23.266698964936552,115.16233795734573,21.76956754124093,69.64207897147186,43.46760363425172,-142.23183291210546,75.42820995641193,6.27742389955944,8.732583149994142,1.8284237912136487,2.4531546023617734,-5.1129200729177535,-6.962132988535968,78
-71.40899450710516,66.44171811801105,19.623445337345416,117.03642428672144,30.63366277471913,76.20401823099257,49.46760363425172,-135.50422009298998,76.65546739248134,5.791507172071775,8.945890507180417,1.7167229477900514,1.5564290680670685,-4.08805948246698,-6.89508201472419,79
-71.62249548976705,67.92476110008361,13.623445337345416,120.92468884981919,32.75630726894862,81.53318284225173,55.46760363425172,-129.1084674378837,80.45438540640562,4.836823227420689,8.783237256087393,1.6606993011407585,0.25267996282853566,-3.6750050848609277,-6.395215580432346,80
-68.06281411345013,68.17130832932833,10.951131864515448,124.46651886000086,36.465661800960476,83.40878091758229,61.46760363425172,-127.39072179037447,88.0719580622357,4.810839165353033,8.526307250051556,1.7202043201392785,0.8574386277384709,-3.1402544732870354,-5.59977803551663,81
-64.26516616065527,65.60812627075771,8.87347551452185,125.29404264376653,36.26560695722759,83.71469613619085,65.8958397080887,-126.69385833978374,95.67776630723245,4.845151650019568,7.922342344151163,1.7057837462990526,1.4737102555332655,-2.5508865389458935,-5.181144859940351,82
-61.17155916401247,64.92418184851508,7.515801419142633,123.13194824332787,38.285473605220474,84.33377456145118,63.43954674034804,-126.2926180025371,102.41427145982415,5.010883757604256,7.142163690715703,1.579351049116499,2.121430024670533,-1.9529237712368328,-4.439478012042885,83
-58.771937999405175,65.10530252454302,4.887485850550376,115.81487387095817,40.53179534453618,86.08498638783033,61.8133629103388,-122.16468519833467,106.19439551413377,5.2106785629046595,6.470575001841613,1.2281425202923164,2.6809010241219147,-1.1669148411234456,-3.9149164900206372,84
-58.85656895296572,70.11104542711674,-1.1125141494496242,119.6218678586864,44.58523027010684,88.59353519280876,59.60323300262484,-121.0588014031188,113.38023745986324,5.2078070193044015,5.919079452891271,1.252496381960771,2.4655930453357664,-0.5892437449543626,-3.2657654827499902,85
-57.16510844018176,74.61463366385532,-7.112514149449624,120.9556015631172,46.91051440034998,91.61436108419763,60.71552113644954,-118.39483706351871,120.78305279069386,5.118510017958657,5.351886057756973,1.1206994681115543,2.1213071355046837,-0.07524697686838698,-2.6561720432519844,86
-55.8098276322783,77.55100547493977,-13.112514149449623,119.52298170115674,49.109136661225705,92.1285923284341,57.953702456136824,-114.91251766384131,125.66694659175299,5.206264310423402,4.871240351976023,1.0012291939078224,2.4601603516138373,0.41459754227583284,-2.054589032595053,87
-55.301637841589454,78.01823579079351,-19.112514149449623,116.60415002064222,52.18669917480294,93.30358278777324,53.030314482811306,-114.95107624646228,131.417002594621,5.453928696830246,4.177476032869846,0.9715624864800584,3.150970261202464,0.6105427679059866,-1.0032465293487798,88
-55.44360471940075,80.51518968006533,-20.986490347399602,114.14286906288461,54.066430828900565,93.57737206236507,51.02265657197058,-116.10715135089585,136.2137994151108,5.7925725671546155,3.5990659995478587,1.0605818355452943,3.601667878737982,0.6780570007694071,-0.28417005640353016,89
-55.54460508835918,82.39848706792657,-22.81922304805285,111.71329149728054,55.6842072158607,94.91190823310929,49.73748890630129,-115.9292586746838,140.50422049528015,6.051797752914223,3.205762439289169,1.0306702468796822,3.701665867338545,0.6556337657480023,0.4455696710364358,90
-54.87102301457425,82.57176222263712,-26.264325003758422,109.10355709823334,56.62999173058082,96.35547644750405,48.46280198054281,-114.94234507788231,144.45051409042105,6.2881195144073,2.872070981436848,1.1569665629556516,3.4307414868921975,0.5402083579777391,0.771148209554621,91
-55.31444469848349,83.98452299866867,-27.76609623826801,107.74154284606426,56.83924622264132,96.22324862399414,48.335637993786364,-114.41481515196585,146.38646541413036,6.467353549250518,2.7159077432168885,1.2074333474112662,3.3532921824719346,0.41216483434539525,1.300280629256186,92
-55.88253223681341,84.84833714688705,-29.108868335438572,107.98098891497115,56.45639271000675,96.26689671252979,48.03888913463353,-115.08171442205251,147.95488978199492,6.613732601766284,2.722643634658364,1.3836571448566306,3.1223539146922383,0.28018139410507065,1.5477006911385212,93
-56.024131552187704,85.28505431432978,-29.908204601608325,107.73533237663926,55.803625346695775,96.33515326701989,47.780125306945614,-114.29180917306914,149.03671489911733,6.606085547766767,2.810091716143387,1.5486128438062718,2.666815242796812,0.11866759727354055,1.3760962151302547,94
-56.61946374877343,85.34665947548196,-30.65581303935454,108.90711447473399,55.62714662534704,95.63888288561638,47.45812024338481,-113.3209878756883,150.11376705581364,6.709661621242452,2.9465327399250336,1.813104248297391,1.8269521883402016,-0.11864428642888872,1.036205156597482,95
-56.85656642478402,85.24125971271275,-31.69009569837114,111.21701816164963,54.117382811317285,94.01006520324331,49.33386498097521,-113.41165783750652,150.04491562768948,6.74816123754519,3.2421137124755006,2.153284412733624,0.9564087614629738,-0.3242798067871282,0.34701360756011246,96
-57.022428049465084,84.90639900859313,-32.17689160354835,113.13825823618613,53.52569811568635,94.27479282427143,50.68317644561086,-114.2439371398476,150.85072004105535,6.557448371824841,3.4848760029011827,2.454294356232589,0.024816084650519352,-0.6103467827107573,-0.5244985260258342,97
-56.645534374973735,83.6703178961281,-29.8765838064174,112.54042032904898,50.78862265044627,93.13270153070036,52.44922007261121,-116.6781460076689,149.87827876289987,6.339258343115166,3.7874650972337793,2.734934556181894,-0.2823132889527982,-1.0490518017552863,-1.4396720193921348,98
-56.82431999877102,81.96125046138198,-28.451589744047624,113.37740260631293,48.50912022468761,91.82379632160587,54.52758147969554,-118.83219398506937,148.5092962213461,6.108288709851079,4.0948556673451275,2.987982822670152,-0.8289590767504289,-1.4744030781423183,-2.3268253220798445,99
-59.05804790321982,81.01014973283735,-24.71278294991484,118.47249954467965,47.176136775291,90.8686238694015,53.192321349489816,-122.79979613122173,147.46688393756233,5.7478099890041,4.266121803265549,3.208387015116235,-1.527223802360844,-1.8791991643126653,-2.936436064793575,100
-62.00352114618724,79.49375578557425,-19.873183960298235,122.23575165961971,43.0172986670846,88.65038700931339,51.70988414866358,-125.57724731194095,145.22913887671763,5.326980249580865,4.4873952624693825,3.3360740420062407,-2.227223167885227,-2.3786240257739486,-3.8370561976633946,101
-63.73184011562931,76.91788510775424,-13.873183960298235,125.90482110166364,40.36827898375975,86.82667499148896,48.12114115824948,-129.6883108877079,141.5235923922189,4.965045806596577,4.681920678787443,3.520947547240235,-2.8180710048119693,-2.824532792556136,-4.739387101634243,102
-64.15310310549575,73.95449182113606,-7.873183960298235,126.2897820098646,34.98677677964689,83.15508380263823,44.09063581589146,-132.29462905586544,133.68420165023798,4.626399934224126,5.1719197307997575,3.5496955539959587,-2.357820299124558,-3.267691101605086,-5.842935844550346,103
-63.38788002345346,69.4645471857778,-1.8731839602982348,123.94199987316505,28.673672853395633,79.32970084135626,40.840899713333755,-134.66992186254814,122.87346848237031,4.4554033691012265,5.2647847689716,3.38533706467405,-1.6458278012269236,-3.8991418088265224,-6.6878159814740865,104
-61.54993987654572,67.66573817020975,4.126816039701765,121.92263013363768,25.63763579477939,77.58170341290015,37.8453498059953,-136.02432254503378,111.87346848237031,4.429393093320524,5.518243535385985,3.222832724562066,-1.1408316678647508,-4.050945321556629,-7.839936882269729,105
-60.343534980270185,65.96990292466164,10.126816039701765,121.353019233414,24.15387591563358,77.9597654563266,36.959556605126565,-136.77800575307657,100.87346848237031,4.526862365450218,5.827995521388242,2.982022019382464,-0.8711852276344209,-3.9457368800416543,-8.462773629739862,106
-59.33105876101158,65.21581319373142,11.282884721062498,122.02749465616687,23.594114119301427,79.19039425781122,37.472968915640806,-137.9758932965482,95.29770597450239,4.725809643983323,5.930499400782699,2.861642462297889,-0.6916291192980722,-3.854932707229765,-8.75448936384692,107
-58.66188813736462,65.66517904975755,8.863039790514769,125.89103034536986,24.450796738404595,80.68075689351608,38.75369899900203,-139.30331272558533,94.87714709551001,4.915580576927559,5.976690692811663,2.879723243144536,-0.748030035032086,-3.5797596365962367,-8.705125838955158,108
-57.32744663568768,67.01386637777556,3.8265944048764524,129.5027647058978,29.441855618370624,82.78371748123303,43.62872250999642,-137.60294422981048,98.24285644652494,4.909069184872701,5.920549808104235,3.0064693748817626,-1.4855434666920868,-3.0919072587940253,-8.49680682589662,109
-54.795166612395484,66.83582142105128,1.0515919250370698,129.6069624633101,35.07030473897706,84.69683511448662,49.62872250999642,-134.3460895450254,101.70589364905335,4.89563267341147,5.937635627975368,3.1204698110277103,-1.7305142931184792,-2.3792303774561496,-8.411879713287393,110
-51.83629939249525,69.05329640267388,-0.9199711696218371,129.40996522815811,39.15469642321247,85.84126685442503,55.62872250999642,-128.91876433147016,102.8197282556872,4.569913605497546,5.946559103891714,3.116831135459593,-1.7924482476094852,-1.645667635288662,-8.752785281952454,111
-53.592285868619804,71.92000410768284,-5.416374082004706,130.74066903829922,42.89223760041411,88.09961462210141,52.94498793238152,-129.97080360294044,107.18543169708988,4.461113335464019,5.728666424530273,3.119380441625756,-1.1139029615398741,-1.5787417204106848,-8.106894732277604,112
-52.31081162996211,77.69889147787849,-11.416374082004706,129.7299680081553,42.86843637457039,91.30434963735371,57.65326530779958,-125.54326933084229,108.65118359004157,4.021495685233827,5.360599805284528,2.8168807024688403,-1.007240710260442,-1.157480265023751,-8.491991167672106,113
-49.768147893547344,80.46764614793516,-17.416374082004708,128.69321778921383,43.98065678318468,92.74045190367569,55.43931679131381,-124.95477963636651,110.19883554939051,4.072813239806601,4.858635813770172,2.591949259831408,-0.30281283264678344,-0.7792616960996936,-8.246652242558431,114
-47.603769410888816,82.09651177709435,-23.416374082004708,126.57147979444575,46.68623691277892,93.91160566906025,50.28187350210753,-125.13176613286784,112.41419932666288,4.22502999804702,4.428314620691158,2.360938120167437,0.5534156055193518,-0.5994072632455482,-8.101160981106371,115
-45.9321793692632,82.9624871105889,-23.733481018102697,124.94137111524167,48.67338511864512,93.51656689742327,46.47066683026752,-125.96509571536237,117.3100482997275,4.392557408700554,4.074513425261016,2.2511926040953387,1.6405781507171269,-0.31046486802420104,-7.703791257361974,116
-45.18419509572725,84.23573693301381,-24.77543993914451,121.1924238551275,51.47237752008818,93.63890923477423,43.904180965445285,-124.58133402022563,120.2057128618753,4.417246964956073,3.722729724411195,1.9844316064213419,2.439177027098126,0.02406754163992499,-7.203898190527577,117
-44.096985589081974,82.18251941660408,-25.769767355031014,116.53046950747246,56.051099526991464,92.4893918635848,40.56551462386917,-122.24067888556004,123.79178170702603,4.476238829920591,3.3431253141582067,1.8430988507174366,3.083711415855675,0.6518845767755446,-6.643034564561954,118
-46.05052947111858,81.657426344133,-26.125765994231088,114.85978778049527,60.4949946702388,91.73708714232572,37.56790637992836,-122.2200170924731,130.35343454831468,4.5628176700141125,2.9753129202196407,1.982350894804477,3.4199319341947816,1.278641234067308,-6.095844941478676,119
-47.33286112330023,79.13358178718296,-27.000984740748205,105.7656732937582,64.10506742020134,92.5696767987363,34.76850797626261,-116.68698197131685,135.0141412120103,4.355414729174874,2.5341060995569413,1.8456427228037162,3.3056352291468776,1.8824460301353618,-5.493667391615939,120
-50.6393754734002,78.26623750592651,-28.595796535550875,101.39709819926114,68.55034024132225,91.19305017117217,31.98493929195332,-109.78582104219575,139.74283253955537,4.150339137596101,2.057060919567526,1.9367969120001847,2.4346659547986595,2.6619997578477212,-5.19932456721374,121
-56.607736329979616,80.70316982880829,-30.574436352945607,100.55245463304897,69.30955169612922,91.55373090550056,28.72525975096889,-112.03034926174738,144.36055549188836,3.557566602833863,1.591463591771381,2.074063841310753,1.2237206565563103,3.065104616139043,-4.923590190222891,122
-61.63528488787774,80.6725541957609,-36.339538656020125,97.70086870589036,71.64024284349604,90.26382272149446,24.145360614747943,-115.710877092481,142.66902922079842,3.114086084307481,1.2069893065732316,2.2332461591577544,0.1440491285823244,3.378605840096965,-4.80471065436766,123
-71.1165326992015,78.70749510860887,-41.036984698694965,92.76464183168038,76.43420651077405,88.48927016357308,21.15565695350567,-117.537105911018,139.95293450175453,2.8332299494103266,1.0370221882152244,2.831346746957968,-1.4067648673962405,3.7864094866901667,-5.3365144661665065,124
-78.30035363032793,76.20584261051388,-43.074300857302916,81.76464183168038,76.31018288147332,84.59702445560244,21.04070419802845,-110.90513715768894,128.95293450175453,2.136968379011908,0.7659492364340463,3.1000974826072656,-3.777645344785335,4.088006524529968,-7.230089112392333,125
-85.78885520899848,74.29737168722593,-43.799523636496055,70.76464183168038,81.94779324385246,82.75923367734195,22.433791771206153,-109.26310385081884,117.95293450175453,2.6972562947476253,0.8191189251162595,3.760230853722797,-4.01735569907567,3.814064690872937,-7.938350709145627,126
-88.42170566426927,73.43630042396848,-42.82582122854985,59.76464183168038,82.62002087736413,79.42276021481443,28.02824492014982,-106.08500564281462,106.95293450175453,2.805835659175248,1.7280436070788772,4.093075060329495,-4.043584286151772,3.8035513406411896,-9.333784037492814,127
-85.13880994083841,76.6650622158044,-39.7746514833341,48.76464183168038,78.2769420184866,78.79661071378843,33.72395790469837,-107.04294732776583,95.95293450175453,3.1369512026218547,2.9692709016732723,3.6543718694676053,-3.4988414418555447,3.2195448109243836,-11.013700646483029,128
-90.90849953038116,73.46786042385588,-33.7746514833341,37.76464183168038,70.68177825727354,75.04485439917632,38.21301730845832,-113.82992355387175,90.9086509057114,2.510366681175115,4.47018877531743,3.6432898531072997,-3.939078228128163,3.343019194210617,-12.120408973036907,129
-92.54617959207184,71.92193618288918,-27.774651483334097,28.29882286208962,59.71750436135117,71.94888553784874,38.28986791651427,-117.52835454003309,85.15104659595723,1.6433116035940778,5.369246332385629,3.182216749291384,-3.9942159483086996,2.8915019270205007,-12.849250545246225,130
-92.42968276606624,71.81906955422838,-21.774651483334097,28.298822862089697,48.71750436135117,69.17968207869441,36.99439033749954,-116.59366289567362,74.15104659595723,0.9288354790755955,5.630165943950154,2.543995309830251,-4.1190780816588255,1.943977589450432,-12.538525296622378,131
-91.58069478325596,71.9973097204091,-15.804755919158046,28.29882286208972,37.71750436135117,69.28643530740669,38.74983807358329,-114.0650675467344,72.14848409595307,0.6575259319381128,5.210793376724409,2.0958490251681314,-4.683330642965726,0.7630125985305986,-12.22024026638037,132
-92.44806931451386,72.39111327138924,-17.00255570011409,28.298822862089647,26.717504361351168,70.65141641936262,39.06059694566227,-109.02681912922117,61.148484095953066,0.19007650195161185,4.345084569940185,1.8342828156875075,-6.195237381171164,0.11350750164131014,-12.638977372485497,133
-93.1391245937822,72.57239565443444,-21.31454937182709,28.29882286208962,15.717504361351168,73.54692078753368,37.77656110319216,-101.2332794334138,50.148484095953066,0.7865494985249191,3.3069427338099135,1.6708832581095727,-8.265352237868754,-0.4000186189843307,-13.15051107245567,134
-96.52298287983793,72.28178117611681,-22.187145229313593,28.29882286208985,7.000151958223784,74.52549866691479,43.068852611473076,-97.72252952086906,39.148484095953066,1.3299660897195664,2.7830297586790067,1.5544316953919917,-10.062847571439372,-0.670988380601159,-12.887521673347145,135
-97.66761898097772,71.73237105669917,-26.79059269219741,28.29882286208972,0.18687389475017255,76.7817242398348,43.849683172168874,-86.78361406273423,28.148484095953066,2.3093831949671744,2.0763342244825136,1.414492260949769,-12.18661181389026,-1.1092539649403401,-12.974895200424488,136
-99.95947710808092,72.13011959732832,-30.050686296557288,34.51718251551804,-2.556465791355882,78.71761101011158,42.23423614654439,-85.35897278754854,17.148484095953066,2.8830630249437657,1.3736186301855908,1.0177616838085717,-13.218148987315061,-1.5567015974076188,-13.319773529041123,137
-103.37735459426034,72.25473983506906,-31.203612433301696,38.65414487477115,-6.619446831667512,78.96766085962062,44.57655702684353,-87.7813554323994,6.148484095953066,3.434407520352192,0.7502369225024288,0.7821153114144765,-14.534666176229365,-2.0208399999093136,-13.455326505235455,138
-106.16339475457339,73.00129170562563,-30.082556115689844,41.598087302992035,-7.509768632367031,82.76962628560418,42.47406548193317,-94.23912843209074,-4.851515904046934,3.8555899410119383,-0.13361935064384656,0.3773198242334673,-15.743618421869698,-2.223594471745095,-13.625274518617143,139
-107.86645502434085,73.12843826340689,-30.831374164727954,46.358347463906156,-5.20807916051867,85.44429845312811,38.54067253130617,-102.04152518924076,-15.851515904046934,4.0100249081008,-0.9718869335352202,0.18195225334592277,-16.437100848390465,-2.058481324128507,-13.822452754341397,140
-109.38618386895862,73.24651112069475,-29.25561664460142,44.74845727332147,-2.8214634691063063,86.61368967481339,34.6471424655904,-108.67079628506637,-26.851515904046934,4.152181499802688,-1.7542959260016997,0.21048701290030855,-17.209003021191734,-1.5834454175068244,-14.215126670861174,141
-110.49928148728867,74.22475981135482,-25.10014827600013,44.189393029518264,0.7388148395425187,86.2800845679951,31.257811763120362,-113.56608282162208,-37.851515904046934,4.337335209673545,-2.4825644307919847,0.3438737551404606,-17.763358411381883,-1.2202632431304061,-14.472532293128634,142
-110.37092135833588,73.85021285034624,-25.040509634297077,45.728222806211754,6.146543756036009,86.46645338164821,27.715684672032182,-119.25631961451494,-48.851515904046934,4.242347999245153,-2.788991578516355,0.5081284592936054,-17.804395208818253,-0.711719162844991,-14.167919886725405,143
-111.01034208820356,73.81839679066823,-21.73959131466872,49.88567152601047,10.137341294524479,84.14140174365042,27.181244953482782,-122.23813535523018,-59.851515904046934,4.230683348398845,-2.6825992752007384,0.9070913106632669,-17.3850671424045,-0.20314158657849332,-13.358753705448969,144
-111.31116071904333,73.8742513781252,-20.808539175139586,56.13954403497788,17.07120874784298,83.40737525120386,25.700890704581653,-125.83229522784877,-70.85151590404693,4.137788017164414,-2.716987694188289,1.3122054549890325,-16.744791431544993,0.10710849532404325,-12.506531079448802,145
-111.52976925023061,74.89612692951444,-18.209374708901727,64.80451246413473,24.432005092718814,83.804769667544,24.42236094482981,-127.04549862620584,-79.97256868998102,4.099373721394929,-2.4122256352349987,1.748135190695853,-16.79326931285776,0.3996328133531784,-11.511121045226504,146
-111.22222018885267,76.9700916570657,-14.838132939577923,74.40544422606982,33.20347453083441,84.76335684558076,24.1114839100347,-127.85759110573551,-81.93492527494226,3.938982384495504,-2.167893556178866,2.135717076461239,-16.470303188922625,0.6587456960601478,-10.359074531910556,147
-110.05531040042281,77.56299513495942,-14.87101631860292,85.1917525856662,42.041209927962456,85.17762714299133,27.144472135996214,-128.79207917500383,-86.1353264716339,3.6576616652645257,-1.5178161046313814,2.728883711043526,-15.616578871581558,0.8056609702858051,-8.86543741964345,148
-108.67571094379142,78.64234680163774,-11.221869893083115,96.08784212765941,52.04644846192012,83.74516337881748,28.1044804593009,-126.64089223911057,-89.89321091690117,3.41325865112669,-0.7142986001862605,3.2758737807428733,-14.709668112765124,1.0884484099948035,-6.956354558639953,149
-102.90246192211433,79.15144616232396,-11.255186458958478,106.84322828003116,62.38494866798794,83.75165081076881,29.07525646738044,-125.2064788847368,-91.32153258753061,2.995013249617761,-0.14208547526319434,3.4227199589475203,-12.588494567004009,0.7357367885534238,-5.345360235548954,150
-96.6742241673609,78.41985710110504,-13.81104676912216,114.44988906242524,71.75473910329902,82.86185776328807,30.344642621210347,-124.39130730981313,-93.00896426630122,2.8243085205577096,0.11223815808281382,3.1919968325555774,-11.134030817302573,-0.0948885605776059,-3.449238031384357,151
-92.06771065891566,81.37058777240915,-13.658086863000898,119.76996369987191,82.43031863031784,80.96704595417155,28.51112543938586,-122.5028655929073,-99.40972948432439,2.6250661861251907,0.35896989384276945,3.1574859678103975,-9.837209121297304,-1.0157900296840299,-2.2645154989092275,152
-85.62927062070077,80.9349122958612,-13.777995409865099,124.45773631718257,93.41311291895785,80.27862232544322,24.51489137329326,-119.2167049558965,-108.06074541952978,2.237350591305667,0.9484148547516771,3.2063069613146022,-8.420541567581308,-1.7467254526084388,-1.5083530796465088,153
-78.82694250554891,82.06259259515843,-15.614581697650719,127.33996771610514,100.11769539589234,77.5483781831007,23.14879523343891,-116.52159218892047,-117.04995532812714,2.1173174117811957,1.326176007406598,3.273561760218543,-6.847982413356954,-2.5660566599982233,-1.348713583421383,154
-72.94503313775064,80.84700062900173,-15.448048418959683,130.44107030644327,108.64208558586533,76.42068954071372,19.7393074358453,-114.07876337719138,-127.85114771489523,2.208017503353196,1.571940442289038,3.471789824273264,-5.498263034642542,-3.1119595576114567,-0.5209072456771476,155
-67.18435341224254,79.24348345946795,-15.5418868115583,132.64808186567737,115.38462356098988,74.86108127237834,18.911126216887492,-110.27570790782623,-138.62453831500076,2.4111213920278756,1.8379550564216425,3.5359398020545645,-4.529956671000943,-3.540221762097244,0.7671203354870426,156
-63.45303141120489,79.93668752290044,-15.049421111173215,133.4364593244965,118.9680936513582,75.69263635347282,17.261578138108888,-107.33094369414886,-143.44065270396766,2.6574857706172215,1.959010752311412,3.5766742823488538,-3.6657324294677203,-3.936281536335861,1.2917987236665611,157
-61.839991548233364,80.36501609852041,-15.345473901059997,133.6395162590629,119.26491077065475,75.77321135265598,18.063634654071155,-105.34720511951664,-144.42319643414768,2.902641315830182,1.9999342204517403,3.607534268945286,-3.041696090548314,-3.8776296259718395,1.1525378488105025,158
-62.384494951391645,82.99017996576491,-15.306210017390704,132.98792768044976,116.82049811033282,76.7625712799666,19.300036457881106,-104.95504152912477,-141.80447227095863,2.9797005527502542,1.9600967491362116,3.6871190049732623,-2.796238733676992,-3.467395365830526,0.5765853615531565,159
-65.57431501016154,81.90262055650078,-15.485767118928607,131.75730389358836,113.53397985431428,77.99081873104662,19.85231476184111,-104.64293428078517,-131.97317785609647,3.1988108234148767,1.7446646195034212,3.713664684348076,-3.112729431071353,-2.548368646655397,0.05544780427092353,160
-70.6525129772848,80.65219099560294,-15.87854689700174,128.28460669641524,108.3127668327445,78.4753728622403,22.387358934741044,-105.03491905691361,-123.88460007157424,3.2022773367554764,1.528694607510419,3.6655473042282494,-3.8839959631521324,-1.6535287433682528,-0.3731623302416367,161
-76.16785407267027,81.20804836437402,-17.104745043625673,120.95731596275945,100.07107744676279,79.10783794693788,25.94553108311633,-106.12729717632315,-112.96047511116157,3.2573793120681307,0.9115415198869554,3.4301285268831188,-4.385064249723349,-1.2179061372208637,-1.2701040686624816,162
-81.18203856189113,81.09232636301577,-18.063148846926573,115.48807015595725,90.86877024138096,81.83944233020813,28.18642179867049,-109.6945608005428,-101.96047511116157,3.745515535614387,0.21105294707440111,3.292938052443098,-5.283955129120178,-0.7337002651572787,-2.7527295555262756,163
-86.0565711163182,80.29264362449,-17.805833797859137,108.25311875663039,80.36354774868008,84.23464089339444,31.2898121339694,-112.61856008854329,-90.96047511116157,4.25967468392317,-0.600870965379511,2.9655994775180052,-5.849904983846485,-0.433987788106627,-3.879384520665388,164
-92.85166128032056,78.63318145987323,-17.614127681680124,102.72414033429,70.54544247573453,87.25284868204534,32.62927734699684,-117.42615464804156,-80.66051755428494,4.893948278176899,-1.4674214705380249,2.924171683576021,-6.578043443590342,-0.025583697035851692,-5.3120688810794565,165
-98.6364705558034,77.45691519049245,-15.298610426827706,99.23522885983674,63.22173701690962,90.12797676746636,32.780138907832324,-120.2634994666657,-76.64679284738943,5.517478196999094,-2.1505118955090956,3.0947575681351718,-7.326846909143408,1.0383708805095913,-6.327113634050783,166
-103.18682676405494,76.91182966899288,-13.765572787919886,97.37849129651082,55.16994883948983,94.6277952538573,33.82987019004518,-122.8479155666426,-71.89076148826825,6.319589899899086,-2.896682003009801,3.020934561788886,-8.516515564660937,1.7871748014123512,-7.522865514212761,167
-108.32498547148505,75.8043034638356,-12.201250336857544,95.78885959804525,47.821626092899464,97.26132592240565,35.762804091608686,-124.42239070818987,-69.3199490747731,6.943338800620922,-3.6118163612051473,3.007517517260218,-10.039810678838267,2.462196160162577,-8.143499552053033,168
-113.49580288636932,74.20272180568547,-12.74042504486938,93.33939371450798,40.3001030926685,100.07103011508444,34.09441142892854,-126.28370693816588,-67.87407797324985,7.473280189916021,-4.597056784324135,3.068647145989298,-11.428603771038826,2.702437436547827,-9.105740063212073,169
-118.02211098706424,73.79410297307437,-11.359133080168718,91.14709264490965,34.81528203966599,103.06520231965429,32.796243380602476,-127.74515362672354,-67.497606474128,7.726272288215982,-5.165655426218561,3.145496296826026,-13.394973641843169,3.1005024370496965,-9.268928490294822,170
-121.0353764839529,75.42691831367459,-7.937925448037083,90.60889711494549,29.355636499510975,104.19419381558825,32.174031868341025,-128.00319577351766,-67.31629461508848,7.972946143472107,-4.994183550916535,3.254428257369662,-14.77921817099979,3.551402616041089,-9.286171255557457,171
-123.13427394702626,74.79096350479469,-7.771916299404613,90.66715395142523,27.879288403876636,106.07024628922389,31.407682941473283,-128.5148396807801,-67.53630326543102,7.971261102308813,-4.747538793382848,3.387957740042271,-16.185109989694055,3.928320411481379,-8.767002678351501,172
-124.49177665214869,74.79107414801047,-5.991593206723381,91.7612093500068,26.389927602070507,105.59313192366832,32.04113212583291,-128.27994289208777,-67.854664743218,7.911354438133851,-4.382541555955997,3.544905812259509,-17.360996622787283,4.149215899965985,-8.113423526720997,173
-125.14213484555478,74.93746277913947,-4.4571242455322615,92.57085424422688,26.555967118520147,105.46062292899833,31.555060274830005,-128.41050953322366,-67.91303097255216,7.861167995499879,-4.193759282647939,3.617551340266721,-18.60370662324213,4.1179779437873165,-7.569695876777979,174
-124.48253612086589,76.3852092081493,-1.6108234317677521,93.96834240332656,28.245791999840005,104.27864605171797,32.03247068890745,-128.34248871098868,-68.17161564626488,7.758413837204036,-4.2073277541777,3.630531647890468,-19.53493318683623,3.9242202962167636,-7.26705440757945,175
-123.84180855423263,75.91864353560838,-0.8967681620400388,96.56878675063264,33.94471130476439,100.83328527988989,33.42516262720414,-128.86004979612957,-69.89961223465534,7.368568071257413,-4.055093185326831,3.7173139036051865,-19.32239263995746,3.7348625003414653,-6.680240832902026,176
-121.34165771267568,74.87230507480608,-1.9975664390090333,100.13244258863224,42.355514397437794,98.80236567521223,34.62112179779389,-127.96791796990759,-71.21004398237471,6.862690376018387,-4.012987916196234,3.6730105127027755,-18.046634613987827,3.4268896816121255,-6.160047758170953,177
-117.17265923028205,74.59501809394665,-4.022939407293179,102.59767517807559,47.8798536163142,95.97163058523174,37.46554553906767,-126.37762981765485,-72.33874101783233,6.5496366295454935,-4.108345832803297,3.415596494983778,-16.73956323334517,2.617006048776339,-6.021141429472398,178
-112.60415434402447,73.98394398064309,-6.120611482499636,105.22059491739883,55.516622286243745,93.75295624414282,38.11348540329314,-124.16047228090724,-74.16681860548022,6.130061880201142,-3.898627303373332,3.2260776084449825,-15.618487446422533,1.8403503937978756,-5.599230281766502,179
-106.08219945072926,72.64107754208159,-9.221090205676875,109.82412406234924,62.009750457040454,90.69762755675411,40.87651136212691,-122.87853134748252,-76.12589342704165,5.723708260757883,-3.2336622492264775,2.9755029578638688,-14.37147816238284,1.0254770917934688,-5.128975747910396,180
-97.22719447731015,72.91944254275717,-10.944422374230742,114.36209206747617,69.18948134175226,87.15546759791253,39.64970917035252,-122.76916067258982,-77.16706782793418,5.072898721400282,-2.903656000317641,2.5174108588396558,-12.495647962788055,-0.2560194343007502,-5.3176760099801355,181
-90.30041552554678,75.65987490722313,-9.13150824714523,117.87503947643546,76.81121502254346,84.36840073840665,36.71233148947336,-121.98867595324324,-79.51036779320758,4.460152642642745,-2.436223167612109,2.1302941838849896,-11.199021555662693,-1.5016520805316562,-5.19862141077113,182
-83.95479698780723,77.24073942063742,-9.886518557484845,121.3581252323484,83.4154176551294,80.591830926561,34.302134231573525,-120.87576071321676,-80.2320977831541,3.8982782276823698,-1.9844085585237736,2.060800533132191,-9.619537422172845,-2.79729228600743,-5.709704107158603,183
-79.3001636062751,77.28401930543697,-10.172009659395963,124.4055630119133,92.20200755973059,78.33520285759474,29.631906564858763,-119.85402009900508,-81.11454818294537,3.2412059570402096,-1.235680027063558,2.135279403311754,-8.145879240839966,-3.9592113138289315,-5.785737568286225,184
-78.48305845009097,78.3119979433272,-5.771869716311532,126.5539643126663,99.78793039920868,76.81009314754074,25.032244627545523,-119.77671312428787,-86.07874300607632,2.6672726700334235,-0.47541810974658855,2.291847665389276,-7.307077019514889,-4.908715789411034,-5.289331561540012,185
-77.21557440082739,78.12833830746865,-3.679590436718892,128.1731633854165,105.43816085550601,73.75827376505036,22.323645048028542,-119.25652807015057,-97.07874300607632,2.1951013704861824,0.027834790248346685,2.4770662807870005,-6.584032794129698,-5.750065024571305,-4.482593824020025,186
-76.96855605838547,77.68748677529075,-2.8874825644675846,130.26734535544026,111.70890312240645,74.26088319710273,18.914363565609367,-119.01910486788282,-108.07874300607632,2.1683870693651506,0.7188001429542662,2.8469373213217084,-6.044609776383987,-5.984824572897401,-3.3093044275333057,187
-76.19773599304227,79.10609955611604,-0.9769245824856546,132.2408680728516,115.57738185582384,73.72682651566086,18.03495160823404,-118.5362082763216,-119.07874300607632,2.615737092362879,1.3000620797157627,3.2368275744496118,-5.60281168359465,-5.88357750024816,-2.316795799957667,188
-75.37408111949317,78.61480112135021,-0.7722855276413555,133.41001251630678,117.38951854073527,73.53440290991102,17.885283066509928,-118.66362198508205,-130.0787430060763,3.2163876322459943,1.6795062523201016,3.713676354428792,-5.1721849999083975,-5.580233430843398,-1.7005199632778931,189
-74.71048507578071,78.68262199743828,-1.1406868830714356,134.12934844120085,117.97709136277805,73.19381742013047,18.060626598252387,-118.51808139694124,-141.0787430060763,3.7146637814640804,1.9249274036722084,4.116165672156734,-4.565715992845047,-5.2722532049870034,-1.3077282993789607,190
-75.34760727464253,78.08448423602766,-0.5730093860960108,134.3287535759451,118.17527853836322,74.25764383777236,16.33124604696677,-118.88683004406755,-152.0787430060763,3.9170543725864757,2.063631657206433,4.437482884040679,-3.960171493176051,-5.005900287307914,-1.1814206131153995,191
-74.3367020890409,77.9223215100313,-0.01742342320604331,134.19110532651473,116.93781759585784,73.63946230523514,16.96338333667942,-119.57824170271141,-163.0787430060763,3.8431946053328603,2.027729185892907,4.615806164107842,-3.050156871055744,-4.66459910496409,-1.2472659561471027,192
-73.88227076157602,77.12107284786619,1.5696780988551284,133.09942332024673,115.1366125964972,74.15041130103536,15.374228698992868,-122.09195375896192,-164.31848961297442,3.6248241109795982,1.7718163665064848,4.814750782197321,-2.1396137940229165,-4.269380953941846,-1.5209571814063085,193
-75.76789915147899,75.21298799112417,4.705675877928951,132.70349172884562,112.94179030729431,73.93142471135383,12.704783538813983,-125.81725263953281,-160.7652490716756,3.549856163226421,1.3234838548163341,5.167606724374823,-1.3784690599740779,-3.7686567885446394,-1.9243939500961476,194
-74.11186893807367,73.49532753986252,8.800350688968724,132.44850122136162,110.68287904389577,75.85172757754712,6.704783538813983,-129.54479483476217,-156.9931648299521,3.2206568691362105,0.7192680124766633,5.390531421540421,0.0761106873637371,-3.2839822534261085,-3.1918677517996747,195
-71.85687402439184,69.42968027255218,12.457225826869495,133.6967947118909,107.45720730817632,75.73060286292144,0.7047835388139827,-132.8924805274313,-147.78146740935378,3.0299401567172586,-0.005234535728909078,5.466712916946426,1.28720997246522,-2.703430810493899,-4.484683293795831,196
-67.45215943855632,65.95497091118528,16.79494912690533,134.90029212650504,101.26783651982167,75.61387810997881,-5.295216461186017,-136.3070097931279,-136.78146740935378,2.8496637189166942,-1.015042416578116,5.167004698414435,1.7994982239060222,-2.0091595855258264,-5.468038673067917,197
-63.00220244693025,60.899349810543505,18.92582071711033,138.2947676852473,97.03393650562475,76.29233953669352,-11.295216461186017,-138.79331625837202,-125.78146740935378,3.0934220500128284,-2.2345903680168084,5.111304315349799,2.1902249027950518,-1.437298079202709,-7.151896091787305,198
-56.85030765663804,55.965342122543426,17.93521431851493,141.63954534503338,97.50490713915515,77.44688901319843,-17.295216461186016,-140.90620515847888,-114.78146740935378,3.147044854682724,-3.479032493095577,5.1462329049568085,2.90018568698835,-1.074208222478505,-8.081143194208195,199
-47.70525845395346,51.761190816630325,13.677788848321205,144.25652210257758,95.88892212669096,79.74536347298553,-23.295216461186016,-142.56833038032812,-104.09371609977042,3.2089512895167873,-4.6431814070010615,5.077925477706225,3.4222785636602118,-0.8625214802795066,-9.160649743721137,200
-37.93828570246891,48.54527799757692,7.708677434998066,145.16909926859927,93.45342114644613,81.49932280891824,-29.295216461186016,-143.42284847760408,-96.97871134757187,3.1538712242854094,-5.532918168035131,4.843828677134215,3.4781904723913883,-0.48565193866436496,-9.698872983673915,201
-31.35902232960146,45.416680002091816,3.9155959645312186,145.50964281655328,92.1152147513425,81.59160152372063,-32.3408531767696,-144.39610004623967,-90.66026206994358,3.2515318542038854,-6.352145468938697,4.6263285156990435,3.0826235263881974,-0.11959907364015206,-9.817747407865854,202
-25.930526420564963,42.64247498679939,-1.0334565604472334,145.86541515546864,90.74894249487986,80.69179783961418,-30.569043749877242,-145.27375658037414,-83.95612621453952,3.3873212824101877,-6.988960239334719,4.334194776222312,2.3519494529866227,0.15887998568632106,-9.737612555483159,203
-19.617794834884783,42.073875371589004,-5.656293048716762,146.11351796706518,86.41384000548591,81.16045488580534,-30.501395004637445,-145.98794350924797,-78.70934538373933,3.640749959176605,-7.508678368417785,3.981674961585631,1.344044114339853,0.4176256618223337,-9.481715493338859,204
-13.793664369745152,41.71251279359353,-11.127258648510384,146.77103674022487,84.87109704759743,80.71954942027847,-28.396324072590946,-146.62475976217823,-76.9299836099157,3.738771473627819,-7.73292203200284,3.726192049164407,0.4728500536190499,0.689496726010399,-8.794318807414138,205
-10.304695446724102,43.5424437817812,-13.956884873781974,147.18710701013256,81.87150851838558,79.7082177532135,-26.937654317235253,-147.128416459501,-76.20537699543192,3.8903794977796413,-7.81744529765103,3.4561737455434756,-0.7429875302553954,0.7725215867235845,-8.070746501253247,206
-9.034131248404131,48.04328410319271,-15.97773167197012,147.9959700959549,79.65507035484596,79.53028224228947,-23.758463471733553,-147.54852060757207,-76.95739904998999,3.696193413036178,-7.631617315150231,3.2505236851457218,-1.6138908996904573,0.4825981163914755,-7.415555592816928,207
-8.552522005753588,51.02152968635661,-19.106643177436137,148.37447417598406,76.02104949233603,77.6343264041895,-18.366072627297058,-147.85414846114188,-80.4107753075706,3.593845738255512,-7.4814107287677825,2.989093847327457,-2.7592323051186445,-0.04547628322638521,-6.715702225805039,208
-9.65911206862737,56.367544624129884,-20.799183896748467,148.03223276238853,72.60746880446963,79.07622777935684,-12.366072627297058,-146.93266538783922,-85.39632649446659,3.44327292729881,-7.284220924692719,2.653436438708104,-3.951379132008027,-0.5031468545545107,-5.5450084310522065,209
-11.684280703692547,61.67940903746505,-22.423061221300753,147.17761142793205,70.58885667421677,80.15164061858088,-6.366072627297058,-145.53853813653123,-92.76851446836844,3.389249510842933,-7.048653239413461,2.2825844717935575,-4.7794104207616,-1.0252331802835906,-4.270429008135357,210
-15.905428607102882,66.32067816445372,-23.398819620397884,146.50819097872147,69.47062194989223,81.18875787255541,-0.3660726272970578,-143.840439255686,-103.76851446836844,3.3921898725620703,-6.55676761999796,2.0167494228970426,-5.411324236932556,-1.6792373585999596,-2.5031151106093334,211
-18.17611936829215,72.30057340544812,-26.31864255952691,144.86216899386582,66.51290656709669,80.94142960338017,5.633927372702942,-141.33434352355454,-114.76851446836844,3.4703679393354157,-5.966385736256061,1.7412988842615897,-5.822595977805912,-2.1807101328971648,-1.3135193580615148,212
-21.03000230952151,76.03364169847859,-26.851176154751418,144.42430252202146,64.73904840709996,82.7215210191128,11.633927372702942,-138.66378028093942,-125.76851446836844,3.770510582862091,-5.058360802476261,1.5402810944199286,-6.982858486088855,-2.5347488014911805,0.09853131047153145,213
-21.62353290265858,77.81998652741312,-28.898395228297897,143.44693890939766,62.50312668620419,83.17982481614968,16.463345933443925,-135.5151622908924,-136.76851446836844,4.098684395479672,-4.176032737541225,1.3583292771183326,-8.022393878959534,-2.7986961957297787,1.171189871907319,214
-24.196405672136947,81.198266183406,-29.116121089336666,142.3190505340627,61.04796813924746,82.94173658560064,19.323687231767607,-131.9991202261709,-142.19306944431565,4.593642210666628,-3.5586562406437365,1.1678298366026654,-8.804611089105302,-3.0701244039529407,2.1261083632652977,215
-26.413591636750535,82.17244138593774,-30.69718301037696,141.7487002888544,60.232312702492216,83.92066950928711,23.74413888660423,-128.16371118596496,-145.28857549300068,5.237492763652463,-2.8751254699535496,1.087777359687832,-9.779051970888826,-3.117875266304539,2.885370834594175,216
-29.320938476447576,83.46410806662466,-29.54173108785114,141.79723560228615,58.60090255700008,84.46847964647684,26.575860112899765,-124.9503206876128,-148.9558112511917,5.779964569676917,-2.057364982408829,1.1494570325009257,-10.60750355569516,-3.2161850211513294,3.653887116803167,217
-32.34402927818743,84.54255613835944,-28.84684649334147,141.27388126943953,57.2728663854255,84.07324970716097,27.49839129263601,-119.3091385477341,-151.63251632158793,6.14632177756395,-1.1515603075256753,1.1957851475738586,-11.26129223755192,-3.0858433209110427,4.227315980993806,218
-34.8405525897026,85.66477635895171,-28.06435393377113,141.19490272517018,56.59159358632442,83.79244152597501,29.420285667749734,-114.44338450036776,-154.07360339870309,6.518698142708327,-0.4917964743886201,1.3924180052751751,-11.983745269503794,-2.8605190765258666,4.469307380757913,219
-34.64573953099162,85.29568449052181,-28.52400247163662,141.04494535812805,56.38459444719439,84.91829332834251,29.712567506698853,-109.84442683697843,-155.9506540298607,6.679954667503177,-0.0612989542483927,1.5711741891060895,-12.183126305699833,-2.6463008715467833,4.412999009984573,220
-35.12346673302589,86.30969299018795,-26.848273888812137,141.15748938484475,56.354226719642654,85.81657668192375,30.491736219911292,-107.7798266242939,-157.3663740168377,6.681402993006258,0.08114348158432445,1.7611104333051237,-12.16066144679928,-2.393370343982308,4.061821995916369,221
-34.20133973275732,85.45455746434972,-26.185312650358537,141.1191498736732,56.12732924413797,85.94476948432163,30.86671218919631,-107.3703886330576,-158.5319760732857,6.601415832024396,-0.06974187366707163,2.0609957118773488,-12.008085096808953,-2.086419626481145,3.3512246693019256,222
-32.74213616527711,84.82153945159483,-25.373393619674292,141.57629814866377,56.09162187249464,85.97418579374153,31.841307952969704,-108.96060751466098,-159.4823965055507,6.386897847198986,-0.42709399449982594,2.2787583765701407,-11.665595860789843,-1.8129218859358245,2.471440469407534,223
-31.676405243136795,83.66915106852541,-23.96927707507763,141.69412580044087,57.000450916408504,86.86070606045325,30.478287288824035,-110.76804799871147,-159.39678349818283,6.096446726859866,-0.9139579180962187,2.511179556080931,-11.280829871867041,-1.5029929992379618,1.4451494504261289,224
-30.753909266788426,82.85590880207299,-22.957866999865182,141.07010508143344,57.70599042832005,87.61692033295986,29.1787670859012,-113.5376936381368,-158.3038065442434,5.601439614030099,-1.4985741004841788,2.59883041193082,-10.329742507673283,-1.287589731598167,0.23518321329605105,225
-29.531090418224085,81.53987515588582,-21.867331114168753,140.64778539463217,58.77766944816695,86.2791157693498,28.87424993378114,-115.8949446725377,-156.22300043393116,5.001568144003848,-1.9471028537020945,2.7465074651933086,-9.115478318093055,-0.8809347131099836,-1.00012618116793,226
-27.16044219185953,78.38136831166668,-22.24088031554854,139.93731089359005,60.19586628075282,86.72546648018262,26.722253345771563,-117.97910454676521,-151.42516574340416,4.225137025362887,-2.3779429001858876,2.798199041740182,-7.894627391842276,-0.47676862158172745,-2.4277338641356447,227
-25.12782603045509,76.80100176108932,-20.944569390665695,139.68251689934877,61.09921084524075,85.53281678034966,26.11014444143419,-119.95365464079735,-143.0943497167517,3.5639691434762737,-2.7954866256169697,2.8855417354110218,-6.666617155613287,0.038100383227428626,-4.04162565352573,228
-22.590563868844235,73.69616462819678,-21.600385985163683,140.04669919115545,62.95876164632282,85.9025588492634,23.281525503804033,-122.33860429047118,-132.0943497167517,3.160430464692069,-3.200384495591841,2.972042847117332,-5.298615889503294,0.46497504136117096,-5.456482755652692,229
-20.889624688242904,72.74003591449632,-20.886781670273802,139.90028307835982,62.47466138516621,84.28449237933363,22.5373364529843,-124.44241779447853,-121.09434971675171,2.905200235355397,-3.533688436579465,2.972388952547803,-4.023351823657092,0.7236601386940891,-6.852270090791076,230
-18.74824927490746,69.69942101570619,-20.557127610596584,140.19857404699735,61.54032528135602,84.01809772230844,19.855615508939586,-126.21073231624288,-110.09434971675171,2.960478051939299,-4.0202030626302525,2.9676496805899224,-3.554404347772204,0.7728079520316051,-7.804047850620258,231
-16.17316848893028,66.89436587148826,-20.673309298196,140.6696379024109,61.73357704523344,84.14449360933453,17.192984224860094,-128.00414491907048,-99.09434971675171,3.1568461899998015,-4.46185390209582,2.933685456842699,-3.1610040040073586,0.9133641134140031,-8.081056986312856,232
-14.387513548397783,64.54537423671538,-21.149519850752796,140.72817445282092,61.65803413435502,82.5280306057763,15.9483251572233,-129.3391837879232,-88.09434971675171,3.3670485618347055,-4.864524834147841,2.834096827821175,-3.099539292983364,0.9425667515828398,-8.181350521597851,233
-13.140095149192527,62.33150752734653,-21.213597194644862,141.6934202023965,61.76382382886095,82.98973066633987,13.409309996275098,-131.53816594594826,-81.8193433689345,3.60804097528515,-5.265929529488337,2.770706072219098,-3.633322245522333,0.8283605459525286,-7.893806206406327,234
-12.667391487178152,59.98400358633725,-21.552010042844657,142.5412690304302,61.060734094994025,81.98245284350308,12.398244985426407,-132.64758268598374,-79.2139572653608,3.781808184051186,-5.39553421300542,2.6427498071802056,-4.196159226153337,0.7572929063426607,-7.357420576568455,235
-13.35043211101489,60.43139329783142,-21.152651399156845,143.3156609120352,60.46184527671797,81.45491139271496,12.312249932063688,-133.7124188800591,-78.42085832305641,3.8959724440136654,-5.501959590214917,2.5263446099134117,-4.7262169362020865,0.46968827226656007,-6.916954572689001,236
-13.985673388852122,61.28005992631297,-21.320885776707442,143.76359722858498,59.427780882827726,81.23604846511606,12.634707395148498,-134.13105667866847,-77.62441055930368,3.9516808672102024,-5.525445762624057,2.3719428749102383,-5.284369584975003,0.11713196232590796,-6.633058686317921,237
-15.540276624661963,64.74644339500915,-21.18577947281544,144.42852189981957,60.45259547450391,82.79397765933723,14.808257746277604,-134.8952276951828,-80.09927076106828,3.8998244850884323,-5.462717741236037,2.2364595746146256,-5.618569767412866,-0.15387295396655998,-5.904167441292138,238
-16.288258676935882,66.29287957685703,-22.399488044422164,144.6428036895477,60.03218843984876,83.64417087085992,16.901679363112237,-134.4909111665994,-81.646188020834,4.021958428383934,-5.432690396840364,2.037592304525333,-6.287045483844263,-0.3959347295075714,-5.3935604462945115,239
-17.28851588246774,68.18072980446263,-23.987100361344922,144.96353989316904,60.37793377012807,84.6366825419049,19.441991334546437,-133.76206665751187,-85.069886865999,4.103849937431702,-5.3796063424287555,1.849406835391902,-7.02704361522073,-0.6442476255615041,-4.696777059655148,240
-18.18407842637782,69.84251833218148,-25.36718669639147,144.9168623189448,59.006369074754396,84.57719952583962,23.307314712067285,-132.40757845447223,-87.88567438911595,4.1922675015030695,-5.207099900331488,1.5398634222003127,-8.07265702944755,-0.7489712886083246,-3.772539425357326,241
-18.939718339117668,71.8034072206137,-26.972381248879906,144.35535549230056,57.357032555235655,86.3543909673274,25.283512463214333,-130.69580702306172,-89.89791358690564,4.3211346700881315,-5.097527575920778,1.2021694544284451,-8.80364007873074,-1.0137451082478146,-3.27012689048125,242
-19.246076070688744,73.12542490538372,-28.12109687111926,143.50084484037146,55.39014532562305,85.55878894388363,26.904343479307286,-129.07722052912524,-92.96733222286213,4.35588510253991,-4.898191623279165,0.8841555464124758,-9.35516205029795,-1.1608320548833586,-2.7455337546866554,243
-20.00387146523345,75.22959223806086,-26.691084660808254,143.40038677693963,54.32616505750047,86.69755397259111,26.85778837002753,-128.64347802810713,-96.8213229095463,4.3402796933512455,-4.572318615149703,0.6585675344116114,-10.07619552099012,-1.168550360721703,-2.1890619994630383,244
-18.95247572710304,75.99660294186528,-27.629417086689475,143.16871846181587,52.1741531531935,86.33272173640063,28.52233245898389,-127.93525935193739,-100.833090319996,4.3317024627178045,-4.228788566902505,0.5784241319846144,-10.438846007811241,-1.108825397257502,-1.9006174328907384,245
-17.77595070519855,76.15156368379382,-28.286464208645896,142.81466203729573,50.24482123477316,85.75558704462087,29.87519992225289,-127.77258558777302,-106.78344295019966,4.296404231776248,-3.816495755199903,0.5382962500693659,-10.292930621887212,-1.0333569975615526,-1.6471216013194527,246
-15.783741358964548,76.37456829237635,-28.86223216592013,142.59465095754098,48.781104965465396,86.53487486782389,29.25231689798326,-128.10439318891852,-112.98213822704871,4.312007928697091,-3.4750231112455445,0.5690169238370344,-10.059921569454433,-0.9669855897532763,-1.5448877099986749,247
-13.972000643698868,76.37701709686552,-29.2717911630424,142.29104253143666,46.327045911447726,85.66456123016387,30.1730094172221,-128.07154561679397,-118.55876658498173,4.3707235798064845,-3.1952741559447846,0.6000761357163888,-9.779178884343382,-0.8414279088173193,-1.4579293868526062,248
-11.931195616591317,75.68829758619964,-29.213975082547183,141.60033395408354,44.6056807511663,84.35064504046208,31.01469835221387,-127.6293754580946,-123.76060848803499,4.349920896694645,-2.9466186418604425,0.6675775411070894,-9.154091828666628,-0.6569868301607693,-1.370623751080931,249
-9.309535436316748,73.38202425276678,-30.717798864488522,141.51195887764376,44.30568901098589,83.20480986733816,32.94004441888134,-126.75474448540517,-127.98090484858501,4.220191515549399,-2.7465749668235646,0.7731216389335034,-8.772483697468049,-0.5193538451496758,-1.1520853989657365,250
-9.397815420360248,71.59390269052992,-29.977338758204315,141.48943286067518,45.38967750078505,82.95953683694252,31.95437771096418,-126.46643415062012,-133.90183751421642,4.088538446396392,-2.2649737972088326,1.0152199391308423,-8.514825546433887,-0.21425784780727966,-0.7068951336861732,251
-10.584369865446059,69.0796595884827,-29.05229877202449,140.72464471714943,47.10007590278621,79.98365029852631,32.57307796282036,-126.69575023332641,-139.08142034445297,3.9705932648574453,-1.9492081120363873,1.324095287866893,-7.351765421079428,0.019697349750570275,-0.34538433390749296,252
-15.982627424772032,67.96050052596368,-26.374345674089703,139.92676377531095,51.11136128256393,78.15630715839343,31.996189863659907,-125.79739912116138,-142.15925042097726,3.9626160598476536,-1.6750968841272136,1.7621560161973624,-5.586278470080194,-0.006385538449275834,-0.19989539964076838,253
-26.982627424772033,64.4524638667189,-24.307176659869214,138.65733781808382,56.27803002335713,76.15992678401167,32.28587480120193,-124.14672858852472,-143.71888132189122,4.10673047791294,-1.4368023794885934,2.397258968368638,-3.918880437901736,-0.33518727076501054,-0.4407019340386424,254
-37.98262742477203,61.88222808481746,-18.307176659869214,134.09603621481165,63.873555183474124,75.47150827161096,29.561037558305554,-119.37456750046158,-143.12439955304754,4.158931261772823,-0.9564900821345967,3.1216299063791686,-2.489521240939999,-0.7689280703297429,-1.0206843974311135,255
-48.98262742477203,62.27104905148448,-12.899489559062026,131.63673634504326,70.30976124916114,74.24625982982782,30.83695500990755,-117.81859652609143,-146.5167376392159,4.053958334911853,-0.12953401601763648,4.023185869341167,-1.5725607614015713,-0.8915389964128845,-2.497107048015991,256
-59.98262742477203,65.41731330216734,-10.182845543216455,127.92895879299402,74.46752977271822,74.72793097622562,33.76037331506915,-115.30857473613993,-150.2906421882754,3.9837796664479197,0.3732271344718996,4.685630790809107,-1.2935627203650182,-0.9402280164580551,-3.945086431954195,257
-70.98262742477203,67.55329683781291,-13.057250504165923,123.9211643628891,77.46491870937689,76.28436437443864,35.18529363619567,-112.44945116952539,-154.4081766803212,3.9387979241511646,0.6347800002260436,5.299518281709671,-0.5657517550811373,-0.9682640162112789,-5.4499869773439755,258
-81.98262742477203,70.26415729803412,-15.136543486169685,118.39964114802194,81.20510769943375,76.4123247982354,36.32893648350291,-110.8820296603976,-163.00308028002465,3.7789623720237677,0.7924116529775216,5.780661999224778,0.6216865344864768,-1.0636224903662093,-6.345171771457677,259
-92.98262742477203,73.58561397686996,-14.405992375574755,114.28182792850575,88.05690553815623,77.99048942716264,31.895861972991206,-108.59419807209808,-168.68520683794102,3.3956304630037923,0.6509556996219088,6.240542214963042,0.9644308959891832,-1.1550693834270631,-7.456905597187319,260
-101.26971283377272,76.6934094017192,-13.043766396240407,107.48634120154769,94.27225913409798,79.07709992798246,27.117496407992405,-103.86396390109724,-178.89039749498224,2.7034416683939257,0.8856464711864265,6.370612004093438,1.6811355130254644,-1.3787473256361407,-8.759637321952088,261
-105.81754808485074,79.54063338678007,-12.657601556368661,100.36970504821609,97.16517659175281,79.75920011695636,24.033047334428602,-99.46240646749601,-167.89039749498224,2.223172848374044,0.6980269942308639,6.066503976629052,1.2929663915215293,-1.6137483174273453,-9.20836564848113,262
-105.51006605775243,82.1588421879755,-11.8661621768558,90.396319469192,96.8664586157088,80.79413147451233,21.41399072074221,-94.56050247796368,-156.89039749498224,1.3896981855313133,0.41095991613174765,5.358313955469993,0.8294429843295337,-2.1651090550164893,-10.58755645467982,263
-105.29948401085447,83.2307930823651,-13.085888498842955,79.396319469192,96.945414606535,80.1097962580721,20.27684203818456,-88.36155534433931,-145.89039749498224,0.9742836318665038,0.2938302129054535,4.5260034659295005,0.2772954672405856,-2.7521969468469507,-10.708872756786318,264
-102.80815063718875,84.26161359870055,-16.25031977101991,73.2779469870568,97.39035357806968,79.36924127063078,19.988570865977316,-86.18603921036342,-134.89039749498224,1.1874298868910718,0.30559798634280594,4.465076517842084,0.27998207473865977,-3.3714432855267975,-12.534384297411645,265
-97.60192571284097,85.42018681826661,-18.637159746653836,71.25268664859992,96.07862457779146,80.12776107974474,18.45135725091748,-85.21883269911403,-123.89039749498224,1.5367740144870174,0.42748262412901944,3.96627012546538,0.8014468723294478,-3.802396239715141,-13.888290650376284,266
-94.8405641433756,86.68020985370406,-18.748749134408936,74.14817442326706,95.163984708857,81.08313276813347,16.890572783057554,-87.7153200128913,-112.89039749498224,1.9423665906858962,0.6293784988185898,3.7172322803095934,1.2323146651454369,-3.9461122859069304,-14.848433316448094,267
-92.91891521626295,85.9432013824618,-20.834582664240095,79.05371794772408,96.01954593899352,81.71772153279292,14.800388663614964,-89.98337993921672,-101.89039749498224,2.38059796326709,0.9056342812700127,3.8146285678806944,1.5679206349351962,-4.051888865104998,-15.587751169948945,268
-92.95507760397427,86.21167617565419,-20.570046850652144,82.47073903491574,97.85065652010034,80.63702942236516,14.596773749897082,-92.59734918987364,-90.89039749498224,2.873200410936577,1.2986360603220775,3.965614451785954,2.1530321068603038,-4.111670235864738,-15.618798996331378,269
-93.04348813811839,86.07802060147199,-20.53138686098168,85.55055597568747,98.42786463741204,81.27631907006435,12.18272655357238,-95.7881063842651,-79.89039749498224,3.2449837428609727,1.5198354928910651,3.899743019827248,2.311322392922094,-4.142540030157495,-15.380023210311093,270
-92.41074721004367,85.67051444802966,-22.96304954024934,90.60930345198211,98.67428677809427,79.88833508823292,11.621452448064856,-100.52323547636006,-68.89039749498224,3.5474696340260703,1.664508670120375,3.962005420040371,2.701799036147735,-4.3647940734181345,-14.680103937346331,271
-92.68474165559438,84.19450291860797,-24.58955529160897,95.27152986728602,101.59114625982083,79.42534123773443,8.447797764466234,-105.46176760349616,-57.89039749498224,4.0984285102003,1.9534298832020187,4.285325763742284,3.1211305724142506,-4.739961137411052,-13.928529936032833,272
-93.41426929412064,82.81172435848552,-23.776092804405295,99.58211718022241,103.95547068225625,77.93295803725243,6.881976104719488,-110.14498844784475,-46.89039749498224,4.696655899996589,2.1656018323620305,4.76728080093236,3.126838803328764,-4.980858874901678,-13.579460029202501,273
-95.35211233345673,83.02049497217561,-21.338933374835673,106.78402091925823,108.3852835336114,78.2846835421356,3.4485132009385833,-115.76779567129047,-35.89039749498224,5.415986285639382,2.620550027037447,5.46002482056948,3.359410094819521,-4.969822155872125,-12.791653536122668,274
-95.40059791071467,82.3448005535155,-21.676423881852298,113.16192211935963,110.7740384814049,77.97608355612509,2.3289756214242407,-120.80519327123693,-24.89039749498224,6.170483346861191,2.95869759821438,6.0782576881991925,3.189184404834492,-4.932620562908758,-11.97304863878694,275
-92.62962239574934,81.04030290903499,-21.140972685055026,118.86863872237966,108.6461754885258,77.28096008062195,0.8911651438886621,-126.2818874797792,-13.890397494982238,6.8692299642415975,3.1426779269712637,6.457306966239397,3.0202192373463252,-4.99977135650757,-11.310041029618365,276
-91.58240898564605,80.93485111997683,-20.734509384658804,122.9660935503842,110.26028217390657,76.13221316667193,-0.07457008020016397,-131.08350782511863,-2.8903974949822384,7.973719039285256,3.6374366646487974,7.073538794949835,3.5663959592300793,-5.295599378199042,-10.843216249184236,277
-88.28838130700899,79.16415745818546,-22.578183887462373,125.55037584984773,108.64211213555353,73.89747071719871,1.0189224247708855,-133.80801132429778,8.109602505017762,8.740222811031346,4.050930687592966,7.30067378432848,3.8614511505394526,-5.35449059563376,-10.281651846652249,278
-83.28840853227588,76.99615129887586,-20.780831256959793,126.58426300440084,106.8037163985575,71.27167587598177,1.421383161321643,-136.1423799005786,19.10960250501776,9.56880648647304,4.4637554981398395,7.345922537724124,4.247859409738694,-5.199232575834766,-9.758362159709044,279
-81.42874155154765,75.24002230403687,-18.979448520251925,126.72135077596252,106.51275182492347,70.18383487360039,0.1812129090488401,-137.59938612314906,30.10960250501776,10.111903959188806,4.9208929951632445,7.55934564208625,4.850236126597544,-5.138400777305974,-9.04737099401057,280
-80.4568815460043,75.5505734382793,-16.693210749521732,126.03804882958697,103.70039428840012,69.28687765213836,2.098617373076501,-138.09187293097327,41.10960250501776,10.426874673543361,5.26066056542818,7.429718484966882,4.77411395822088,-4.869582213896413,-8.557158589608724,281
-79.55143867444669,74.79320256545608,-16.354570101206832,126.14935191012604,103.33057937169983,69.70216278911012,2.5012652183868997,-138.48355799965353,52.10960250501776,10.690750672398023,5.601310762260181,7.426520675039426,5.056641311524438,-4.629278810626362,-8.450801941601128,282
-78.43567326446467,75.33826197569414,-17.096730151770576,125.66366761813393,102.81514535752939,70.89159787989959,4.664622339977289,-137.63602279609057,63.10960250501776,10.683827164449832,5.727816655002261,7.233517662959852,5.6742992578082,-4.231047024573856,-8.38809911595446,283
-78.45684002869515,74.68629004677035,-19.52865962472544,125.4634281250436,102.17902037624938,71.87405519713202,6.728362793482,-136.61503962671262,74.10960250501776,10.461409659482094,5.625447525542853,6.929400563923879,6.260355057827296,-4.097636188700292,-7.513311676869865,284
-79.35430731248742,75.71821161234,-19.960473436079788,124.25643632017703,102.08434633633581,72.85914707288467,8.781199685823893,-134.74779314441236,85.10960250501776,10.359983609779329,5.5083628427628515,6.635594912824158,6.582301877400246,-4.106764214298044,-7.484412596172699,285
-81.31348472141325,78.72135581423552,-19.104521133297375,122.00154340043986,101.52464796602318,74.73164926076849,11.294871591845853,-132.13717779591963,95.18565752261595,10.003777409283535,5.197768638638714,6.224368729074289,6.3771868583355875,-4.136143377419984,-7.551940390716481,286
-82.18402614849337,78.84117683084601,-19.869202611471138,119.89566510473277,101.7680609415202,76.64583204144184,12.651970498140308,-128.02368645224442,92.36243835308836,9.759086693157597,5.0720769581133744,5.767880711374665,5.627435793296817,-3.892649459536774,-8.045591009377913,287
-82.75451217114359,80.7376237504098,-19.397448783555447,116.75314878166373,100.55351455607618,79.04950309397472,13.975728581051303,-123.60493894466828,89.60199348181912,9.363186134543447,5.044547746810471,5.245518058312294,4.779501949860037,-3.365008584090981,-9.479473248453624,288
-82.37790249707736,80.5525491454555,-20.831499474660614,113.55980935698189,97.5203246058548,80.11919173447346,16.399685106773777,-118.39880961186402,86.69036632436658,8.795398052674651,4.866261339728405,4.786818707904588,3.3481870045239748,-2.71844361033795,-11.629838870466502,289
-83.19215576997345,81.62878113142801,-20.135601425048467,111.56864126681923,96.6667476392671,82.23407103370656,16.53660791760469,-113.60122497052504,83.40722662471369,8.38343538657035,4.7187918323473586,4.549657439968217,2.2168849700939783,-1.8961290087124758,-13.716016753320964,290
-84.93373215414123,82.32028896481039,-21.03510693571028,107.91475734491681,95.53756525983628,83.4926258608887,16.618490825806745,-108.54811431509343,79.89951323075728,7.752537936326274,4.164155829835781,4.107451113782037,1.381195855582544,-1.6675872216031158,-14.219084284475233,291
-84.74653338928377,82.13622403795776,-24.089153965908974,105.62673667796105,93.59246727256146,84.43042702946234,16.81747264853878,-105.15438219460793,76.89697212740613,7.4777450853146465,3.479212200731037,3.767434076769749,0.7070756306861565,-1.6701037331612887,-14.699264507846562,292
-86.24226178384455,83.22522317276113,-24.83034453979913,105.57351128699166,92.8725464031658,84.50656152002612,16.83889833413994,-104.52961750246956,75.85911285028477,7.253811679947109,2.799315805711571,3.5806744900516208,0.24072692131815862,-1.9319277585609,-14.483061369205371,293
-88.89239428813296,83.95415119222578,-24.578742042477717,107.04388904145958,95.48799066151686,84.71060832792439,14.794638685947469,-106.10554744072464,77.4650677670232,6.987200585538382,2.216660697588624,3.7124582823573906,0.5079231680530429,-2.320401560766105,-13.12617435487475,294
-91.27527607994483,83.75116364735332,-23.780187172637962,109.20229867468794,98.08871327879463,84.7927300266482,12.413230200154505,-109.17587009019482,80.58017070818372,6.717989281419678,1.6366182107785385,3.9822910825277424,0.5541677840590628,-2.809892938344299,-11.796941516357483,295
-93.38516058824955,83.26634687686857,-23.10810464588666,112.9079910959588,101.16500478694353,84.90446708352798,9.63415607840722,-112.51401908045365,85.76905087559649,6.462020017996395,0.947345049462082,4.459559394969462,0.3932120385651653,-3.201815189711595,-10.550275686727977,296
-93.54636547089058,81.14926825737773,-23.70485488802375,116.05540681567203,102.68358936646793,83.72097088037545,9.34765583446842,-116.93556266748364,90.79166984249704,6.358787355992055,0.5388017295901993,4.829420762238136,0.562279460750086,-3.6964307471038915,-9.120065259724438,297
-92.70776661296519,80.8925234620602,-22.6095162558205,118.52869186114856,102.42134266990452,82.23409722243458,8.703756694921031,-120.79789031187725,95.79866870430078,6.351012312631751,0.11287587526217258,5.051727440980243,0.611523415346714,-4.284574336397456,-8.119056782910981,298
-90.24902299710936,78.33409833210243,-23.12666070833646,121.71945648733387,101.24125979055957,80.81354154108539,7.509792812281217,-124.5935339160366,102.75871682808996,6.480177678265974,-0.06330088204431424,5.453302826761534,0.5412734256834456,-4.540047508537321,-6.999193027750663,299
-85.33718273951727,76.16172930368172,-20.68821857259614,123.08829477245315,97.29686758031298,77.62412583639069,7.591607094791324,-126.72175552345114,108.05258216118499,6.731997104945044,0.0051075499028502905,5.519199613545181,0.43932780160317114,-4.532508814103518,-6.477982392359863,300
-82.90500944228945,73.9737589697083,-18.350216411279884,125.27210475473147,95.5337205207188,76.18509785408474,5.6062464501090545,-129.75694206281796,114.02886089802814,6.928246916710526,-0.036767685286766404,5.892171314987288,0.21105787354809616,-4.492919622757409,-5.957682317461563,301
-76.44086119967398,70.7088260992296,-18.633061058176853,125.21394689332064,90.25501226965395,71.9756548410402,7.8794446730912115,-130.18046195150993,118.08241948844196,7.09125861844016,0.16036479554399521,5.834999877469099,0.08337793660936543,-4.284521727645478,-5.680548508561013,302
-71.44730309425742,69.64578346475093,-17.503521087598465,126.41553035741349,86.47527723852363,70.87850926125016,6.3261978131538354,-131.32211140834278,121.99835484574226,7.283006908263579,0.3632321614230072,5.946636048355963,0.15442156555747627,-4.168273810264331,-5.610411976211688,303
-67.12472784441196,68.92003245557879,-16.498686686129446,125.72659781367305,83.82466572919307,69.76262454144072,4.96343657280664,-132.24152637674368,124.92983990028324,7.420271706060264,0.41170361548881845,6.011205904886599,0.30513570323215383,-4.12000840777745,-5.752447354243243,304
-64.8315735860306,69.87195909234116,-17.768013409558264,126.37431798191473,81.90778764508298,69.96335461000781,5.114340223794299,-132.9095883677768,128.8560059533991,7.386161729295295,0.3702121057518662,6.125170510526288,0.24066603106450088,-3.999850806792537,-5.822061340194092,305
-63.915099487988655,71.29719586738553,-19.42186684572141,126.39343707787245,81.09863728389563,69.93445577389497,5.1020089723848345,-133.56264015495563,132.12703500926034,7.397671902633098,0.3463779089867806,6.258253277284363,0.2632152318576838,-3.970647696973613,-5.663256783928918,306
-62.499475147910424,73.04103574243037,-21.141695646114485,125.30298804410846,80.74552473190458,70.02899256308605,5.527948345788908,-133.69335153138087,134.72128815753848,7.293353604545489,0.3447596983781498,6.297758924470843,0.4423197973874846,-4.0211821468614355,-5.819564537068289,307
-61.97761491588857,75.61102694780345,-23.685668558328178,124.02507853425949,80.16939362404912,70.87922374122043,6.903546144129612,-133.0510693032641,138.60211492948815,7.171418124567361,0.2793516444437401,6.360252325826545,0.38394027887386023,-4.104670157276927,-6.097906070535507,308
-59.78330077877492,76.60964031416636,-28.068227774833268,121.71352910110286,77.72534272581993,70.65737464007317,10.672874417297239,-131.32554860416658,141.47288580844005,6.906271908459992,0.27242845799817605,6.264794650367561,0.2295345675563339,-4.098301459712993,-6.754619967435697,309
-59.57807482848892,79.40975772530678,-30.437231769946447,118.69090405279871,76.69805760366688,72.32698923421414,12.874301824361375,-129.6712341552952,144.21198625252862,6.570201334200553,0.2269409869980932,6.217657613110951,0.17670947497730208,-4.098328614667581,-7.332528484570082,310
-60.86291423856945,82.38324907462128,-32.60714186176852,115.51393753901343,76.54901717791628,74.30702995064232,15.451901641979509,-128.17077521878875,145.712012789933,6.144288682207309,0.040902463984745875,6.127309166320462,-0.1107796668952967,-4.244072013629915,-8.03151421423943,311
-63.324598537683485,85.40736549808548,-35.09793480067546,113.1810207919695,76.56803792358674,75.33144783379375,20.08518881664489,-126.00456069097092,146.17637361041542,5.463582038873891,-0.07208488045284171,5.897364825180471,-0.6559984637358401,-4.4132693895778985,-8.68511140357366,312
-63.334751294668656,87.23402038954123,-39.24467726384574,108.6480377150557,75.18478894417372,77.49427502263863,25.142327263330234,-120.99484000172278,146.59893845992434,4.518397779742746,-0.1272129199865831,5.40584695804067,-1.2681428627659221,-4.458039173202812,-9.740772389532577,313
-65.28955718682397,89.5190211033619,-40.290328800050936,102.26661021523432,76.03878424477989,79.63195518444417,29.74195989287826,-116.17531413564656,145.71814597048032,3.73473243169911,-0.04439388062528338,5.054356661823343,-1.5057778751365485,-4.589146316470576,-10.411070244208334,314
-67.442831311115,90.39428863520885,-40.26914139200466,95.45398364546344,78.34602486485757,80.97715104368773,33.00694136855728,-111.70699564212822,143.99435835383923,2.8894902925128325,-0.05977181922104725,4.889407563100589,-1.7700259738735016,-4.651985205504135,-11.827313693146152,315
-69.40637738227373,90.3613254403337,-39.63478571883079,87.23288111125852,78.73970295936142,81.2670579817198,34.87506301664612,-105.41739963773954,148.16517170690454,1.8827858569885811,-0.41074189870816713,4.790024429217661,-2.180414037780757,-4.516617757715824,-13.858333694398612,316
-70.33309740272347,90.57519735274464,-38.785795892672766,77.46458617030832,79.02583329573699,82.81278587279783,34.616399081778,-96.62092251288763,147.73166028114858,0.9457013869755087,-0.9227096181278218,4.502440165237886,-2.4715290436790833,-4.447978557855433,-15.598537580880611,317
-72.99977380437966,91.30088984876792,-36.599620301824956,72.93591650024159,80.36857419307194,84.17351068430335,33.75683935186389,-92.01416363816352,136.73166028114858,0.17476650498639187,-1.285467825721767,4.416106549256389,-2.780018097672005,-4.330188067359904,-16.830782464606354,318
-73.21834649577774,90.0051419953683,-35.31389750361392,61.93591650024159,79.10113286952677,84.6532937916393,34.200012303578326,-81.98816818159038,125.73166028114858,0.5984086866497502,-1.5567429383382245,3.952345704991592,-2.9708940235707555,-4.193753247236711,-17.468831963320696,319
-77.33091367914481,88.19371952105499,-32.58704291253759,51.10629336745294,80.56078544890033,84.94887078851598,37.062523924326946,-70.98816818159038,114.73166028114858,0.8709361763676685,-1.560780487029559,3.9243154187942824,-3.5903899960812304,-4.103150883961684,-16.490847567581646,320
-77.84897537097639,88.5207026940575,-30.897088370188676,40.10629336745294,78.39692682458013,86.62004608136668,41.76640329562984,-59.98816818159038,103.73166028114858,1.4533768261631768,-1.597679912684337,3.421551887537134,-4.427751552066712,-3.851967334255798,-16.47356095451237,321
-78.11292465651047,87.9661670738407,-29.63317171826938,31.8061895280506,75.64140061071679,90.0390561200947,43.3755888050423,-48.98816818159038,92.73166028114858,1.906784071809484,-1.858717167313993,3.0019918573675604,-5.565968795923949,-3.315749253505225,-16.661074353891156,322
-80.34455260067428,87.09110906071321,-23.83608279742976,31.73648656486357,74.16117366643378,92.42538866469917,42.03942586493295,-37.98816818159038,81.73166028114858,2.4219046409504927,-2.0321187703911576,2.6674037985717334,-6.915953069308608,-2.5898858762334225,-17.119974280499328,323
-84.15331894760725,85.72228922577938,-19.39890825776444,36.80379065178094,76.41631260694123,92.00128504071459,41.102493729551384,-28.298822862089903,70.73166028114858,2.67456695383176,-1.8971563404588607,2.610850788532638,-7.87699637730537,-1.8697796519515268,-16.730495844313612,324
-89.37328470363731,83.92640241941913,-17.41082850141002,46.885106124504034,78.5267160264213,92.1869942786695,40.44089202044468,-28.29882286208983,59.73166028114858,2.709191069788333,-1.6872911141731337,2.941727047141932,-8.61057731445426,-1.1444722489799617,-16.002172614368185,325
-94.54357956038719,82.79798715557698,-12.627435517827724,57.885106124504034,80.50362291128933,90.89508333867157,39.72314920046874,-33.58978697203768,48.73166028114858,2.6030951437655396,-1.4223271409393872,3.425534294371814,-9.318145898092853,-0.6411432444141594,-15.838546414759087,326
-99.85143033725352,80.42008212944303,-9.332232940648437,68.88510612450403,84.51658002451256,87.71738185678893,38.935718795148645,-44.58978697203768,37.73166028114858,2.409205263393147,-1.1570689176145335,4.3935512405520445,-9.919273046469424,0.07627056529106216,-15.527404578451169,327
-105.5364483665166,79.79718810412395,-3.332232940648437,79.88510612450403,89.38521650914177,85.07559293921273,33.08706093620333,-55.58978697203768,26.731660281148578,2.520626274773389,-0.8763229413948946,5.388084922946476,-10.169100418498733,0.8922050627337229,-14.845989716826468,328
-111.72707194937966,80.12732557145901,2.667767059351563,90.88510612450403,96.4071620650955,84.50398692700679,27.08706093620333,-66.58978697203767,15.731660281148578,2.9753671442960092,-0.6021082130407442,6.2459949759965285,-10.138938060924808,1.4910434990876231,-13.814369309376053,329
-115.64949142674809,82.82436174891666,8.667767059351563,101.88510612450403,101.9593513588385,84.3060865511611,21.08706093620333,-77.58978697203767,4.731660281148578,3.4130038450969997,-0.3259461991911797,7.065402527555188,-10.495086788399231,1.9396889685478491,-12.579585867704028,330
-118.32019198476645,82.64300301144004,12.975683735693835,111.64145315446866,106.74031796380449,83.30443741092431,17.09537618434328,-88.58978697203767,-6.268339718851422,4.0323787151131585,0.019377234105273138,7.68564972100713,-9.8804589543615,2.330151481912372,-11.191880292136283,331
-119.18444497860803,82.55972911164554,14.168806693890643,119.18448449054195,109.57038995762984,83.4099957419432,14.889607995212653,-99.58978697203767,-17.268339718851422,4.608017415889497,0.4731484221219335,8.098169413438068,-9.00965755802313,2.626343486600491,-9.951755903106147,332
-119.42412812640428,79.93747959235743,13.910509492756317,125.5731955589932,111.44538861151021,82.41618141833415,15.098804158083249,-110.58978697203767,-28.268339718851422,5.026299284442592,0.7345793563882319,8.364830815697296,-8.269619813421919,2.7203069226035455,-8.263982772975595,333
-120.01537101871062,79.14789256049137,15.112539445938564,130.96809986538727,112.81115171575127,81.79800620261099,15.18489888325335,-120.32105992969699,-39.26833971885142,5.521006406331581,0.3866916391844898,8.76694295865513,-8.193508427666176,2.3491641216502517,-7.2583147340785,334
-120.04834484952445,78.40341618425397,16.429104562721992,134.59425651295768,112.20140863039984,80.90271514279011,15.231964331953757,-124.77266031756905,-50.26833971885142,6.115615389962304,0.1402696340117962,8.911147269176983,-7.7721458790372555,2.108678575658395,-6.624175730276335,335
-118.12341598584844,76.68198978413103,17.425361815573797,136.4691276795551,109.21441329329294,79.9161393820815,14.877861399136302,-127.0964691839133,-61.26833971885142,6.69255428684994,-0.11881958662557006,8.944867657252273,-7.395679619955339,2.11782118585154,-6.160849442713232,336
-116.15718307247515,73.85969614958876,16.37688348740445,137.59957097869432,106.72464514526769,79.73952798635582,15.789936286075346,-128.67175746637866,-72.26833971885142,7.074460739890598,-0.3205279711703746,8.864466320147926,-6.772697943006739,2.1344858358706036,-6.186445355589828,337
-113.08567494494255,73.13891203929388,15.237488464312445,137.8451789694,102.52354185906951,78.13330072028873,18.15323878915517,-128.7878831944862,-83.26833971885142,7.49699503224097,-0.6428758892611097,8.598636659490634,-6.5952358795929635,2.2316338957273505,-5.8981076259692,338
-109.82650709504932,71.02446114044,12.28730821677179,137.58605051126597,99.06684981828963,77.94453637034792,18.82294795516995,-128.63534981160365,-94.26833971885142,7.80834429400222,-0.8675837356454885,8.391633002811338,-6.3096873159382625,2.0835908702183583,-5.491624070221531,339
-103.75836798124855,69.99464937208579,7.3258013288023225,135.34716297362064,93.54583648449925,76.6308307664797,21.895979293123393,-126.12777263610361,-105.26833971885142,7.986514018157297,-1.1037441611268686,7.835228147035702,-6.266820524130345,1.6481642927160303,-4.885973086567922,340
-98.72261683592505,68.01162915744946,2.696526329966176,132.62154244531882,90.23305316301301,76.0575241404171,25.34703675049789,-123.3261433437062,-113.65104140922571,8.110642414837633,-1.1951493532151698,7.495638112970359,-6.111241876887298,1.4103394286265583,-4.315981260231966,341
-93.55462288493065,67.71695479660865,-0.3658489461186313,128.53186553697248,86.2572721267857,75.61946375416717,28.66580177816624,-119.27217666977339,-111.92952053692638,8.216856150825118,-1.4479983748143141,7.030843794981203,-6.167010085930205,1.1648362449927407,-3.8205241308458304,342
-91.61161373152075,66.7303084141368,-2.7137407207397604,125.25088003294766,84.07903083748003,77.04022643515877,30.233622682677442,-116.11156952452039,-109.26139973807874,8.384915569231385,-1.8961970802010402,6.703679571566766,-6.408172903425418,0.8782845216146605,-3.957767258170396,343
-89.98876339688552,65.74938076426152,-5.437449343730058,121.74955025146782,81.35663875540033,76.74872948657375,33.041596476719384,-111.95552409226893,-106.50585990718567,8.353821264924209,-2.315100052944825,6.443053487145082,-6.706686683264855,0.6808515793647252,-4.2854826312910195,344
-88.51618796410455,67.2316969920606,-6.86313241277325,118.68363991969548,80.2144661351979,77.75351093818145,34.05205553135131,-108.56278907887739,-103.71842914751701,8.230649414502958,-2.572281813434745,6.058021388711176,-6.726073337153593,0.3453113429709616,-4.545412957718344,345
-87.23940695694854,69.0408976703006,-8.362490311590456,115.52747507922071,80.1827329353296,78.73916588320368,35.18882041461228,-106.11392345906027,-101.11833801659768,8.072621101152162,-2.71426527730227,5.696976926018741,-6.34828028010728,0.0689049857407695,-4.995580981581356,346
-87.44148063061971,70.3766934843246,-10.022308769512819,112.11947123232589,81.2095166704709,79.77723891759263,35.67432050720651,-103.16735275708369,-98.24732645773399,7.956836174756133,-2.658268524570952,5.280090372071263,-6.3200294002774,-0.23546562765294426,-5.1449840139724685,347
-88.93882434814923,73.09518410129748,-9.478116100611786,108.59745166736451,83.0342195344004,81.3797299931086,33.8694771350921,-101.04541332946455,-95.1150638066662,7.765015072600317,-2.671807699210405,5.010928401522089,-6.321119130165145,-0.6875563165111785,-5.744846372354941,348
-91.52698466708009,76.19163688699552,-9.000343571216026,105.89440414410689,84.98125000759222,82.27453928397175,31.83525955767172,-98.83931994310561,-93.17502751906225,7.538539173206584,-2.6706998084887226,4.9246380506780225,-6.093682382239014,-1.2922914533636458,-6.511757412732688,349
