JMW9912/AVATAR/Dynamixel/dynamixel_control/data/csv/poppy/.data/waist_test/5DoF (2P+3O)/0429_2056_13_16_5DoF_bvh_motor_degree.csv
theta1,theta2,theta3,theta4,theta5,theta6,theta7,theta8,theta9,theta10,theta11,theta12,theta13,theta14,theta15,frame
-95.22115145328937,22.09678288457962,95.27613377082079,28.298822862089697,-112.58899828291958,7.049796516221278,-71.861954003343,-28.298822862089605,11.949525018099925,4.227855492074081,-2.120744803957675,1.5574253403185758,0.06106657397293881,0.7360967837554488,2.8051766135533396,0
-92.47115145328937,24.84678288457962,93.77613377082079,31.048822862089697,-109.83899828291958,9.799796516221278,-70.361954003343,-31.048822862089605,9.199525018099925,6.977855492074081,-1.1207448039576746,2.5574253403185763,0.686181441424841,-0.2639032162445514,3.80517661355334,1
-89.72115145328937,27.59678288457962,92.27613377082079,33.79882286208969,-107.08899828291958,12.549796516221278,-68.861954003343,-33.79882286208961,11.949525018099925,5.301791802132262,-0.1207448039576744,1.557425340318576,-0.31381855857515917,-1.2639032162445516,4.80517661355334,2
-86.97115145328937,30.34678288457962,90.77613377082079,36.54882286208969,-104.33899828291958,15.299796516221278,-67.361954003343,-36.54882286208961,14.699525018099925,5.52588688656807,0.8792551960423258,0.5574253403185758,-1.3138185585751594,-2.263903216244552,5.80517661355334,3
-84.22115145328937,33.096782884579625,89.27613377082079,39.29882286208969,-101.58899828291958,18.049796516221278,-65.861954003343,-39.29882286208961,17.449525018099926,5.635244172300167,1.879255196042326,-0.4425746596814244,-2.31381855857516,-2.7525937807859755,6.80517661355334,4
-81.47115145328937,35.846782884579625,87.77613377082079,42.04882286208969,-98.83899828291958,20.799796516221278,-64.361954003343,-42.04882286208961,20.199525018099926,5.543198047718559,2.879255196042326,-1.4425746596814246,-3.31381855857516,-2.732159695147586,7.80517661355334,5
-78.72115145328937,38.596782884579625,86.27613377082079,44.79882286208969,-96.08899828291958,23.549796516221278,-62.861954003343,-44.79882286208961,22.949525018099926,5.373559575965806,3.879255196042326,-2.4425746596814246,-4.31381855857516,-2.7013959929430738,8.805176613553341,6
-75.97115145328937,41.346782884579625,84.77613377082079,47.54882286208969,-93.33899828291958,25.15897539173076,-61.361954003343,-47.54882286208961,25.699525018099926,5.206227249689139,4.879255196042326,-3.2719251295425327,-5.31381855857516,-2.6324286382334985,9.805176613553341,7
-73.22115145328937,44.096782884579625,83.27613377082079,50.29882286208969,-90.58899828291958,24.90794052157079,-59.861954003343,-50.29882286208961,28.449525018099926,5.032823930914524,5.120151004758743,-3.1723264099419906,-6.31381855857516,-2.575975218433162,10.805176613553341,8
-70.47115145328937,46.846782884579625,81.77613377082079,53.04882286208969,-87.83899828291958,24.21198378290908,-58.361954003343,-53.04882286208961,31.199525018099926,4.843239996631555,4.836796975139192,-3.048110827816487,-7.31381855857516,-2.4973603785968392,11.805176613553341,9
-67.72115145328937,49.596782884579625,80.27613377082079,55.79882286208969,-85.08899828291958,23.502689574208524,-56.861954003343,-55.79882286208961,33.949525018099926,4.6669106854372275,4.467814029868319,-2.881782429027588,-8.31381855857516,-2.350489501828352,12.805176613553341,10
-64.97115145328937,52.346782884579625,78.77613377082079,58.54882286208969,-82.33899828291958,22.8030525174112,-55.361954003343,-58.54882286208961,36.699525018099926,4.442077809703217,4.1457857572819545,-2.774114420983269,-9.31381855857516,-2.1837549160031555,13.805176613553341,11
-62.221151453289366,54.629670944187716,77.27613377082079,61.29882286208969,-79.58899828291958,22.071875401123705,-53.861954003343,-61.29882286208961,39.449525018099926,4.134321616552112,3.889824913887106,-2.6477791482962214,-10.31381855857516,-2.0183988974152496,14.805176613553341,12
-59.471151453289366,53.51586887432917,75.77613377082079,64.0488228620897,-76.83899828291958,22.372946484405528,-52.361954003343,-64.04882286208961,42.199525018099926,3.8354185651703836,3.6682208194752226,-2.439433715102007,-11.31381855857516,-1.8616405784910386,15.644148008655513,13
-56.721151453289366,53.60314254776438,74.27613377082079,66.7988228620897,-74.08899828291958,21.495445501568653,-50.861954003343,-66.79882286208961,44.949525018099926,3.5266062589294895,3.4325232154042196,-2.224325040631094,-12.31381855857516,-1.6637812207238512,15.04273529824916,14
-53.971151453289366,52.37145801665173,72.77613377082079,69.5488228620897,-71.33899828291958,20.765262553742634,-49.361954003343,-69.54882286208961,47.699525018099926,3.2326083635330334,3.1508981760671935,-1.998968948360308,-13.31381855857516,-1.4716289818544954,14.456195653864553,15
-51.221151453289366,52.31357014404655,71.27613377082079,72.2988228620897,-68.58899828291958,20.11673998865764,-47.861954003343,-72.29882286208961,50.449525018099926,2.940445403428476,2.9035261723161194,-1.8055036456261828,-14.31381855857516,-1.3088973887600082,13.872463595911613,16
-48.471151453289366,51.11709491891471,69.77613377082079,75.0488228620897,-65.83899828291958,19.337140838247993,-46.361954003343,-75.04882286208961,53.199525018099926,2.6791063869042615,2.6787384610022444,-1.5784956859263553,-15.31381855857516,-1.1287265608994432,13.316838776833224,17
-45.721151453289366,51.08586946363681,68.27613377082079,77.7988228620897,-63.088998282919576,18.678981023039352,-44.861954003343,-77.79882286208961,55.949525018099926,2.4191819096285325,2.3982219268376617,-1.3496352476871074,-15.30445216456387,-0.9309974847331427,12.767562641548137,18
-42.971151453289366,49.72339883444972,66.77613377082079,80.5488228620897,-60.338998282919576,19.38185423518817,-43.361954003343,-80.54882286208961,58.699525018099926,2.2601242884752852,2.1790550102941646,-1.12282244861222,-14.998534154679554,-0.7477344557788451,12.250224245429786,19
-40.221151453289366,49.74168414921846,65.27613377082079,83.2988228620897,-57.588998282919576,18.528440687900652,-41.861954003343,-83.29882286208961,61.449525018099926,2.479288125016951,1.940231844841658,-0.9099128486593551,-14.745605356505957,-0.6174575311416917,11.847354257284598,20
-37.471151453289366,48.18688968954952,63.77613377082079,86.0488228620897,-54.838998282919576,18.21558296492833,-40.361954003343,-86.04882286208961,64.19952501809993,2.656376446186921,1.536074575462991,-1.0157169696557766,-14.3600576137553,-0.4786885521531855,11.38271426724123,21
-34.721151453289366,45.94347665336759,62.27613377082079,88.7988228620897,-52.088998282919576,18.337541487116862,-38.861954003343,-88.79882286208961,66.94952501809993,2.971788535938491,1.1140149385152325,-0.6799477354400941,-13.752708940543016,-0.4054151702040694,11.069905533422888,22
-31.971151453289366,47.00767073300848,60.77613377082079,91.5488228620897,-49.338998282919576,17.11981673263035,-37.361954003343,-91.54882286208961,69.69952501809993,3.017456043698437,1.1312725309170177,-0.9386048509925633,-13.799163432079732,-0.18409738516921187,10.535899444786633,23
-29.221151453289366,44.381398902669744,59.27613377082079,94.2988228620897,-46.588998282919576,17.816842970544855,-35.861954003343,-94.29882286208961,72.44952501809993,3.180093603594769,0.29160064916218553,-0.568286124907895,-12.956077182645464,-0.08365068779035953,10.113092282478323,24
-26.471151453289366,44.19632065791069,57.77613377082079,97.0488228620897,-43.838998282919576,17.81106049955871,-34.361954003343,-97.04882286208961,75.19952501809993,3.325510728371248,-0.03199154230193054,-0.41987172604660133,-12.521772840515574,-0.019105537760617977,9.716610894013996,25
-23.721151453289366,42.76112197559799,56.27613377082079,99.7988228620897,-41.088998282919576,17.639665831493932,-32.861954003343,-99.79882286208961,77.94952501809993,3.437677422151705,-0.24703292676245142,-0.31851426051318577,-12.267156726162364,0.08002134841134496,9.331943843332398,26
-20.971151453289366,42.95469740112896,54.77613377082079,102.5488228620897,-38.338998282919576,17.623121654133485,-31.361954003343,-102.54882286208961,80.69952501809993,3.5784283795314415,-0.5219804703670017,-0.24602115827711202,-12.056947334298583,0.21285364428901135,8.90856859387084,27
-18.221151453289366,43.26720014609123,53.27613377082079,105.2988228620897,-35.588998282919576,15.85566434934514,-29.861954003343,-105.29882286208961,83.44952501809993,3.680032372817647,-0.7446995577962512,-0.20618131022500671,-11.89504972337144,0.33039214142331985,8.405575259419521,28
-15.471151453289366,42.111461931496436,51.77613377082079,108.0488228620897,-32.838998282919576,15.960551468082935,-28.361954003343,-108.04882286208961,86.19952501809993,3.7343914141109478,-0.8290061103339262,0.0034442168799420987,-11.777397827389935,0.39710773312167486,7.995115387661112,29
-12.721151453289366,42.76264688676144,50.27613377082079,109.47658862727546,-30.088998282919576,16.29808554751614,-26.861954003343,-110.79882286208961,88.94952501809993,3.9054985558384394,-0.9805138619282842,0.21286904584461244,-11.651848669760717,0.48149045111929667,7.691253090638523,30
-9.971151453289366,41.56184210898819,48.77613377082079,110.86022164237538,-27.338998282919576,17.080959881476055,-25.361954003343,-113.54882286208961,91.69952501809993,4.107551789259564,-1.2066473216008482,0.33240046935557765,-11.447898769407393,0.5875610936168424,7.397970665062917,31
-7.221151453289366,42.42787505143404,47.27613377082079,112.01569505730168,-24.588998282919576,16.191344398175683,-23.861954003343,-116.29882286208961,94.44952501809993,4.232123465847182,-1.3387468816252883,0.4768053719172541,-11.31678976852824,0.7223895232269102,7.122339023408649,32
-4.471151453289366,41.599451239151875,45.77613377082079,113.03133332261747,-21.838998282919576,17.309323620990998,-22.361954003343,-119.04882286208961,97.19952501809993,4.418106781978626,-1.4486289379192248,0.5959427520271786,-11.201314354870394,0.8022165293010914,6.8497103124994165,33
-1.721151453289366,41.036626780028605,44.27613377082079,113.89193268770461,-19.088998282919576,18.770423107084948,-23.85528987312545,-121.79882286208961,99.94952501809993,4.543843170275425,-1.5586575373003773,0.9704714791698578,-11.084919777808164,0.9176070266275114,6.878690708773517,34
1.028848546710634,41.76543882410862,42.77613377082079,114.79901789785106,-16.338998282919576,18.995109263002192,-25.35528987312545,-124.54882286208961,102.69952501809993,4.726903051457257,-1.7574520072517783,0.9866447402487993,-10.694783693122863,0.9737517413153328,6.713687984486841,35
3.778848546710634,41.31125185685741,41.27613377082079,115.52041142504827,-13.588998282919576,20.75608972299892,-26.85528987312545,-127.29882286208961,105.44952501809993,4.661358992236973,-1.766034981908701,0.9652145263643296,-10.569140518043795,0.9781633103205722,6.432947871791359,36
6.528848546710634,41.16044307456419,39.77613377082079,116.05561492377653,-10.838998282919576,20.86253002160803,-28.35528987312545,-128.34122121589476,108.19952501809993,4.492485858121037,-1.7859317639636447,0.999508712610836,-10.55381937667744,0.9852715021520472,6.148715288811563,37
9.278848546710634,41.09365998495841,38.27613377082079,116.43581522757924,-8.088998282919576,22.57290760610069,-29.85528987312545,-128.15582214566388,110.94952501809993,4.379359366559708,-1.855910739341573,1.1175994006713976,-10.531198604109623,0.9678226876705155,5.919497639589622,38
12.028848546710634,41.02533937881041,36.77613377082079,116.75935322259153,-5.338998282919576,22.73632793857931,-31.35528987312545,-127.70061519554469,113.69952501809993,4.29162692570472,-1.9855497102828652,1.1653634418509782,-10.418752817789368,0.9228731155485196,5.68055138439277,39
14.778848546710634,42.98449253552608,35.27613377082079,116.99725287313264,-2.588998282919576,24.531236605551914,-32.85528987312545,-127.13373971535258,116.44952501809993,4.135503380538255,-2.1056450170838135,1.2392289679522261,-10.369318316372155,0.8878715359972054,5.473743473397684,40
17.528848546710634,41.7704734851807,33.77613377082079,117.0484055424121,0.1610017170804241,24.812231402772188,-33.17685540461315,-126.49290382236327,119.19952501809993,4.022458980385603,-2.2182288460088726,1.326992854255114,-10.386771637109911,0.8786460711899264,5.30264577730281,41
17.002929130605896,42.3445930792365,32.27613377082079,116.96219966267732,2.911001717080424,26.686942076523216,-32.062753090005884,-125.64295384165264,121.94952501809993,3.875463173039718,-2.3854429562343547,1.3923268684924406,-10.334284560668705,0.8840330113711355,5.128358323489502,42
14.731626915312184,43.01142109286282,30.776133770820792,116.8615060985082,5.661001717080424,27.03111287924955,-31.12849437741019,-124.60553919693707,124.69952501809993,3.674380227332733,-2.488322857153729,1.4553982484303474,-10.236129763686241,0.8442573249257045,4.9735045716953,43
12.45478976411612,43.97530296492059,29.276133770820792,116.71466838242564,8.411001717080424,28.22347831923343,-29.975846470756238,-123.48315213006224,127.44952501809993,3.5264279272467784,-2.5009959272077036,1.5126172258951682,-10.172701556392571,0.7759366360692043,4.863820922211329,44
9.70478976411612,43.416169204629725,27.776133770820792,116.38931452899993,11.161001717080424,30.61030902898305,-28.670476301795656,-122.31257285993554,130.19952501809993,3.42382346617575,-2.5296943443670554,1.5453976213971283,-10.128427456120297,0.7063325610200626,4.771050638405702,45
6.95478976411612,44.508015900841535,26.276133770820792,116.07783400009724,13.911001717080424,31.33399276451738,-27.170476301795656,-120.97416412493067,132.94952501809993,3.279597629710728,-2.572520090420664,1.5720056278057761,-10.016196373010487,0.6235308011138215,4.688159559409964,46
4.20478976411612,45.64325187017694,25.20285636220025,115.88310800160646,16.661001717080424,33.65110517505527,-25.801362857496642,-119.48984971283373,135.69952501809993,3.096042122190126,-2.563276776489409,1.6054987196403419,-9.88847374059987,0.5320293174063895,4.631415369890174,47
1.4547897641161196,45.32580691693789,25.482687480760262,115.2149552345049,19.411001717080424,34.29171623991216,-24.301362857496642,-117.88455833105773,138.44952501809993,2.985471574270671,-2.542635642653872,1.5574632431526279,-9.774946664793328,0.45835845736628633,4.554214281160354,48
-1.2952102358838804,45.12954119473957,25.82685167104031,114.52303104409823,22.161001717080424,36.475618488753824,-22.91600621386197,-116.2487930435014,141.19952501809993,2.8245488005567796,-2.5425960555600735,1.5573457729051328,-9.660211988654389,0.37833993820424844,4.524998038930056,49
-4.04521023588388,46.73714705718528,27.085865591307233,113.9477889437935,24.911001717080424,38.637086243375094,-21.41600621386197,-114.35264729447725,143.94952501809993,2.577386788005182,-2.561337782505624,1.5465527124294374,-9.457168391032464,0.2646210685528284,4.519155181333858,50
-6.79521023588388,46.90952083999714,27.48653305231015,113.37127769041719,27.661001717080424,40.76621702107236,-19.91600621386197,-112.13886163732022,146.69952501809993,2.3847125508679086,-2.560997927948262,1.4697149034108574,-9.261858477123832,0.11970133637276097,4.4491618517900005,51
-9.54521023588388,48.84136816795754,28.512077100114475,112.49750906745354,30.411001717080424,41.01203549713461,-18.41600621386197,-109.83954957922954,149.44952501809993,2.184510753625473,-2.568937656261367,1.427105965252142,-9.179450531153298,0.008275839299613936,4.382873571910995,52
-12.29521023588388,49.35374458953285,28.52707398001926,111.41779026506242,33.161001717080424,42.833480675772634,-16.91600621386197,-107.51747217480963,151.3800418713261,2.0142542367821985,-2.6524707283609708,1.4349454664600845,-9.091804112715492,-0.054770769887044504,4.385607541377503,53
-15.04521023588388,50.00448342910375,28.813257705016756,110.37586798192865,35.911001717080424,44.59623026938222,-15.41600621386197,-105.0616013260113,150.26094834444547,1.9130615583280544,-2.78148323517724,1.4315336596626695,-8.902462019665533,-0.14480524413918572,4.4209804029787545,54
-17.79521023588388,50.787392477628835,28.886856059172995,109.18558108602231,38.661001717080424,46.34425749110195,-13.91600621386197,-102.54994765462091,151.78171515275372,1.8064690126977632,-2.7677749144191464,1.372272656136363,-8.714119496920668,-0.26666787669316216,4.4289083438961985,55
-20.54521023588388,51.60328003224946,28.579512871681246,107.6228703020232,41.411001717080424,48.04390962810988,-12.41600621386197,-99.9921170325526,153.26448402640207,1.5855111330587477,-2.7164844782463318,1.3239312706513398,-8.570039746758795,-0.3703247116114049,4.4328641078602065,56
-23.29521023588388,52.397853595025005,28.25832456350204,105.77957419472372,44.161001717080424,48.09445789211165,-10.91600621386197,-97.37755635797079,153.0173230663812,1.3588590885821465,-2.7060915743756366,1.292967469697036,-8.374910716652332,-0.48587158098288385,4.446475906026444,57
-26.04521023588388,53.128412272619876,27.95761841863238,103.90793609736107,46.911001717080424,49.72710906614949,-9.41600621386197,-94.62755635797079,153.85748311131346,1.1993351711791762,-2.7604410262610277,1.262805540322166,-8.105897209558632,-0.5818925288035152,4.4836135109698665,58
-28.79521023588388,55.310990594721865,28.65760228972658,101.93782307696483,49.661001717080424,51.23804104025756,-7.916006213861969,-91.87755635797079,156.60748311131346,1.1825607130955227,-2.799263303529811,1.286759756301444,-7.897066469880901,-0.6970016424662014,4.570197400877831,59
-31.54521023588388,56.06280483277554,27.840734287817046,99.48196106668397,50.09191836433151,52.60743183380071,-6.416006213861969,-89.12755635797079,159.35748311131346,1.1777509524011323,-2.8073790689478604,1.0955580319472604,-7.756468099205816,-0.8304238896014774,4.560089886919861,60
-34.29521023588388,56.639461924264694,26.965674398820305,96.78259820857939,50.261690788552016,53.90247845329459,-4.916006213861969,-86.37755635797079,162.10748311131346,1.0684221013532391,-2.8727901809626233,1.0902432782662226,-7.571103945441318,-0.948872568877304,4.600328958923351,61
-37.04521023588388,57.07878104912246,25.883905222198756,94.03259820857939,50.30964851722522,55.249522713673386,-3.4160062138619693,-83.62755635797079,164.85748311131346,0.9743080305818496,-3.063629149798904,1.2541323613574873,-7.272524703858483,-0.9772228510983275,4.789912660421972,62
-39.694524564011786,58.67123760104408,26.69188630162935,91.28259820857939,50.04745052436262,56.6033850265291,-1.9160062138619693,-80.87755635797079,164.23909380762854,0.9828885500861276,-3.2558460490651875,1.1725736061802496,-6.792531366632789,-1.1204419893131767,4.777953056040195,63
-41.45156500648579,59.1280403525293,25.19188630162935,88.53259820857939,50.575533093202296,57.76785899865249,-0.5438809469019434,-78.12755635797079,166.98909380762854,0.965308046177214,-3.127794914671338,1.2715965439135875,-6.725272353282497,-1.309520204060285,4.946091162878084,64
-43.383128394080636,59.50517190270686,23.69188630162935,85.78259820857939,51.16257704128641,58.933596304313966,0.393698995404196,-75.37755635797079,169.73909380762854,1.049152949061122,-3.0594275861244835,1.2369082613220563,-6.542374442096314,-1.5077582924102981,5.121141190202561,65
-44.588334502176274,61.057930643784445,23.394219365135374,83.03259820857939,51.71432060310072,60.098259842543705,1.3774853803551494,-72.62755635797079,166.98909380762854,1.0603418518804375,-3.0869320079937386,1.158398883669441,-6.330319403062089,-1.6227673602978476,5.23087088871115,66
-46.30393861497127,61.16117324654976,21.894219365135374,80.28259820857939,52.1276994530404,61.339248284296076,2.4231360116170477,-69.87755635797079,164.23909380762854,1.033783046348833,-3.0785599178839824,1.1388107604625277,-6.102958451171666,-1.7367458572664187,5.3014460398282655,67
-47.99571609807124,61.255810297071676,20.394219365135374,77.53259820857939,52.612476990794846,62.87624883540577,2.9021631994075237,-67.12755635797079,161.48909380762854,0.9788165988900654,-3.028522624756676,1.0758292652120838,-5.871054590630806,-1.8750336725278318,5.300145256803489,68
-49.46280876583376,61.427869707990304,18.894219365135374,74.78259820857939,53.4280253980148,63.86871950736719,3.8035680373499496,-64.37755635797079,158.73909380762854,0.8689364052916846,-2.984469703033953,1.086129601956621,-5.726303673454647,-2.0051639852716265,5.3287693309876065,69
-50.6156632957228,62.90712966235354,17.906060608117933,72.11615420803149,54.25043376890066,64.8450790441008,4.766884788800559,-61.74824012836319,155.98909380762854,0.7709529928573956,-3.0378756091390193,1.0662640528927978,-5.523159293158294,-2.156248142330465,5.342010172610031,70
-52.39037396050434,63.19142883112114,16.406060608117933,69.95961063510032,54.868953395848685,65.92312630329255,5.901079479357364,-60.056704851474166,153.23909380762854,0.6911144383953276,-3.150342495972431,1.0184835568924733,-5.2274989785279296,-2.3481992593490637,5.28347450916087,71
-53.98597578208023,63.492502433439924,14.906060608117933,67.83209613691002,55.63832576203756,66.97905033885026,6.882799943302945,-58.608584716252125,150.48909380762854,0.5528706675061825,-3.241872104917493,1.0853560106398248,-4.965194885973894,-2.53522159798733,5.239922464861744,72
-55.33718120827041,64.93749347655003,14.606442741310133,65.88988312412377,56.53932515940522,68.05609109209092,7.829527744634814,-57.26951491307312,147.73909380762854,0.41904165533840576,-3.331823360166261,1.1263859922040185,-4.652142813159027,-2.716544358105772,5.165783402397873,73
-57.23983701182923,65.3121682255378,13.106442741310133,64.20202281682512,57.2498582123349,69.11759694363647,8.94068394583973,-55.88808272821164,144.98909380762854,0.2753749476325896,-3.5210028169548058,1.1876745430821454,-4.225953039112861,-2.9128644135796304,5.089173487423046,74
-59.016616619814684,65.79880255871524,11.606442741310133,62.49347842869584,57.96582223984397,70.13405280093056,10.033067116151784,-54.59892115003308,142.23909380762854,0.2303819827996315,-3.8093529566970714,1.2999559911772935,-3.8245805973620084,-3.062867397190117,5.036970452139448,75
-60.28317020077411,67.43982460624804,11.50936137227025,60.53610123074716,58.73569084443209,70.1137669631817,11.533067116151784,-53.62396388022092,139.48909380762854,0.34461164148334367,-4.1496474860147625,1.2885797950237639,-3.49007865697426,-3.1697167379419535,4.87622451213579,76
-61.65370662778667,67.97259981215679,10.00936137227025,58.62447952554686,59.7752550641818,70.95623190204098,13.033067116151784,-53.022792186874376,136.73909380762854,0.6195977730733778,-4.428313941132295,1.3828275803814591,-3.162601219252422,-3.315325645130411,4.735782216043683,77
-62.785539874075646,69.5125147221895,9.566897346635841,56.79833773424203,60.91935051942158,71.80789335934358,14.533067116151784,-52.62334091057675,133.98909380762854,0.8591946820344221,-4.644053808659856,1.5027243590785075,-2.8556604128021945,-3.4502035474356476,4.6437530714036175,78
-63.983878080728935,69.83137239261757,8.066897346635841,54.88354079866193,61.95658119762746,71.75830162768418,16.033067116151784,-52.474371565554925,131.23909380762854,1.1168492910640242,-4.817915808501312,1.5736600715134086,-2.6078398069683724,-3.556345520452759,4.534986520799722,79
-64.88558902800698,70.97585704041914,6.566897346635841,52.92806014731935,63.30632293058414,72.66665263355068,17.533067116151784,-52.401451419769366,128.48909380762854,1.4103172134006348,-4.919291321538092,1.636047484003191,-2.3560319476376237,-3.6781012436632436,4.393534492480179,80
-65.66996958772363,71.19530622640022,5.066897346635841,50.906071411116514,64.63838686535273,73.58718657080095,18.71743934575421,-52.30797203349479,125.73909380762854,1.6680712780408373,-4.975079772466782,1.6914607355222961,-2.1162032114021665,-3.8160128910977584,4.223746752775236,81
-66.32467932082571,72.39983334235019,3.566897346635841,48.90882595567602,65.59656800353521,73.57134510240884,20.21743934575421,-52.29742078327499,122.98909380762854,1.8847269199823322,-5.013267854250394,1.819607037523662,-1.9138147033820854,-3.9955172367060645,4.077840647877044,82
-66.8423431309152,72.76294821302588,2.066897346635841,46.78467727598117,67.00971491841584,74.39993633255892,21.71743934575421,-52.49521006855523,120.23909380762854,2.028610461781809,-4.981688628290314,1.8656527144007162,-1.785700335486255,-4.214339269592613,3.8761327290440057,83
-67.24605938567407,73.98893875496002,0.5668973466358409,44.70767152779307,68.45894892584046,75.2056242590446,22.126780410785738,-52.63930173228681,117.48909380762854,2.3017912778570406,-4.886702585945183,1.9213673551159207,-1.6765837712827103,-4.441847531523632,3.6329825972035463,84
-67.63830515461278,74.3990368945389,-0.9331026533641591,42.66182907421526,69.38940043097979,75.10540587756635,23.626780410785738,-52.693463530694565,114.73909380762854,2.714747630520464,-4.801027268886142,2.0407544515253,-1.4961244943000178,-4.6933989897094515,3.3980281573727638,85
-67.80148388678806,74.89213827039201,-2.433102653364159,40.42274871843176,70.6507615640318,75.88531771128758,25.086316826906522,-52.85029872811868,111.98909380762854,3.177342849496568,-4.674282221636596,2.113995796750554,-1.3670319959255492,-4.954681114893499,3.1157079508032277,86
-67.95400594183053,76.13079907562019,-3.933102653364159,38.19481094463197,71.86326213733139,76.63670147721899,25.358047876148607,-52.99962584071848,109.23909380762854,3.63028371367393,-4.528716118019187,2.1353763842432616,-1.2382063493058808,-5.225586024120724,2.7249912430292063,87
-67.96632678825102,76.71222650962463,-5.433102653364159,36.09250286558561,72.61094096651328,76.43557573706194,26.858047876148607,-53.16556432105651,106.48909380762854,4.094755754305104,-4.487281581560016,2.316083063353167,-1.0850993632386,-5.466120931489144,2.378656558718113,88
-67.93294523274322,77.43966154297769,-6.933102653364159,33.727061628291956,73.65276390352608,77.02463516514547,28.358047876148607,-53.282693661530836,103.73909380762854,4.554278499139349,-4.51700277680684,2.5191702937014866,-0.8812141893717899,-5.707327472428784,2.0970706278475078,89
-67.86094108351045,78.25428078004431,-8.433102653364159,31.050436660992233,74.1390864210426,76.74766026161092,29.858047876148607,-53.336968069971874,100.98909380762854,4.966542670173213,-4.5548076527309265,2.6650186109150984,-0.6568627802583519,-5.923122394588605,1.8098058724095984,90
-67.98722363153809,79.63173910346089,-9.933102653364159,28.300436660992233,75.03515637950231,77.28294080390606,31.358047876148607,-53.38878332412655,98.23909380762854,5.316394302885485,-4.582869577292101,2.8210932525393613,-0.3925176855043218,-6.13287200592131,1.515253066544385,91
-69.0363353413054,80.11922084342285,-11.433102653364159,28.298822862089697,75.8277155508068,77.86056440701547,31.982248386244944,-53.23912496929458,95.48909380762854,5.665516735341401,-4.594699801396354,2.95557410654638,-0.0822404948285303,-6.3206201394112025,1.1843339000222899,92
-70.06164302250542,80.64735493060687,-12.933102653364159,28.298822862089697,76.50340463990521,78.35289012931884,32.53359260859107,-53.091593602104524,92.73909380762854,5.981564035606143,-4.6889359902797825,3.132736797969301,0.3045754522889057,-6.493594287058999,0.8555721384726421,93
-71.19825471051087,81.20123403650175,-14.433102653364159,28.298822862089825,77.04697126089714,78.72526289495603,33.2004542298873,-53.015201228727555,89.98909380762854,6.2766792231674,-4.890327886147567,3.3074878160691985,0.775762488432129,-6.6515344990556535,0.5310640344681616,94
-72.0226558387276,81.29856186976771,-15.933102653364159,28.29882286208962,77.54565178828902,78.99266809334675,33.851655545201226,-53.14681667323146,87.23909380762854,6.647931134581768,-5.081594938706515,3.4981362636087683,1.2444459659611342,-6.823186317317149,0.19203557070232777,95
-72.90631826465741,81.84114203285155,-17.43310265336416,28.29882286208972,78.09276867398155,79.20158704938126,34.42579623274742,-53.578055446886765,84.48909380762854,7.063242190936828,-5.239340722909581,3.731033747057892,1.662789525798397,-6.981735306799487,-0.16522698090184673,96
-73.76474849981497,82.29191464554097,-18.93310265336416,28.298822862089825,78.5268931640117,79.43628376638983,35.06201824368594,-53.93016974880219,81.73909380762854,7.438252159454849,-5.362896049532051,3.941451460422079,2.156546817715914,-7.117403059986117,-0.5661089707757668,97
-74.28550383277523,82.2985993814633,-20.43310265336416,28.298822862089672,78.8905768030369,79.58560806629292,35.74994168920099,-54.29684677830967,78.98909380762854,7.707063508142814,-5.423224858258371,4.16147723852689,2.7170125403563015,-7.318355122403784,-0.9794950790663826,98
-75.08449786512018,82.73644642295169,-21.93310265336416,28.298822862089697,79.29288726747757,79.55411769417232,36.426414740126084,-54.95563904894367,76.23909380762854,7.88067347427076,-5.496818117613791,4.472189219691808,3.277161159837028,-7.5494655762755105,-1.3378807321170147,99
-75.85462023172504,83.0970432751314,-23.43310265336416,28.298822862089697,80.24951892834551,80.27385494427224,34.926414740126084,-55.69437372282385,73.48909380762854,8.065623693730988,-5.606943735235576,4.790249632728149,3.8512961863629496,-7.720315159940247,-1.676923589949808,100
-76.27847030822622,82.96451998603186,-24.93310265336416,28.298822862089647,80.43213079298023,80.17098812090181,35.48408383928843,-56.39292689132266,70.73909380762854,8.314035496977743,-5.691904466087528,5.0605648619998655,4.414494222046895,-7.893828771449182,-2.0457644087602165,101
-76.71548617018016,83.27647108741827,-26.43310265336416,28.298822862089697,80.44025452668934,80.08793836996716,36.19533233389687,-57.07603506083645,67.98909380762854,8.576641039118838,-5.684130132700215,5.416305178681006,4.9758419933069264,-8.116396212282528,-2.377477687481502,102
-77.16379209533794,83.50466859843996,-27.93310265336416,28.29882286208962,80.39075926712793,80.03013341060091,36.9342443733933,-57.753971649441645,65.23909380762854,8.75942621378537,-5.644226596298679,5.750444415460768,5.561947069432008,-8.32517638363934,-2.693421873382988,103
-78.00452518529457,83.93138753519557,-29.43310265336416,28.298822862089672,80.99962737747258,80.78042625364932,35.4342443733933,-58.52218747721387,62.489093807628535,8.877861616089927,-5.566033098219244,5.979676344090268,6.127653205443289,-8.50134330652561,-3.0506600399418353,104
-78.27748723323612,83.92334225536999,-30.93310265336416,28.298822862089594,80.88978409684944,80.62081966529752,36.04276112396191,-59.38436119577579,59.739093807628535,9.015841036125927,-5.39947687838371,6.252371578387843,6.751808441858264,-8.727786725675902,-3.3973468918904426,105
-78.72389616911396,84.14730049564217,-32.43310265336416,28.298822862089594,80.78957537882975,80.42364572384491,36.732019641033396,-60.29959065423811,56.989093807628535,9.053007208319288,-5.1863234380649885,6.592821714347996,7.376514225611988,-8.943766342340792,-3.661495427531664,106
-79.33910352488166,84.71769545654017,-33.93310265336416,28.298822862089825,80.67471030902114,80.15987921557472,37.52227824858928,-61.16189111394643,54.239093807628535,8.84947102815397,-5.036489760353665,6.864377471213359,8.114012192393465,-9.134778354264006,-3.8751598262495963,107
-79.47078961228746,85.008682519517,-35.43310265336416,28.298822862089697,80.88892253968041,80.63845209393814,36.3263402464894,-62.12733937365676,51.489093807628535,8.564466895388687,-4.920003783228074,7.106294409311249,9.041888709789037,-9.419898469789581,-4.094928499152655,108
-79.67918312839177,85.52280509231313,-36.93310265336416,28.298822862089953,80.24819484685304,80.31485443553981,37.08165330953974,-63.060181874129015,48.739093807628535,8.51939998081484,-4.638449188018062,7.372694915061806,9.67684386532362,-9.730103582132037,-4.328745376326336,109
-79.135266841923,85.5617114699705,-38.43310265336416,28.298822862089697,79.75623444645426,79.98976901136051,37.39671464707326,-64.1331429614222,45.989093807628535,8.498943564209153,-4.308068379115388,7.621611917431958,9.9375534427735,-10.008179418952608,-4.538595489134418,110
-78.48703791193621,85.51891409167047,-39.93310265336416,28.298822862089825,79.19780901894784,79.64013324761548,37.695029743335425,-65.26643812181094,43.239093807628535,8.32329618366484,-4.006620841135844,7.8068160826887,10.161283280370021,-10.299202491665152,-4.72144056786633,111
-77.69431786490863,85.34017474161305,-41.43310265336416,28.298822862089672,79.39893222848993,80.225494221439,36.195029743335425,-66.44819944770313,40.489093807628535,8.183911980606808,-3.716544840575185,7.987866741909743,10.303124985898224,-10.53918654603403,-4.881007425055884,112
-76.84521456539927,85.15988536174798,-42.93310265336416,28.298822862089697,78.86598483370493,79.80398404127082,35.7483464051122,-67.63464240103788,37.739093807628535,7.961777958288115,-3.5360819049379972,8.134111781154788,10.428093315021208,-10.678226002127863,-5.033182582933057,113
-75.95383013344174,85.02401801529957,-43.25922369601433,28.29882286208962,78.24165517211021,79.2355201524168,35.85284752026109,-68.9200302927666,34.989093807628535,7.613853507439794,-3.508381282864022,8.211481005659074,10.542947862398243,-10.781520502508132,-5.188144715477505,114
-74.9147315552049,84.83513853596537,-42.91538764701966,28.298822862089594,77.46495160280995,78.62988454583345,35.89061884473705,-70.13856942032082,32.239093807628535,7.330741917292382,-3.5337364758979586,8.246170634296128,10.591232755329305,-10.869121740060914,-5.346993034611351,115
-73.67690491188216,84.62242942312965,-42.58887805419191,28.298822862089697,76.55179468204196,78.05178210782907,35.866501777610715,-71.20508082373345,29.489093807628535,7.085006963241586,-3.5553305110435116,8.351779506197504,10.59126573945462,-10.929925163182823,-5.4507366075483255,116
-72.78902731400588,84.8048673365766,-41.08887805419191,28.29882286208962,76.37655565373943,78.45150370389472,34.366501777610715,-72.33109135388271,26.739093807628535,6.700878826293859,-3.6005623526047246,8.44524928560413,10.599260410215262,-11.000098721615357,-5.495467791891874,117
-71.63594981586013,84.48732344962337,-39.58887805419191,28.298822862089697,75.51672013003837,77.84077098479514,33.5535184657639,-73.42953413429214,23.989093807628535,6.317925177052729,-3.581709382561079,8.454914109873952,10.626061210103234,-11.089764732086861,-5.560511926844271,118
-70.39427753793106,84.14768643933269,-39.10336695815135,28.298822862089697,74.42820138786823,77.29012962570319,33.552709410158776,-74.36140614548034,21.239093807628535,6.009726120100511,-3.5759179073501572,8.517664408063045,10.688226122103398,-11.161659344286354,-5.611370853116823,119
-68.93559423413298,83.81407149168108,-38.7172692501409,28.298822862089697,73.29156771481438,76.7127441734713,33.47884782094211,-75.23902349179448,18.489093807628535,5.675397974944607,-3.567893556279309,8.572883555059196,10.707690825215293,-11.235094607157095,-5.673732544900101,120
-67.70309020499168,83.91021389360195,-37.2172692501409,28.298822862089924,73.0674524486332,77.22934351784683,31.978847820942107,-76.11728239919799,15.739093807628535,5.285486827468464,-3.5140533341529463,8.543367086476849,10.68605633906202,-11.328197159469518,-5.802281578292374,121
-67.75438428831914,82.41605506685576,-35.7172692501409,31.048822862089924,71.88333193630825,76.65146729743888,30.9417792237915,-76.84631837016155,12.989093807628535,4.9769928255812195,-3.4953442303267597,8.58459356339583,10.678703355558033,-11.384748272424874,-5.90351908814274,122
-67.87444834991153,80.87594100234976,-34.84189995428546,33.79882286208992,70.49517415240744,76.0720872018849,30.760958943042827,-77.46311598355196,10.239093807628535,4.623413855870753,-3.5510389018506987,8.660546405205952,10.640099201603576,-11.398714989333344,-5.939779526895739,123
-67.92376653846175,79.41183441911444,-34.222823879170654,36.54882286208992,69.94497125470468,76.66918318924705,29.260958943042827,-78.02168874008579,7.489093807628535,4.224458796473751,-3.608645088637846,8.652578066607633,10.580717212993964,-11.416447706665592,-5.99027502090537,124
-67.93406979759672,77.96205320978429,-33.61439384399447,39.29882286208992,68.95221364422406,76.08422997313863,28.024338704710445,-78.54671000114095,4.739093807628535,3.8433289535912016,-3.6981797966293035,8.614992801940444,10.459384134250397,-11.395192184652743,-6.078573611122494,125
-68.32502387811799,77.44032832975542,-32.11439384399447,42.04882286208992,68.05437627045497,75.39530056297724,27.57886455543092,-79.18123696757644,1.9890938076285352,3.3772730788887984,-3.8616831362753667,8.567603190166574,10.250653763988408,-11.353651017593034,-6.165230417800835,126
-68.05810453131882,76.21080479461564,-30.61439384399447,44.79882286208992,67.14756326520738,74.69269815475694,27.012021041306163,-79.80576224126115,-0.7609061923714648,2.9089713854032806,-4.003919502800396,8.513034302450539,9.968503219278672,-11.292712146721625,-6.235172410721562,127
-67.65503761231854,75.03154418551841,-29.700876133193375,47.54882286208992,67.00020267357822,75.22566504191514,25.512021041306163,-80.45534098637582,-3.510906192371465,2.4712567733375237,-4.141488762776712,8.480713622918506,9.656699814236035,-11.210252391281417,-6.25692955166169,128
-67.21737152481374,73.95203955779388,-29.1701799640311,50.29882286208992,66.21476780164878,74.51968743469376,24.012021041306163,-80.98167014060019,-6.260906192371465,1.9839065646279226,-4.341563694919611,8.377275303809192,9.376697672760212,-11.09928686391502,-6.297555622745712,129
-66.7342430804627,72.86487033511109,-28.676797323357864,53.04882286208992,65.24320279881744,73.86880825888787,22.986028033182098,-81.19882369776711,-9.010906192371465,1.6967710353626808,-4.495865858021824,8.24265004598435,9.029703168362081,-11.014044199964902,-6.357073567178141,130
-66.52514920716536,72.92723145260356,-27.176797323357864,55.79882286208992,64.42036343977117,73.23029842906172,21.957764156574548,-81.37770464085756,-11.760906192371465,1.8450113779312216,-4.5506813843090255,8.132777080840569,8.355850946945383,-10.91875730562834,-6.386720903164319,131
-65.26388635427679,71.97811322595152,-26.49655571076504,58.54882286208992,64.50878184416364,73.8435963094949,20.457764156574548,-81.84216438937324,-14.510906192371465,2.2182462141428028,-4.556037004009484,8.054225008788263,7.4221822321958415,-10.77799368825943,-6.360111093616817,132
-64.03552550045634,71.07858301225912,-26.50910907514795,61.29882286208992,64.08481258607087,73.11120817410517,18.957764156574548,-82.23752061994385,-17.260906192371465,2.6061640910306685,-4.594936739993689,7.9012810685929304,6.653256885210979,-10.643507079038114,-6.37533050360505,133
-63.49683056291421,71.55249794296756,-25.00910907514795,64.04882286208992,63.604480255425024,72.33904061672077,17.457764156574548,-82.59200295814831,-20.010906192371465,3.0417811838463233,-4.7240926508732315,7.746954886770698,6.0131837785185525,-10.493088888718225,-6.408157561003187,134
-62.34995841626264,70.84836978883709,-24.003330462130545,66.79882286208992,63.24941784567875,71.56593867844207,15.957764156574548,-83.00916979295798,-22.760906192371465,3.584362632125882,-4.8714625097418836,7.746128747087457,5.411535274864707,-10.365786795384366,-6.306952901751452,135
-61.23520695889324,70.13268974982176,-23.78136830993336,69.54882286208992,63.509490345507665,72.20332640038961,14.457764156574548,-83.37110247875027,-25.510906192371465,4.347383070621766,-4.958969071581941,7.656728516163945,4.829693577847158,-10.275024797842503,-6.18633603154566,136
-60.593568025903274,70.86348290202137,-22.28136830993336,72.29882286208992,63.4757013214356,71.45658102441355,12.957764156574548,-83.71509592697059,-28.260906192371465,5.209022274891277,-5.025920230130081,7.482195695240649,4.233148375333286,-10.179045353150308,-6.132595465005723,137
-59.49481099708739,70.17982249052642,-21.051999478327694,75.04882286208992,63.07359826963473,72.18783030783426,11.457764156574548,-83.82580665216128,-31.010906192371465,6.000431917808601,-5.157242333819776,7.352290165270448,3.8015497216266234,-10.101255094909442,-6.13031241042653,138
-58.54105767028389,69.44307464998388,-20.519810360810833,77.79882286208992,62.364045479990054,71.56086711196157,9.957764156574548,-83.88814674626371,-33.760906192371465,6.713056412643625,-5.22316691052216,7.249273061506668,3.4275907671709427,-10.041786310942532,-6.174241603972924,139
-58.142194890117395,70.27356165933386,-19.019810360810833,80.54882286208992,62.10966118296536,72.31751443888305,8.457764156574548,-84.12062985647019,-36.510906192371465,7.317163247990933,-5.283289522029119,7.212334918317318,3.0151167974429662,-10.0056454802387,-6.195154057421189,140
-57.7070858298553,71.15376077500042,-17.519810360810833,83.29882286208992,61.720899567467896,71.64555341233023,6.957764156574548,-84.31759470761587,-39.260906192371465,7.934491137296238,-5.313633889599809,7.221311542624347,2.606853452895889,-10.017755314042809,-6.1734211438544095,141
-56.87931262262772,70.48054899506859,-16.019810360810833,86.04882286208992,61.31083759838175,72.49224099401997,5.457764156574548,-84.50395243018099,-42.010906192371465,8.625260575667378,-5.316909980049026,7.225204286227251,2.214975986341712,-10.04328800454348,-6.160402938267169,142
-56.60010779670347,71.49987844844443,-14.519810360810833,88.79882286208992,60.8111350511753,71.9705106491057,3.957764156574548,-84.75909246225771,-44.760906192371465,9.357204310009037,-5.31072192050646,7.297492006178861,1.8694294886335379,-10.069913059556898,-6.101313949742839,143
-56.02633697377711,70.85269641652903,-13.019810360810833,91.54882286208992,60.51645682803887,71.49192761733578,2.457764156574548,-85.0332455792875,-47.510906192371465,10.201929903401032,-5.257998285938231,7.3262029615396145,1.5740858786456764,-10.089122816534474,-6.046325312045071,144
-55.66663875584747,70.25311290682154,-11.519810360810833,94.29882286208992,60.24077369114003,72.50114615649055,0.957764156574548,-85.43609315816883,-50.260906192371465,11.035184134230237,-5.217731101243514,7.3247441280948,1.388040808815262,-10.122607269694495,-6.0420481214199295,145
-55.95631732755169,71.4008081588834,-10.019810360810833,97.04882286208992,59.85968046533408,72.05762197418778,-0.542235843425452,-85.81690111574915,-53.010906192371465,11.774091034235617,-5.279844882435411,7.365015940625926,1.3725621857577732,-10.127082997824386,-6.055808660784348,146
-56.247467128263715,70.85006290336078,-8.519810360810833,99.79882286208992,59.18306942898587,73.17575058815441,-2.042235843425452,-85.89407316760452,-55.760906192371465,12.351353260727192,-5.366796154436021,7.35825682322064,1.4450034040677637,-10.151612316269524,-6.141364396189006,147
-56.22197285136701,70.40612790728855,-7.019810360810833,102.54882286208992,59.01430321256444,72.89102405673759,-3.542235843425452,-86.25389957460702,-58.510906192371465,12.841237421541654,-5.346826690261035,7.48891569976488,1.296141782500999,-10.16850536561393,-6.189819163804846,148
-56.85355080353584,71.82729161333961,-5.519810360810833,105.29882286208992,58.59842672042745,74.09280539409517,-5.042235843425452,-86.65533932046239,-61.260906192371465,13.389257442555731,-5.410847569872497,7.557008691110846,1.3271557708538935,-10.1948233898495,-6.267357237680631,149
-57.360955642675684,71.53757390057004,-4.019810360810833,108.04882286208992,58.41588767064736,73.8554620690424,-6.542235843425452,-87.13113518196826,-64.01090619237146,13.910526640948579,-5.5025765348594735,7.637409818906998,1.3908382575162157,-10.155684304302952,-6.372312232539995,150
-58.1264755383927,71.31199562648682,-3.244127987028567,110.79882286208992,58.124413060979954,73.66229757545125,-6.769442540311968,-87.38923240161175,-66.76090619237146,14.260104999343673,-5.620271684257035,7.826300471140689,1.5786323506381148,-10.119322572267928,-6.424843002974996,151
-59.047321411320624,71.15143008380974,-2.8230206318622852,113.54882286208992,57.95613934533606,73.5043129599683,-6.732651699061577,-87.57908645379841,-69.51090619237146,14.579368441532543,-5.66123391860132,7.930389720049351,1.7172416948104585,-10.12465105033216,-6.529487805258764,152
-59.983895522707904,71.06751138794897,-2.684340258024404,116.29882286208992,57.7359617229266,74.84416657358942,-8.232651699061577,-87.97460178282446,-72.26090619237146,14.77497342528692,-5.679958908928315,7.965072815220825,1.7159190872892163,-10.115474177233473,-6.734025309651814,153
-60.79205627033276,71.07694177902194,-2.855407926675834,117.2733648805413,58.063169036174806,74.71472634615115,-9.043105054852761,-88.71774862725242,-75.01090619237146,14.843126050945374,-5.65136442697496,8.045000735244178,1.6371865427441896,-10.098608667123678,-6.953004810841182,154
-62.108290533761206,72.90000218610234,-1.3554079266758339,117.25779934052026,58.18875873643847,74.64848496241589,-9.0059975521693,-89.1573837585983,-77.76090619237146,14.859526775491137,-5.6382158777224545,8.19521582913694,1.8375606817428598,-10.108563873035484,-7.133061701508542,155
-63.278165286927155,72.89967044356185,-1.3437615170532629,116.97476935304674,58.45825901072594,74.65886196802526,-9.109537423516509,-89.53728358957937,-80.51090619237146,14.856155486776926,-5.493477774383913,8.31069383950532,1.9354892034484146,-10.147274320255226,-7.312708952399998,156
-64.3133798828021,72.93146983866278,-1.8253503433368812,116.44051181365867,58.99582182098114,74.70311674820388,-9.41072573899726,-90.03999060296522,-83.26090619237146,14.771213625069867,-5.291282235268867,8.477309951254151,1.9098670695036897,-10.164686684073796,-7.456738439014196,157
-65.51162239392404,73.03366189197625,-2.3419022863934242,115.73081303412998,59.66682491693052,74.75680265274708,-9.619562446541693,-90.48018497967138,-86.01090619237146,14.731614606495642,-5.115316070166215,8.6176708763846,1.9973026382487151,-10.16083262994342,-7.59633973609,158
-66.81318250856043,73.19638130385897,-2.82278473931942,114.87909788360867,60.36637730093259,74.82475514611895,-9.686805113771003,-90.8292280669158,-88.76090619237146,14.666274614000537,-4.988120928252025,8.72022055513882,2.2142350489003104,-10.126269790807676,-7.7611303243565315,159
-68.19545370928344,73.42909068761674,-3.3309546644660166,113.93663542528373,61.13908083195126,74.90691683131286,-9.680545171764193,-91.14347857094735,-91.51090619237146,14.549714088849177,-4.904310159942468,8.842930384742024,2.4929541876140426,-10.058183349798043,-7.926503401622704,160
-69.57816836255482,73.74050806472792,-3.9242588069506423,112.67511693901581,61.90244012676108,74.97220439285753,-9.655211063982629,-91.44441995811609,-94.26090619237146,14.400189661087735,-4.850700633152786,8.932082723024115,2.7542087295177415,-9.99466100107284,-8.093941578134638,161
-70.81757008584258,74.02053261277274,-4.646295735517873,111.23672371211407,62.908569626524816,75.11967886260575,-9.727588909057157,-91.81323347537437,-97.01090619237146,14.267397532230804,-4.677956924823848,8.978627104499852,2.993856629182947,-9.941621091401581,-8.30732376687554,162
-71.96992093359384,74.3297441409865,-5.4108892543294145,109.72498429114636,64.05601702560716,75.33057798284905,-9.778070781258018,-92.1705889291799,-99.76090619237146,14.080378454239398,-4.459847437916906,9.055846766976954,3.259124928507447,-9.887980722034145,-8.547795101635911,163
-72.90469235007993,74.7563687398116,-6.241890390727948,107.32089036002118,65.06387097611677,75.5663043587533,-9.669434041462805,-92.22433215133981,-102.51090619237146,13.844985439047454,-4.270610901861522,9.174633031452277,3.610164109973517,-9.8065451372427,-8.768090912230678,164
-73.7809431775353,75.22942216211968,-7.04016324309425,104.97404458735059,66.01656577728903,75.8162280326755,-9.50236839749015,-92.1753256076251,-105.26090619237146,13.610628771339758,-4.067856579078817,9.372497136558977,3.9761227569179036,-9.73470915102407,-8.907627940817795,165
-74.50538455058445,75.67655948817216,-7.920730907843994,102.33521218473565,67.49796989509353,76.07495579026978,-9.516801532223111,-92.28020910991411,-108.01090619237146,13.444586192619347,-3.8560436355930237,9.403281691851388,4.270032969457096,-9.61898416976106,-9.109291847967011,166
-75.13338396643462,76.17227450156143,-8.730756653848614,99.58521218473565,68.87530302500065,76.37881104796372,-9.390086229957,-92.26726138158152,-110.76090619237146,13.217369615769988,-3.657190819540887,9.47311778714593,4.626410230748963,-9.495705695643203,-9.302200693171523,167
-75.77141371650208,78.28697665322535,-7.714033923260799,96.83521218473565,69.99698468211876,75.22475846620797,-7.890086229956999,-91.96445014781699,-113.51090619237146,12.951579936972827,-3.391758981217223,9.624792481821506,4.959228585209909,-9.400562779759621,-9.422230051815017,168
-75.98131354076116,78.80491060049282,-8.529678285045614,94.08521218473565,71.04929715144077,75.56490947992627,-7.2040203666789635,-91.52278137353233,-116.26090619237146,12.743804203924444,-3.08603498401729,9.747837195915885,5.289242693078158,-9.297749277246243,-9.528400747450247,169
-76.1236222604885,79.42709440556646,-9.165614783938945,91.33521218473565,72.369401886577,75.74978065420703,-6.979341354983238,-91.14295477722315,-119.01090619237146,12.572496989614683,-2.892450887572282,9.779208253379576,5.71308748825107,-9.198545343369299,-9.679639657484136,170
-76.16058440731591,80.10874090425361,-9.714381868274382,88.58521218473565,73.54235662556545,75.91856468842255,-6.663413726448935,-90.74217203557029,-121.76090619237146,12.322953283915465,-2.7443793759185806,9.855059520961525,6.159974629980305,-9.104370339084044,-9.805124725192124,171
-76.09445458935878,80.79301330761717,-10.390201789819226,85.83521218473565,74.7525789881246,76.20778298980382,-6.429716479305622,-90.30684187924389,-124.51090619237146,12.115005470510425,-2.656232743075584,9.977461810982376,6.529616515069164,-8.852944452766518,-9.839705284950838,172
-75.64801231116604,80.15471663467709,-11.890201789819226,83.08521218473565,76.15690124517775,76.55101097924485,-6.320487818916611,-89.73651102437688,-127.26090619237146,12.072076899964998,-2.3724956058449074,9.941164990225895,6.8027344989026,-8.707953082328048,-9.87855894275266,173
-75.2002108418859,80.88315236695179,-13.390201789819226,80.33521218473565,77.60293768785316,75.32962413897916,-4.820487818916611,-89.25976706537514,-130.01090619237146,11.817390757445192,-2.1560624819834193,9.949060953638613,7.055858098098499,-8.562533682348196,-9.894105885856364,174
-74.38172894406213,81.73023602783506,-14.578230362614462,77.58521218473565,78.94511374892532,75.5456802287482,-4.32792813943529,-88.88974101318077,-132.76090619237146,11.46120320506766,-2.028512361010029,9.943513552326477,7.231708191659312,-8.402767773292435,-9.888456617247465,175
-72.83591063974467,81.68210076558032,-16.078230362614462,74.83521218473565,80.55750216118412,75.7403032112179,-4.421206177122517,-88.67734743814587,-135.51090619237146,11.225170581999015,-1.9092039036544581,10.005403650313529,7.329805047900046,-8.248183296806063,-9.796030103635612,176
-71.46394562538421,82.73874533792174,-17.578230362614462,72.08521218473565,82.12761310471336,75.93959924917243,-4.374614783073503,-88.40625376243932,-138.26090619237146,11.119182414116608,-1.7429374215473434,9.999255482433844,7.561393556513403,-8.104723390994511,-9.711429910051192,177
-69.62994907531129,83.14850070570553,-19.078230362614462,69.33521218473565,83.52970359861872,76.10073641288479,-4.180374459989564,-88.1243483140763,-141.01090619237146,10.920829582899675,-1.5721032117682852,9.94157026087999,7.919825063830724,-7.971912541781413,-9.685635211180465,178
-67.42270873330934,84.03039164282802,-20.578230362614462,66.58521218473565,84.90607322691484,76.22270594660522,-3.991098315091404,-88.0004484913649,-143.76090619237146,10.53311987986829,-1.4534538358062867,9.923451670981432,8.269100594815722,-7.833271101172993,-9.680918519474984,179
-66.85204544101313,83.79848329186332,-22.078230362614462,63.83521218473565,86.3272591522331,76.37279658844727,-3.8588190668905424,-88.04899033900725,-146.51090619237146,10.132611910429045,-1.3585581502383102,9.946930304496181,8.575304696691218,-7.649713980835639,-9.65193285043125,180
-68.17712910356637,83.21312402005725,-23.578230362614462,61.08521218473565,87.74396450368988,76.53391432340256,-3.678312211929206,-87.99208722166101,-149.26090619237146,9.776145469259243,-1.2146473071914843,9.932285601782645,8.942401764363607,-7.44311149059187,-9.618715409468308,181
-69.26760082685084,82.15209175082546,-25.078230362614462,58.33521218473565,89.1023928820389,76.57998374408173,-3.356359309435464,-87.92154392431698,-152.01090619237146,9.39222673468373,-1.072751673121962,9.899405712097806,9.477636577139963,-7.244591381972503,-9.590460868709677,182
-69.53028196409879,81.8005143481899,-26.578230362614462,55.58521218473565,90.42924332131633,76.53869432775649,-2.9005516512964213,-88.00687763028348,-154.76090619237146,8.881967603177207,-0.9587686256191471,9.880268730699488,10.162988718399717,-7.037536150867574,-9.586038309461959,183
-69.83651967707553,82.07270206314526,-28.078230362614462,52.83521218473565,91.44073235628136,77.9919948855049,-4.20705686731346,-88.14428495930031,-157.51090619237146,8.331577046330114,-0.7843967501728224,9.928324127745624,10.924932665806255,-6.857967196747648,-9.569202299941749,184
-70.38651221761721,82.65031752600206,-29.578230362614462,50.08521218473565,91.91502442983894,77.98443271831117,-3.492502191244165,-87.76501845070543,-160.26090619237146,7.806386278600695,-0.44380320725023537,9.940883317344625,11.753948345108952,-6.720236276889661,-9.579843324437459,185
-70.75583832989216,83.14514321851813,-30.643808582498,47.33521218473565,92.31777266437268,77.98126267912046,-2.7077739024805183,-87.54692233003138,-163.01090619237146,7.143575810449456,-0.008419614180030836,9.936797940115655,12.650325974954553,-6.622371142310061,-9.624546598412762,186
-70.89993945024409,83.40115205336359,-29.143808582498,44.58521218473565,93.09181817154214,78.1117282835635,-1.8793879037635084,-87.7916807123834,-164.74713037961348,6.4740121417952,0.6828859990600737,10.08255798751478,13.60795864993519,-6.569603448087843,-9.585158110946184,187
-70.46141843886562,82.62295884033819,-29.310094709623552,41.83521218473565,93.90232368802748,79.83687580999698,-3.0071771288868745,-87.72793165097453,-161.99713037961348,6.071161603240096,1.5172560847051055,10.133162871165533,14.504915231889393,-6.448256606509775,-9.577182969476489,188
-70.29211921718333,82.57949281999502,-28.830919622159836,39.08521218473565,94.79313076596638,79.86688920125722,-2.431712481068279,-87.6847652203024,-159.24713037961348,5.785511084767819,2.0100946125898838,10.073929761409433,15.271547117256748,-6.227904370259863,-9.617058160302598,189
-70.03679179202655,82.75984362583061,-28.44834548949292,36.33521218473565,95.82497852914973,79.68182976663685,-2.071734412313346,-87.90435974709636,-156.49713037961348,5.525589538594952,2.188067807706533,9.991632592330504,15.893865238523537,-5.974806970449157,-9.629713583638813,190
-69.75186187175763,82.98898321232926,-28.122530057848905,33.58521218473565,96.71210856282819,80.94388429584497,-3.571734412313346,-88.11283953907105,-153.74713037961348,5.220313301521441,2.188179124173438,9.947541405712943,16.44362135914912,-5.665553526875675,-9.540717718795479,191
-69.4699171154256,83.26862258447353,-27.997645922969912,30.835212184735653,97.79439113337267,80.70227780265786,-3.877958612552172,-88.24764276387933,-150.99713037961348,4.9577040026079295,2.1052419393106394,9.808112913813959,16.785354313503642,-5.350298226271778,-9.430590235973614,192
-69.1313808726495,83.62253166433158,-27.90426310053706,28.29882286208985,98.83050200221652,80.35496527857809,-4.050997113154335,-88.39661649890456,-149.54878419126695,4.66829536123098,1.9674423505245182,9.588201198943683,17.058592911211598,-5.096721211525819,-9.377980683262741,193
-68.67951250824119,83.95650814653133,-27.778314749710987,28.29882286208962,99.71575235420225,81.46488834729166,-5.550997113154335,-88.74363766727343,-148.88005999658495,4.261593212547745,1.766378072157467,9.473225261582925,17.344966266219707,-4.825911456273751,-9.305463095156863,194
-68.16799219660253,84.2074278454711,-27.701409820200887,28.298822862089825,100.90391054739042,81.11111681358325,-6.38894397800482,-89.13386459435426,-147.14818470236708,3.9073247117019987,1.623227048029348,9.336335211379007,17.578483159094667,-4.591161889742329,-9.206360029167065,195
-67.75387774646221,84.46828698736611,-27.565595295969672,28.298822862089594,101.90742725193229,80.72708113287509,-6.573167200183231,-89.32942278420288,-145.13658640473258,3.5345448107669872,1.528271777752237,9.17072161739485,17.864494015384928,-4.409666385996272,-9.12222413756358,196
-67.40082222918873,84.74345420590278,-27.436858250282953,28.298822862089825,102.61509854806334,81.81660015506966,-8.073167200183232,-89.53925811566319,-142.52478706643788,3.111060462549928,1.3909664925559113,9.046177199399908,18.132902661441747,-4.214930654120911,-9.03541664783851,197
-66.99243101901192,84.99515465046218,-27.407306582713606,28.298822862089697,103.64413996502535,81.46126165516901,-8.96766601695793,-89.84889374408431,-139.77478706643788,2.731028228714147,1.1844274027153454,8.904891772452011,18.289427779318796,-3.9940378514430344,-8.928217399618402,198
-66.29094156281339,84.7277115479059,-28.907306582713606,28.298822862089594,104.59971897768537,81.14735010139414,-9.259532042108411,-90.1181159294469,-137.44530467510657,2.4332141272276453,0.9755866283229042,8.827476127886598,18.444914191906065,-3.7721184035508513,-8.735955485102869,199
-65.91402573697007,84.87272512521712,-29.694183750008087,28.29882286208962,105.25825838486941,82.31383998658494,-10.759532042108411,-90.29386608521108,-136.8224061935853,2.2615966007273545,0.8714592083748695,8.671023954453679,18.65499821145944,-3.581929961671863,-8.539618455001065,200
-65.53454316008252,84.95521267753931,-29.64675025201205,28.298822862089924,106.19309509899628,81.93815624557823,-11.612280079761668,-90.4892756850823,-134.0724061935853,2.1412590250396017,0.8624967415676803,8.486552639983604,18.874636557849904,-3.4085550654838848,-8.388469933849397,201
-65.12177408177662,85.02570115446558,-29.55854979685254,28.298822862089697,106.57986287992422,83.00074430465325,-13.112280079761668,-90.55313162739188,-131.3224061935853,1.9999301428967045,0.833740188610912,8.372210458697968,19.115436031548533,-3.2573861180254866,-8.214754341110599,202
-64.66204701157936,85.12489587427946,-29.534575737603245,28.298822862089647,107.25337527583875,82.63216748690103,-13.93849958661438,-90.51533525887213,-128.5724061935853,1.8939843060801322,0.7096432034947138,8.246449544928632,19.266041654261542,-3.0990372287512025,-8.022889579637777,203
-64.18128774850837,85.22144134970709,-29.583622157333554,28.298822862089825,107.81653264017801,82.28472983807353,-14.221285958840802,-90.413090502806,-125.8224061935853,1.7641585963496222,0.6100818224453203,8.11045481390405,19.34916134397667,-2.962721228731311,-7.796414432418124,204
-63.842234463348426,85.1739703452422,-29.64099718753012,28.704856431215315,107.83229709989334,83.41491545047785,-15.721285958840802,-90.21361803633629,-123.0724061935853,1.6667017220653315,0.5868628461347883,8.019640686746396,19.429956657434094,-2.853030579395883,-7.508508898579755,205
-63.90871438679692,84.9109128429697,-29.64194563269448,30.12053345560823,108.18408680536042,83.07931617087641,-16.446664899570433,-89.92463354978578,-120.3224061935853,1.6323141862797088,0.5446502889023997,7.882350176695751,19.548003902410603,-2.7184181155925398,-7.247535065480074,206
-64.06204559391364,84.6381824206132,-29.553750826202016,31.60691892768123,108.46974779702839,82.6872937178002,-16.54084307678469,-89.68101599219887,-117.5724061935853,1.551172704438445,0.42868283646216887,7.731253292715717,19.72691727013548,-2.568578379802475,-7.009182831862017,207
-64.22581953815633,84.34760986543596,-29.47334531306095,33.05214343761865,108.23300051375351,83.68777142890995,-18.04084307678469,-89.41365723411084,-114.8224061935853,1.4594389890394333,0.30948280662070804,7.593005141139046,19.88462687021799,-2.434073499731235,-6.7396640160488674,208
-64.28390658225257,84.09616500996844,-29.449762007310365,34.27860752196716,108.50684473694521,83.30718433400837,-18.631044282259058,-89.31110282931279,-112.0724061935853,1.3961803927969754,0.20355855404055476,7.475838159805162,19.985503452890946,-2.3274432373499865,-6.4272079659492665,209
-64.65668976856493,84.35730517036995,-27.949762007310365,35.61869466396557,108.93515007786299,83.02169622338432,-18.844272251864435,-89.28852148065592,-109.3224061935853,1.4318572203792619,0.169021847664655,7.324764355573874,20.023970753246978,-2.2307987591306464,-6.135031361543303,210
-64.88628153251746,84.0571519490975,-27.138957721629655,37.092529431010384,108.64459589775709,84.06825595428373,-20.344272251864435,-89.15433835638726,-107.69729364135029,1.4385399623608222,0.1574340266339947,7.1991767567727045,20.108092105676814,-2.199884369164326,-5.805303957145154,211
-65.04993083555733,83.85227682273315,-27.14206228530858,38.363525622774155,108.73605969773295,83.62508671850043,-20.913081761867502,-88.91449024237939,-105.4296597829684,1.4153016611491105,0.1197120114880303,7.1156735828235975,20.169909107185177,-2.1869044505408706,-5.418668472732888,212
-65.20083536032163,83.64786596345745,-27.167620837639475,39.62373153335574,108.85952341874814,83.17501021900492,-21.052136568786004,-88.6475717773558,-104.74735408453357,1.3887497963944857,0.017348831303503537,6.999449672693543,20.223918180805086,-2.105635314997405,-5.0325292043717935,213
-65.39756487176575,83.49513374047451,-27.160122768954068,40.75192308926314,108.48250626231332,84.15350159137515,-22.552136568786004,-88.57540105377382,-106.20353175381034,1.3445437318894398,-0.1479988994769328,6.857772635233396,20.28620573953753,-2.0205372365278036,-4.630747388002379,214
-65.71793131600741,83.32590422641057,-27.122110721897965,41.91378834840448,108.61648083240219,83.7321628092032,-23.021699624289518,-88.5179241367553,-108.94663536611145,1.2815670060421729,-0.31018194024983003,6.674415840753633,20.345683595628362,-1.9661310447695235,-4.25789887402503,215
-66.05838696613607,83.16627505526438,-27.066266879049174,43.17284809076384,108.641923725423,83.20830689372173,-23.09884146895141,-88.40444708712538,-110.15862407967337,1.2169054155752201,-0.5221368252683091,6.522885198008774,20.406545261706185,-1.8897904534329124,-3.8945872543469746,216
-66.28384554841605,83.11135585084399,-27.074238321348396,44.241355765564485,108.71068259264996,82.8524638966727,-23.120428034084686,-88.46119903909847,-111.58299587282481,1.153538567467187,-0.8069860994417906,6.372066813515317,20.40890924947857,-1.7821245354306665,-3.5121075759860854,217
-66.56342631814853,83.06321777501168,-27.076003790943535,45.24721330768699,109.03287557122337,82.40339403426263,-23.32247284211413,-88.82800211194257,-114.33299587282481,1.039242757307516,-1.1757721851688332,6.173133172318655,20.382435506529163,-1.6384173706187686,-3.1553928826480155,218
-66.7509141559906,83.02182066502056,-27.11280923255196,46.21188222016495,109.18904236695134,81.93175513528081,-23.507169310422775,-89.08476148705624,-117.08299587282481,0.9075416779487834,-1.5416691013822916,5.9729260374071425,20.31901442188932,-1.5054465519668025,-2.819907723581537,219
-66.58653318203233,83.0826904155198,-27.38488101430727,46.830217434587134,108.64014682619114,83.02622107422525,-25.007169310422775,-89.19649583259206,-119.83299587282481,0.836552380941755,-1.946739871074327,5.762493206437879,20.059531793993827,-1.317285941309269,-2.5098097106486685,220
-65.99838319680259,82.35183010544687,-28.88488101430727,47.35136945241312,108.71615270519203,82.8660023455932,-25.83963455529902,-89.21677716029109,-122.58299587282481,0.7846703586268985,-2.3215617941584132,5.502721054145722,19.7183310272375,-1.1321819717292878,-2.253889109418183,221
-66.03371617383162,82.33144488764631,-30.230268346499138,47.939237637311564,108.46456605994375,82.62199222631934,-25.911920155983523,-89.16385635578919,-125.33299587282481,0.5980607989609608,-2.703895140736607,5.264915318718205,19.47184729301174,-0.9574505115783605,-2.0339514057456496,222
-66.07892697185797,82.2526076905875,-30.510092276981776,48.60406931424202,108.18884104746687,82.4740584594334,-26.02133760836733,-89.17261362288835,-128.08299587282482,0.4787886987746186,-3.0440386126615704,5.100510196856775,19.149343041238847,-0.7546552585931913,-1.7793769330736848,223
-65.99582608547726,82.16850026093208,-30.98397906016672,49.18344099927635,108.19277496862563,82.53685843212804,-26.306693919233503,-89.20993405389933,-130.83299587282482,0.4847285641924513,-3.354770380524412,4.899484276728952,18.670230135267136,-0.5104774138618057,-1.5087998693555331,224
-65.8949523576882,82.1085781968597,-31.40825043484277,49.57966285648751,108.17295115399679,82.61586915281747,-26.515275566988848,-89.34994641715065,-133.58299587282482,0.482333688005054,-3.729010692542468,4.65266356209495,18.201202685155938,-0.26815616667533765,-1.236177106343977,225
-65.79668997645192,81.9634367983856,-31.819024524862016,50.01720218801243,108.08154416442724,82.75583175888565,-26.642782644091742,-89.58733317292057,-136.33299587282482,0.4647268541056525,-4.000745165509028,4.392417106105578,17.749112606197414,-0.08023879700725718,-0.9874741861063921,226
-65.81899999638667,81.76490315228408,-32.25104327819142,50.69037750910436,108.00124417582155,82.87840620000681,-26.84310534020354,-89.83746107812972,-139.08299587282482,0.4070417238723169,-4.237557176865084,4.178432423277342,17.279673988575542,0.13472150527292837,-0.7566307168612145,227
-65.30913610477124,80.77850265367863,-33.75104327819142,51.32814286132356,107.87165987237951,82.9490908577144,-27.06923381559904,-90.03764952722189,-136.33299587282482,0.33781644265572774,-4.524836405050901,3.906624204800059,16.79544901350277,0.3495093433635759,-0.6129063390906812,228
-65.08606675216116,80.45750118104343,-35.25104327819142,51.79964136529048,107.42164779414594,83.03272698954737,-27.204954433971174,-90.02672839033036,-133.58299587282482,0.20822741165339023,-4.735816198308605,3.725736702095074,16.27968961340064,0.4884519848680679,-0.47158568319121585,229
-64.77582755899085,80.015706157165,-35.80029599447771,52.32084595678162,106.65877289893591,83.14239383970983,-27.262878569443163,-89.82169547145503,-130.83299587282482,0.13645319409855186,-4.811499697144748,3.6890240095327664,15.706612376272664,0.5725480239429648,-0.2313535447724357,230
-64.4618186468501,79.52083581255377,-36.35125153380182,52.943361704458404,106.63690410571976,81.91583968190898,-25.762878569443163,-89.53004529070907,-128.08299587282482,0.18036373699441513,-4.7401274849287685,3.614894907505942,15.07442030416584,0.6041286303135692,0.026833822265432232,231
-64.03736501548977,79.06328425101879,-36.93001077188142,53.42638411235112,106.24159684381073,82.03726832558354,-25.92780745353444,-89.57211970014899,-125.33299587282482,0.29902138097900555,-4.651426787871617,3.482599000953031,14.392885414547951,0.5842492541885165,0.23119914794888527,232
-62.81977603031481,77.8795997402053,-38.43001077188142,53.69166546866719,106.56228615098038,80.7300729683348,-24.544742233254656,-89.81645361378958,-122.58299587282482,0.44531114481910833,-4.60762121439343,3.4078058857718854,13.706335480936232,0.5737676829015457,0.40866025006299045,233
-62.26450786412646,77.3879440175563,-39.93001077188142,54.019628497060346,105.94221141052395,80.69640786860553,-24.82248770433661,-89.86794661409043,-119.83299587282482,0.5161198614974485,-4.56873004805893,3.430811421929563,13.048884909021375,0.5749025302974761,0.6509817447763356,234
-61.78276466827129,76.85301158278367,-40.75616857664568,54.34201629988113,105.01404796925748,80.54984423207617,-24.910289641288205,-89.6142056416474,-117.08299587282482,0.5423541990613119,-4.529557818417657,3.394327299603038,12.428992998213495,0.5584755773507557,0.9246219544041541,235
-61.214296310231965,76.33736024794096,-41.14571766882319,54.49471325745433,104.44151677056063,78.87034753625228,-23.410289641288205,-89.2120491110057,-114.33299587282482,0.5979186219593253,-4.5137351150362734,3.2937359500797574,11.837290884188004,0.5269709415423778,1.1528257274892495,236
-59.81052159382159,75.11597446174589,-42.64571766882319,54.543264060352804,103.30744031239361,78.56339298789051,-23.087648299451374,-89.10068007967898,-111.58299587282482,0.6915883930265384,-4.485389486550975,3.226547775379271,11.25211979609265,0.4799243921044252,1.3334830692306259,237
-59.04559760994312,74.63214902154263,-44.14571766882319,54.44070874751174,102.96246570794767,76.8514939901041,-21.587648299451374,-89.46371262333896,-108.83299587282482,0.8447165539366447,-4.4913415772310605,3.139467539897974,10.716746584569496,0.41671559660197954,1.4596030925748984,238
-58.21230669277708,74.03474635511765,-44.4434011447779,54.31975239874784,102.40414874314425,75.08084401332522,-20.087648299451374,-89.67378474171299,-106.08299587282482,1.0041961337819822,-4.458203409590198,3.0360711599129844,10.241312782833573,0.35450756551850465,1.5144285214448414,239
-57.340338400418105,73.35526086005073,-44.57712030076402,54.19138985370167,101.00465455143375,74.58467732982126,-19.19876576413986,-89.66043323942787,-103.33299587282482,1.2029135468593746,-4.489202937238103,2.97944278347204,9.862383878264644,0.35473984704720346,1.544032079893928,240
-55.78612692083242,71.8945867915225,-46.07712030076402,54.09283454960728,99.82839077430853,72.4819755514827,-17.69876576413986,-89.58411851491041,-100.58299587282482,1.4087318735428636,-4.567899263119123,2.99386591174668,9.616953129104541,0.3632541917741226,1.6378681270182613,241
-54.95692585419397,71.11514615746806,-46.986926948889824,53.900021057432895,98.4719111536911,70.34931788020576,-16.19876576413986,-89.43186168660527,-97.83299587282482,1.4961365987754704,-4.58930664865704,3.0094270883839784,9.345658639725375,0.3468456367461243,1.7829422465041451,242
-53.94717302390153,70.41717589262937,-47.11826298070487,53.446946560535636,96.79918938552883,69.65093977919712,-14.69876576413986,-89.18127765336946,-95.08299587282482,1.570484827465914,-4.613709851792047,2.8560510357753457,9.025426036784921,0.38364525185136705,1.811839119924464,243
-52.97640928679286,69.60492878272221,-47.013120039133646,53.001683189953894,94.93860927656604,68.2371136169757,-13.19876576413986,-88.91835817786338,-92.33299587282482,1.734872854854726,-4.722201953300266,2.7156131631597358,8.884529985339428,0.4250796392375963,1.7587759526800415,244
-51.09688897339313,68.06512200501905,-48.513120039133646,52.491731533263064,92.70248084386351,66.89660089789037,-11.69876576413986,-88.49286342525787,-89.58299587282482,1.8881958017476057,-4.785168640717472,2.721566972895602,8.747161501681171,0.46181910864992376,1.776837767797219,245
-49.88484171236948,67.20248019066591,-49.434690298957484,51.74109588705214,90.43030500571028,65.6433062120829,-10.19876576413986,-87.9254546202589,-86.83299587282482,2.029229638067467,-4.753842287626785,2.7189577967220084,8.57251038167299,0.4748876019301341,1.8184230710467117,246
-48.78776609627231,66.27313836740932,-49.363599916657016,51.016919524640194,88.09672307238944,64.41400104574292,-8.69876576413986,-87.27603421385412,-84.08299587282482,2.1816114837592124,-4.729892846261424,2.65683175151071,8.49318302134162,0.4853630866889738,1.7860036073834298,247
-47.49643183842165,65.41291615265834,-49.28504992343632,50.088133972286315,85.65785286003279,63.17458916278602,-7.198765764139861,-86.59309867222936,-81.33299587282482,2.344577988748996,-4.681260951886226,2.658846735450846,8.440072985709618,0.44049882239689137,1.7689741195652149,248
-46.08873394602948,64.58411403370727,-49.20923850416884,49.00014645660618,83.08854219534963,61.93060515268244,-5.698765764139861,-85.77438979130407,-78.58299587282482,2.501148914094756,-4.619664496943905,2.7096121782871654,8.420858357766054,0.37963884798509706,1.7839032699583794,249
-44.04541522985969,63.1236994083447,-50.70923850416884,47.97453069894932,80.33854219534963,62.20146788860858,-4.198765764139861,-84.91472514281969,-75.83299587282482,2.6718331487139158,-4.541235046506837,2.6749588686407786,8.458902247127996,0.281165646084509,1.7316809075837858,250
-42.63056188172867,62.2434737618045,-51.55613369802244,46.88239178665046,77.58854219534963,61.11497830115795,-2.6987657641398606,-84.07509513766416,-73.08299587282482,2.9009653619129474,-4.4123091710170605,2.6426332704429516,8.493800713908229,0.14270049218803482,1.6308504461995654,251
-41.140018980627644,61.336708352110236,-51.432840192953456,45.77049150767122,74.83854219534963,60.07140283110146,-1.1987657641398606,-83.19855929251493,-70.33299587282482,3.165338201622073,-4.3080702083452795,2.8265152307345103,8.555166054034363,0.01932571603929887,1.682666934213461,252
-39.542662324254756,60.61909141270654,-51.46570829752642,44.2615542153929,72.08854219534963,60.48394842955507,0.3012342358601394,-82.21750823834181,-67.58299587282482,3.24724771915665,-4.209789523053158,2.9783494352807436,8.565433985268985,-0.07024872544731256,1.8379832962478675,253
-37.899486664131196,60.05841436991496,-51.59956352419498,42.40313901532033,69.33854219534963,59.55128344127173,1.8012342358601394,-80.99238300538941,-64.83299587282482,3.2287151424928298,-4.11004717714908,2.9204240076687054,8.576083901809833,-0.1559429431290224,1.9164555248861865,254
-36.3378631154531,59.44738482344012,-51.63790057748673,40.665238527909445,66.58854219534963,60.05083931186961,3.3012342358601394,-79.63371116127261,-62.082995872824824,3.3102214512437462,-4.1008800111683605,2.919274321786743,8.643057723988544,-0.2033136348914141,2.010799520830541,255
-34.776052517349974,58.96562007837186,-51.667057061463616,38.64784462396449,63.83854219534963,60.48779249070043,4.801234235860139,-78.34518327135197,-59.332995872824824,3.36330459591583,-4.215116542062988,2.876136242492448,8.704359810010866,-0.20020316713420697,2.087147495659794,256
-33.17236119269018,58.55999859543113,-51.731125288452425,36.41485645558984,61.08854219534963,59.9838972625798,6.301234235860139,-76.787931116791,-56.582995872824824,3.4232102632608075,-4.327916700216417,2.8413736076484684,8.799361610263091,-0.2001176170434671,2.1682449513464506,257
-32.1054128319936,58.586743231764174,-50.231125288452425,34.081161138765744,58.33854219534963,59.87398744484923,7.801234235860139,-74.97189711958397,-53.832995872824824,3.472232669689359,-4.433936703884038,2.8754273152185235,8.885191838744808,-0.1779299697583243,2.3325370327145114,258
-30.330727854017233,58.227039425337054,-49.48667642671544,31.57976730577653,55.58854219534963,59.833802851728535,9.30123423586014,-73.0656905986037,-51.082995872824824,3.387729312849582,-4.519833612820749,2.826386883133562,8.928733403019349,-0.14626930164332907,2.4886715582798526,259
-28.75765663767512,58.37587749366346,-47.98667642671544,28.82976730577653,52.83854219534963,59.862330806558816,10.80123423586014,-71.11134112537425,-48.332995872824824,3.353313795171866,-4.617715028589284,2.7721602568140122,8.988601236446762,-0.08411806944968893,2.6236216037610034,260
-28.184177634720058,57.68921498800956,-46.48667642671544,28.298822862089697,50.08854219534963,59.990684087368095,12.30123423586014,-68.87827401556844,-45.582995872824824,3.3440701699707835,-4.793408160658951,2.7387255195019082,9.119196970013816,-0.009612009264814722,2.7790696056259954,261
-27.2958619482407,56.548735919093225,-44.98667642671544,28.29882286208962,47.33854219534963,61.451919234419655,13.650105406652727,-66.18915848885274,-42.832995872824824,3.219196194207218,-4.92289941789701,2.6249917734916925,9.179212322900057,0.08259441191078867,2.9050917928352193,262
-27.141675984521708,56.26041073977337,-43.48667642671544,28.298822862089594,44.58854219534963,61.76301238568579,15.150105406652727,-63.43915848885274,-40.082995872824824,3.169557934815615,-5.083318109669441,2.552032472394875,9.204216929004208,0.16169754630052754,3.0419524187917215,263
-26.505835089343705,55.66365116607747,-41.98667642671544,28.29882286208972,41.83854219534963,62.120473241486636,16.58155764192028,-60.749569332715765,-37.332995872824824,3.1095935568447746,-5.1026058132874095,2.5202596785752367,9.260678043861644,0.09380563582949336,3.2115260776788053,264
-25.87050380971782,54.95019914473537,-40.48667642671544,28.29882286208985,39.08854219534963,61.71923762042972,18.08155764192028,-57.999569332715765,-34.582995872824824,3.0324141318336792,-4.992381132471748,2.5757341324556315,9.403511320232496,-0.01838769177813619,3.433213420097256,265
-25.47781551079321,54.800616208370485,-38.98667642671544,28.298822862089825,36.33854219534963,62.32243904679455,19.58155764192028,-55.249569332715765,-31.832995872824824,2.9165480527280097,-4.885136235505288,2.5656476788798876,9.425119270239358,-0.0596296308760819,3.657314344238988,266
-24.992260617320674,54.8494052895926,-37.48667642671544,28.29882286208972,33.58854219534963,62.81679399276076,21.08155764192028,-52.499569332715765,-29.082995872824824,2.784640844201659,-4.954157440354108,2.441015447209709,9.369532487411869,0.05175874760411806,3.811365113257794,267
-24.439871906570968,54.978489296266034,-35.98667642671544,28.298822862089594,30.838542195349632,62.398829136759005,22.58155764192028,-49.749569332715765,-26.332995872824824,2.69260511185846,-5.048349502788045,2.356947543300679,9.323956249648887,0.11946002024751456,3.950217039400853,268
-23.66293348433828,54.5821872393521,-34.48667642671544,28.29882286208962,28.088542195349632,62.130075064879314,24.08155764192028,-46.999569332715765,-23.582995872824824,2.6226367732040696,-5.034398011836204,2.363443685314684,9.310772624074103,0.04304938362538985,4.155194127891449,269
-22.886383842638676,54.85546282795231,-32.98667642671544,28.29882286208985,25.338542195349632,61.786797896411045,25.58155764192028,-44.249569332715765,-20.832995872824824,2.4994978641304924,-4.918113646168207,2.327509192006415,9.169884808309424,-0.03164333663959134,4.365000822107216,270
-21.891596522085695,54.691134342787755,-31.48667642671544,28.298822862089697,22.588542195349632,61.455820036304814,27.08155764192028,-41.499569332715765,-18.082995872824824,2.4093901369934954,-4.818425324880402,2.2554439303235245,8.972094072233666,-0.08430732294424279,4.546675407856092,271
-20.799694623895235,54.64354887969291,-29.98667642671544,28.29882286208985,19.838542195349632,61.51293967878094,28.58155764192028,-39.26604914386913,-15.332995872824824,2.41204156073854,-4.708808570783553,2.1552725220321367,8.704814959557014,-0.1263240568540495,4.692558723274721,272
-19.5715654759498,54.094894577735786,-28.48667642671544,28.298822862089924,17.66159742960915,60.78070146736997,30.08155764192028,-37.77884091138075,-12.582995872824824,2.426427877322672,-4.637535804451455,2.0922458140048623,8.466676916184202,-0.18072828754728576,4.824868339853273,273
-18.2538588024644,53.628524560708215,-26.98667642671544,28.298822862089697,15.734392787668083,59.87950245385925,31.58155764192028,-36.838082841478325,-9.832995872824824,2.426073851972023,-4.598015328807517,2.0935584065229857,8.14211277426621,-0.21493923106096208,4.9842631362047145,274
-17.029164605532788,53.208362780065656,-25.48667642671544,28.298822862089825,13.828040904714902,58.941748836589404,33.081557641920284,-36.19822152303112,-7.082995872824824,2.4262198275760407,-4.568172326392239,2.0383269798093053,7.751000277871673,-0.2703500805442972,5.131071054114868,275
-15.691511154543539,52.851171544953424,-23.98667642671544,28.298822862089594,12.55294373011955,58.37209248776262,34.581557641920284,-35.7542782200327,-4.332995872824824,2.404716685501337,-4.444713157679411,1.944326200847372,7.292996747275165,-0.32967481340626,5.250660708634985,276
-14.066848384325384,52.07023388913805,-22.48667642671544,28.298822862089697,11.315958375154624,57.79922343536407,36.081557641920284,-35.31810888541331,-1.5829958728248243,2.370469879466627,-4.269487266711869,1.8662054441639828,6.7777933145964635,-0.3600897436712022,5.369734990935392,277
-12.441495547015686,51.911855103225754,-20.98667642671544,28.298822862089924,10.477112974858523,56.87888655320237,37.581557641920284,-35.74554808031682,1.1670041271751757,2.3813017289130936,-4.060302689227492,1.7057451880188996,6.185535736224857,-0.36431633614260445,5.382516051221043,278
-10.771708802760681,51.626750703802124,-19.48667642671544,28.29882286208962,9.466683947358247,56.21134147796429,39.081557641920284,-35.938727557511,3.9170041271751757,2.4112374761615367,-3.860487680564407,1.71932536033907,5.723361197473475,-0.3838221218017485,5.515939064409783,279
-8.991860900232165,51.387869086450166,-20.533151367410003,28.298822862089697,8.648735983089562,55.611675355486156,40.581557641920284,-35.75392270598313,5.361437801405259,2.3788037870079557,-3.6619859123771032,1.5989583252727997,5.255594033173235,-0.32566388354059833,5.614195269870864,280
-7.470829738123472,51.424361617237956,-21.518840331174395,28.298822862089825,8.477402888781542,54.9820659755431,42.081557641920284,-36.58367517159202,7.336710099990808,2.332164903425631,-3.6374596706821904,1.6466485468332135,4.580988553027046,-0.2968212779733626,5.86008567665862,281
-6.190581009584241,51.75296479622964,-20.07353349987849,28.29882286208972,7.811359471234368,54.09294732714322,43.581557641920284,-37.238137740662076,7.67269491444196,2.2284720461863383,-3.5518621285834784,1.4998816152130467,4.1244211531268204,-0.2764293660443132,5.9743821277210865,282
-5.8603267872216485,51.11749813789029,-20.265883373774148,30.563974964219064,7.511803139018809,53.7863269246795,42.081557641920284,-37.96994759278086,9.18585713903728,2.2103925358821295,-3.549843149226115,1.4223586447182286,3.72012958690368,-0.26076391075976635,6.05002587495826,283
-6.047571377754517,50.19252957551041,-20.064808156056795,33.313974964219064,7.308250253683107,53.45691109950124,40.581557641920284,-39.20625220979167,10.121865637471478,2.293232634420297,-3.554723896961811,1.3372297604854486,3.354131659029504,-0.26362898101649024,6.041171358924849,284
-6.5934392356336895,49.8238995302349,-18.564808156056795,36.063974964219064,6.668155744000516,52.52969877577135,39.19698945655688,-40.66620662742972,9.085154420037556,2.3639144999082227,-3.473648133573415,1.3060157051314802,3.011562914446847,-0.27651755069983286,6.037194456746989,285
-6.680648437525573,48.95025394090087,-17.24698148638909,38.813974964219064,6.8942209640091,51.964709437460485,37.69698945655688,-42.52929792337017,8.100282783868133,2.4484971711959624,-3.3067122400464006,1.2836962270241057,2.62562815168305,-0.3192046870541489,6.052639058792306,286
-6.6913675743291465,48.0306670522412,-17.1667053270584,41.563974964219064,6.599369173009804,50.76592617771664,36.34671450745901,-44.69856181351175,8.358314259229521,2.6081623214682543,-3.1776535022116392,1.2554514449568523,2.2859486918229615,-0.3773124186864996,6.065250251353547,287
-7.0819456737158895,47.79792347284192,-15.666705327058398,44.313974964219064,6.752936847680715,50.47611411845176,34.84671450745901,-46.74232092352771,8.636494777915866,2.917866653763606,-3.1325123165407995,1.1839493701924508,2.076023450105136,-0.4156704574239906,6.002366476924247,288
-7.301990271817858,46.548016783457584,-14.166705327058398,47.063974964219064,6.786116572105144,50.2156093332302,33.34671450745901,-48.925805767675996,9.454529021753993,3.1889336472041103,-3.061725085451981,1.2271712963814987,1.8997560634506725,-0.4869081557955289,5.898554321464151,289
-7.452612131070253,46.462738734893435,-12.666705327058398,49.813974964219064,6.610018178572717,48.90641921089833,31.846714507459012,-51.48644166205929,9.151204980110462,3.3678207040748096,-2.8733004580989228,1.2160043686148643,1.5740026755981815,-0.547876028425139,5.7759676746392135,290
-7.440655856038433,45.383927777018705,-11.484522624061892,52.563974964219064,7.040956040685766,48.55033310442759,30.346714507459012,-53.910483381653584,8.991818151229587,3.545691344315596,-2.6908521022469967,1.1944840325693606,1.3200783382729646,-0.6231845408961941,5.643143413100523,291
-7.820106997529522,45.23888981969622,-9.984522624061892,55.313974964219064,6.743179743049722,47.46623415467312,28.846714507459012,-56.18159115484511,9.679805906284146,3.784979429661475,-2.5305463451896344,1.2122158292702776,1.117635171117831,-0.722126029828591,5.540062106133423,292
-7.917903369641281,44.01501666909908,-8.617324502003257,58.063974964219064,7.089915835886625,47.27498097881436,27.346714507459012,-58.518423672942454,9.77423879985428,3.948293537864546,-2.3935241595521286,1.2610349286561193,0.8755574683056783,-0.7816872830319085,5.485964084534863,293
-8.181797454117715,43.9621137524794,-7.117324502003257,60.813974964219064,6.943932810263863,46.00956861632006,25.846714507459012,-60.93048764322826,9.76386605956909,3.9787293551062017,-2.182991761774635,1.3078970079630912,0.5910990861454802,-0.8814873403605719,5.492756919651235,294
-8.292329754132268,42.80873976650767,-6.050042755395877,63.563974964219064,7.457738638536154,45.752803039946,24.346714507459012,-63.36289813824435,10.6160766891758,3.95686295399742,-2.0685441669060665,1.2349851738403825,0.32882397363745697,-0.9357452839267456,5.441154546064995,295
-8.60451969857825,42.76282913577233,-4.550042755395877,66.31397496421906,7.136931240161359,44.82296406468709,22.846714507459012,-65.55116301296461,10.862494311800004,4.095116560424753,-2.0215623094238535,1.164106632882857,0.14870270227765764,-0.9763918116016724,5.323307798161767,296
-8.60507103669512,42.74724920773056,-3.050042755395877,69.06397496421906,7.566047546882083,45.11892946956906,21.346714507459012,-67.82461286036889,9.742974348151234,4.221783955511035,-1.8931690093400628,1.1624731346439598,0.030641105504856905,-1.0147528932934808,5.206225745627327,297
-8.5779983261899,41.25178037640514,-1.5500427553958769,71.81397496421906,7.77150000715363,45.502727750878464,19.846714507459012,-70.00727807082849,9.635911525092073,4.334431636762517,-1.7760157994519812,1.1448577742330874,0.004856258011185032,-1.1006955677784678,5.076398058283256,298
-8.345869398619925,41.06118630435983,-0.05004275539587688,74.56397496421906,7.523830573154192,44.6369626282058,18.346714507459012,-72.34325132213897,9.937219221943241,4.50746202261615,-1.7064615385778352,1.186972222199327,-0.06182802999177732,-1.173036451788804,4.988395840850157,299
-8.271813765953244,40.09455895961386,1.4499572446041231,77.31397496421906,7.764805415030675,45.18410171039749,16.846714507459012,-74.51370066437677,10.915733722714164,4.504468152299698,-1.6767537541591233,1.2022493794542075,-0.03861405460759121,-1.2337468887285528,4.912583869351641,300
-8.130338130158341,40.3622987540091,2.949957244604123,80.06397496421906,7.541711584651914,44.512861519677436,15.346714507459012,-76.6156845105253,12.545125396038108,4.415716774718274,-1.6405777061544264,1.1923177070286584,-0.02976594151332029,-1.2740351544575892,4.835601072148652,301
-7.998176745546054,39.271585983132525,4.449957244604123,82.81397496421906,7.401362007722528,43.777480264972986,13.846714507459012,-78.81893240594249,12.810382819035045,4.37399619641763,-1.5905774224259002,1.2189240129007448,-0.06739364572700236,-1.2905224311148542,4.778609908533612,302
-7.569741524587442,39.6548773229764,5.949957244604123,85.56397496421906,7.7960986500619835,44.44143540585136,12.346714507459012,-81.01004212956144,12.701902692454755,4.312414525823131,-1.519446141305205,1.1951790815932983,-0.06921628995561424,-1.3244611049037138,4.698962036607277,303
-7.1365573997276375,40.09129336411895,7.449957244604123,88.31397496421906,7.641846375366422,43.866003378197995,10.930841932748091,-83.03223399507611,13.747280015950246,4.235781827713327,-1.4498750381180352,1.155205422485636,-0.045248847957598655,-1.393767487203101,4.579892326306158,304
-6.874130444561362,39.129564978128556,8.949957244604123,91.06397496421906,7.551393774152226,43.285313263731716,10.718415022071497,-85.05312866757376,14.006698433496616,4.178893505594935,-1.3387102270476572,1.2393737540463372,-0.06719096648679888,-1.454791706213246,4.544626756195335,305
-6.10101142089036,39.706496743593355,10.449957244604123,93.02945300290101,7.9579409012812965,43.84098241828298,9.218415022071497,-87.08645081942723,13.1527370320345,4.074080976682901,-1.1976696192604916,1.2265676226514908,-0.044304875169382876,-1.5027981286209546,4.481472223227669,306
-5.877728143540845,38.81926684608144,11.737653546680725,94.84765574892519,8.145406126682134,43.822816441372225,7.891269932228062,-89.1951003633911,13.039336689053329,3.9878919426189174,-1.0873657569751687,1.095339221981916,0.008485161298857385,-1.5717423695927561,4.252121025218883,307
-5.3247043262503615,39.563283437015635,13.237653546680725,96.78377795630794,8.030010014170387,43.891565701323934,7.216349492237047,-91.32120257255218,13.721874677021436,4.099329194944967,-1.077005779712311,1.1397048674568815,0.0680366880293939,-1.6295933760400942,4.044519712596327,308
-5.2562327220879,38.828101759304985,14.646461957808095,98.59983519485033,8.160221356546016,43.9533263062759,6.451737904879147,-93.55795828189896,13.858771450751114,4.12966878469763,-1.0535392743569367,1.297528651802818,0.10673843689812182,-1.6556055342250324,3.961017013523245,309
-4.657733968233501,39.659332527681386,16.146461957808093,100.36636606019917,8.430874396915954,44.125052763821024,5.808626674158062,-95.65821461575719,13.872033825662964,3.9490877247165197,-0.997641762692386,1.3637758202278476,0.2071140456287349,-1.69759280885871,3.9001644718361033,310
-4.848717142354998,38.93009712610201,17.44286375980971,102.15504630213134,8.79890480571379,44.32828889062802,5.2421151800055545,-97.65734204432951,14.782897328500411,3.744444788341404,-0.9539810215842186,1.4106157737027145,0.3291435140888273,-1.7316595953613905,3.8541324207004464,311
-4.519400062585412,39.910547754262396,18.94286375980971,104.13016654901723,9.250846239632706,44.53426070581534,4.768593339981033,-99.66213441277897,15.357486124396857,3.660312785680147,-0.9058385341223061,1.4365194033596378,0.4412767849137203,-1.803286322169235,3.7991845709716197,312
-5.031076146072911,39.53417947266511,20.44286375980971,106.03094934515752,9.894135262705735,44.652213093684935,4.123176789642862,-101.82134045057975,14.709216726535306,3.65904316639322,-0.7729351171878094,1.4670487957538323,0.4858963219481034,-1.9029892714224954,3.7039044482243964,313
-4.524448168422952,40.806560014939265,21.94286375980971,107.76852539722748,10.535182765003107,44.77189879574505,3.444835946463248,-104.02241024772093,14.991114381407346,3.613103936627538,-0.6687793593150079,1.5043428652548907,0.549166317421162,-1.9771475142884292,3.573934185694533,314
-5.230114943195035,40.39422924850489,23.44286375980971,109.53581248077566,11.094528597119206,45.02009525776166,3.0872696395556902,-106.11396394144498,17.28056745705036,3.4722859814931093,-0.7021036996379603,1.515877902174197,0.702252498636968,-2.018778613154833,3.4391555891760195,315
-6.225795281670408,40.119744264846375,24.94286375980971,111.40804068441186,11.811591373927111,47.04603377697311,1.5872696395556902,-108.08927149161097,19.930551276668993,3.3217579615917763,-0.7559554270562008,1.5026252258831017,0.8647141417920566,-2.0771302357106736,3.2996931240425282,316
-6.035148462054691,41.61244943680997,26.44286375980971,113.26405879705221,12.583949876056229,47.293441594783296,0.9779522710691276,-110.0972907493428,21.233568993794222,3.2660501620642526,-0.7464191909608834,1.5367208981079967,0.9951698824804469,-2.158856597080231,3.1451939730755534,317
-6.967173824266823,41.58471813852739,27.94286375980971,115.03298441022196,13.380771124241068,47.504617822407354,0.6712579271900596,-112.08988717466606,21.341217876432808,3.239191283789479,-0.6861584144039218,1.6248584586395844,1.1042742851351157,-2.245721461907181,2.992822480268014,318
-7.957740499781658,41.804159605962006,29.44286375980971,116.68936133870417,14.438902399239204,47.70116922013194,0.3784046074949215,-114.05784192857459,21.11016720978629,3.1542713532886606,-0.5996640983766041,1.7062034920270963,1.1703961300014705,-2.3088263987847744,2.8722259648123907,319
-9.158657563881942,42.25866480999405,30.94286375980971,118.2842146412287,15.559761611273421,47.96560882380105,0.37810294209401496,-115.90143289522231,22.48008080994737,3.038532432847423,-0.5806163269303154,1.7644424254914242,1.2453989012376514,-2.3514019382313416,2.763884961135778,320
-10.4582136126792,42.7392416791265,32.44286375980971,119.86452986757577,16.612056400013653,48.29832190291268,0.625603649673973,-117.57420172894142,24.452420069527214,2.8940853688313375,-0.5725588227112245,1.8102307155982982,1.3691162619806216,-2.432578423147927,2.6219952595289246,321
-11.701338607526205,43.424388346303935,33.7355398329342,121.38007403216794,18.002552748694395,48.57017712253982,0.734435372011967,-119.32105981960474,23.868464917992377,2.7769696946934506,-0.47332357227710936,1.9143384213969936,1.4529012544928128,-2.534938201277958,2.5150294748449658,322
-13.152423044202218,44.45683559962751,34.867267842260674,122.85354284572026,19.660537595934663,48.77917814935658,0.8801924940257122,-121.02866605791814,24.612967544021153,2.626411790410581,-0.38121881584870265,2.005007468872147,1.4951656771675264,-2.6432184661422538,2.45166999603678,323
-14.664452165082444,45.79226027546935,35.86331161290512,124.199576578252,21.406976217818347,48.93514266994246,1.1468536918838386,-122.6492437824163,27.362967544021153,2.4276614827112213,-0.28688098321506367,2.032059553157134,1.464829968295679,-2.7808781040995783,2.3642370860997,324
-17.414452165082444,45.76454022978243,36.236878322121164,125.50783800164766,23.260048479870324,49.12070707976925,1.4504631524068665,-124.28751120029173,30.112967544021153,2.1903328359475083,-0.19340495473043975,2.0901646977570674,1.4350698308909833,-2.8895304842103426,2.2763693925978608,325
-19.156272350743983,47.39946009820974,37.06311618836407,126.7413949927805,25.30995286083223,51.27550147668504,0.45429501061488964,-125.79695676090904,32.86296754402115,2.0252071253249793,-0.1534105665208693,2.1206346652544563,1.4591864460691333,-2.9743511635368116,2.1595996431683853,326
-21.906272350743983,47.82316523138633,37.25961326997626,127.95405974006887,27.432117653412057,51.53937778133308,1.1621037264559118,-127.08920750809554,35.61296754402115,1.9775127803785437,-0.12433767261741523,2.182299793698043,1.4328402211978442,-3.0689674960488897,2.0626007165789524,327
-24.656272350743983,48.547279788103076,37.32922035220856,129.0469426124892,29.611584252082057,51.71103300053067,1.8570763367589627,-128.25736079808996,38.36296754402115,1.9497883793154522,-0.12769749889404342,2.227942421525419,1.3639315116434183,-3.1733677729195526,1.9636245695393806,328
-27.406272350743983,49.529997031988366,37.37063950076986,129.9723934584033,31.758215232620653,51.288777120116514,3.3330270130602364,-129.1666557836518,41.11296754402115,1.9474515277064912,-0.17742635798543735,2.2462640778204745,1.3329783267076687,-3.2586331607586727,1.8315044887658525,329
-30.156272350743983,50.743531965683395,37.036606338457304,130.85654337491826,34.096024325615616,52.96891315342819,3.3229164738016577,-129.8809199767755,43.86296754402115,1.9428951589091155,-0.21932657423930338,2.299744812826297,1.2580307575210563,-3.3228818136661324,1.7104142200665609,330
-32.90627235074398,52.67882030810171,36.176502980244486,131.52880163868494,36.5352325531069,52.710927328311236,4.822916473801658,-130.41611649173817,46.61296754402115,1.848774730952913,-0.190875581257153,2.3598012868527714,1.0930460348473403,-3.3661111854109365,1.641658005402952,331
-35.343716698754896,54.65667283674405,34.99682194765554,131.95510838200144,39.062759230601266,52.40091085988472,6.322916473801658,-130.68125912048626,49.36296754402115,1.7688806493427467,-0.15872189540626339,2.4397199215831322,0.902290593347407,-3.4019532338790857,1.6399453128281987,332
-38.093716698754896,55.126008853415065,33.49682194765554,132.13219011260844,41.812759230601266,53.92316744930809,6.501031404573397,-130.79166229264462,52.11296754402115,1.7282669752242796,-0.13134780359194165,2.4462202332003966,0.7082277032169291,-3.409068676589671,1.6202442027085364,333
-40.79815309928845,57.107152121924344,31.99682194765554,132.1380060795337,44.360210378023126,53.480852377176376,8.001031404573396,-130.74240123520792,54.86296754402115,1.766421334859013,-0.1396559590257203,2.369535972120291,0.5863282539025086,-3.407072111055509,1.4980684319738118,334
-42.87777133808621,59.120684389346984,30.49682194765554,131.95935485421137,46.97368720759135,54.73073845428244,8.676833101362742,-130.58904992678123,57.61296754402115,1.835397418153585,-0.17838814359763544,2.36507545252106,0.410050020425359,-3.4002925561321873,1.3679603058086682,335
-45.62777133808621,59.45894920443802,28.99682194765554,131.5737377638234,49.57418804860126,55.890258147233666,8.997153982133607,-130.12658465490668,60.36296754402115,1.8903439245729126,-0.23584747631883882,2.421762845443313,0.10367293334987057,-3.367654774195991,1.3174346711615341,336
-47.60039056841622,61.24417918996099,27.49682194765554,130.9604650352082,51.89274200259074,55.155720157565014,10.497153982133607,-129.32997642966967,63.11296754402115,1.8981452407813755,-0.2529485984655616,2.390965207381532,-0.30481338108355077,-3.312190919200453,1.2485380104503454,337
-49.23755751048144,62.71481127727686,25.99682194765554,130.1225504074874,54.64274200259074,56.190499570260684,11.350735390261022,-128.39427739882368,65.86296754402116,1.9450682016135754,-0.27978370222331095,2.3645605409006842,-0.7376968870393201,-3.2599631125286264,1.1557915886873718,338
-51.12095894412541,63.994205059154616,24.49682194765554,129.18810327352097,56.95523580513959,57.06664846695771,11.866912531639874,-127.20311592476557,68.61296754402116,2.0475411101868275,-0.3880549348679891,2.3852807309447384,-1.1247841210224754,-3.2128226186962237,1.0553141263521533,339
-53.08371458887674,65.01518495899354,22.99682194765554,128.48165007845208,59.10450181261844,58.931861700602894,11.44365614039198,-125.81937547392698,71.36296754402116,2.216300586346746,-0.4704381746142751,2.4569871220606503,-1.4592596030053513,-3.2092804060983284,0.9476000823450339,340
-54.66472447104244,67.76518495899354,21.49682194765554,127.7705045634872,60.8360937481644,59.43893496815975,12.175801721697821,-124.14313767722251,74.11296754402116,2.3894886216209805,-0.5718619031949653,2.4192479230939647,-1.7898614939245316,-3.2117462086173814,0.8211036732702519,341
-56.41856300711557,68.47054606358265,19.99682194765554,126.84771027629763,62.53256014686954,59.932488597304534,12.784822271692464,-122.35618572701425,76.86296754402116,2.518153272304177,-0.6802951186099044,2.415913031141319,-2.171893336036681,-3.203332384133853,0.7165245807477804,342
-58.057272668205066,68.91150393866013,18.49682194765554,125.91252521203447,63.69309159740516,60.42112631777261,13.545164621399088,-120.36776861750113,79.61296754402116,2.7044297995276234,-0.8166584619080366,2.4285833273471242,-2.448324111645035,-3.248866736136273,0.5933078038454076,343
-59.423126773940425,70.97101900568931,16.99682194765554,125.21612183360689,64.90376379292192,62.59561042781447,12.49581440491066,-118.31476948213158,82.36296754402116,2.8317932869912883,-0.9886507158005493,2.496888389218631,-2.6143049403271754,-3.3096155342174627,0.4309551693885254,344
-61.00903669016594,72.83672098686614,15.49682194765554,124.7992887016466,65.52133073280811,62.85840087474169,13.195169859561352,-116.44012918838622,85.11296754402116,2.9975077404005166,-1.2649741328628454,2.5935695893270068,-2.7003743685967203,-3.330202570825735,0.24776349685964805,345
-62.658756624672364,73.66704053530142,13.99682194765554,124.42114727092469,65.84131925224249,63.190792133993526,13.935347812931678,-114.31169982365911,87.86296754402116,3.1267470007853637,-1.462705791246591,2.6124535874367787,-2.7422941812955237,-3.379365436099675,0.05357284302316608,346
-63.80720733730998,73.06987467916697,12.49682194765554,124.11709780191143,65.45241852962947,63.67822017772323,14.753919194405567,-111.86807242519353,90.61296754402116,3.104984431558827,-1.5656087764225364,2.7309758496788943,-2.706794256348429,-3.390616447732184,-0.08620139603728319,347
-64.82431973465614,74.27947450921445,10.99682194765554,124.1855704134921,65.00098418862434,64.1568355181329,15.397359522983143,-109.5245288121345,93.36296754402116,2.9369583192556084,-1.6496311732130975,2.8355386599309926,-2.610833098419953,-3.2993713310818964,-0.29985304833271265,348
-65.91774647476753,75.46023497238212,9.49682194765554,124.2192750424573,64.33285903123178,64.50212565272062,16.023852191488935,-107.39084400443633,96.11296754402116,2.9062715342896106,-1.8247410315993735,2.935372740330732,-2.5233031102978463,-3.211685425731537,-0.5387202739019976,349
