JMW9912/AVATAR/Dynamixel/dynamixel_control/data/csv/poppy/.data/waist_test/5DoF (2P+3O)/0429_2056_13_29_5DoF_bvh_motor_degree.csv
theta1,theta2,theta3,theta4,theta5,theta6,theta7,theta8,theta9,theta10,theta11,theta12,theta13,theta14,theta15,frame
-95.22115145328934,22.096782884579714,95.27613377082073,28.298822862089924,-112.58899828291948,7.049796516221304,-71.8619540033431,-28.29882286208961,11.949525018099951,4.227855492074081,-2.1207448039576757,1.5574253403185758,0.06106657397293881,0.7360967837554498,2.805176613553338,0
-97.97115145328934,24.846782884579714,93.77613377082073,28.29882286208985,-109.83899828291948,9.799796516221303,-70.3619540033431,-31.04882286208961,9.199525018099951,5.337556092539184,-2.7692810731423423,0.5574253403185756,0.47018261575928394,1.361414638279404,1.8051766135533376,1
-95.22115145328934,27.596782884579714,92.27613377082073,28.298822862089825,-107.08899828291948,12.549796516221303,-68.8619540033431,-33.79882286208961,6.449525018099951,8.087556092539185,-2.9460520416559164,1.5574253403185758,-0.5298173842407163,1.3361708641701675,0.8051766135533374,2
-92.47115145328934,30.346782884579714,90.77613377082073,28.29882286208985,-104.33899828291948,15.299796516221303,-67.3619540033431,-36.54882286208961,3.6995250180999513,9.33165300964034,-2.976000102553335,2.5574253403185763,-1.5298173842407166,1.3462034182658575,-0.19482338644666286,3
-89.72115145328934,33.09678288457971,89.27613377082073,28.298822862089825,-101.58899828291948,18.049796516221303,-65.8619540033431,-39.29882286208961,0.9495250180999513,9.278270722196655,-3.0364487073275885,3.5574253403185763,-2.529817384240717,1.3833357503991257,-1.194823386446663,4
-86.97115145328934,35.84678288457971,87.77613377082073,28.29882286208972,-98.83899828291948,20.799796516221303,-64.3619540033431,-40.34420002259557,-1.8004749819000487,9.351699860507928,-3.009053693777877,4.557425340318576,-3.529817384240717,1.3794970383468919,-2.1948233864466635,5
-85.04230878838142,38.59678288457971,86.27613377082073,28.298822862089697,-96.08899828291948,23.549796516221303,-62.8619540033431,-41.19804310813613,-4.550474981900049,9.457447901017584,-2.944847804679835,5.557425340318576,-4.529817384240717,1.3506890022250635,-3.1948233864466635,6
-84.21339825259874,41.34678288457971,84.77613377082073,28.298822862089647,-93.33899828291948,26.299796516221303,-61.3619540033431,-42.2728036947793,-7.300474981900049,9.515828288645475,-2.9449271926465235,6.3800227129799,-5.322239270601832,1.338815744403687,-4.1948233864466635,7
-83.83495558624833,44.09678288457971,83.27613377082073,28.298822862089697,-90.58899828291948,29.049796516221303,-59.8619540033431,-43.442449330728586,-9.975044017988134,9.571625210569568,-2.9545164466447016,6.324769043999492,-5.3200714927197055,1.3277188661853045,-5.1948233864466635,8
-83.44506605984374,46.84678288457971,81.77613377082073,28.298822862089825,-87.83899828291948,31.799796516221303,-58.3619540033431,-44.63529756383548,-9.996061921087884,9.614167806369464,-2.9385904367465723,6.270678724261461,-5.298797025029886,1.3157621850579866,-5.470637220380606,9
-83.12557123690353,49.59678288457971,80.27613377082073,28.29882286208985,-85.08899828291948,34.549796516221306,-56.8619540033431,-45.795270329847185,-10.115682713692,9.58275288786444,-2.8945097859995474,6.233998076389266,-5.276103136250264,1.2946109290096108,-5.348400401762458,10
-82.39943273637644,52.34678288457971,78.77613377082073,28.29882286208985,-82.33899828291948,37.299796516221306,-55.3619540033431,-46.76193885985718,-10.487405172254773,9.584988069582513,-2.84110846522995,6.1572388981727455,-5.229811848984998,1.295067712317957,-5.219242929110471,11
-82.12759772452569,54.68909932938831,77.27613377082073,28.29882286208985,-79.58899828291948,40.049796516221306,-53.8619540033431,-47.50372885038786,-10.937040192396111,9.679209995705783,-2.7695996545824886,6.066658200917454,-5.087229798915182,1.2883148965858813,-5.094902733071812,12
-81.85395858937827,53.00069508783781,75.77613377082073,28.298822862089924,-76.83899828291948,42.799796516221306,-52.3619540033431,-48.437523182194866,-10.90618867107177,9.693826431086832,-2.733097223293683,6.014534215142231,-4.938832531108044,1.2817062569946474,-4.933402824919779,13
-81.24364576817479,51.829686967826724,74.27613377082073,28.69942441276232,-74.08899828291948,44.94496244968543,-50.8619540033431,-49.45542284341428,-10.970158570268817,9.557687830893325,-2.682278369864292,5.9564152831617125,-4.827588996808004,1.2685753327699276,-4.739813104525831,14
-81.55298022837177,50.676312917044505,72.77613377082073,30.134930523503638,-71.33899828291948,44.15613897509911,-49.3619540033431,-50.43257611597873,-11.206061198738702,9.396837894578955,-2.5997763558050355,5.834266478949365,-4.692481282091163,1.2390609302738826,-4.5943185442826815,15
-81.87848777728834,49.53524922450647,71.27613377082073,31.555948181692678,-68.58899828291948,42.68498056411889,-47.8619540033431,-51.32673267137282,-11.431931968945122,9.30520459008243,-2.560418819009658,5.691177160205506,-4.524032244205623,1.2536511784982276,-4.500847969761327,16
-82.22857615972181,48.424051812742086,69.77613377082073,32.9602262444332,-65.83899828291948,41.16944894706635,-46.3619540033431,-52.07588048636187,-11.640697096073994,9.239965294993723,-2.540724800412649,5.64731534933514,-4.364675104494902,1.2741367800633214,-4.327650508092063,17
-81.77188575341323,47.63962995570011,68.27613377082073,34.03187396339645,-63.088998282919476,40.4755381052376,-44.8619540033431,-53.01047836755607,-12.043058695334487,9.049249547935279,-2.5239659218257753,5.537199140066112,-4.223237855153548,1.2831361871893276,-4.135227478171128,18
-81.92488457474234,46.43988057312319,66.77613377082073,35.05782393702059,-60.338998282919476,39.18798364798967,-43.3619540033431,-53.986119802556416,-12.369096610024975,8.8725449918406,-2.4493562028537723,5.331756947643553,-4.064547938541252,1.2680922034790458,-4.045054600334565,19
-82.07269591740395,45.28692126689999,65.27613377082073,36.2008783932524,-57.588998282919476,38.63151066850031,-41.8619540033431,-54.889591803665915,-12.51123889755502,8.7784737650862,-2.407626161254159,5.215417084149871,-3.9463061811128815,1.2821823153722727,-3.963477527152311,20
-81.48507831427857,44.591755163054344,63.776133770820735,37.30633561963755,-54.838998282919476,37.296685929713476,-41.025725038068344,-55.824516373724144,-12.788080077821414,8.600420046474856,-2.417860263532035,5.088012866554454,-3.816327459054773,1.312198380958165,-3.8721204106588756,21
-81.55145739217754,43.508611108538624,62.276133770820735,38.37209308283555,-52.088998282919476,36.774902939188124,-41.88057992880861,-56.78460823531473,-13.305579840993095,8.42245711110276,-2.3932921101559224,5.003556933568709,-3.724563867974006,1.3147236973389036,-3.7278190164210208,22
-81.61968477683185,42.477808504404905,60.776133770820735,39.51213725793282,-49.338998282919476,35.46346493511408,-41.41403048140434,-57.68886155739945,-13.782910658515183,8.235227692747612,-2.3786010735757492,4.897217632264286,-3.6569334532003053,1.3275675862191318,-3.5815594685598073,23
-81.54546407123662,41.36770178290612,59.276133770820735,40.34909758872968,-46.588998282919476,34.29499529244003,-41.23807273159633,-58.7403679313404,-13.850399697159142,8.064135530536058,-2.406602354575999,4.750393516151812,-3.5870931858128574,1.3366710920122384,-3.4865653925358724,24
-80.42339206723975,40.58344439454562,57.776133770820735,41.20234591264942,-43.838998282919476,33.92074739402132,-42.0129138326566,-59.66183425882263,-14.253554496099598,7.977679923942988,-2.3696922690927456,4.697751351173197,-3.502202874796959,1.33864906582879,-3.3732616505050785,25
-80.33166333034099,39.39542423035993,56.276133770820735,42.19810640262585,-41.088998282919476,32.732166088771024,-41.57778669072078,-60.513858565258154,-14.467651502622155,7.877470828329834,-2.374296612602972,4.639442121549845,-3.3863936583485676,1.373875536677061,-3.2663352542036974,26
-80.26586183016477,38.236345590060445,55.22700483498755,42.99674429766119,-38.338998282919476,31.43087210707011,-41.17411476180315,-61.56162836911733,-14.242870795954143,7.709221493015646,-2.432621749650396,4.575653178420321,-3.2476996558668705,1.369355404320629,-3.1528194819304347,27
-79.13649495678362,37.42285338701497,56.43875758286682,43.754441544073195,-35.588998282919476,30.138327120744602,-40.66351166321275,-62.524677174204385,-14.56115964953027,7.511567860215368,-2.441263931283325,4.506716292460989,-3.129645221339769,1.3550456720454418,-3.003382618508628,28
-78.9472494927705,36.04546362495106,56.01545813171021,44.4099789459407,-32.838998282919476,29.76405824136331,-41.12648269674296,-63.48460878102324,-15.296944962498635,7.291395272197415,-2.4815541840227757,4.429746725014454,-3.082128169330136,1.396453693734625,-2.8224900997189097,29
-78.56201513228956,34.593721216794286,55.32822121638421,45.15339629810381,-30.088998282919476,28.611471340045,-40.923319440029616,-64.47780445591314,-16.490991351197373,7.057114976438436,-2.507376101944901,4.281019432893489,-3.0877912325741885,1.4504685940245325,-2.677098279175114,30
-77.07400503636363,33.641811843315374,56.07423102742334,45.86741882398866,-27.338998282919476,27.248191705759723,-40.32305536732845,-65.45824929413892,-17.35140281498654,6.807564167154224,-2.5869312162680567,4.160487548811097,-2.980996268883294,1.4737177147784655,-2.537580886371485,31
-76.96409361486458,32.15178636391308,55.740281167725875,46.44002321886585,-24.588998282919476,26.56005739897435,-39.5022918172203,-66.20739640679986,-17.771816858677216,6.602843868819035,-2.7064023120404834,4.103816911238826,-2.7947109914160153,1.4929620942673143,-2.3351562702931385,32
-75.93965049857815,30.73720138460932,55.51684822364384,46.93798710276096,-21.838998282919476,25.01078231316656,-38.00782749605925,-66.86988059978998,-18.51943262020792,6.415499411935083,-2.7820723754031023,3.9852574460503827,-2.6686456236985676,1.5254768128580234,-2.14008974784209,33
-75.3036412340794,29.113275799717595,54.9034144282449,47.4635243153484,-19.088998282919476,23.48591398179086,-36.531761475743984,-67.63255165312134,-19.18727398762834,6.210984758610629,-2.867366836753227,3.8766036547421963,-2.5336133487136325,1.5611709720476281,-1.953016577732724,34
-74.25341446910909,27.452967819861318,53.87744943433947,47.961811418132285,-16.338998282919476,21.918293575178534,-35.13774533538235,-68.45979189618396,-19.992106322802748,6.020741987185025,-2.947872323587387,3.784717088826996,-2.4953553098685943,1.588721277134989,-1.760028995887614,35
-71.50341446910909,26.246865302745814,53.44822976038083,48.52067601660027,-13.588998282919476,20.32130875992786,-33.63774533538235,-69.06906784653238,-21.328069639972504,5.8784902923975,-3.00930009286555,3.6967566069769116,-2.471151162593315,1.6378948804269744,-1.5572287648997027,36
-69.70250018026249,24.534650622823698,51.94822976038083,49.015026484593314,-10.838998282919476,19.76752058749156,-32.13774533538235,-69.61156954539173,-22.26950338576839,5.751936293519315,-3.0976383104168956,3.5938793534027536,-2.43642843414934,1.701619672577833,-1.3638333611978923,37
-67.64399958870305,22.775599872343776,50.44822976038083,49.517453649482555,-8.088998282919476,18.222905581410636,-30.63774533538235,-70.15751278783372,-23.596772396751366,5.615183146245001,-3.1802309813234233,3.4621892102732943,-2.391805236178776,1.7701087689480615,-1.2095180607572327,38
-65.61801627185464,21.03567948729238,48.94822976038083,50.14101519161707,-5.338998282919476,16.775097252517877,-29.13774533538235,-70.58422805696303,-25.091804558749594,5.4531539604372785,-3.2632192045958015,3.341295873923098,-2.278975673009428,1.816913187666426,-1.0708268008828186,39
-63.455052165659595,19.37132449881431,47.44822976038083,50.88389984030747,-2.5889982829194764,16.71246530779205,-27.63774533538235,-70.961288400679,-25.552500061950692,5.345524910870693,-3.356135421027425,3.2703875697100036,-2.1355852903555137,1.8447112179734984,-0.9134249964191601,40
-60.705052165659595,18.472601384272007,45.94822976038083,51.64023042961066,0.16100171708052358,15.670676694266279,-26.13774533538235,-71.50446525727621,-25.9256094655022,5.271927435428027,-3.4325121245785817,3.2271060239435307,-2.041728985542689,1.8599805171837638,-0.734340120400606,41
-57.955052165659595,17.016743835322504,44.44822976038083,52.40134371600511,2.9110017170805236,14.755533738332685,-24.63774533538235,-72.11295219009237,-27.583242031744643,5.160661792224522,-3.4534878122374963,3.167280295116495,-2.0124883019924464,1.855883714959616,-0.5680683490385646,42
-55.205052165659595,15.629347446276212,42.94822976038083,53.216987004841535,5.661001717080524,15.367452931675416,-23.13774533538235,-72.62729642496778,-29.42950547062154,5.057975120471599,-3.428813425644707,3.05870979461193,-1.9782360634500227,1.8054557023584612,-0.4717434476078936,43
-52.455052165659595,14.468286086340369,41.44822976038083,54.15432754781968,8.411001717080524,14.83706770974472,-21.63774533538235,-73.26916166146482,-29.687946687350035,5.080877993378213,-3.436058704371107,3.055592082991868,-2.004294337712528,1.7694094471569342,-0.3446401992769444,44
-49.705052165659595,13.460461180584236,39.94822976038083,55.14538278891302,11.161001717080524,14.57740798985145,-20.13774533538235,-73.91357719503603,-29.70433322043401,5.109130293960357,-3.412678238824117,3.034110176033709,-2.016776209463621,1.691562947989082,-0.21076431034992318,45
-46.955052165659595,13.36217342151655,38.44822976038083,56.270651729672615,10.715090222357865,15.904137677433797,-18.63774533538235,-74.5573792733536,-29.842622435941596,5.098500612730334,-3.3267437774977613,2.941483183941102,-2.0151449488558444,1.5733866364312332,-0.15428880268547307,46
-44.205052165659595,12.584071356221592,36.94822976038083,57.45213293871718,7.9650902223578655,16.13877677240013,-17.13774533538235,-75.23653248060933,-29.394741875500596,5.168996130488931,-3.281611217362326,2.931584102587175,-2.048846727083192,1.476534174351217,-0.09508464211885649,47
-41.455052165659595,13.114647655899265,35.44822976038083,58.59965604203516,5.2150902223578655,16.54603194455779,-15.637745335382348,-76.02170371258744,-29.18291896878037,5.165115069239511,-3.27701951129233,2.9095042026025877,-2.087712908099038,1.381935008668121,-0.036561325705879104,48
-38.705052165659595,12.779227082596286,33.94822976038083,59.79394545191132,2.4650902223578655,18.415684725285885,-14.137745335382348,-76.7828484610715,-29.167559848218424,5.084993206900794,-3.2514535189883302,2.8647581993657902,-2.092564522572204,1.2566979116496921,0.03148578740966504,49
-35.955052165659595,13.852461504515006,32.44822976038083,61.06749292087671,-0.28490977764213454,19.194380851426263,-12.637745335382348,-77.58862604529833,-29.223518950497958,5.11345079748502,-3.213588260954766,2.843473793335595,-2.1536168853638364,1.175758465647008,0.12850409982434255,50
-33.205052165659595,14.058357345212517,30.948229760380833,62.41366416530304,-3.0349097776421345,20.43348039274906,-11.137745335382348,-78.48102590598201,-28.303778665588926,5.1918963480328815,-3.2177212648945526,2.813314106946116,-2.2107925324481568,1.131694768421426,0.21448228339279202,51
-30.455052165659595,15.452989148662203,29.448229760380833,63.80216599435598,-5.7849097776421345,21.82040056196452,-9.637745335382348,-79.3211397246807,-27.32730732843094,5.215318532294951,-3.2852871358718074,2.775555561991505,-2.253795619151401,1.1074388155888883,0.30740667541197236,52
-27.705052165659595,15.8748021723119,27.948229760380833,65.34831742888652,-8.534909777642135,23.4423712465106,-8.137745335382348,-79.9324400127579,-27.0883750248523,5.128062395922884,-3.3271354994142914,2.6989342301799035,-2.292749691243738,1.0146142459607348,0.3818822212516877,53
-24.955052165659595,17.662979248568814,26.448229760380833,66.74267558681498,-11.284909777642135,24.961226848059603,-6.637745335382348,-80.66030432815737,-27.585440502560562,5.114129391535903,-3.288646588274015,2.6483530733237846,-2.3950105075139914,0.9260668583898223,0.4385921976524772,54
-22.205052165659595,18.578554114078432,24.948229760380833,67.98320162687666,-14.034909777642135,26.504281088327858,-5.137745335382348,-81.46235328046596,-27.891808974085706,5.18114190612175,-3.2708697266733293,2.62670367344297,-2.47454085942917,0.9000384904701174,0.49584670644804874,55
-19.455052165659595,19.559399463947937,23.448229760380833,69.18290742419852,-16.784909777642135,27.166919096152743,-3.6377453353823483,-82.26800308613015,-27.557693350153247,5.2573354951254965,-3.285787821981687,2.5801581346950466,-2.5164482329424347,0.8937649361780275,0.5320961753478931,56
-16.705052165659595,21.491794362439926,21.948229760380833,70.5090361010657,-19.534909777642135,28.8990261551999,-2.1377453353823483,-83.0373290932101,-26.946090947411378,5.277058771818231,-3.287276138833805,2.52147985185841,-2.577280785930762,0.8257670216748179,0.5317415859343841,57
-13.955052165659595,22.584736241675035,20.448229760380833,71.94339005210581,-22.284909777642135,30.655621724377244,-0.6377453353823483,-83.77870706596218,-27.264627257496826,5.303210622281525,-3.208159315405756,2.475715129935431,-2.6662954903936353,0.7326086758350823,0.5006848986333218,58
-11.205052165659595,23.8444515732452,18.948229760380833,73.35690175294081,-25.034909777642135,31.76339437991949,0.8622546646176517,-84.67538031272518,-28.473928101413865,5.3588148669290465,-3.0978774005358485,2.3932273158528607,-2.7850749853693912,0.6716963791938423,0.40321064105293597,59
-8.455052165659595,25.879550613176,17.448229760380833,74.83802458467053,-27.784909777642135,33.91688983134029,2.3622546646176517,-85.70377782857811,-28.99931819968614,5.4840819855820095,-3.005111581110417,2.3805515117088785,-2.8406026113025034,0.6157795272258243,0.27370024466765486,60
-5.705052165659595,26.864474695088468,15.948229760380833,76.4292843922737,-30.534909777642135,35.108502575626844,3.8622546646176517,-86.72138063076588,-27.946223039876923,5.6014815182215,-2.9788186070273466,2.4199285708469183,-2.8609310047448564,0.5408731641422787,0.13520069815277938,61
-2.9550521656595947,27.937797423259507,14.448229760380833,78.03406143347318,-33.284909777642135,36.13976544961207,5.362254664617652,-87.85285228767479,-26.175657407178683,5.735326897167675,-3.0022794432329825,2.4357627398962896,-3.0087318561421332,0.47295507321760005,-0.01807725338345666,62
-0.20505216565959472,28.930289525521324,12.948229760380833,79.74597497536303,-36.034909777642135,37.113402529882315,6.862254664617652,-88.96730345838172,-25.610981593677625,5.8694100027404925,-3.0103578920572285,2.4773450334093443,-3.1327582894958814,0.41873054675240057,-0.15940821440283226,63
2.5449478343404053,30.754316554439107,11.448229760380833,81.46313393344063,-38.784909777642135,37.948570024942825,8.362254664617652,-90.06385919243316,-26.004113546455493,5.9751538560107,-2.92434498519503,2.53680153666656,-3.2632337931479674,0.3349487893111902,-0.2847579095984731,64
5.294947834340405,31.77381305205709,9.948229760380833,83.00782659225834,-41.534909777642135,38.623225253985375,9.862254664617652,-91.22021543192986,-26.07348851016841,6.022692500055372,-2.8248846286337517,2.615393663138137,-3.4090036159723827,0.265905300258601,-0.3614915989567595,65
8.044947834340405,32.68758209261999,8.448229760380833,84.47749482207767,-42.97642697359368,39.18217226611642,11.362254664617652,-92.48966794603764,-25.843490285959174,6.068269753432977,-2.805622751076537,2.7496144966836704,-3.5271004639082655,0.24715672439005856,-0.34100577543585314,66
10.794947834340405,33.390221629042216,6.948229760380833,85.93536752724734,-43.25326270127875,39.79415179774387,12.862254664617652,-93.59677616795297,-25.330390760253803,6.070707934375645,-2.84839130464022,2.9047960032418043,-3.591049474196469,0.1902968952775645,-0.212802027923587,67
13.544947834340405,33.870485546215114,5.448229760380833,87.2276517143594,-43.32629352523321,40.335584775983314,14.362254664617652,-94.58455253617484,-25.1008084971494,5.9006037084694025,-2.913872081823728,3.03632555236814,-3.644934886859708,0.11643779445585248,-0.008713234312771134,68
16.294947834340405,34.47968649687289,3.9482297603808334,88.33872745307262,-43.307194910916714,40.8364331290767,15.862254664617652,-95.32276778833946,-25.49684887591916,5.5593465804836395,-3.021133510281812,3.0839300339111806,-3.7094227738776646,0.050045041821254736,0.21995225363750248,69
19.044947834340405,35.05795582131605,2.4482297603808334,89.23216195537825,-43.089086853709034,41.129006511723844,17.36225466461765,-95.94792578024128,-26.635080618426908,5.256422228462783,-3.0997559909264427,3.0892811964729567,-3.8104894330454995,0.0030434451218232794,0.47935473602202716,70
21.794947834340405,35.52778737461366,0.9482297603808334,89.90740159880161,-42.776035842490266,41.25981806278425,18.86225466461765,-96.448840548869,-27.753439752348903,4.980251547598436,-3.2448729314358844,2.9812814781216606,-3.9536496719020944,-0.003302222355922942,0.6960233242144139,71
24.544947834340405,35.03545472883564,-0.5517702396191666,90.42715414496926,-44.596032438955895,40.38112119872247,20.36225466461765,-96.69956414723531,-27.539336980712317,4.698306691068307,-3.3933371080258397,2.888631396884656,-4.170731109853356,-0.05938312584922185,0.9233722153130719,72
27.294947834340405,35.21524619861359,-2.0517702396191666,90.6259741242069,-44.15733590061937,40.264115944850154,21.86225466461765,-96.85060368988015,-28.173771074680243,4.314642476058168,-3.4939035832850713,2.7913592738887814,-4.349385285963415,-0.13254383801682362,1.1788435662129937,73
30.044947834340405,35.132842877001295,-3.5517702396191666,90.68269369782632,-43.52277507247445,39.99782367424683,23.36225466461765,-96.9406903629537,-29.644607715342584,3.8230510781721,-3.6009472365555455,2.676436795401629,-4.495557588330088,-0.22375998757979346,1.4535598060253054,74
32.794947834340405,34.81930058929557,-5.051770239619167,90.64118639203772,-42.76403738569904,39.57768713976407,24.86225466461765,-96.82108257843056,-31.30400744768885,3.377210300561073,-3.705095538434129,2.526182472184016,-4.631463159439903,-0.32930239495109603,1.7373434366924656,75
35.544947834340405,34.430778194049836,-6.551770239619167,90.2818884791751,-42.049346736055455,38.92190153425902,26.36225466461765,-96.65252740464507,-32.9787405236631,3.000498499543085,-3.833965734808089,2.3570202326417395,-4.8240278943627,-0.4092875618790298,2.025395365821456,76
38.294947834340405,33.780597978504645,-8.051770239619167,89.8045846935475,-43.57422676954641,37.407677342208586,27.86225466461765,-96.30563120193634,-35.09004590342425,2.6341133085112527,-3.9694169948169034,2.171037642311271,-4.98153036786684,-0.5047432905468621,2.2760736430374013,77
38.36368273880131,32.9264293140844,-9.551770239619167,89.27434494983126,-42.62832208921214,36.49321091612281,29.36225466461765,-95.7899912794494,-37.61333467348093,2.288951142467995,-4.018264038537312,1.9838373248390422,-5.1007584751378285,-0.6230929953836388,2.482586808745225,78
39.056476124019404,31.171734240658527,-11.051770239619167,88.49289902971613,-41.63671687919569,35.28103150326629,30.86225466461765,-95.29921419465883,-40.36333467348093,1.9899754306901876,-4.043367255375247,1.7960850368253327,-5.254177899675178,-0.7301503578383555,2.645625643252828,79
37.265705959822604,29.991170091047543,-12.551770239619167,87.54799249594318,-40.725075511368004,33.99690695557611,32.36225466461765,-94.75835348786246,-40.9305561040012,1.8386249458662935,-4.130009669579663,1.6915228916799392,-5.348852206299721,-0.8311992851456953,2.815942109780883,80
35.27106247129471,28.55067474364316,-14.051770239619167,86.4596608857278,-39.78514199304471,32.77425732069422,33.86225466461765,-93.97202724229979,-39.31899454964314,1.702908468152885,-4.235356901510588,1.662627535765051,-5.347680854673226,-0.9650578453252394,3.0368473153114004,81
32.52106247129471,27.37377377682733,-15.551770239619167,85.18566827338907,-38.41844360798641,31.39170834408797,35.36225466461765,-93.11994051024605,-42.06899454964314,1.5539520278985877,-4.2440307858132496,1.5630209235442654,-5.26273798250464,-1.1023204727967306,3.2101023195951797,82
31.641175262537867,25.35920828996725,-17.051770239619167,83.75846363327604,-39.54710147953111,28.92081935304652,36.86225466461765,-92.42008622399477,-44.81899454964314,1.4835971980270937,-4.142250020185424,1.443401409555993,-5.1884057360074785,-1.2205374736053078,3.319440114649409,83
28.891175262537867,24.185389803336022,-18.551770239619167,82.1658489644744,-37.853024127836505,27.035338442804925,38.36225466461765,-91.7331245054065,-47.56899454964314,1.4231888569686773,-4.072524791217868,1.3808013149893015,-5.099517184372737,-1.308950741404914,3.4462355866883367,84
27.391265779481735,22.091657778486585,-20.051770239619167,80.46910136218304,-35.999933427177716,25.19401834453714,39.86225466461765,-90.85287122250766,-50.31899454964314,1.3527981863701612,-4.034895639661942,1.3048391562778465,-4.9892245376916415,-1.4017150726853114,3.559069966873012,85
24.641265779481735,20.94837313415898,-21.551770239619167,78.66692939299584,-33.249933427177716,23.39625431817469,41.36225466461765,-89.98682700417662,-53.06899454964314,1.313907638778326,-3.994258073806007,1.2111591425599453,-4.931444114823166,-1.4849533439859426,3.6171785992327807,86
21.891265779481735,19.697040152242078,-23.051770239619167,76.92215024412259,-30.99104475786584,21.40526821835198,42.86225466461765,-89.0226138870354,-55.81899454964314,1.2951439156561226,-3.979641574836347,1.1537831062031114,-4.78902569320922,-1.5295142154536587,3.664990825451775,87
19.141265779481735,17.46884279811735,-24.551770239619167,75.14001921468297,-28.24104475786584,19.487695049885833,44.36225466461765,-87.91647451564687,-58.23610325715718,1.32736945593045,-3.9576613789691364,1.0883053213478369,-4.619624577508722,-1.578372459307708,3.7069490716936815,88
16.391265779481735,16.47904128255671,-26.051770239619167,73.1103549282385,-25.49104475786584,17.54768954830577,45.86225466461765,-86.80392390417965,-57.036895598063744,1.346512011401059,-3.921610595652107,1.0288297621214344,-4.4958197234297845,-1.6087406196255505,3.743743738309838,89
13.641265779481735,15.652279771910584,-26.315422652113103,71.12900889166909,-22.74104475786584,16.647254701671624,45.025204452931916,-85.52851827719454,-55.71639449786432,1.369765949065307,-3.8667958445797264,0.9474354767428341,-4.413942601563862,-1.6389208727436322,3.7238781345434235,90
10.891265779481735,13.827459769528286,-24.815422652113103,69.30982187596574,-19.99104475786584,14.784256689571105,43.525204452931916,-84.24107561207582,-52.96639449786432,1.5141532291782434,-3.7920713241278228,0.8674111158498863,-4.389074902559824,-1.6768464010855864,3.6240312056687523,91
8.141265779481735,13.303311576259016,-23.315422652113103,67.61636874877543,-17.24104475786584,12.820919443725353,42.025204452931916,-82.99265050267572,-50.21639449786432,1.645410963267261,-3.791915324080005,0.8379019049880386,-4.363473379728054,-1.6858483625062466,3.521092085866681,92
5.391265779481735,13.024668801847993,-21.815422652113103,66.02313322435391,-14.49104475786584,11.439254550678417,40.525204452931916,-81.72903743929325,-47.46639449786432,1.75176105012489,-3.8081034092576593,0.8970257337039538,-4.29603176154282,-1.6456001877009132,3.4950926399972007,93
2.641265779481735,11.92481152953554,-20.315422652113103,64.65298786862847,-11.74104475786584,10.500182541479756,39.025204452931916,-80.39199748244926,-44.71639449786432,1.8647415339831523,-3.8534801934294594,0.8881809032408514,-4.234706238992478,-1.5775286011661214,3.4325603260752375,94
-0.10873422051826509,12.514015236728708,-18.815422652113103,63.38102706185715,-8.99104475786584,9.998767298880564,37.525204452931916,-79.05080429729783,-41.96639449786432,2.0842954995602927,-3.8704927194491354,0.783346829793881,-4.270142676670105,-1.5337228131867222,3.244264194251441,95
-2.858734220518265,13.514959829843935,-17.315422652113103,62.18517473494927,-6.24104475786584,10.090527207786508,36.025204452931916,-77.75812264339045,-39.21639449786432,2.427200573161244,-3.8993483076702087,0.7998513963555564,-4.360134664634357,-1.4754463540843656,3.0494004841763314,96
-5.608734220518265,13.88701012109179,-15.815422652113103,61.154452786644356,-3.49104475786584,10.918295595898302,34.525204452931916,-76.42744409623508,-36.46639449786432,2.7508695272878843,-3.9476280942161317,0.8465783670478585,-4.392763919735623,-1.3828124705143117,2.8377298862820224,97
-8.358734220518265,15.58662262831013,-14.315422652113103,60.430627130158314,-0.7410447578658399,12.371977888630184,33.025204452931916,-75.04433735826514,-33.71639449786432,3.0575402036640518,-4.010408593659076,0.9215219283675288,-4.327476886368332,-1.2831232318086498,2.615181072951797,98
-11.108734220518265,16.913180683846658,-12.815422652113103,59.835515340199706,2.00895524213416,14.157530757415627,31.525204452931916,-73.73918783653896,-30.96639449786432,3.340458807826285,-4.122035749739622,0.9850442641975182,-4.304216278258433,-1.158293908804339,2.3800765344977246,99
-13.858734220518265,19.230153300875212,-11.315422652113103,59.27466085658694,4.75895524213416,16.189976868171527,30.025204452931916,-72.45887922536748,-28.21639449786432,3.6802700055408053,-4.3036163071844395,0.9970912649205366,-4.278876430489216,-0.9827638034975544,2.067553654748186,100
-16.608734220518265,21.58458595588134,-9.815422652113103,58.79587491198124,7.50895524213416,18.394004081708864,28.525204452931916,-71.10808723758544,-25.46639449786432,4.112721191843064,-4.527034902043013,1.1029377335539137,-4.15783206260349,-0.7683711427987737,1.7360891441878168,101
-19.358734220518265,23.994768136486858,-8.315422652113103,58.30775117776229,10.25895524213416,20.687115432836727,27.025204452931916,-69.66520560381085,-22.71639449786432,4.524043541456566,-4.679447353633394,1.2971089978540433,-4.0571623030513315,-0.5536411816015293,1.4630742735240125,102
-22.108734220518265,26.397440736652115,-6.815422652113103,57.752713961116996,13.00895524213416,23.0529956858082,25.525204452931916,-68.15360713059313,-19.96639449786432,4.9544592693322915,-4.772334932229968,1.4224460456858596,-4.007497251147933,-0.34330713525761225,1.1796371043953697,103
-24.858734220518265,28.405974373493528,-5.315422652113103,57.30096851614811,15.75895524213416,25.8029956858082,24.025204452931916,-66.61280992840591,-17.437592057972484,5.496477463715486,-4.810882721876925,1.5300863187248255,-3.9421618586227263,-0.15269695548202247,0.8475606008099994,104
-27.608734220518265,30.84975901285703,-3.815422652113103,56.86409232795709,18.50895524213416,28.5529956858082,22.525204452931916,-65.17700569620959,-17.479333304768804,6.020339698947296,-4.809133801943447,1.7046168460095856,-3.9254362753248393,0.04826977025885416,0.5401447108859876,105
-30.358734220518265,33.35409860513851,-2.315422652113103,56.358920612503496,21.25895524213416,30.780554995161154,21.025204452931916,-63.683013307869565,-17.40396809198831,6.435658013694489,-4.825795076135809,1.8348798698151354,-3.883943125685432,0.22725588830162916,0.2346155381616872,106
-33.108734220518265,35.94662985810338,-0.8154226521131029,55.847113575518335,24.00895524213416,33.336011669774706,19.525204452931916,-62.22107674640402,-16.858483365021424,6.799296927655972,-4.822841603033804,1.9841620200453804,-3.868141064685115,0.3541342970109015,-0.052919350180263204,107
-35.858734220518265,38.063483376830405,0.6845773478868971,55.22909615935415,26.75895524213416,35.87410621318155,18.025204452931916,-60.78803651324403,-16.32931881616845,7.149943543908709,-4.724905658804825,2.1243601505119476,-3.912753291707137,0.40542685224157904,-0.33629124989219294,108
-38.608734220518265,40.518495081502856,2.184577347886897,54.5765537666925,29.50895524213416,38.62410621318155,16.525204452931916,-59.39246739504686,-16.043582796250476,7.50938049368942,-4.566780643243225,2.239182125170053,-3.980699998852244,0.43692869771716936,-0.6533343138839682,109
-41.358734220518265,42.959137853308675,3.684577347886897,53.987376778113116,32.258955242134164,41.37410621318155,15.025204452931916,-58.13777015437495,-15.560143620512203,7.831533918056476,-4.372002935340363,2.4561650847046224,-4.007034394236599,0.45078111418786426,-0.8861059361113948,110
-44.108734220518265,45.403189533262854,5.184577347886897,53.497636809309796,35.008955242134164,43.745262207287354,13.525204452931916,-56.89164158957828,-15.487491371008376,8.057623358703616,-4.185312321521427,2.5945875538351006,-4.088317708996994,0.478834932052486,-1.1051453428201201,111
-46.858734220518265,47.88611020557244,6.684577347886897,52.84517105153782,37.758955242134164,46.347824401689515,12.025204452931916,-55.66841049345563,-15.042429910461504,8.21771290799051,-4.062498289447913,2.6465830399607313,-4.1573764552521535,0.47532453728575524,-1.4000818938899642,112
-49.608734220518265,49.90890040220988,8.184577347886897,52.050062016655815,40.508955242134164,48.918532329563995,10.525204452931916,-54.587933737174644,-14.141934302682243,8.467413599156867,-3.9241837051220188,2.7710092194566833,-4.252041658168157,0.4383810102939303,-1.6894884533652443,113
-52.358734220518265,52.29432233923655,9.684577347886897,51.344741894497325,43.258955242134164,51.102453832319156,9.025204452931916,-53.68142752992196,-13.375924857837374,8.771939026770777,-3.708339486244305,2.920479803954539,-4.368743549130559,0.3695097661031073,-1.9302567072599497,114
-55.108734220518265,54.65147620693111,11.184577347886897,50.660811632334074,46.008955242134164,53.852453832319156,7.525204452931916,-52.95036067537973,-12.824223592496368,8.979906894447023,-3.42314350290237,3.068622403587081,-4.508694238079406,0.24525665629767163,-2.1393100053870775,115
-57.858734220518265,57.0117850108878,12.684577347886897,50.037142439079275,48.758955242134164,56.16892721169876,6.025204452931916,-52.21290968330935,-12.45942079245335,9.074964774331463,-3.1968423046397785,3.1448092762647897,-4.604498233284188,0.16450503187640128,-2.378025597967406,116
-60.608734220518265,59.46680240093241,14.184577347886897,49.432465266408585,51.508955242134164,58.81969628495966,4.525204452931916,-51.524227578755955,-11.776212797483797,9.203438372924534,-3.034448353775533,3.2055760112130627,-4.639438824631064,0.07441844786632765,-2.633503960354685,117
-63.358734220518265,61.51882279326854,15.684577347886897,48.80667733408702,54.258955242134164,60.83854806905258,3.0252044529319164,-50.821338635259345,-11.007612964251969,9.414595435048739,-2.814339308019192,3.2829095286583017,-4.677570665183985,-0.10921646051885389,-2.905449970192381,118
-66.10873422051827,63.9918069833311,17.184577347886897,48.24163317117437,57.008955242134164,63.31787853022959,1.5252044529319164,-50.01320717339867,-10.519912786825275,9.670500070535901,-2.529271206579947,3.3581952125910686,-4.777802072744839,-0.35204422011006015,-3.238899927149029,119
-68.85873422051827,66.52454264702021,18.684577347886897,47.58641895879111,59.758955242134164,65.18108108873075,0.02520445293191642,-49.253920602691835,-10.013686418875293,9.949772286905478,-2.2762652064004527,3.5136314751972777,-4.842229453312872,-0.6210742811702021,-3.5556682242908804,120
-71.60873422051827,69.04397773763179,20.184577347886897,46.779130683659346,62.508955242134164,67.55348628993339,-1.4747955470680836,-48.62163368500327,-9.481560584560588,10.179654969010189,-2.034529048840509,3.635795117894973,-4.94556512453152,-0.9211855908019533,-3.8538396615467194,121
-74.35873422051827,71.51323948367683,21.684577347886897,45.908179775588714,65.25895524213416,69.9453711789174,-2.9747955470680836,-48.07641786231669,-9.0408175605895,10.410171024037007,-1.7877737810655216,3.685408007037687,-5.129382164777963,-1.2346295767420092,-4.21078541759049,122
-77.10873422051827,73.97578436049088,23.184577347886897,44.866672129737196,68.00895524213416,71.71785171377124,-4.474795547068084,-47.60774107671359,-8.465913599522578,10.746881555867985,-1.5940617668962838,3.770161452633981,-5.2443284106136785,-1.532733057638642,-4.612235942208676,123
-79.85873422051827,76.008625825337,24.684577347886897,43.667412116437184,70.75895524213416,73.95398486481373,-5.974795547068084,-47.19320888516696,-8.189409887902503,11.05069335501254,-1.4515985018212547,3.9084562821337876,-5.311298585215907,-1.8079705706981506,-4.995758431997786,124
-82.60873422051827,78.45705894902328,26.184577347886897,42.34259101352629,73.50895524213416,76.08894494508398,-7.474795547068084,-46.652645229728975,-8.028103676901946,11.259560922248472,-1.3002225640336067,4.009756428952358,-5.406562882627886,-2.0933620307684175,-5.361147771441774,125
-85.35873422051827,80.7688853481914,27.684577347886897,40.612555618498696,76.25895524213416,78.06954995681828,-8.974795547068084,-46.09582865840678,-7.267485750287567,11.491086719382125,-1.262181822035357,4.109526203082546,-5.564963987176661,-2.3328065969063796,-5.681077806771447,126
-88.10873422051827,82.3817313838256,29.184577347886897,38.44712766542986,79.00895524213416,79.3676999830228,-10.474795547068084,-45.53140371782695,-6.33808044857368,11.754085296901728,-1.3915344880266687,4.222022199347546,-5.720523241896952,-2.4280331434090523,-5.948957147514007,127
-87.9318354729185,84.10978215242582,30.684577347886897,35.69712766542986,81.75895524213416,81.14263806644195,-11.974795547068084,-44.982639006474585,-5.510981010895816,12.000745176512424,-1.6037497328395396,4.308906679390079,-5.853194146877156,-2.4374480392572555,-6.222306387551424,128
-87.10605651854327,85.13253531556379,32.1845773478869,32.94712766542986,84.50895524213416,82.69954524350976,-13.474795547068084,-44.09291780513497,-4.881642114687678,12.278638859201106,-1.8590277395517123,4.478014905436209,-5.972026543560937,-2.364389137843839,-6.427203745834486,129
-85.68062926413408,86.30328460980446,33.6845773478869,30.19712766542986,87.25895524213416,84.0287365801322,-14.974795547068084,-43.0211264110809,-4.491865882176962,12.488271981510467,-2.1804131243153986,4.7232276843821115,-6.056653254076644,-2.210534944559769,-6.469899045620071,130
-86.01000893506854,88.14772745970143,35.1845773478869,28.29882286208962,90.00895524213416,85.2433749463102,-16.474795547068084,-42.173781698635715,-3.975720868361379,12.530468972256767,-2.4682987375170833,4.8860252978833305,-6.105981192247639,-2.0954353934896983,-6.456629404838747,131
-86.48351445878825,89.69460956057526,36.6845773478869,28.29882286208985,92.75895524213416,86.3452269939501,-17.974795547068084,-41.33131198968499,-4.506513213086785,12.636202690951864,-2.5861209609579308,4.947662106023194,-6.142193533127413,-2.0741860709571167,-6.49253723232961,132
-86.77009430695328,90.8132111681337,37.799476186071054,28.29882286208972,93.53532750186777,87.7663495011384,-19.474795547068084,-40.108123873887465,-4.320637649530624,12.622084481739993,-2.6004426817558284,5.0263395155869794,-6.167532677441085,-2.0417715914128536,-6.5113320099455505,133
-86.53291190870846,92.02851945533337,37.614551373811416,28.298822862089747,92.97110962164878,88.47628976385178,-20.974795547068084,-38.74150266192637,-4.669626224375524,12.75141901973021,-2.681731761947248,5.088582291772514,-6.129733825778835,-1.937731045490661,-6.555423010030054,134
-86.14944810478164,92.99298281928834,37.52080722570839,28.298822862089594,92.8831537093415,89.02781590678792,-22.474795547068084,-40.49066233050742,-5.088949028012423,12.97576485605614,-2.824170086099215,5.210438129324669,-6.047269416035941,-1.8267308102077238,-6.565386817963717,135
-85.50574315934391,94.11499464560116,39.02080722570839,28.298822862089697,92.41111034599194,89.5058305942204,-23.974795547068084,-40.38192181307258,-5.06175287466027,13.041070063413223,-2.8567852199975854,5.379908928507955,-5.934028245677457,-1.7700709940459822,-6.448623238868637,136
-85.3584668871285,94.5141196926893,39.90434412876431,28.298822862089697,91.9914956207619,89.84222522517325,-25.474795547068084,-40.21633148182118,-5.278344997201542,13.041924747268144,-2.779360720414257,5.37488430864966,-5.819218834130278,-1.7289322985069504,-6.3235906848382175,137
-85.12666852949822,94.54618651923522,39.9391289764126,28.298822862089647,91.64543976315232,90.0697316460318,-26.974795547068084,-40.26181757348109,-5.1010242047978664,12.97297264376572,-2.70914093283982,5.309819789602836,-5.716347125106832,-1.62430948154094,-6.228106167689765,138
-84.84829701911174,94.29286527708693,40.03996884297615,28.298822862089825,91.2921367516201,90.12375553334016,-28.474795547068084,-40.46007826012843,-5.350881210069602,13.00961811158281,-2.6487421605996255,5.3246764914182325,-5.585256698126023,-1.498674817894435,-6.096581856617964,139
-84.64933615265954,93.83894087805182,40.171566786432074,28.29882286208972,90.47315240051165,90.39652531734758,-29.974795547068084,-40.75911548528566,-5.19443932293775,12.949468230308995,-2.5904131544159172,5.303776350867427,-5.446831823844323,-1.3968956816389864,-5.937039576954209,140
-84.48782352398668,93.10307684824889,40.359113054596115,28.29882286208972,90.22542002322827,90.16395877875316,-31.474795547068084,-41.64303224648137,-5.076737999286199,12.897117302632791,-2.474896724387358,5.253992407932766,-5.273515615338966,-1.3277345192764027,-5.742966244393161,141
-83.93024934219818,92.45500056095642,41.859113054596115,28.298822862089647,90.08033526826236,89.68875012261039,-32.974795547068084,-42.358751306645246,-5.425234237529169,12.815397156440044,-2.273996462085782,5.17783672000948,-5.153934644910576,-1.2804453578199524,-5.526920005558304,142
-83.77017526268833,91.17199928037118,42.97426940734548,28.29882286208962,89.95734315685245,88.99229456171183,-34.474795547068084,-43.00323165194829,-6.026428903001716,12.667043231297608,-2.10841505615216,5.118238250983185,-5.058758306568247,-1.1856260966852854,-5.252272436785771,143
-83.72160773232673,89.73471710800683,43.08641926535541,28.29882286208972,89.71016349616905,87.93972162628283,-35.974795547068084,-43.499876165091486,-6.112754307919245,12.433467624300478,-2.0178667902768077,4.9697852424107065,-4.961997329956102,-1.086019464919733,-5.014753991168301,144
-83.54833790851416,88.14231733916627,43.053201967220375,28.298822862089697,89.41286692367137,86.70821887270338,-37.474795547068084,-44.03346311521384,-5.854423599167242,12.238134009706496,-1.9427443753213571,4.788169041737891,-4.990991699620651,-0.9971117935663197,-4.845664679015533,145
-82.84780347468484,86.71655162138748,44.553201967220375,28.29882286208985,89.27555574015395,85.4299499871021,-38.974795547068084,-44.74093757141802,-5.9742214220788,12.10801021380091,-1.8940580807881295,4.710588606373752,-5.063769996261699,-0.8387993338659683,-4.6504685626622635,146
-82.57112473072355,84.78888176212273,45.20289408176535,28.298822862089825,89.25587771565066,83.98702817242051,-40.474795547068084,-45.52350112393313,-6.1830300613280595,11.951681827690733,-1.882958635940733,4.656090804048091,-5.0745412851184435,-0.6693491417383977,-4.4065545173036735,147
-81.97814030575843,83.12813003397261,46.70289408176535,28.29882286208972,89.18264726893636,82.31521532266972,-41.974795547068084,-46.13122071569317,-6.28201541023239,11.661056263348772,-1.8682665016398776,4.525236126955571,-5.095464416730492,-0.5344428477553245,-4.1644045069475535,148
-81.70360035202206,81.03307766581304,47.104940417114214,28.29882286208962,89.17421495078578,80.53141903543508,-43.474795547068084,-46.82361143823635,-6.260651068370192,11.30939988429514,-1.8873974646202807,4.3859269670833925,-5.249691909162477,-0.4038632858849641,-3.941752914085139,149
-81.41143021582639,78.87087228454972,46.78035767014557,28.29882286208962,89.2207877399171,78.68797287437405,-44.974795547068084,-47.69358365055134,-6.635943463117013,11.044754711191384,-1.8939115792180352,4.251118704847745,-5.414418647351492,-0.28576631991065593,-3.7639119692107115,150
-80.65179791032783,76.92739219754267,48.28035767014557,28.298822862089825,89.18558535957425,76.67145650647265,-45.53934836929373,-48.251663440234196,-7.267483185891312,10.879492669364208,-1.8440673357705968,4.163530265523693,-5.566205697899736,-0.1658191023094721,-3.5669725307098923,151
-80.20094405013856,74.63013145808877,48.17631533931403,28.298822862089647,89.22799979886634,74.46967561254671,-45.74189922214971,-48.84540747095464,-7.4477155927620045,10.670153418312575,-1.9006917698731884,4.092710081968508,-5.792435675731191,-0.03399334493963361,-3.346683436763195,152
-80.1593040605582,72.71215135926083,47.75870604002856,29.550226630979807,88.68573150652777,72.76388040397462,-47.24189922214971,-49.58265060496501,-7.499757054407508,10.347027129314018,-2.0008177462420615,3.988148402756259,-6.019271540672832,0.07810471686134732,-3.148271583050615,153
-79.87332014108954,71.26404444349248,49.25870604002856,31.352641425797515,88.86120317098018,70.38460846645508,-48.11166537932987,-50.28776060050777,-7.817611339930933,10.03373093138847,-2.04627895799256,3.8466348409618254,-6.215463818875684,0.17023653796192445,-2.9840569257751497,154
-80.01790843155014,69.36464581955207,49.358743274710385,33.243329415032896,88.91123145431229,67.91737890984814,-48.12023678146302,-50.817110736387036,-8.226834447306592,9.880194660178677,-2.0271218407805196,3.753119261689182,-6.346995407302016,0.23614388139751347,-2.8335291340315987,155
-80.00946796885539,67.28882263259175,49.05941614945773,34.82798743659589,89.00989189135774,65.36951624160847,-48.128608828846396,-51.41731401573443,-8.488572749426806,9.722323113614381,-2.0488849331524635,3.699720283869084,-6.46843878024121,0.30390971217705226,-2.6775995013946003,156
-79.48943717606521,65.51891455678869,50.55941614945773,36.24385086302732,88.32612861734496,63.325357101714815,-49.628608828846396,-52.057874003013715,-8.616633844435606,9.513925148790513,-2.054143787647042,3.6759428630300373,-6.54448185970269,0.3334893052812285,-2.4707423929079386,157
-79.57712298783981,63.286692315566846,50.62447213478293,37.80136370816033,88.51394238834838,60.575357101714815,-49.828232934237704,-52.520667358764655,-8.785512502664814,9.243125451664438,-2.039156510171447,3.5917381484319657,-6.657895283825979,0.3723428965471194,-2.264310571473639,158
-79.60080233599463,60.92155537171216,50.35462211890438,39.03905733578032,88.7977213028582,57.825357101714815,-49.7135268323212,-53.194800111526156,-8.652953559188095,8.912465208802404,-2.0817336077132502,3.445860596681173,-6.715573880973587,0.40943884909197265,-2.111564628209081,159
-79.73534878215216,58.462512829512896,50.28180448468278,40.38972733805797,88.00015626708327,55.51865201483515,-51.07428057356555,-53.8045167874476,-9.018518340114515,8.545467846522584,-2.0792812749273284,3.3608693735678346,-6.64678869259572,0.43488702337998847,-1.9426698363723076,160
-79.2389935446139,56.38039953332207,51.78180448468278,41.72363487793921,87.88765152737798,52.76865201483515,-50.437523601645964,-54.222009799261734,-9.483651565918008,8.170492956857828,-2.0760607474655783,3.2493958049908214,-6.4837399664923,0.46099428243417034,-1.7920096507659962,161
-79.32720673300538,53.74130634531815,52.184510349099696,42.89581205345093,86.77091655968816,50.02875170428324,-51.35429070526591,-54.62155177337439,-9.43847786069024,7.927801291329519,-2.121138259543373,3.096772102374849,-6.338516585926802,0.5189808679259633,-1.7076932042804491,162
-79.21255463075015,51.0222740893842,52.005577468488134,43.95980240258957,86.6861116252532,47.27875170428324,-50.7908993709742,-55.03920140556309,-9.268255339546684,7.836454023022681,-2.2086252540505207,3.0552888355981955,-6.264857808531965,0.6209005890301282,-1.59633036931376,163
-79.0322826246507,48.2722740893842,51.786036208152076,44.81411966585753,86.65135312178077,44.52875170428324,-50.25105663612559,-55.509999414850924,-9.164649720484055,7.710170198969638,-2.3309450918061807,3.058335377399677,-6.201400469266206,0.7447945928559466,-1.4432640875878329,164
-78.00192191920854,45.7764013286749,53.23028325429097,45.54032820622026,85.13744967052348,41.77875170428324,-50.65552897836175,-55.750706565995344,-9.604451864123456,7.467011881562057,-2.3817001316361504,2.956113877016535,-6.103945441195361,0.8494825259423552,-1.34544110913805,165
-77.74813723251815,43.0264013286749,52.91825029733526,46.299283589030466,83.15008879341406,39.02875170428324,-50.60692660966776,-55.70018046334501,-10.58614205290933,7.302935799028647,-2.2826500773235257,2.8559872411133314,-6.036931549425069,0.9063867657793053,-1.2964778283034535,166
-77.3806725037639,40.2764013286749,52.58210859637016,47.14547130024991,81.83741677292508,36.27875170428324,-50.03828465545713,-55.75506509245125,-11.240962434641576,7.243135539314659,-2.187787083826823,2.8554636966493208,-5.975275060579796,0.9803172880244122,-1.2389212732212187,167
-75.72406133426412,37.5264013286749,53.49893727527184,47.76647627231252,80.66937898917678,33.52875170428324,-49.64809860082898,-56.07174437547335,-11.254971855029787,7.139870755316735,-2.1770629179880223,2.8618834890587443,-5.910932216161902,1.0496385521211182,-1.1975565701457351,168
-74.94235001692321,34.7764013286749,52.79457215015871,48.30840089489107,79.21532715364347,30.778751704283238,-48.991784342041015,-56.21915614137827,-11.551090734647094,7.027032608770802,-2.1602272318432516,2.8512466335379734,-5.871160411406498,1.1158776877164078,-1.1801061964442554,169
-73.22050679465087,32.0264013286749,52.619187156566746,48.7360703982742,77.37391871254012,28.028751704283238,-47.9551131758149,-56.35763844527624,-11.787892083598656,6.913172766639425,-2.15484809096959,2.9197035324794247,-5.821388856083728,1.1655262134411977,-1.103826093003167,170
-71.87090253567892,29.2764013286749,51.918296464823875,49.19593956942851,75.17944119867231,25.278751704283238,-46.496799650129475,-56.49068213036189,-11.937801973641275,6.760908133618018,-2.136417156966825,2.930965916508848,-5.737087141237168,1.2044589290521874,-1.0403457826364098,171
-70.12642632153397,26.5264013286749,50.797328110668055,49.63598711900259,72.61895317169399,22.528751704283238,-44.996799650129475,-56.694996231818536,-11.786016806255194,6.644736972912867,-2.107341010235473,2.8900737761651167,-5.6866762001173905,1.216666761560633,-1.05018072998815,172
-67.77647624352791,23.7764013286749,49.297328110668055,49.985308116856956,69.86895317169399,19.778751704283238,-43.496799650129475,-56.90432898550678,-11.734276125948586,6.631628861786476,-2.0325303745845407,2.937960644143893,-5.694788765375291,1.1825247160872785,-1.041750775009158,173
-65.02647624352791,21.0264013286749,47.797328110668055,50.26100583630213,67.11895317169399,17.028751704283238,-41.996799650129475,-57.10980418493761,-11.786927521461065,6.584293913711302,-1.9292810962811464,3.0231356626648096,-5.677971803962771,1.1316051387194441,-0.9740431517098221,174
-62.27647624352791,18.2764013286749,46.297328110668055,50.57171026353969,64.36895317169399,14.516076541200354,-40.496799650129475,-57.38665744416964,-12.251384209788856,6.462419002330713,-1.8389677706199066,3.027873286607532,-5.6699372104781105,1.104791937100177,-0.9172688613246263,175
-59.52647624352791,15.5264013286749,44.797328110668055,50.798967793985945,61.61895317169399,12.223633029953845,-38.996799650129475,-57.80034534648064,-11.851471510671454,6.3603413603583325,-1.8878882918262003,2.9944162920610347,-5.710083243570686,1.1290989149930695,-0.9033440114741823,176
-56.77647624352791,12.7764013286749,43.297328110668055,51.049316952758055,58.86895317169399,11.240288135447006,-37.496799650129475,-58.28197837123411,-10.692190969801354,6.324505723965073,-1.9698210760708958,3.004612954961158,-5.717758339574112,1.1565270507404992,-0.9143142548424811,177
-54.02647624352791,10.580930885559736,41.797328110668055,51.2536693951686,56.11895317169399,9.70538224403586,-35.996799650129475,-58.89876496602631,-8.84497888516114,6.393275180984001,-2.052393250646017,3.0219762110994366,-5.765892296278308,1.1553485599002327,-0.9317750399759996,178
-51.27647624352791,8.892177883150055,40.297328110668055,51.45919460805521,53.36895317169399,9.855951597968623,-34.496799650129475,-59.59988849587161,-7.707787065075173,6.456509482948723,-2.0821228337822832,2.9995137630197495,-5.854668168911197,1.1354095145346363,-0.973270413657,179
-48.52647624352791,8.86899106726711,38.797328110668055,51.6563069706406,50.61895317169399,9.97500654025435,-32.996799650129475,-60.28172639417072,-7.596507503387143,6.4458407484626505,-2.0787170596611024,2.9913935853987645,-5.922765438715067,1.1046622031888587,-1.0059047470482005,180
-45.77647624352791,8.933222524585302,37.297328110668055,51.839821646860024,47.86895317169399,10.814788442703966,-31.496799650129475,-60.989258097555926,-8.387065230187897,6.406660168395264,-2.044343427705114,3.0380173790303124,-6.039153415232043,1.0956257448685,-0.9800324701766691,181
-43.02647624352791,10.721377906012158,35.797328110668055,51.96881624706681,45.11895317169399,12.12148228568782,-29.996799650129475,-61.74173712013204,-8.570368518121066,6.347828776913709,-2.0412305523535554,3.0448335464850325,-6.1986761604278735,1.1052015948066194,-0.9429595754115438,182
-40.27647624352791,12.194050152975262,34.297328110668055,52.114649798707866,42.36895317169399,13.817920909092244,-28.496799650129475,-62.560157393672064,-8.592903612288357,6.25097273773062,-2.0629050863959395,3.0726846049532703,-6.328457231748558,1.124732608787341,-0.9038863511558874,183
-37.52647624352791,13.966524707790706,32.797328110668055,52.41011673390498,39.61895317169399,15.72480935167693,-26.996799650129475,-63.47795870971452,-9.12113962221328,6.1921687228623155,-2.0306025326902555,3.078843536421518,-6.390383835721125,1.1411196655836136,-0.8873184152126975,184
-34.77647624352791,16.48626130502243,31.297328110668055,52.77566845748821,36.86895317169399,17.6418224947564,-25.496799650129475,-64.56151750128785,-9.97615873967948,6.146210492808679,-1.9525605410777278,3.0512537515331704,-6.460849274426217,1.1531794428991018,-0.8982154195693725,185
-32.02647624352791,18.627582065093765,29.797328110668055,53.259368505168304,34.11895317169399,19.49267111841163,-23.996799650129475,-65.86770495909266,-11.082825279599227,6.059001453504324,-1.8866019897275979,3.0493577221802477,-6.530749525521852,1.2083511383830274,-0.9036545673827165,186
-29.27647624352791,21.077138433893747,28.297328110668055,53.92304097417409,31.36895317169399,21.449452394357266,-22.496799650129475,-67.2036034603591,-11.814294311916907,5.954313094683807,-1.8371605351563622,3.012471248635909,-6.534747332711474,1.257783759818143,-0.9303037643705392,187
-26.52647624352791,23.110775213896286,26.797328110668055,54.71014628399066,28.61895317169399,23.418581204297364,-20.996799650129475,-68.55108715466179,-12.988887639679323,6.0230411829532615,-1.7762850010242177,2.953147134182725,-6.5319961717380695,1.2928892495714501,-1.0139953418905447,188
-23.77647624352791,25.399395721597518,25.297328110668055,55.67649660335339,25.86895317169399,24.632141878462118,-19.496799650129475,-69.93622797235511,-13.700321530496659,5.931787948353221,-1.7535709565814468,2.9223443535193048,-6.587239612683504,1.332338920999589,-1.1405234397807038,189
-21.02647624352791,27.259253987808027,23.797328110668055,56.79144342175553,23.11895317169399,26.500906833114037,-17.996799650129475,-71.37687612480828,-14.27126991065589,5.974381786382201,-1.6757270167387386,2.9268310944556775,-6.635066077017335,1.3321169169738256,-1.2930157736694914,190
-18.27647624352791,29.024730322940968,22.297328110668055,58.071977627483164,20.36895317169399,28.368011736740318,-16.496799650129475,-72.88342254809362,-14.810692877142666,6.0507392821667265,-1.6513292335349827,2.969328919668488,-6.6756585256627385,1.3857556481666957,-1.4696342671364075,191
-15.52647624352791,30.92923616705783,20.797328110668055,59.532200788753244,17.61895317169399,29.523252802542395,-14.996799650129475,-74.34443042711388,-15.493935026734588,6.089611616823484,-1.7229423838465663,3.0427957374511028,-6.768009586188413,1.4792277466273238,-1.663082379431704,192
-12.77647624352791,32.40923326651093,19.297328110668055,61.12723617463538,14.868953171693988,31.218223184829856,-13.496799650129475,-75.94488790580237,-16.561845754371216,6.174850187503968,-1.7290324448554018,3.085601935497575,-6.825903806362362,1.568930141735208,-1.8986529885803147,193
-10.02647624352791,33.73380519631876,17.797328110668055,62.884483776316706,12.118953171693988,32.89512771049648,-11.996799650129475,-77.72141557442664,-16.58739720529671,6.409958976241739,-1.7129719891936466,3.161803222834609,-6.818006225291179,1.6277400828961999,-2.171730392267147,194
-7.27647624352791,35.20661698515291,16.297328110668055,64.74594096273943,9.368953171693988,33.818124209023836,-10.496799650129475,-79.57463477658338,-15.90526803804248,6.64800149016961,-1.7468259595604485,3.331171535063921,-6.780893589839498,1.6551806842669536,-2.422960983541059,195
-4.52647624352791,36.046899355800214,14.797328110668055,66.81131847493062,6.618953171693988,34.73067844057345,-8.996799650129475,-81.40907025560176,-15.337583272020982,6.783183142983364,-1.837573421014216,3.559526624451179,-6.732340095209394,1.706910641318577,-2.5979856732261206,196
-1.7764762435279096,36.78106722560795,13.297328110668055,68.96672614994554,3.8689531716939882,36.28769825638756,-7.496799650129475,-83.28535984313193,-15.694864882404936,6.870618906221482,-1.8695630956258642,3.8163509828615205,-6.647436740976016,1.795185235625426,-2.647531794995216,197
0.9735237564720904,37.56137631120027,11.797328110668055,70.89417829994578,1.1189531716939882,36.89821778858316,-5.996799650129475,-85.10124462861289,-16.74656557271465,6.871321935714696,-1.841718083050366,4.032882002127626,-6.562626059047507,1.9096275782168772,-2.5681739238743586,198
3.7235237564720904,38.745736895862485,10.297328110668055,72.59852625600186,-1.6310468283060118,37.43052214541597,-4.496799650129475,-86.82030582519108,-17.60336697437341,6.752260602946318,-1.811461825330781,4.171175699569819,-6.480386668957536,2.0251013522001076,-2.4325275698283177,199
6.47352375647209,39.28256112668892,8.797328110668055,74.19812509477616,-4.381046828306012,37.0768803511804,-2.996799650129475,-88.30779207899744,-18.67719254284318,6.556720334408996,-1.8164943945648784,4.2687061620063105,-6.4435640878944715,2.1244942989558533,-2.252742225254086,200
9.22352375647209,39.72968292750458,7.2973281106680545,75.59572041395492,-7.131046828306012,37.441641257022084,-1.496799650129475,-89.49733923770164,-20.73717010633158,6.293748600813396,-1.7584883080889289,4.290366151090403,-6.480233174914695,2.1728379308118932,-2.0598422334642033,201
11.97352375647209,40.294442801936924,5.7973281106680545,76.54656574659025,-9.881046828306012,37.48363850055129,0.0032003498705250877,-90.60894856625094,-23.296299022453415,6.008170521797805,-1.6247222771478982,4.265707927111485,-6.608776109842969,2.1921416004698426,-1.8525608090776022,202
14.72352375647209,40.62409904971689,4.2973281106680545,77.28601658334688,-12.631046828306012,36.84931818149741,1.503200349870525,-91.30095367439124,-24.394106532012817,5.749739354612366,-1.4741950797130827,4.19235520468875,-6.780652919308756,2.1015763255866142,-1.640702620970218,203
17.47352375647209,40.97750005170386,2.7973281106680545,77.6324313276394,-15.381046828306012,36.752319196575876,3.003200349870525,-91.7621872044836,-25.103524842085037,5.540196147473362,-1.1888070505241937,4.07078564795517,-7.094538286939684,1.935546396253282,-1.4528429964738838,204
20.22352375647209,41.565036389989146,1.2973281106680545,77.31833873083991,-18.13104682830601,36.16411130982252,4.503200349870525,-92.31451155985367,-27.83804399579047,5.374054993595025,-0.9220708180075579,3.9746966135445074,-7.516003171731383,1.8741763973742676,-1.232120128225251,205
22.97352375647209,41.797846110467276,-0.20267188933194547,76.74157575504849,-20.88104682830601,34.93659758739672,6.003200349870525,-92.67697121370398,-30.329121118062755,5.098873002620075,-0.870701760843041,3.856227344830274,-7.8152183102544335,1.857245141072292,-0.9968003931721383,206
25.72352375647209,41.51037158331172,-1.7026718893319455,76.20876733893203,-23.63104682830601,34.632219702797734,7.503200349870525,-92.61948102089669,-30.553979421893267,4.786888177192383,-0.9375808426422515,3.7977604105418665,-7.949392396281098,1.786581766565749,-0.7086621296619179,207
28.47352375647209,41.226491168591295,-3.2026718893319455,75.3821746892948,-26.38104682830601,33.576685039529124,9.003200349870525,-92.30916927320357,-31.440838432669512,4.5046793305475195,-0.9563146306644463,3.724126192489398,-8.067336323803492,1.6970393520469602,-0.4020550419860164,208
31.22352375647209,40.25467822923458,-4.7026718893319455,74.37744001256712,-29.13104682830601,32.87190050012958,10.503200349870525,-91.85788645647423,-33.526652027638555,4.208483868676147,-0.9742360073242374,3.564898891586458,-8.203652105932454,1.6220181053355047,-0.16441552357827946,209
33.97352375647209,39.54550903634238,-6.2026718893319455,73.37006068353881,-31.88104682830601,31.99512961378395,12.003200349870525,-91.22936021929104,-35.4464360534589,3.81973347825991,-0.997691225189184,3.433696680026177,-8.339563328145863,1.5351359972467153,0.04226852715379561,210
36.72352375647209,38.65590853882707,-7.7026718893319455,72.35543771243275,-34.63104682830601,30.921415722973595,13.503200349870525,-90.60722337253267,-37.04706983543826,3.6822411354053792,-1.0289815170854808,3.3656011840337428,-8.429445839330302,1.4603577663553695,0.2639834091910354,211
39.47352375647209,36.9801021955601,-9.202671889331945,71.3948706525366,-37.38104682830601,29.259596517363292,15.003200349870525,-89.93053030701272,-39.79706983543826,3.5662934685869536,-1.05136462397162,3.2867285342380113,-8.41754881613439,1.393503326848225,0.478375925466639,212
42.22352375647209,35.85697659942447,-10.702671889331945,70.25584724813207,-40.13104682830601,27.79987955519519,16.503200349870525,-89.22533303374516,-42.54706983543826,3.4760362578934063,-1.0057159046904518,3.21016978295965,-8.446967574412943,1.3131116200929467,0.7101462134466222,213
44.97352375647209,34.08488969948714,-12.202671889331945,69.12366556674601,-42.88104682830601,26.200149492409228,18.003200349870525,-88.43513026518488,-45.29706983543826,3.3859749365680414,-0.9208874154381318,3.1039819225162484,-8.410124732016758,1.200960379067462,0.945680642721891,214
47.72352375647209,32.659695856812064,-13.702671889331945,67.97401959085899,-45.63104682830601,24.491761531607803,19.503200349870525,-87.62877844909666,-48.04706983543826,3.339855071007316,-0.8694992099199554,2.9586639427810875,-8.28491444539116,1.1177434532717951,1.1331312437848948,215
50.47352375647209,30.600062770321802,-15.202671889331945,66.85278336592724,-46.624183000348516,22.713359606549727,21.003200349870525,-86.75747608285627,-50.79706983543826,3.305663790262955,-0.8293643388593296,2.8233930264927194,-8.129894364449065,1.0492204059812757,1.2861865994872765,216
53.01398245400471,28.90892033204209,-16.702671889331945,65.73860716954697,-43.989000033848,20.92156547895505,22.503200349870525,-85.73105328355467,-53.54706983543826,3.2591181916228975,-0.810376208682907,2.7270707936350824,-8.003425934624175,0.9859604783168266,1.464237731094067,217
52.54557836405344,26.78476994771974,-18.202671889331945,64.5182662480927,-41.239000033848,19.573242668836656,24.003200349870525,-84.68076299893373,-56.29706983543826,3.2991009015115855,-0.7373053359968762,2.599326412448273,-7.897363458858157,0.9352244826589493,1.6290728601865343,218
49.79557836405344,25.133914796953764,-19.702671889331945,63.15908490246827,-38.489000033848,17.837814426263655,25.503200349870525,-83.54003171629459,-59.04706983543826,3.3796724018817033,-0.6738578056729659,2.460679595643454,-7.726786639394297,0.9180220008645245,1.7471842948454583,219
49.09392157615291,22.806682163831073,-21.202671889331945,61.85005349122996,-35.739000033848,16.31486143688706,27.003200349870525,-82.23332945966716,-61.79706983543826,3.3749244682572885,-0.6924004832322815,2.312969503398214,-7.485937954732058,0.8959804815404019,1.7874180425077646,220
46.34392157615291,20.94143900819012,-22.702671889331945,60.628116893894614,-32.989000033848,14.915702212499083,28.503200349870525,-80.846679631576,-64.54706983543826,3.406523641879377,-0.7024919019519982,2.2645797722847574,-7.263342721311531,0.8614940989771497,1.8156788132687636,221
44.41733078947489,18.627126633945977,-24.202671889331945,59.42506886102557,-30.239000033848,13.911056771976092,30.003200349870525,-79.45334567195162,-67.29706983543826,3.516238947631911,-0.6896174027404638,2.2010497625546797,-7.081082512572292,0.8627885362287452,1.8165805283642684,222
41.66733078947489,16.92599013918543,-25.702671889331945,58.15180454405419,-27.489000033848,12.647876264118121,31.503200349870525,-78.0447296310921,-70.04706983543826,3.587736173268996,-0.7007783010497972,2.1510557147816556,-6.928180540755432,0.9083120556119267,1.8250346354414424,223
38.91733078947489,14.726422655162121,-27.202671889331945,56.816521126334365,-24.739000033848,12.962135123024087,30.003200349870525,-76.57933679428548,-71.70569785604047,3.5970275574292603,-0.7726157004052376,2.0834399517334155,-6.837188769893838,0.9425908586392108,1.809822059415887,224
36.16733078947489,13.26988688300501,-28.702671889331945,55.40542347797236,-21.989000033848,12.528267918801259,28.503200349870525,-75.0712004814549,-69.78095139391985,3.6928505048144804,-0.8441638211061888,2.0185615108257817,-6.732965483692766,1.0047800833582015,1.7407775696478243,225
33.41733078947489,11.202880720480188,-30.202671889331945,54.080369151121594,-19.239000033848,13.9243069700588,27.003200349870525,-73.421915069525,-67.98891405376382,3.7673829747639553,-0.9541981951757686,2.001206222700455,-6.5880641698698446,1.0569040838158286,1.6689766637331267,226
30.66733078947489,10.092282935059668,-31.702671889331945,52.74537513042478,-16.489000033848,14.243648799552926,25.503200349870525,-71.821658149629,-65.28602873688956,3.78612696492685,-1.0877129707549162,1.9819510182734277,-6.503093225527538,1.1074782339897933,1.5973347797559732,227
27.91733078947489,8.556353977582177,-30.202671889331945,51.38689337953883,-13.739000033848,14.975911398068044,24.003200349870525,-70.18929562751144,-62.53602873688956,3.912129945990707,-1.2377725906237567,1.9908222691832398,-6.378088908681432,1.213976998449842,1.551932461083095,228
25.16733078947489,8.356295646176592,-28.702671889331945,49.953452002863116,-10.989000033848,15.957659019408334,22.503200349870525,-68.52637032319764,-59.78602873688956,3.9922502891236644,-1.5538756880261133,2.0921438127812686,-6.170131524649594,1.391685645559283,1.5866651343152702,229
22.41733078947489,8.526126120065582,-27.202671889331945,49.01563994364336,-8.239000033848,16.951824067047212,21.003200349870525,-66.70004967693203,-57.03602873688956,3.6571066245538013,-1.8030416971480485,1.9313143669794466,-5.749242211367024,1.292118640295475,1.3801321465150242,230
19.66733078947489,8.899634078761148,-25.702671889331945,47.78906431183951,-5.489000033848001,18.423687242505284,19.503200349870525,-65.27736545487394,-54.28602873688956,3.869780827348004,-1.6999608346961612,1.931700298815096,-5.964107627292259,1.384760335737132,1.2132070448324046,231
16.91733078947489,10.460718661966775,-24.202671889331945,46.79213038623576,-2.7390000338480007,20.752820794323927,18.003200349870525,-63.811491444897484,-51.53602873688956,3.938878321726643,-1.9948221838476066,1.9303242208856202,-5.8004841191475895,1.4801615973148052,0.987764290743339,232
14.167330789474889,11.846391348203538,-22.702671889331945,45.9820978070452,0.010999966151999274,22.106781839846015,16.503200349870525,-62.389823970752374,-48.78602873688956,4.087273285055336,-2.270491855793612,1.9793651637318759,-5.596130144714012,1.4782119150444903,0.7532653788094662,233
11.417330789474889,13.799724527833904,-21.202671889331945,45.12195278312159,2.7609999661519993,22.941154657340103,15.003200349870525,-61.09224907053704,-46.03602873688956,4.375934994567297,-2.4351196044286016,2.0384382192169017,-5.536396829512578,1.5132120234315158,0.5368172156768061,234
8.667330789474889,15.963649174109358,-19.702671889331945,44.186837559777075,5.510999966151999,24.721809827109166,13.503200349870525,-59.84884548761279,-43.28602873688956,4.756031525090611,-2.5648790324406505,2.142442859312118,-5.4669434594323425,1.5298886776762546,0.3282417954600464,235
5.917330789474889,18.237105044215138,-18.202671889331945,43.43333223432754,8.260999966152,26.627058126103083,12.003200349870525,-58.688376017664666,-40.53602873688956,5.254120649854301,-2.640884425382324,2.277544995081779,-5.454481807379646,1.5358017921593785,0.13411326188193576,236
3.1673307894748888,20.673620975112748,-16.702671889331945,42.915084533770845,11.010999966152,28.63446179469523,10.503200349870525,-57.69292677828073,-37.78602873688956,5.750737720350967,-2.717184633478955,2.3397902420334593,-5.5251709960315525,1.553173577895478,-0.1022235539029857,237
0.4173307894748888,23.193072903982973,-15.202671889331945,42.423746484372536,13.760999966152,30.704546316928212,9.003200349870525,-56.83897255246353,-35.03602873688956,6.232142753748067,-2.8272855545051128,2.4051727016863493,-5.643421699610868,1.594096697381109,-0.347414043624966,238
-2.3326692105251112,25.71429550296164,-13.702671889331945,41.911597974083975,16.510999966152,32.83023263643092,7.503200349870525,-56.027473766869576,-32.28602873688956,6.665932889963919,-2.891298785817441,2.5106612540170374,-5.736945268172674,1.6083062995417963,-0.5334519053047126,239
-5.082669210525111,27.76825421911361,-12.202671889331945,41.40951486480723,19.260999966152,34.4811492089496,6.003200349870525,-55.28208944498338,-29.536028736889563,7.055889755780118,-2.8810580460042825,2.5504908467633833,-5.8545373793959445,1.593513404308459,-0.7368253586165349,240
-7.832669210525111,30.24437562434262,-10.702671889331945,40.91786614243263,22.010999966152,36.9770957389712,4.503200349870525,-54.57308141585248,-26.786028736889563,7.386303772847497,-2.894447360582184,2.6312823126565474,-6.031076415268231,1.603834508024802,-0.9025579181670393,241
-10.582669210525111,32.76847447320729,-9.202671889331945,40.48155894240026,24.760999966152,38.769839745548765,3.003200349870525,-53.75173444610054,-24.036028736889563,7.658945120413086,-2.938286994622714,2.7447455495629205,-6.163384860718759,1.6228354864398291,-0.9803164184053519,242
-13.332669210525111,35.27797166145566,-7.7026718893319455,39.85495747572401,27.510999966152,41.09054638827938,1.503200349870525,-53.076644103724554,-21.286028736889563,7.9174822662173465,-2.997882059105771,2.760409762736879,-6.250442206960062,1.6282268185103,-1.0795557274117322,243
-16.08266921052511,37.713392072940664,-6.2026718893319455,39.21022455863736,30.260999966152,42.99096399847516,0.0032003498705250877,-52.53115298411705,-18.536028736889563,8.206963387097245,-3.0251444215422176,2.7517620068199005,-6.316255801508009,1.6404798479354008,-1.2387646937907653,244
-18.83266921052511,39.79905379597059,-4.7026718893319455,38.78321311333567,33.010999966152,45.302334737966724,-1.496799650129475,-51.740855445034086,-15.786028736889563,8.470480877717902,-3.063521882756429,2.8455675662162028,-6.314401803216513,1.6627205412034445,-1.3373371942912773,245
-21.58266921052511,42.29854787386471,-3.2026718893319455,38.08504456257162,35.760999966152,47.47461179020554,-2.996799650129475,-51.037328767813456,-13.036028736889563,8.680637672118932,-3.134242484698113,2.8896639736098746,-6.298622787913623,1.636699214255333,-1.416315289539314,246
-24.33266921052511,44.66416829335774,-1.7026718893319455,37.20765715059186,38.510999966152,49.790076585703474,-4.496799650129475,-50.55393128544298,-11.463989420431439,8.914411451016463,-3.119826039564722,2.935543104766573,-6.324160547787684,1.5647218650221413,-1.4955821314035502,247
-27.08266921052511,47.029663358465584,-0.20267188933194547,36.53188149632108,41.260999966152,51.69495594241333,-5.996799650129475,-50.054767683828615,-10.975790070518977,9.130429551745866,-3.0353092509522823,2.9759147425689045,-6.33657160894083,1.4957403251852563,-1.5954246450596152,248
-29.83266921052511,49.429986842580824,1.2973281106680545,35.94643680934672,44.010999966152,54.11840289029156,-7.496799650129475,-49.60643565679393,-10.728664436993155,9.33919924329726,-2.9650731706666917,3.023411357236764,-6.352586001448015,1.4459957643806285,-1.6755154951660765,249
-32.58266921052511,51.458213381020315,2.7973281106680545,35.39457851712651,46.760999966152,56.48483127509983,-8.996799650129475,-49.166274404315416,-10.788645430446604,9.496701869977583,-2.8923672485853262,3.0398968836394085,-6.255167514783364,1.3922831953508776,-1.7392098960876263,250
-35.33266921052511,53.92511991604402,4.2973281106680545,35.07958921815657,49.510999966152,58.85607287959807,-10.496799650129475,-48.55864297626734,-10.805729936076908,9.625213914523503,-2.7941127200509412,3.057488392588756,-6.164447261516124,1.3413732267935776,-1.8012220053293138,251
-38.08266921052511,56.406966753949405,5.7973281106680545,34.41539992920938,52.260999966152,60.69610927270585,-11.996799650129475,-48.30739190399657,-10.390104554163685,9.620127198682413,-2.8230273739929075,3.0990903936008936,-6.042450067308185,1.2969153545290726,-1.860352784537781,252
-40.83266921052511,58.78808172329022,7.2973281106680545,33.54110591523631,55.010999966152,63.075333150770646,-13.496799650129475,-48.210666214685,-9.95787834734578,9.510491120224433,-2.879177085373667,3.1259506385284372,-5.938652887277673,1.2657583263186367,-1.9067387993689051,253
-43.58266921052511,61.23629329220689,8.797328110668055,32.98957421612854,57.760999966152,65.39990615317235,-14.996799650129475,-47.95415739852096,-9.786861706069738,9.625329635999123,-2.870383327638463,3.0959213066478375,-5.798452081384179,1.2223220389382008,-2.0062454981624906,254
-46.33266921052511,63.40453004662095,10.297328110668055,32.63672118812324,60.510999966152,67.70243512286493,-16.496799650129475,-47.737399605580045,-9.401159511599246,9.950643705119447,-2.8043773740609836,3.1310638574602536,-5.666695198451675,1.1221015772517422,-2.146929595933691,255
-49.08266921052511,65.89006173516212,11.797328110668055,32.217907738633265,63.260999966152,69.48640850681902,-17.996799650129475,-47.59358972800927,-8.918928782683812,10.197020466230004,-2.7268711067844484,3.1983285095928435,-5.544176342428537,1.0249913248001352,-2.292927472695425,256
-51.83266921052511,68.21580246189457,13.297328110668055,31.530297006993585,66.010999966152,71.80091368142588,-19.496799650129475,-47.47725367575945,-8.681391726714404,10.383573989930008,-2.629184336125359,3.163301009536963,-5.343348888483218,0.9305146102416387,-2.51547764928865,257
-54.58266921052511,70.44926231971053,14.797328110668055,30.79391033120455,68.760999966152,74.01477561040113,-20.996799650129475,-47.1225352727339,-8.742975364864021,10.72292883326657,-2.5304142159936243,3.140786093649765,-5.2169350952923335,0.8648509316711079,-2.8043017179143335,258
-57.33266921052511,72.706815157856,16.297328110668055,30.08226092408135,71.510999966152,75.52169531452138,-22.496799650129475,-46.68115826437726,-8.736124806632846,11.179255089121225,-2.464984054839233,3.1711763180757093,-5.11393466886826,0.8068798748191279,-3.1562068187701424,259
-60.08266921052511,74.80930593539584,17.797328110668055,29.033016765846618,74.260999966152,77.60877730187983,-23.996799650129475,-46.344893188698784,-8.5491724845651,11.721037656443777,-2.396182061564865,3.26403954201147,-5.061017561982267,0.7274944865161688,-3.548508336697884,260
-62.83266921052511,76.94028775341047,19.297328110668055,28.29882286208972,77.010999966152,79.65891596997623,-25.496799650129475,-45.87472620321344,-8.45689693761645,12.318357826593328,-2.2381753408692933,3.3695551481303805,-4.963094550282823,0.6104961082805747,-3.9820929827929668,261
-65.58266921052511,79.28462074285139,20.797328110668055,28.298822862089594,79.760999966152,80.95874223593312,-26.996799650129475,-45.12985280023274,-8.357080360262035,12.845291755253823,-2.0691850996419263,3.569119868238246,-4.821568064553787,0.5074623222142157,-4.368574831269439,262
-68.33266921052511,81.63221275079016,22.297328110668055,28.298822862089647,82.510999966152,82.65936895251313,-28.496799650129475,-44.01917073794392,-8.503948415213035,13.367530184441497,-1.9308914833339748,3.8354411803267805,-4.697951022011194,0.4104377039740457,-4.616539612469969,263
-71.08266921052511,83.51107881318052,23.797328110668055,28.29882286208972,85.260999966152,84.2333720883402,-29.996799650129475,-43.031152897066235,-8.132678298432115,13.636208182467566,-1.7908607477368168,4.012737494593047,-4.5761939624963555,0.29057299462383374,-4.813841742092834,264
-73.83266921052511,85.56642427494502,25.297328110668055,28.29882286208962,88.010999966152,85.62818193162167,-31.496799650129475,-41.620805928376804,-7.716930877672234,13.833795359834648,-1.6015906590443472,4.114557214953287,-4.461974748839387,0.15308238948298533,-5.030707294841557,265
-76.58266921052511,87.4209393583216,26.797328110668055,28.29882286208962,90.760999966152,86.95551981994086,-32.996799650129475,-40.312487392428466,-7.814880412498432,14.021197546528876,-1.3761796774885595,4.31711350706621,-4.318602791535124,0.041258706056354226,-5.140011572890094,266
-79.33266921052511,88.74404429195307,28.297328110668055,28.298822862089825,93.510999966152,88.21257637305094,-34.496799650129475,-39.33055120818936,-8.092332126723187,14.094522385356623,-1.195097070033354,4.504154876277534,-4.212540946463231,-0.03627399298803384,-5.157479744633255,267
-82.08266921052511,90.30771962734876,29.797328110668055,28.29882286208972,93.19226656268074,89.26323287706369,-35.996799650129475,-38.60639553270634,-7.968698072437011,14.104168028592099,-1.126786746653816,4.633007754006375,-4.1101654806038574,-0.0782559044422138,-5.157808102953542,268
-84.83266921052511,91.70523445013741,31.297328110668055,28.298822862089594,92.28721112853405,90.46274885914438,-37.496799650129475,-37.90823663933892,-7.568426183934197,14.089545409395422,-1.1232008750922904,4.7919162464177365,-3.9804123412698527,-0.14287771125934315,-5.083211942012198,269
-85.60337037342053,92.45137163474692,32.797328110668055,28.2988228620898,91.94903134282166,91.0624326800545,-38.996799650129475,-37.86366208941926,-7.288509656742901,13.938450234628732,-1.1545711884881003,4.885112408774352,-3.871036036061807,-0.19690663236774864,-4.938961866424898,270
-85.51482022688852,93.29979475505301,34.297328110668055,28.298822862089875,91.68050683497373,91.48572293957314,-40.496799650129475,-37.749804850395904,-7.124621827032451,13.742838400111932,-1.1783613643947244,4.970634001673681,-3.807702694895662,-0.2116090615411349,-4.690697194223402,271
-85.10916220944335,94.31545505132314,35.797328110668055,28.298822862089697,91.63704846017907,91.74111052700091,-40.96946679329798,-37.78297347739633,-7.050245086816671,13.532411854585085,-1.2436054279725357,5.002648072127672,-3.7366805530508707,-0.17930311502894747,-4.357026740329786,272
-85.12625547960862,94.62488081151066,37.297328110668055,28.29882286208985,91.64342988851269,91.74585587309508,-40.7972220995838,-37.884878126283915,-6.906249543709899,13.12662327517391,-1.287937887539869,4.901002795211803,-3.629341167913145,-0.11618713364778552,-4.026403059117161,273
-84.80228124800898,95.06334662845288,38.797328110668055,28.29882286208972,91.22330463972838,92.09241851871111,-42.2972220995838,-38.26096049508288,-7.325772799017906,12.728097939632852,-1.357886996386673,4.744314590414986,-3.4596581462365346,-0.043278186851653626,-3.7423338403002844,274
-84.91817344970194,94.89456370439495,40.297328110668055,28.298822862089825,91.30114942178736,91.73334950423403,-42.7787331087794,-38.70794060304828,-7.602594563918312,12.309178384933581,-1.4399453951951833,4.639902490504022,-3.325036732878617,0.04121174502373648,-3.4077090159678107,275
-85.10617460098578,94.43131218268697,41.797328110668055,28.29882286208972,91.52339795588256,91.16153051648315,-42.7219358131902,-39.295153152591354,-7.66892072808839,11.863016163364705,-1.5791616524698124,4.523867335337709,-3.246795710834194,0.1653622273059634,-2.9659639704949923,276
-84.93094528584913,94.0805021411043,43.297328110668055,28.29882286208962,91.79112669873022,90.39648159100288,-42.641344569289664,-40.042941507313145,-7.698734111328636,11.371553289902,-1.7351908447554942,4.3434373749172845,-3.139761108019543,0.3059514122492661,-2.4987758744956348,277
-85.11115692743714,93.15546320763801,44.797328110668055,28.29882286208962,91.5955382702035,90.10732655337709,-44.141344569289664,-41.02776565362179,-8.043380440896367,10.852814329666623,-1.8233103143427571,4.188992431005441,-3.049595518234157,0.4151075947243883,-2.0107895259472275,278
-85.27218517536986,91.95644517331597,46.297328110668055,28.298822862089647,91.82444921727544,89.10079321375994,-44.79005245521293,-41.656071014973406,-9.226665370795889,10.261748263794736,-1.7896167568296895,3.889156465097634,-2.958176276291057,0.5238709255715739,-1.6195865539490273,279
-84.94803089224949,90.86937929560179,47.797328110668055,28.29882286208972,91.91247098851738,87.85464052754209,-44.68851763439378,-42.147949268052805,-10.666696738933702,9.764488041058025,-1.7172455617911309,3.584637550706245,-2.852454297091824,0.5960536910852923,-1.325054140359434,280
-84.92202948105148,89.30769879080916,49.297328110668055,28.29882286208972,91.45396651361838,87.07319555133245,-46.18851763439378,-42.964909875162355,-11.719256481009985,9.44668005266907,-1.709573857406559,3.4931328041952026,-2.7997382024987645,0.6594461330619864,-0.9612368959277946,281
-84.53582023348865,87.89519792654143,50.797328110668055,28.298822862089697,91.59426432032686,85.68601892818943,-46.80433114465599,-43.86913284363204,-12.538838763302254,9.12805828633793,-1.749256850086173,3.4021238722849096,-2.743738053126375,0.7743764574921325,-0.5395648637798899,282
-84.58640573513051,85.9475862778163,52.297328110668055,28.298822862089825,91.75838414958272,84.13559449136741,-46.71451489156221,-44.51298583787549,-13.687588466790055,8.748432215062923,-1.7045718917750667,3.1700267202550876,-2.702876198585857,0.8810114393371403,-0.1882786368657816,283
-84.16949656227001,84.20211789135305,53.797328110668055,28.29882286208962,91.8846268421286,82.40604312173437,-46.61724592065584,-45.17718839147957,-14.529973028818707,8.378943504405292,-1.6520527311576494,3.010364810354742,-2.662477146844553,0.9384814002479013,0.15695119624053774,284
-84.20268483379351,82.13318285171847,55.297328110668055,28.298822862089825,91.44098166152774,81.15701580923458,-48.11724592065584,-46.023568862072224,-15.434537093253871,7.953615934221485,-1.6496170577575422,2.918316756513179,-2.6638325720080567,0.9882956868970024,0.5415306907262266,285
-84.22196055860412,79.9468544835851,55.2465121887722,28.29882286208985,91.73939533238365,79.29987466650047,-48.654204731400775,-47.024849107548945,-16.204625714151216,7.569770128835333,-1.6434416940234309,2.6962816760401025,-2.686733492614636,1.0220502523679724,0.8461256966689092,286
-83.67603140271905,77.91372672428152,56.7465121887722,28.298822862089747,92.00003622375061,77.38871120714404,-48.54963239010537,-48.106438249173,-16.98249108713668,7.3846204827354525,-1.596893356495458,2.522014312999348,-2.679068568743197,1.0473087387501798,1.1224734365738027,287
-83.50099745164292,75.49501563496693,56.78685064801618,28.298822862089594,92.21632581806799,75.37745413434104,-48.45506476903967,-49.06720632350376,-17.719671514208432,7.246660519212021,-1.507337298017968,2.4651471763494883,-2.6823118273137254,1.0558856230323854,1.4489299438564003,288
-83.40641198122724,73.02898089379619,56.36272182764557,28.298822862089747,91.76287248860093,73.7982038910538,-49.95506476903967,-50.05886392589974,-17.6665300043718,7.0285713802556105,-1.4577556616502345,2.3788565543910214,-2.7008184358554015,1.0563733537912214,1.7788587741959576,289
-82.85040023716914,70.74946022503254,57.86272182764557,28.298822862089594,91.9217465250674,71.50518012225054,-50.21739632093271,-50.95369425351279,-18.11885107602437,6.781562844848403,-1.410317905781213,2.203093355781955,-2.7496442364282183,1.0685892207571805,2.0361089439444062,290
-82.84469438864956,68.53481850958237,57.4808884421349,29.51461856969499,91.99556490736181,69.06108635936927,-50.057513608850606,-51.66943591940289,-19.191435258795654,6.595221270359672,-1.3695962613258252,2.0849176065714965,-2.865859438239494,1.0976766087239158,2.2928545588567926,291
-83.12143431546525,66.661317948708,57.027060913258,31.739206517903053,91.40619774087104,67.13405414511665,-51.557513608850606,-52.54536778995901,-19.51310797806296,6.410670704880748,-1.3544527364435077,1.9932102309135995,-2.958616096407009,1.0874913520476173,2.5523438250151673,292
-82.83693133885039,64.9211517183076,58.527060913258,33.58355162068409,91.70109057695423,64.50440289279194,-51.62673522351256,-53.567105234397964,-19.449837422331356,6.189391025817357,-1.3610302226950206,1.851443480807421,-2.9636526048644267,1.0561140246996654,2.781629816500073,293
-83.12174590854615,62.709406201761524,58.44102874485143,35.417886580901495,90.88942102744933,62.313639001953625,-52.98550015913785,-54.29087729072556,-19.87292355246257,5.958654821836202,-1.3486157031917607,1.6999808587969694,-2.8766530045304872,1.046071629755844,2.984591589134034,294
-83.35680051034679,60.380864348298054,58.141943794357545,37.129246755042566,90.72679597808818,59.563639001953625,-52.35019087756605,-54.98712212567344,-20.026352744391424,5.845215784693987,-1.3206843858750388,1.6313675825679126,-2.7865558290380434,1.0030078264532076,3.211153285418867,295
-82.67273774026415,58.3242982213607,59.51445643470328,38.797724533417885,89.74731968128384,57.07869425941213,-53.57926353573109,-55.652284603066846,-20.73003052963884,5.769811104263405,-1.2024994554128665,1.5161637877103455,-2.844880175482776,0.9281547565579339,3.3827923315588833,296
-82.59610286405186,55.83304803078982,58.880183226490644,40.41284528799667,89.66814883463778,54.32869425941213,-53.10897551922067,-56.074874644762936,-22.03358346359841,5.753541553178309,-1.046390344228298,1.4034993898949446,-2.9241601613541564,0.8369114039438289,3.4970492178109662,297
-82.53330348982266,53.3130118961961,58.37870395907084,41.984248356947454,88.35602901902934,51.57869425941213,-54.02503992640061,-56.38849281992333,-22.486914603136814,5.733300317145494,-0.940734611727213,1.3185709012961218,-2.9418090610175263,0.7423433251543324,3.555698722032312,298
-82.36318590905368,50.77985085517361,57.868584619090505,43.59631314493168,88.0220682616994,48.82869425941213,-53.36582271286019,-56.61490813284642,-22.777663792024935,5.689510096342079,-0.9001381714785662,1.2663023136708633,-2.9542048760392485,0.6847920935504699,3.563444810788387,299
-82.0635215242372,48.169092185838565,57.35397386097,44.79380110055367,86.47877402053967,46.07869425941213,-54.026519508276735,-56.855891076295904,-22.439502709094484,5.6841685691650135,-0.9358318749473081,1.257919297606182,-2.9293812154228105,0.6246244463254581,3.5694226509937526,300
-80.66425656455354,45.85683627788188,58.3293630888459,45.83772895268604,85.6728931649036,43.32869425941213,-53.50677398217555,-57.06745392570923,-22.17594995612856,5.776918428902352,-0.8990578303841581,1.2285159315555672,-2.9082979928378334,0.5449576728554485,3.5438519988145964,301
-80.0663479598986,43.10683627788188,57.57628206665902,46.93484697717844,84.38038805674441,40.57869425941213,-53.13911771876521,-57.18729728739225,-22.142470317075546,5.952656598221731,-0.8282987864353337,1.279471495725926,-2.878261698717437,0.4711124468704991,3.5437359574595715,302
-79.4058921898065,40.35683627788188,56.79353521647195,47.7806348155552,82.85091477791404,37.82869425941213,-52.46651085415033,-57.29224164545873,-21.840059584498036,6.097525995287808,-0.8490337387304888,1.3503971030791664,-2.8088480932264197,0.4176081269693651,3.582336336310386,303
-77.64516061649671,37.802977750521364,57.40527575332767,48.647427599707406,81.06659620049003,35.07869425941213,-51.47435043185436,-57.352065139427815,-21.51773788486224,6.223425822429001,-0.8637009855262137,1.3619973834395303,-2.711209036063201,0.3606836911354042,3.5826264501354808,304
-76.7525652524324,35.06077931979815,56.619539576600744,49.65228615348629,79.13122330216876,32.32869425941213,-50.38562244878289,-57.30604156119314,-21.400863532798652,6.323886599295416,-0.8353507327037409,1.4202805870102848,-2.673225474464689,0.2873901134858356,3.597589311074228,305
-76.54762656741798,32.31077931979815,55.119539576600744,50.41971441330263,77.15243855657326,29.57869425941213,-49.21945683709287,-57.3115915245537,-21.178347215113085,6.293765166973719,-0.8785042401184151,1.447305158500135,-2.703487076131354,0.22588199747847137,3.622281567313912,306
-74.90782491447389,29.56077931979815,53.619539576600744,51.00140101897934,74.68169131102083,26.82869425941213,-47.71945683709287,-57.35828855033344,-21.191902941504026,6.190510457103928,-0.9718240138421996,1.4567161840744522,-2.6977238758487965,0.17616946355855795,3.6452750918847094,307
-72.97494080472522,26.81077931979815,52.31428325285544,51.438004024541776,71.93169131102083,24.07869425941213,-46.21945683709287,-57.265591284666435,-21.347848041249083,6.113391659753042,-0.9974769433873457,1.4809487435451296,-2.659763760102017,0.08979886406954994,3.686704995258443,308
-70.22494080472522,24.234495109938518,50.979269898754445,51.75156145202624,69.18169131102083,21.32869425941213,-44.71945683709287,-57.13110968322474,-21.16276742221999,6.161431305301452,-0.9883691584509594,1.522506339815938,-2.6511673012649233,0.011119854305961947,3.7254440150043338,309
-67.47494080472522,21.484495109938518,49.479269898754445,52.14594025163899,66.43169131102083,18.57869425941213,-43.21945683709287,-57.06724727149937,-21.31153120152984,6.254712930191153,-1.029820328738919,1.5290085629956482,-2.6254004073337476,-0.03358983801297761,3.723593499443839,310
-64.72494080472522,18.734495109938518,47.979269898754445,52.525282523082275,63.68169131102083,15.828694259412131,-41.71945683709287,-57.090784539065574,-21.782134793677255,6.2533916928661455,-1.1045462788214138,1.5436213027251802,-2.57021537109713,-0.07355635608474054,3.695255130015799,311
-61.97494080472522,16.40388527705609,46.479269898754445,52.77114996784135,60.93169131102083,13.078694259412131,-40.21945683709287,-57.0849098327057,-22.32093780421689,6.155498941769782,-1.164000457357252,1.5459019262253522,-2.536887762023689,-0.10714128153184922,3.6350474442987184,312
-59.22494080472522,13.65388527705609,44.979269898754445,52.938244605184565,58.18169131102083,10.328694259412131,-38.71945683709287,-57.21255477459187,-23.007555796190513,6.151925781111053,-1.1847634780895229,1.5684783616139188,-2.5463432351780515,-0.1381692478223468,3.565979388193957,313
-56.47494080472522,12.06071338987743,43.479269898754445,53.03007159331831,55.43169131102083,8.608135174898603,-37.21945683709287,-57.616217276074465,-23.073195710141604,6.27589051776789,-1.2018469671116534,1.6319670391373662,-2.548167322360803,-0.18328046974614523,3.517128164719328,314
-53.72494080472522,10.266428948796511,41.979269898754445,52.93593425941649,52.68169131102083,8.740873427152929,-35.71945683709287,-58.06044507535351,-22.636079038095524,6.39785526226027,-1.1939020929791684,1.6769374697097201,-2.5947363701848047,-0.2568846476587827,3.47714253087597,315
-50.97494080472522,10.229676689849455,40.479269898754445,52.77546664694135,49.93169131102083,8.654685723905718,-34.21945683709287,-58.47529580341873,-22.76184633968785,6.527358798683271,-1.1572254409134923,1.742673320032466,-2.6329861867978432,-0.30343496897101513,3.453669468347117,316
-48.22494080472522,10.113013390460381,38.979269898754445,52.663226159916526,47.18169131102083,10.010159379755995,-32.71945683709287,-59.034758699502106,-23.42127427207123,6.658897529397864,-1.0924566629551202,1.822068904654682,-2.6146559755963166,-0.3549245400646918,3.4138252753982568,317
-45.47494080472522,11.681717532169424,37.479269898754445,52.556897011903374,44.43169131102083,11.555013422275344,-31.21945683709287,-59.79535809550268,-23.91277424777632,6.753053382587394,-1.0784507905142326,1.854562115107452,-2.608378259944377,-0.39204424880041744,3.30393158230923,318
-42.72494080472522,13.126033288826982,35.979269898754445,52.40157875104043,41.68169131102083,12.577140775577899,-29.71945683709287,-60.671945127162275,-24.23503983460103,6.822266614455722,-1.083199209637572,1.9138924903780388,-2.626558413001435,-0.3876102222114885,3.194779063949343,319
-39.97494080472522,15.533869953945576,34.479269898754445,52.35654457050245,38.93169131102083,14.010617721453555,-28.21945683709287,-61.491570694016005,-24.23927331041152,6.964460350821569,-1.0841165435411577,2.0098903598030087,-2.6065693164658246,-0.36028178444438774,3.124550399740767,320
-37.22494080472522,17.767182848378038,32.979269898754445,52.29313743395037,36.18169131102083,15.816242720804002,-26.71945683709287,-62.49227439985692,-24.634409407690267,7.236176839619645,-1.0229025958339288,2.0264020099713167,-2.648636212705534,-0.31739309228151114,2.9798787505316082,321
-34.47494080472522,20.517182848378038,31.479269898754445,52.33859901634783,33.43169131102083,17.588493451431464,-25.21945683709287,-63.631155225642985,-24.46196835451394,7.546078013088977,-1.0360032937929693,2.1035594791380294,-2.685543928442348,-0.25782354689217757,2.79210804197082,322
-31.72494080472522,22.534690191825955,29.979269898754445,52.761297432784325,30.681691311020828,19.15260134795567,-23.71945683709287,-64.67620792496557,-23.852870395361563,7.7254571444724,-1.0700334454402058,2.2440557693445924,-2.6105956019026286,-0.23774169180880175,2.6179072319824193,323
-28.97494080472522,24.93497322370268,28.479269898754445,53.38785428005669,27.931691311020828,21.084203526994465,-22.21945683709287,-65.77076250172986,-23.460142404402763,7.826462555896916,-1.022077548014236,2.323345864606619,-2.5730640232045565,-0.26059488515695084,2.413558698470395,324
-26.22494080472522,27.004607842222722,26.979269898754445,54.07238232497643,25.181691311020828,22.404588231116513,-20.71945683709287,-67.08481727484195,-23.32238316175564,8.024158092715497,-0.8888294889523045,2.3635228755323054,-2.5453179658149474,-0.3083420484288445,2.1500877823349627,325
-23.47494080472522,29.257220092280402,25.479269898754445,55.00089792741122,22.431691311020828,24.118024144712464,-19.21945683709287,-68.49158740522388,-22.733333688449722,8.272906836434569,-0.771746691349952,2.486592446760489,-2.4740229073796827,-0.3970455270972275,1.9029034664754176,326
-20.72494080472522,30.927847859422485,23.979269898754445,56.19151439149717,19.681691311020828,25.29720538811433,-17.71945683709287,-70.12538411611204,-22.06145090763935,8.446393363288294,-0.7221865490968565,2.6351459779484445,-2.483530155172368,-0.45703073185864695,1.687925078225209,327
-17.97494080472522,32.681393776673296,22.479269898754445,57.72409515424368,16.931691311020828,26.86529227330531,-16.21945683709287,-71.79220773544033,-21.08746274775039,8.605798142611262,-0.7165268040099868,2.7299041808472273,-2.4584010949112196,-0.5233119931426115,1.4738694515966109,328
-15.224940804725222,33.89908346701239,20.979269898754445,59.377131637496895,14.181691311020828,27.907469816117544,-14.71945683709287,-73.46509680869293,-20.4587737481341,8.927621628656212,-0.6777822019739299,2.8774087846602607,-2.4571861368076995,-0.6184415556942892,1.3334653499328526,329
-12.474940804725222,35.04464323419124,19.479269898754445,60.95923573611287,11.431691311020828,29.20573058496581,-13.21945683709287,-75.21778667619064,-19.478322820677597,8.982475427760805,-0.7172160388666371,2.968896442293142,-2.551445854657347,-0.6654630834479808,1.2187195440817535,330
-9.724940804725222,36.57584787608331,17.979269898754445,62.38855334254848,8.681691311020828,29.95474824257227,-11.71945683709287,-76.94614921010525,-18.69953229804122,9.034546919697853,-0.8002813100248617,3.0087252952737913,-2.5709010566024895,-0.6761563072655147,1.0839443699341897,331
-6.974940804725222,37.47689608612619,16.479269898754445,63.71538066778848,5.931691311020828,30.680192942198076,-10.21945683709287,-78.51292525763783,-17.534480899757327,8.971789117572666,-0.9269439337888141,3.130224832692107,-2.5426716364931403,-0.670952383514733,1.0012899423047263,332
-4.224940804725222,38.256152786531736,14.979269898754445,64.84552731334024,3.1816913110208276,31.236319332950124,-8.71945683709287,-80.01473842911933,-17.123684497208192,8.987248902377544,-1.0820208906745525,3.2415477056844755,-2.5573798269525065,-0.6280674077535158,0.9567625802191629,333
-1.4749408047252217,38.92010313019687,13.479269898754445,65.82067639749481,0.4316913110208276,31.656735561822753,-7.219456837092871,-81.40213075556909,-16.557655144819666,8.97643410516491,-1.2406478352709565,3.291156228438826,-2.6112711361607617,-0.5768305853802564,0.8950039613573934,334
1.2750591952747783,39.5306791784053,11.979269898754445,66.52325867867641,-2.3183086889791724,32.31163465457477,-5.719456837092871,-82.6812514461531,-16.15050192523525,8.994983145532446,-1.3051495753862703,3.319424604118408,-2.706278848213152,-0.5758299163294939,0.8141658960898853,335
4.025059195274778,40.14220281458593,10.479269898754445,66.8414610672693,-5.068308688979172,32.28694741380674,-4.219456837092871,-83.81995425205963,-17.112592351222368,9.078947103134324,-1.2842954067158545,3.399293608979401,-2.7920740876331056,-0.5865890267077378,0.7885341160501579,336
6.775059195274778,40.79985819212106,8.979269898754445,66.73393895805103,-7.818308688979172,31.98123575702038,-2.7194568370928707,-84.90537189828798,-17.841352678800863,8.943960748475469,-1.2025574833254717,3.472096673356077,-2.8590934050279264,-0.5880291002229902,0.8384049943999273,337
9.525059195274778,40.80832783195709,7.4792698987544455,66.40815066896766,-10.568308688979172,31.618160093405276,-1.2194568370928707,-85.76437628263693,-18.271684918660803,8.83153010694379,-1.1329200703938995,3.4545305014046246,-2.9241229213040163,-0.6217966731984611,0.885345811378514,338
12.275059195274778,40.97184076412191,5.9792698987544455,66.03181097258562,-13.318308688979172,31.13306444709874,0.28054316290712933,-86.36342900608821,-18.350788919851823,8.769124589244761,-1.0537210379218829,3.4366020198062186,-3.0364692902129713,-0.6813473829971279,0.9373455063327689,339
15.025059195274778,41.056959115704736,4.4792698987544455,65.49062362693154,-16.068308688979172,29.750858177154978,1.7805431629071293,-86.88524538041163,-18.60842132316334,8.68110377407086,-0.9368632812147584,3.478915376181018,-3.219452193983597,-0.7143346985232807,1.0599238238894098,340
17.77505919527478,40.9847473095952,2.9792698987544455,64.76805209866022,-18.818308688979172,28.773659759860475,3.2805431629071293,-87.20832299240573,-18.394786879614376,8.52250168489232,-0.8599796917596676,3.4912187594688704,-3.413703394404238,-0.7488976596432451,1.2341682238968694,341
20.52505919527478,40.21011636932932,1.4792698987544455,64.01958852002055,-21.568308688979172,27.743864591946735,4.780543162907129,-87.32693804073394,-18.11690118577994,8.385186465998471,-0.8439563392592324,3.4883048988140386,-3.5600186412143358,-0.768952075741603,1.4492262241330112,342
23.27505919527478,39.59172538155632,-0.020730101245554522,63.374449956453134,-24.318308688979172,25.929945469068233,6.280543162907129,-87.39045055826465,-17.685214662938865,8.004220111296927,-0.7694620230695729,3.400102446635677,-3.7063592218518187,-0.7965286961072995,1.632142926624799,343
26.02505919527478,38.38938590054981,-1.5207301012455545,62.774465650332274,-27.068308688979172,24.42293671164503,7.780543162907129,-87.40313319448887,-18.13370539960073,7.794613968649908,-0.7096861855620983,3.219235147876092,-3.8221657228042147,-0.7811701676742613,1.72487710655555,344
28.77505919527478,37.187986883345026,-3.0207301012455545,62.31189456937272,-29.818308688979172,22.9693880104129,9.28054316290713,-87.2121800272356,-17.656894591324864,7.598974461020485,-0.6851804366557255,3.1188761928723654,-3.8854607067229376,-0.7977432237695277,1.836848549125459,345
31.52505919527478,35.52961248909134,-4.5207301012455545,61.85578353452749,-32.56830868897917,20.792903291246606,10.78054316290713,-86.91113170993151,-17.14092626063918,7.422740696372948,-0.5979276240292678,3.0578610395917516,-3.9538352908018144,-0.8580758075519795,1.9962098009994453,346
34.27505919527478,34.01659209228537,-6.0207301012455545,61.4274472865404,-35.31830868897917,18.441308540389297,12.28054316290713,-86.62999807880436,-17.188823614357215,7.2871822435039855,-0.4843101415105243,2.902669603135064,-4.000976003429101,-0.9140323687495439,2.0867037890068088,347
