JMW9912/AVATAR/Dynamixel/dynamixel_control/data/csv/poppy/.data/waist_test/5DoF (2P+3O)/0429_2056_WMCA_Dance_5DoF_smpl_motor_degree.csv
theta1,theta2,theta3,theta4,theta5,theta6,theta7,theta8,theta9,theta10,theta11,theta12,theta13,theta14,theta15,frame
60.17860926256892,40.71628458369963,-74.53728161672325,63.168621282721396,-53.05031920648026,31.886585400205973,73.0141661730025,-83.61950590879233,-10.455021489073225,1.5834420755185565,0.06859205493715492,-1.961819866963327,1.1562913723494612,-1.1823844231307195,-6.960736768844729,0
69.54538349384949,35.5263409480046,-80.53728161672325,57.612365629377386,-64.05031920648025,28.085098732068083,79.0141661730025,-75.00476110797153,-14.872152140018299,1.4272224672128166,-0.27668104506581864,-1.2068962213312173,0.2679853668765421,-1.2761731369240323,-7.404619301658928,1
70.60189955865928,36.73019589967299,-86.53728161672325,54.73731545372218,-63.70571047784597,29.421986860093835,85.0141661730025,-70.84997433539274,-23.85639108984812,1.2329246160092804,-0.19157802595489012,-0.7493030869893754,0.5723032871180568,-1.0561382660419776,-7.643961006780055,2
74.86782884105472,46.30863470761641,-89.77072747853218,43.73731545372218,-70.1009774715476,38.134886771756456,88.45308123352413,-59.849974335392744,-34.85639108984812,0.7459012776104965,0.266667729951682,-0.41190624213186683,0.8572203085498902,-0.4136613634958284,-6.486428837149217,3
78.20981388130028,56.006330844313524,-90.80841249037343,32.73731545372218,-74.51390999131769,46.30913818794587,89.74284671976346,-48.849974335392744,-39.411043438566146,0.6446796319927679,0.7132197320259105,-0.7424157274778649,1.1041154587508644,0.36667838673809844,-5.764445795882354,4
79.55620012407718,59.85303024891096,-90.35762440513096,28.2988228620898,-76.29536572521135,53.148267570533136,89.05074401148809,-37.849974335392744,-28.411043438566146,0.6161513033577015,0.9675783571785765,-1.1558187857338922,1.364414480408404,0.9662003353997543,-5.512796099359464,5
79.12464535834904,61.770975044512625,-87.93766781665727,28.29882286208972,-75.98866215424128,55.21316406674994,87.06367445692663,-32.00921395324008,-17.411043438566146,0.8285837568117085,0.8963010436822679,-1.8033970094552672,1.103486169147834,1.390713069036011,-6.309001027817905,6
78.26096820446472,60.961802213050014,-84.97659748591259,28.298822862089747,-76.53562483074279,53.75914047102211,86.6091511482066,-31.527307496295137,-13.914702103333846,0.8401162335610554,0.8792440155395524,-2.0446943505308894,1.17568560635202,1.324309824416534,-6.79518770959764,7
77.74872419997278,59.229552158475336,-84.4248329502666,28.298822862089647,-77.11061799232738,50.871400278061145,88.74804735221791,-33.28523661857978,-23.247266276187926,0.77512213310049,0.7151201573969508,-2.2953323341959813,1.205458927322791,0.920396832569072,-6.860577799197421,8
77.05647143691525,57.63676288782371,-83.70190016560356,28.298822862089594,-77.29220847046898,50.2487034142993,88.37166327381327,-32.09278016972014,-34.24726627618793,0.7232010870520531,0.5663310751242754,-2.2438069887709786,1.2155321421984138,0.10525561628495372,-7.001409238707076,9
75.42769035476783,56.561281148956404,-82.80200508290511,28.298822862089544,-77.12153836619697,49.83924609685204,90.48597593283502,-31.86010788663621,-45.24726627618793,0.8503142957517322,0.3995862088581018,-2.2614989503248735,1.2478900404299231,-0.7712757181995297,-7.11854138183509,10
73.18452393048157,55.11458399877382,-81.52122501553367,28.298822862089875,-75.40534472999191,48.713233566662595,89.56002177270825,-32.647140803505714,-56.24726627618793,0.9778897454514487,0.18137712256145877,-2.122932016061456,1.2158670537834158,-1.5629537405464295,-6.67415759221743,11
71.91662085066578,54.801820922979466,-81.05181616850278,28.29882286208985,-74.06297232490371,49.1630384594373,89.0586760746564,-32.42919175125177,-67.24726627618793,1.0914924256009169,0.07552854852835973,-2.160775391959248,1.2613247165268828,-2.1230166637897643,-6.4525336728748215,12
71.1242869138595,54.79528668607078,-80.90718255630517,28.298822862089647,-73.05581364022147,50.003617654962284,88.80739742759826,-32.17700472013975,-78.24726627618793,1.1286672740111747,0.0507101630069604,-2.070233832345121,1.3521131256919867,-2.424407917005438,-6.142567701107497,13
70.56658290240917,54.56753427070455,-80.78625303238357,28.29882286208985,-71.30290051235826,50.65677299011551,85.79551079839403,-31.74868386427097,-81.28377455861668,1.1441285849431826,0.09355065860093145,-1.9869836721673784,1.4033985588369067,-2.4955371324719127,-5.664197834810801,14
70.68295782539073,53.07864349208517,-80.12378297443519,28.298822862089697,-71.16676367461179,49.90196153617983,85.81865045454454,-32.316855289463,-82.6248102691605,1.1500838327397243,0.1137224873005256,-1.8907299040184502,1.2020212730228663,-2.6169153451318783,-5.402304216920444,15
71.48538177214361,51.204312163527014,-82.21965595570336,28.29882286208962,-71.19129115679223,48.371034337242826,85.70487987182449,-33.41374744154471,-84.62684693619946,1.1282199163366955,0.2142991869915771,-1.8155712051767885,1.0477196643175453,-2.7013719246725096,-5.129563263565723,16
71.79890357568311,50.08743155228072,-81.87899915004348,28.298822862089647,-71.04951038897039,47.313959444973555,85.5046140517708,-34.05070644148657,-84.716657000037,1.1011763603811717,0.2958798272615393,-1.7633613341398,0.9211536860658287,-2.681691952183236,-5.021869851619897,17
73.27493672792872,46.04168622402231,-83.79011950084477,29.831955398054966,-74.17309974177404,43.279970358258176,89.77343950749183,-36.50399192967609,-73.716657000037,1.2417372108594753,0.6155430198892856,-1.9197183904617618,1.5046663775715403,-2.956303127806211,-6.678540096556327,18
75.81233664111029,42.03968190989016,-86.09774713280002,31.026575144585824,-77.21338158427312,40.286502515956855,92.22434082997081,-37.26978086090617,-62.716657000037,1.4423936251974696,0.8549281125057634,-2.109730599583446,1.7223288285658604,-3.32513216271704,-8.213977336857353,19
77.1951169123467,39.9789927246868,-86.45844600481351,31.004025450369536,-78.40732674977023,38.78409740649071,91.91776683314215,-37.16263170311537,-53.75006406365192,1.5439414905210371,1.0348717927006805,-2.2420567140617393,2.152804150863481,-3.4009376764987245,-8.780739471311854,20
80.14311844620165,39.97225534366356,-90.5496280408163,30.38605101908572,-80.63067177044601,38.94976414733721,94.69712877582695,-37.01612565295113,-50.30610343289727,1.6927221909862493,1.2789652447259492,-2.4736191659398643,2.6157074017677076,-3.5588342490356824,-10.047617291908916,21
81.56851356407174,40.47812489729868,-91.39774385058502,29.419468457190625,-80.88528059340048,39.28880257448295,94.0895466998511,-36.68624640197513,-47.922861331705555,1.7617977844720556,1.4670220817313357,-2.5827866143094966,2.9847029487682173,-3.6401354336392435,-10.869221621343911,22
80.11458776324758,45.19569913320695,-87.62237249501274,28.40103408927075,-78.94045858486483,43.17750521670426,90.5601381225439,-37.28604873452272,-45.814856282501154,1.5897274519609343,1.8485633780869337,-2.8716384988345074,3.836782602389342,-3.8529663287598592,-11.29614985443309,23
78.96269222238604,50.93330163085152,-87.3001394350365,30.56211959959714,-76.16347940535226,47.77962885967384,87.63191215677661,-42.29376464250697,-48.242015239838864,1.35979826008979,2.016534513614967,-2.853001997664316,4.50632630108994,-3.9457310075153713,-11.82259500459705,24
76.83266397688912,57.03623557155088,-84.61127036847898,38.41757614575483,-73.92274968286054,52.88152904327273,85.51268409413183,-51.25280368461428,-53.14377481814071,1.1023807430513664,2.004380632010125,-2.683518671210447,4.525834808378344,-3.8542331085323633,-12.085718998801239,25
73.14157105620731,59.30132596344021,-81.29753170228791,49.41757614575483,-69.87141809746862,55.2947121930329,80.26048844171234,-60.77587903199968,-58.725466676009646,0.9782223493013978,1.920274921058664,-2.5430362246005322,4.214151532175259,-3.462287296999727,-11.252219191007697,26
71.16898492453522,60.33677993899931,-78.27970200284521,54.26367828402819,-68.37178569045403,56.0329509384773,77.6605413843044,-64.51369822634761,-60.8629483892409,0.9772951736132045,1.8302168022903853,-2.5153459792931163,3.9405006028360816,-3.0911577496854417,-10.741192395362102,27
69.5461967592649,63.43522596854346,-78.09252057375066,63.1043173553741,-66.35128165972637,58.940417991208406,75.64574699566647,-72.86957026095888,-71.8629483892409,0.8260296962064709,1.3751800608078715,-2.2774121645129632,3.612573786243658,-2.581098867794794,-8.690568838486461,28
68.36742151487793,63.91776347087396,-77.54150263261808,72.64715042823994,-65.34992499785365,59.47077077791427,73.5820086649271,-82.11504304216413,-82.8629483892409,0.8541356886141969,0.9600064389793411,-1.9906447838672734,3.0145544718887796,-2.0837505604162776,-6.564268659072002,29
67.27944876299742,63.429318418655264,-76.34713325587813,80.35563159040255,-66.91652103906604,59.254657140429934,74.82977681030292,-88.80566679033558,-93.8629483892409,0.8588269600378219,0.6802023488692459,-2.04883233279183,1.87696610370711,-1.7482813026852424,-6.237967004713984,30
66.98562901149525,60.8749493756849,-75.22590089749139,85.7430442661844,-65.77700227079006,56.286435858560594,72.1540918433174,-93.77078523008474,-102.75696583099813,0.7256903696386824,0.4615575233787529,-2.124891381492722,1.1482443694575368,-1.4167028762257385,-6.665779746313004,31
67.38051438073758,59.26050978844214,-74.52026243642626,86.74284983367963,-66.64384747643915,54.1706079700766,72.08280064260492,-95.42396967245148,-95.26628295661257,0.6935876196738736,0.37495657168002466,-2.0402817611155055,0.7386678960453424,-1.2068736555061865,-6.643397613572684,32
70.3419479714773,53.72252291778563,-75.60784611339824,85.821548250441,-69.83142276150657,46.747838110876216,74.25692965793824,-95.49560873809563,-84.26628295661257,0.7138679229366192,-0.13540287177023924,-2.3577601191909086,0.1458998232081873,-0.917876682628975,-9.138105484037952,33
74.54313964874618,49.23886974676055,-77.34438051748793,84.49026307895437,-70.89277594110254,38.914009512623,72.67525073684722,-97.67365215150582,-73.26628295661257,0.8638299204918343,-0.9674231771440372,-2.590865349684102,-0.1283200847670392,-0.6764704528286141,-10.540662972019357,34
76.93467888832663,49.48259502132658,-77.57741822537113,78.29509904921088,-66.89531944651971,31.481038711781327,70.26186365912145,-98.04643037162778,-62.26628295661257,0.8840470687814985,-2.378962549697426,-2.493756067112874,0.33559249012707454,-0.46809478463463855,-10.912587302168635,35
81.59602999490536,51.90406213017303,-81.3720545992966,71.19466954321885,-55.89531944651971,23.02105355141089,64.26186365912145,-100.56897233929746,-51.26628295661257,0.7041641673074142,-4.5997560268094375,-2.2325491574352214,1.0613554315960065,-0.3732871024890998,-11.205066285730805,36
82.41795680338423,54.64462929773996,-81.66595518837146,66.76685092381285,-44.89531944651971,21.079615671645865,58.261863659121445,-104.15540445783782,-40.26628295661257,0.7585773321569538,-6.019343023192255,-2.1388233947784334,1.42825168955879,-0.3676047945101983,-11.525116786446581,37
80.55687015312901,59.595715301358446,-79.24259205744787,55.766850923812854,-33.89531944651971,20.567829703398125,52.261863659121445,-106.45481985142665,-29.26628295661257,0.7245030760960938,-7.963472496605877,-1.6950277806911929,4.388512667354922,-0.6516018013756857,-10.039137685119442,38
77.97076132262517,63.08462204088948,-77.94607943524703,46.46532415696347,-22.895319446519707,24.554986785394007,46.261863659121445,-111.88981395821956,-18.26628295661257,1.0625669814340162,-9.159993611736708,-1.0653765328040732,8.358832063286641,-1.1180808390298262,-7.913357133617772,39
73.0007754605134,63.941126242460214,-73.8624516031985,47.123898531413325,-11.895319446519707,33.129080731906086,40.261863659121445,-115.75973223339616,-7.266282956612571,1.46847714301567,-10.152092104279847,-0.5774266673708421,10.312278669789103,-1.3388292737631875,-6.448770531317507,40
69.48056327210072,63.33345193552431,-72.09529388707226,53.394175949444815,-0.8953194465197072,41.219321419467725,34.261863659121445,-120.514564374849,3.733717043387429,1.6870949095009409,-10.950572455819882,0.04994145903689295,11.726637016391892,-1.5445550091159772,-4.741322885096427,41
70.00794643690102,63.05019445408978,-75.08219691245417,54.00888746065538,10.104680553480293,43.405359410574434,28.261863659121445,-122.50358348458634,14.73371704338743,1.842271384696394,-11.480546281524072,0.26535711674280227,12.075056693011614,-1.3269243080820174,-3.947112124387861,42
68.84014884095676,62.41911354882893,-74.66724173908777,64.99282844915555,21.104680553480293,48.934471749520235,22.261863659121445,-124.89943591604401,25.73371704338743,1.7287548689403667,-12.388666972545842,0.37388902550194025,11.545924811148529,-1.2991118195590838,-3.3244464797683073,43
70.56525499902514,61.72273674399835,-77.19672047089954,69.81413105514069,32.10468055348029,52.917185849515114,16.261863659121445,-127.60045340028623,36.73371704338743,1.6857365500389756,-12.743527075035189,0.338929387292651,11.124419125727956,-0.7518724925379516,-3.40503671175912,44
73.05226769814591,61.57971386308463,-78.79703778715313,71.08196522666788,43.10468055348029,50.73695821549518,10.261863659121445,-129.83682773550677,47.73371704338743,1.644540863230364,-12.498271724077686,0.1488073791118574,10.09149031802986,-0.35467101065086776,-4.276377477899786,45
75.5135261231813,61.5785430705653,-81.11978683545209,69.80603302146014,54.10468055348029,42.07790783325853,4.261863659121445,-130.49872313279772,58.73371704338743,1.5859720739134235,-11.063044833387837,-0.2227315094592223,9.775816533757459,-0.0649174620526776,-6.124264842417785,46
76.64716614268946,61.92533253555548,-81.01405643180428,70.21179675672933,64.29189436061692,39.01760908640554,-1.7381363408785546,-129.37291148078427,54.80768888448948,1.5738486428163123,-10.454369411092845,-0.3791422018480313,9.601467980582486,0.07808775037793887,-6.776430777407084,47
75.74367613340621,61.71509863478744,-81.22280028967303,67.03677068389435,53.29189436061692,28.017609086405542,-7.738136340878555,-125.2778149610504,49.156637444581605,1.3045948827706544,-7.97856194119094,-0.8705472609747625,8.853518914974673,-0.14787966782915413,-7.680506313141631,48
75.3765052438782,62.954545117375595,-81.14301471141934,64.97589051641889,42.29189436061692,21.073508146030758,-1.7381363408785546,-117.0253487169129,56.813641047790505,1.117723545647448,-5.532925503627571,-1.1633819423344245,8.161153395269821,-0.5059987449135458,-8.286899920124364,49
72.72603213435703,65.46186838305753,-77.29611247835275,62.13084604509596,31.291894360616922,32.07350814603076,4.261863659121445,-106.0253487169129,67.8136410477905,0.8830513641828482,-3.7568862703433923,-1.4538568285219293,6.443693619041092,-1.0563007890129286,-7.667268351315431,50
70.55479422902391,70.00507246363911,-74.91062269458087,58.743199255174005,20.291894360616922,43.07350814603076,10.261863659121445,-95.0253487169129,78.8136410477905,0.753608743243642,-2.0982588886991214,-1.823717725294368,5.787368096207869,-1.5917034492465938,-7.097126273190499,51
69.19657124594569,70.95124549021968,-72.14158862664414,59.720974677409835,9.291894360616922,51.05021054244614,16.261863659121445,-89.98495613001693,78.18398311878015,0.7332777423780124,-1.6403692366269924,-2.046756087556787,5.329478574678054,-1.8431049244543396,-6.874486922914602,52
64.86272139153584,78.18303799658126,-67.00157778406262,57.333728271165114,-1.7081056393830778,62.05021054244614,22.261863659121445,-78.98495613001693,79.26900388205652,0.5346225624129031,-0.4360227500060912,-2.3994890631000225,3.7947341354339232,-2.048440522220069,-6.151871179518662,53
59.39979699672415,83.29560134563373,-61.76779198811165,58.63198084503257,-12.708105639383078,73.05021054244614,28.261863659121445,-69.98187427843413,68.26900388205652,0.3698067837766336,0.3066157954252153,-2.9640891830841314,2.024815324676828,-1.8420296036054393,-4.783619242825439,54
55.471398238585444,87.70170840187642,-58.32098496739228,58.351245885447895,-23.708105639383078,83.72220474175542,34.261863659121445,-64.46455370934555,57.26900388205652,0.3576998604688296,0.6154511825933769,-3.4129769414257165,1.2300635834519877,-1.439008883130442,-3.626428499624774,55
52.39782731494204,87.12843167099149,-55.83089739307462,59.22876233862798,-34.70810563938308,86.1514101011982,40.261863659121445,-61.98289227045613,46.26900388205652,0.5760232504186209,0.49190668979259455,-3.8954112537840495,-0.5740383177489261,-0.830211860235217,-3.8328482998601276,56
50.316783174621584,87.56251491025277,-53.266102817634405,58.93323045520162,-45.70810563938308,86.57827613498556,46.261863659121445,-61.56623058663145,35.26900388205652,0.520875938058465,0.33288694490816334,-3.8910656892942375,-0.9647898662972282,-0.4313737005970243,-4.022493838586888,57
48.94378592568893,85.4294415673486,-55.02078106527928,63.25394900573871,-45.333731804317395,84.97488882653771,47.93078232530731,-64.51519294826903,24.269003882056523,0.6763399217940174,0.1901307010109797,-3.910562281871895,-1.491683181693073,-0.06426146598792781,-4.768343441082874,58
48.156083115064106,83.25345049554416,-56.34278491019096,66.09732348868218,-44.18592567250228,83.85282038546312,48.378745639941606,-66.28062058706733,13.269003882056523,0.931350551167621,-0.0863089730796529,-3.824210015427672,-2.367860374278834,0.4675330766587013,-6.303086263091212,59
47.6363781909801,82.40164405334849,-57.62179258845823,66.41661507467279,-42.5766771122941,83.5022637401102,49.02668999559205,-64.71072527778128,2.2690038820565235,1.2834122976309406,-0.5279052123604364,-3.7683093816440945,-3.477574404764643,1.0165723702999818,-8.119049616298836,60
45.27609726056801,79.81318581406732,-58.861802276734366,71.06707487247643,-37.91733766715642,85.6440830776986,48.07803376600231,-64.66421847533297,-8.730996117943477,1.4660890505226187,-1.7621305880006042,-3.662784099924776,-6.97580897683326,1.7184445649828237,-10.723549226875264,61
42.98553756683427,79.04290117934318,-59.707991084544155,73.75644776416118,-34.28813775135896,87.42117806061175,47.69221830777437,-63.660788487509045,-19.730996117943477,1.7452182065270183,-2.859566623092609,-3.461607963906822,-8.792570052606173,2.394256788354206,-12.506451782951958,62
38.403065428120065,75.56929585174937,-62.83134165117149,77.58353807391507,-27.989468458369707,89.3679060270634,49.142811973319134,-61.48204199021924,-30.730996117943477,2.887118372031366,-4.101731437625205,-3.437094037724928,-10.074288725540882,2.6400769923882765,-12.9836440950189,63
30.55778009909853,70.35633750809336,-64.22278664391459,86.30481131457286,-18.217409599864315,90.5488976025196,49.22860449297221,-64.88222506831886,-41.73099611794348,3.4926381316293016,-4.5895119523809695,-3.148557114151814,-11.221232207907889,2.7459791429746057,-12.21183549330806,64
21.518630029745744,65.75770443113603,-63.43963133662127,94.30521071155337,-9.334500203828734,92.88864049872865,50.279706590478206,-65.454661444227,-52.73099611794348,4.09667827311313,-4.665594167005828,-2.8079005360762905,-12.425987040853586,2.6001094211728484,-10.914051809414364,65
10.518630029745744,63.54903298227464,-57.43963133662127,103.2156261779637,1.6654997961712663,96.9893048980999,50.22364738738051,-68.3418210536593,-63.73099611794348,4.64223385920974,-4.08183753236911,-2.5026348237246485,-12.92241170834803,2.021106378762634,-9.145232660737358,66
-0.48136997025425643,62.95815365101737,-54.652081568318984,108.45376618655104,5.265341446627409,99.44260264534005,51.87912437574787,-68.10418149931108,-74.73099611794348,5.019204871462849,-3.756477882408316,-2.109280149010614,-13.316984243541347,1.6644464757215631,-8.059448155262254,67
-8.662321842715063,63.74654695104093,-52.85665926186867,110.39741103418997,6.9496866735106515,103.11256146083343,53.17980049584842,-66.65830405983834,-80.25329239524487,5.353839732799506,-3.395914446609824,-1.9669003340476647,-13.86305898906088,1.1267557701806725,-7.004642037099965,68
-15.166991728407293,66.26895350199354,-50.093635781112106,113.32407325679013,9.507547264709363,105.77253056793586,53.79736748521644,-70.1119271922869,-82.147317966528,5.6402615512108065,-2.3613846570979065,-1.829728255955717,-13.367285138164416,0.6181629735363797,-5.519555233765654,69
-19.588434836012084,66.05584800135442,-48.23050200361637,116.6588800715538,8.928056550520125,105.25243404813784,56.91971789550721,-73.5473699982626,-84.95589460434397,5.914163523916857,-1.4312383853025992,-1.642553099866929,-13.33143149489085,0.25814412201066894,-3.9097938223999456,70
-24.68541609426335,67.43015841011257,-44.76473141170725,116.93889274786545,10.430413929330818,104.5220639776667,57.310331648923786,-74.47376664547915,-81.07325965747874,6.06835546328429,-0.4582928349221453,-2.021683840655858,-12.83050476643356,-0.095953233296327,-4.250986885348425,71
-26.912124164793575,68.75031745645646,-43.71811181306643,117.38106319326755,11.442708898608318,103.88575746407633,57.88183828133962,-75.39047970697054,-79.70641441942672,6.204618100486431,0.09109204224777154,-2.0164428048090617,-12.274697550254164,-0.265298682568974,-4.659323607035821,72
-27.044470188232452,70.61373685646309,-44.08120856639318,116.80342922682145,11.772772121116464,102.28140046315843,58.39933660145761,-76.22423420784366,-74.661587446383,6.154497765174583,0.31534280040771406,-2.385984188904391,-11.128796835914612,-0.6128422860215222,-5.764482017897056,73
-26.111600057252847,71.15995120811702,-44.21823931700215,116.6400417222741,12.167610463576757,98.73356368030014,59.73502308655111,-79.31383744097286,-69.78698857035404,5.898576590451002,0.5052504099667435,-2.839624530951917,-9.361514136297954,-1.3368943729113367,-8.328415786426378,74
-25.859408404856957,72.14374819490854,-45.08438817269495,115.34304102900818,13.379096854927953,94.38500265285802,58.60032089368212,-82.48949866954268,-66.43654305843003,5.684871775497169,0.9755565510840811,-2.943314429263634,-6.96144482644587,-2.4290599391118866,-10.8897294039323,75
-24.184068581850937,74.87434646875671,-47.06117089432172,116.68339253317647,16.194370120765242,84.86401243103725,57.533945313496844,-93.48949866954268,-68.50035069997833,4.3554043016864545,2.159702293209203,-2.375154713613971,-2.9614448264458693,-3.7202568668185028,-11.758248197560546,76
-24.3620757312184,79.47860638357275,-47.51622320416713,115.86560589927585,18.82590800826166,81.9432234305525,55.28190699106486,-100.08338749481949,-70.6080310175869,3.587861886706301,2.626151021084444,-1.8025148603085097,-0.1786469859246867,-4.398215201412773,-12.209566565140559,77
-21.67079599748135,84.97283520089536,-50.12081786410305,110.932458436603,19.307690619838553,80.20199556020603,55.07806632949322,-106.44908371612259,-66.7601291680312,2.7482605149229706,3.3198542614471944,-1.4511429206950592,3.35715871779769,-5.177673144148817,-12.452662307227959,78
-22.607218753737712,90.45893621143044,-51.321446853159955,103.86158994518645,22.513792532630706,75.93423274947767,53.35482251249445,-109.82973069322968,-69.07400175517131,1.703785097298181,4.136116927560692,-1.1487421687596384,6.701615324391061,-5.530642147465297,-11.772110583179357,79
-19.85652261649645,95.23825090863627,-52.939314673113614,92.86158994518645,22.040900336586294,70.48255481612306,52.23104969959777,-111.82957888766789,-58.07400175517131,0.579593556649417,5.133675708287985,-0.7320593589625457,10.545913622011287,-6.05562847987392,-11.946290722274895,80
-18.131152805912727,100.60877935856327,-54.73865301027853,81.86158994518645,26.574323198990253,63.543532794078615,46.313948037139255,-118.26063730595338,-47.07400175517131,1.0968163723575242,5.966771073636415,-0.3353795615914199,14.545913622011287,-5.856410184585124,-10.815669846207939,81
-16.68710925982672,103.62083207489927,-57.52209553578723,75.54200649181358,29.091974682451458,60.49977571908433,43.03778748077381,-123.47245652293003,-36.07400175517131,2.1070844557162283,6.029150559745572,-0.3078014122980265,17.61277597677734,-5.391998747049788,-9.78766077783148,82
-18.29434979294637,105.50016325252629,-59.13024763248024,76.35959975924422,33.4101692370725,60.51706344371019,39.42025032641354,-126.77998294338433,-25.07400175517131,2.5509880580429676,5.443309260929983,-0.16070652535037946,17.675377093319508,-4.526257041101569,-8.777894025985931,83
-20.591082296573987,107.00152291767563,-60.71747252206985,77.67311617735422,36.91388989172505,62.24127222597084,37.76722044306426,-128.30741034141684,-14.07400175517131,2.7369579604130756,4.831226697884649,-0.007468975748770902,17.714360441273453,-3.8597088626005944,-7.414234668413819,84
-22.05002682431284,107.38231804464122,-63.5924409738867,79.84185820163587,38.79619922392208,64.78809676117297,37.33480217230001,-129.20743193536828,-3.0740017551713095,2.8148989517541514,3.9099839860169685,-0.035068039496242064,16.83045887711074,-3.2530825941459924,-5.91948668923521,85
-24.614674241690597,107.30227211501041,-62.17133831761263,81.18094316795678,40.509604128173464,68.26843705819309,36.580684901783066,-129.80470384666032,7.9259982448286905,2.73645755726363,3.402122116120994,-0.5697908170745863,15.69066185839013,-2.4497528208633694,-5.37328700573049,86
-24.9515688659631,106.2429529640939,-61.80986470906395,82.50530765896976,40.44687645450464,69.58220321458577,37.24428419820748,-129.87331909186102,18.92599824482869,2.604451748646755,3.067440176753951,-0.7907745363244515,14.829606743918191,-1.8949217974270731,-5.102162587408224,87
-25.443323652606548,102.41105553166815,-62.085334436666216,86.81209842495747,39.53004364566044,73.0074405380642,40.04208704451804,-129.03421847638728,29.92599824482869,2.266508692571909,2.4960464402983598,-1.3613260925154589,11.715245069359982,-1.1422363929596997,-7.005811482954853,88
-21.22960661146563,98.38830050243944,-61.79704627685237,84.65987805598829,36.175422565835134,75.4233676217502,43.87363366799906,-123.31887739867481,40.92599824482869,2.075674978237292,1.8485279532098673,-1.7949225068491608,9.112980834757893,-0.24446360276189877,-9.67279914026295,89
-22.508726075517494,94.1380460350367,-60.763014927871254,91.26682504649055,35.47493474017459,78.20207765226506,46.61647017131839,-119.19971074910623,48.73173207010268,1.4461209535978616,0.6995868569817485,-2.03444085977805,5.826310464961762,0.7655354317949147,-9.833271408322437,90
-21.512115004014507,89.93687449960085,-61.534414063956106,97.59110021948982,32.91065944516129,82.68346817618814,49.81801872943961,-111.82004593073249,37.73173207010268,0.7711494585891334,-0.3304578924591149,-2.026301784180342,1.826310464961761,1.6134005601004613,-10.455479812832843,91
-20.91727213556632,88.11497638053216,-60.63642299092653,100.27604931155446,31.88025313885364,84.41632056356411,50.79068881385687,-104.50269788932556,26.73173207010268,0.9652918049635784,-0.9286037936203609,-2.04894564954186,-0.007228851367910239,2.2120379675468813,-11.140874670754375,92
-21.8788496874938,80.80914021716326,-56.22337032689518,100.86815940161638,29.715319481507912,87.17356537906352,49.248239559428995,-93.50269788932556,15.73173207010268,1.8454049906695102,-2.251098610927183,-1.9115743675162593,-4.007228851367911,2.508937300759729,-12.072213113367967,93
-26.566398104252848,75.87164717846787,-51.364003791691395,104.87021177592142,28.097994617817697,91.03487717868471,48.57643722436277,-82.50269788932556,4.73173207010268,2.970850216191279,-3.2269425672057466,-1.6906289875354472,-8.007228851367913,2.8674190174863297,-12.681795022497347,94
-28.7463431412195,72.13014704442072,-51.135760824999146,110.42538844218795,26.274648992187647,94.4589923034202,50.57803025860321,-76.63045552457389,-6.26826792989732,3.6323258413040507,-3.644507991488152,-1.3056996463361508,-10.498637674656038,2.7483299324360937,-12.720596894957309,95
-33.5770450838509,72.21890329694014,-48.954348652038696,113.1352511025305,26.362002392428277,98.63944859402385,50.69556434121296,-72.57384843508673,-17.26826792989732,4.085890758465102,-3.7607688520659015,-0.8838570205546328,-11.528178570482847,2.310893309487247,-12.294530809250904,96
-35.50072114869804,72.04930600217432,-49.059607937257354,114.71256300792027,25.89839155338974,100.27125808166656,51.528245567652135,-71.42639056504733,-28.26826792989732,4.203621148843634,-3.6164370962112384,-0.6811183270716428,-11.796082586782033,1.85895039942064,-11.884910469286647,97
-42.82541998606491,73.09368657574042,-47.21026322022579,110.67749175586141,28.959117823554585,99.6235529011313,51.451095868137166,-67.50184994610592,-39.26826792989732,4.053757796584167,-2.5066377969170133,-0.3206802778693223,-10.870759908622516,0.6955256848959432,-9.207549129007331,98
-48.404286950974594,76.25131143705381,-43.732798650834,107.73577757419532,33.50347298615097,100.18117649383035,50.345955397944735,-65.95689187856256,-50.26826792989732,3.7411962452697645,-1.2759160750589342,-0.40520630212634756,-10.34520315377658,-0.3581580063988076,-7.430593620448391,99
-55.09576014267839,79.3151687958473,-38.10774011178662,106.72978778040911,35.704833812960786,98.66141651647197,50.62248966609455,-68.66543997848372,-61.26826792989732,3.411308190924675,-0.07679286905590557,-0.527175776432205,-9.902582222467807,-1.18311256859859,-7.505291293506759,100
-63.708767824302136,78.43826074672249,-32.10774011178662,112.04700192752178,40.857263201113696,94.42640906489481,49.199072284710795,-79.66543997848372,-72.26826792989732,3.264205150216872,0.8810873143404201,-0.48475534025773065,-9.316143880778323,-1.8701963645888378,-8.288183659453864,101
-67.33302249964619,80.0311829941427,-26.10774011178662,113.94699816764039,43.38422219334429,93.75077467728258,47.74540280198054,-87.46649473488085,-76.49886920146001,3.0883536516332266,1.5300062426506347,-0.29083064796284763,-8.913993221264214,-2.2226161850630364,-8.977478027790573,102
-66.64552094078387,75.75739537727276,-20.10774011178662,121.20392652873811,50.41965251725607,82.75077467728258,41.91784511423302,-98.46649473488085,-70.90833983340383,2.6792699188578672,2.9616629567199126,0.1251583816422432,-5.324084809889778,-3.0216016036259146,-10.596960213389018,103
-55.64552094078387,64.75739537727276,-15.18568285007565,123.56844206403886,53.29800573514193,71.75077467728258,35.91784511423302,-109.46649473488085,-68.69069002623442,2.2026576717649164,4.1217667166794865,0.3116060043013646,-1.3240848098897775,-4.1864413006520165,-12.96927908250633,104
-44.64552094078387,53.75739537727276,-14.373373903204607,118.19089011415515,48.577047874670335,60.75077467728258,29.917845114233018,-118.63483028307739,-78.52423865017755,1.6505020120528258,4.39930160610217,0.6297952969870949,2.6759151901102234,-5.242171189792861,-15.15888379221633,105
-33.64552094078387,42.75739537727276,-20.37337390320461,107.19089011415515,37.577047874670335,49.75077467728258,28.230468811918346,-112.76620037971023,-89.52423865017755,1.6637735494459929,3.6860757947995926,0.5948739449914789,6.060043999196616,-5.28178870791852,-15.307302641487116,106
-22.645520940783868,35.120463745924596,-26.37337390320461,97.78603678647822,26.577047874670335,38.75077467728258,28.272834033215858,-109.64140721782692,-100.52423865017755,1.6015019213341324,2.9765485071318487,-0.02429647382690044,7.386631676960102,-5.333178086620203,-15.80370527683089,107
-11.645520940783868,29.91813537239559,-32.37337390320461,89.3401254943028,15.577047874670335,27.75077467728258,34.27283403321586,-102.47732696421343,-111.52423865017755,2.355843727157221,2.1151843276494833,0.0686146144355566,7.272743749760524,-5.003496842843231,-15.265560010774408,108
-0.645520940783868,29.99616424050903,-38.37337390320461,78.3401254943028,4.577047874670335,17.80408556674185,40.27283403321586,-93.32392377373198,-122.52423865017755,2.6652198001160734,1.4044002613655644,-0.14277714901101465,7.0648267388104316,-4.595179320426894,-14.31956973810276,109
10.354479059216132,33.74802308552675,-44.37337390320461,67.3401254943028,-6.422952125329665,22.78755813502556,46.27283403321586,-82.32392377373198,-133.52423865017755,2.6661704831854474,0.8541284510119819,-0.4691963797400848,6.601209998359542,-3.945271295126193,-12.76096715109679,110
21.354479059216132,43.255100420717504,-50.37337390320461,56.3401254943028,-17.422952125329665,33.168937778427214,52.27283403321586,-71.32392377373198,-144.52423865017755,3.0814359970396317,0.15293761809412743,-0.5282475294390454,4.695492107184614,-2.81550673869623,-9.882076940952706,111
32.35447905921613,48.45157369388786,-56.37337390320461,45.3401254943028,-28.422952125329665,38.71309426959372,58.27283403321586,-60.32392377373198,-147.17642716210875,3.1060267891069606,-0.21868832829944426,-0.8781417705218887,3.3329427512751497,-2.3712450783870906,-8.644530427166067,112
43.35447905921613,51.31295041834178,-62.37337390320461,34.3401254943028,-39.422952125329665,43.41418873716387,64.27283403321586,-49.32392377373198,-147.6436934992717,3.318430500144893,-0.25108326017261684,-0.9003500766340704,2.4119569618392065,-2.0870740221993187,-7.511174267126086,113
54.35447905921613,51.205717279073745,-68.37337390320461,28.298822862089697,-50.422952125329665,46.11100664759164,70.27283403321586,-38.32392377373198,-146.4571281169249,3.1910544342864724,-0.24530563458778024,-1.2240516783223683,0.9225359165841052,-1.6464894016336116,-7.3284918363317715,114
65.35447905921613,52.608455948917054,-74.37337390320461,28.29882286208952,-61.422952125329665,49.03340650503059,76.27283403321586,-28.799632223600135,-145.58478678474188,2.8843253174027943,-0.32759895564968816,-1.6141479446269031,-0.20980062071013267,-1.01215255261147,-7.657957123614266,115
76.35447905921613,52.902954292214666,-80.37337390320461,28.29882286208972,-72.42295212532966,50.493985937142085,82.27283403321586,-28.29882286208971,-142.10514565703633,2.4586602291298503,-0.6335532599081307,-2.093048376378407,-1.9191133687253397,-0.3065749814804763,-9.73859843510125,116
84.18154714791069,52.59823455196171,-86.37337390320461,28.298822862089647,-81.35083674081696,50.63608004168252,88.27283403321586,-28.298822862089658,-140.4495454960968,2.3639597867717876,-0.7707011874942303,-2.101949753204068,-2.7231682328956657,0.11656005939708901,-10.785845269804273,117
85.14829824056034,52.10321883362497,-92.37337390320461,28.298822862089647,-82.51226480913321,49.937539591191545,94.27283403321586,-28.298822862089683,-137.5006129929894,2.1994754985231695,-0.9397143751148008,-2.320752555374838,-3.2427039707974323,0.5800662517910796,-11.77836874161466,118
86.15768837656209,50.50038972239536,-98.35686338377197,28.2988228620898,-82.99309291442555,48.31033750071407,94.56107113297112,-28.298822862089825,-134.1650680608318,2.0966785239826855,-1.1087398100916943,-2.417519731973568,-3.5850883604622275,0.7824356775467916,-12.648739050107341,119
87.53436216405015,48.28568050618303,-100.37639495826296,28.298822862089697,-83.11099871984008,45.432532983288006,96.85375331385131,-28.597877775907296,-130.5094335228669,2.1136772893268216,-1.399843117749758,-2.4516586025135325,-4.2998796419005165,0.9647983737949459,-12.790289130231578,120
86.43727739982309,47.05802380236912,-99.47334218824844,28.298822862089697,-82.14503986509732,44.00093641504574,98.68603382972206,-29.3849433212373,-130.26944268539862,2.121923888215431,-1.4165119578042837,-2.300553811326366,-4.58110425632817,0.684443390751182,-12.463107321105705,121
87.04059016601647,46.10724500781258,-102.05578285315588,28.29882286208972,-80.82825501599056,42.68292105287101,98.20380303458897,-30.237694517912942,-131.7814095313858,2.0980303356231915,-1.44456404191671,-2.237812529512433,-4.998284935905555,0.38290214623749824,-11.890332013183128,122
86.70927381693825,45.13366104765491,-102.19799448946326,28.298822862089697,-80.04014900034346,41.175417292355064,100.26441786425679,-31.247977045164912,-138.641907183657,2.1503482133226477,-1.192453223335722,-2.0013080474385676,-5.047982245891251,0.06182390028194794,-10.865227345361713,123
85.57741424307001,44.5807222778902,-100.08895650089505,28.298822862089825,-77.41304004958238,40.9062738042982,96.82231165696214,-31.560635479430623,-145.5112577721481,2.2675254421083175,-0.8552688821514698,-1.8253672404545156,-4.8377531688229425,-0.2400879782312507,-9.255352199538622,124
84.10448010892604,44.5253556775492,-97.80456847330147,28.29882286208972,-75.94829674621307,41.33389349788736,96.37868479559845,-31.639611683076545,-151.29964206183422,2.3708456003402434,-0.5047447656175812,-1.6872502238413578,-4.428588899961026,-0.4858555275106218,-8.017253690050296,125
82.0243290391961,44.708706100998214,-95.78905566592042,28.29882286208962,-73.86701539044496,42.13569962713283,92.6440764716783,-31.57320224732627,-154.48280508307397,2.6767458692391983,-0.13586296632362918,-1.4114353540942837,-3.3604017449487764,-1.008005927976982,-6.6137758755734115,126
81.04103471354401,44.52992680529403,-95.96742858225564,28.298822862089875,-72.55588283806,42.217366309057944,91.81972748368392,-32.05457007520156,-155.87987414236105,2.797163619312526,0.06307000279885239,-1.363503373065821,-2.848215051931509,-1.3015718141199166,-6.010362485769743,127
79.57117499386874,44.16773549113837,-93.29444135696681,28.298822862089594,-71.11629190652411,42.036742019711625,88.08400088066024,-32.98674087065785,-153.5483347250509,2.766071565109192,0.27811454064180463,-1.4936366979656992,-2.1873990419696736,-1.577222629045693,-5.949325847690426,128
77.45012137519522,43.04917706012339,-89.82273440982448,28.298822862089697,-71.65194553570302,40.620939999405564,89.64095021419351,-34.47754141950527,-149.75752202808727,2.4861951385923806,0.6135575391263981,-1.8555898252749856,-1.407110336087789,-1.9388085128478643,-6.684034640444746,129
78.22787101334835,40.203495945322594,-92.01084593850682,29.234141547187235,-74.03851124716545,38.31882886748744,91.03329897022884,-35.80933306838037,-145.05432828586768,2.242125583793197,1.0688038631346988,-1.9568106258059899,-0.43531618720720944,-2.3351343113779186,-8.488660207284282,130
80.51800046278557,37.02930093328053,-95.41198853950287,30.333422586494247,-77.49204391889072,35.36666601830761,93.152915060039,-36.81016611584583,-141.9439253159734,2.1268706746019173,1.5544831533498185,-2.1237830493655085,0.6633056025074009,-2.776060911932057,-10.024357862172067,131
82.4368215789348,35.833074630050554,-99.13869218401973,30.390924986184725,-81.19711354261118,34.17572054859075,98.8818829720957,-36.955335731000574,-140.47014726595057,2.0061852573839256,1.9477170335747933,-2.156986497828201,1.6684506913201225,-2.9744808881605422,-10.957660767052198,132
84.46638643216863,35.91512562235523,-103.32604388115963,29.985163130945217,-82.36103377004176,33.94859622421093,98.07814418509588,-36.78526690949706,-140.65714483166977,1.89473366087921,2.292398697794301,-2.2652871667493084,2.8244028874115563,-3.096323305579158,-11.926481973348949,133
83.94411290335456,37.2100290866935,-101.03506456025654,29.110482019779482,-83.00385087096949,35.123405614893365,99.80636033765836,-36.39710940588023,-141.66797830805524,1.7503550994901649,2.5614420816481753,-2.288673204927774,3.7760306531429646,-3.2527277528637155,-12.747144641989951,134
82.16729623493669,39.85848145279833,-98.78503476840504,28.298822862089697,-80.35658808934004,37.27542838665867,95.24046140556761,-36.02646542688684,-148.1702250146933,1.6911839801301554,2.7796659262525405,-2.28743631676448,4.6178330464912225,-3.3567349104925133,-12.78270413131654,135
78.66048694093988,46.759837442613474,-92.78503476840504,28.298822862089594,-76.38097273775954,44.30006326015412,89.24046140556761,-36.23152927455239,-157.01264541407312,1.8097530200174237,2.5807479073469466,-2.2702956691859137,4.719236293631764,-3.188540559612002,-11.883604608754613,136
77.06430998258381,52.42891873631067,-86.78503476840504,28.298822862089875,-73.9624234192819,48.75671579219544,83.70228450117271,-38.01404447522463,-159.06065654179443,1.8720877939358036,2.2876495585929706,-2.234510469160234,4.665471451415156,-2.9655612174623416,-11.2430567740282,137
74.29863537917602,59.179145215490024,-81.84598796569892,29.856785310718678,-70.75733537297052,53.14937885667877,80.01043825789282,-42.89649757684572,-163.49488645140528,1.9131915612941939,1.8138869573654282,-2.0775553814763894,4.174976035621686,-2.610388127721966,-10.418061322150987,138
69.95351738381136,62.666499220550115,-78.33770083189273,39.95731537592205,-65.6721833201668,55.68535817869192,75.21655068334239,-51.708262024050754,-167.51072316699708,2.037586892766455,1.2780011638877742,-1.8453937841443468,3.739296860357004,-2.165541472224726,-8.968652566634812,139
65.60763813499986,65.72108940218742,-74.87090190218092,49.240001894983095,-62.28284319877863,58.23665645211819,73.62491522500086,-58.70495974217177,-171.61430035348474,2.056963320820643,0.92263778783355,-1.6256191080747828,2.9602356778872183,-1.7823413118461617,-7.410544956693612,140
65.20397245934721,65.95499628376551,-76.82559173398099,60.240001894983095,-60.46548644165861,58.896201095322155,71.58137779074526,-69.70495974217178,-177.30824609843455,2.426536540742914,0.5944757673937903,-1.3498473533418758,2.1492619579386236,-1.2257257444495784,-5.747899431204979,141
63.62705746578087,66.66133101284387,-76.7400528202723,71.2400018949831,-60.41059068343484,59.490919425389684,71.96159859427354,-80.48390031821079,-177.70171261394586,2.390729040179984,0.5799234891395032,-1.4452209280904527,1.8240894680190214,-0.9474678144602703,-5.46762472614528,142
63.728267425368095,65.18664163943437,-75.98221231062239,79.70646611876293,-61.88456676012286,58.04766063648862,72.39722530489823,-86.6911990454047,-177.65419676414612,2.231327102537489,0.5089573303842173,-1.714336640182253,1.045719243252792,-0.5229745949648409,-5.881126081239707,143
64.76644984034174,63.84994385294396,-75.18167091409553,81.7421097247443,-63.721615420491524,56.23044604677532,72.67411022782117,-88.481892233246,-177.48114445117892,1.9246271914853539,0.3913430985843072,-1.8711774354727135,0.4006730968174273,-0.22342988159371088,-6.750974566340925,144
66.30298868284771,61.82716171089213,-74.40392429094187,79.80905392786053,-65.04109536458907,53.172551789416,72.40303418083708,-87.07026544198419,-179.0487890273902,1.6497624261196728,0.2074970997849251,-1.989350684830638,0.013084870360088359,0.08807983045352606,-7.686313636455335,145
69.59154031153795,58.32794232823082,-75.8451299978959,74.10297481797275,-65.65564055764237,47.55412562788283,71.91670161584935,-83.27018434920676,-168.0487890273902,1.2589078408894245,-0.47678917902771933,-2.3074714527435076,-0.46896412572021146,0.3799335757590415,-9.198443806997401,146
72.31220298689504,57.60068053247866,-77.56992893326637,70.43220652841647,-66.53323260507345,44.25243988909276,72.3800201860143,-81.19584009174704,-157.0487890273902,1.0195192384533538,-1.184702839120313,-2.433691112226677,-1.160530097013345,0.5929865826702173,-10.325755002909862,147
75.10181185032528,59.480123342254956,-79.89033747022465,63.456279694906506,-62.711457361614464,42.00876827523874,69.49971385390945,-77.39768284347898,-146.0487890273902,0.8865274099241649,-2.251012229966717,-2.4239211955860447,-1.4352353515565006,0.6839787939857721,-11.410558725457358,148
76.74230314599389,61.31652608832342,-80.03122648650698,56.45027079148961,-56.87024729408036,37.529570461973364,64.97261173620291,-76.0803313037874,-135.0487890273902,0.7531816818893592,-3.498068763601991,-2.3165137868786414,-1.0020357699273106,0.5666881000654411,-11.91558792805577,149
76.39289800847745,64.82616648141955,-77.90145759171455,48.00585149655275,-45.87024729408036,33.20125253019659,58.97261173620291,-76.96740467976278,-124.0487890273902,0.597771115371139,-5.326236211078661,-2.3301841426968934,-0.12336750039185289,0.33054959817251583,-11.01557291559151,150
71.63231667658174,68.02184365310542,-75.1337701077545,45.440396768131755,-34.87024729408036,32.38639759895951,52.97261173620291,-86.21192616897602,-113.0487890273902,0.6539656726138204,-7.652465466115568,-2.0809116796249443,3.2436474731901006,-0.37534117524673083,-8.669333134715632,151
68.47482072407604,69.03994209117727,-72.97074909223097,43.53256931761237,-23.870247294080357,37.61742016470943,46.97261173620291,-91.43617593142297,-102.0487890273902,0.9072746916564781,-9.010741869663526,-1.8167169014832572,4.624404228095372,-0.9581138356056026,-7.829641346255941,152
65.63426983414222,66.9265052110032,-74.66411863520224,49.57056469407027,-12.870247294080357,42.78456387137414,40.97261173620291,-96.7931432010207,-91.0487890273902,1.1044503597315949,-10.05108256558218,-1.6465529831204098,4.820662973274347,-1.1287382300116675,-6.577977515889566,153
62.31922772393978,65.99687699237835,-72.26283989491134,55.494970912216026,-1.8702472940803574,47.94463348476711,34.97261173620291,-103.5089035788197,-80.0487890273902,1.2394085744072587,-11.017903526272455,-1.3253607116610995,5.894109864121064,-1.27489280485733,-5.566895116482537,154
60.299821035113496,67.93907337917183,-70.02991454990985,60.37658488775193,9.129752705919643,53.382347459723356,28.972611736202907,-107.04401200623172,-69.0487890273902,1.35594924779506,-12.208618055142667,-1.105136052770133,6.500591878671243,-1.2195336843511067,-4.947251165896757,155
62.09022229234402,66.56354661489776,-72.26405542140066,65.45771654033206,20.129752705919643,57.1253805929382,22.972611736202907,-113.72598027597105,-58.0487890273902,1.3465257428015411,-12.86912688782469,-0.9099703342123707,6.441720694521456,-1.2107734723372343,-5.929428917148423,156
63.834954149382085,67.11693260532692,-72.75865363699762,66.12933798574527,31.129752705919643,59.9365284195372,16.972611736202907,-116.62513259783213,-47.0487890273902,1.303027845556065,-13.176616993220373,-0.7119309703950494,6.50517069995861,-0.956250008633557,-6.289586057153398,157
66.26872304230297,65.48720065963306,-75.56701273024663,65.59209600595541,42.12975270591964,59.723279797403954,10.972611736202907,-118.84785227152067,-36.0487890273902,1.1829951701504526,-12.987054882680251,-0.8643703983163326,6.686265503542375,-0.8343382484683896,-7.134644915295462,158
67.58057103115156,65.051449066673,-76.53293193186241,63.9400182956056,53.12975270591964,55.74721602360405,4.972611736202907,-120.83741670207483,-25.0487890273902,1.0330232308142335,-12.01514830770263,-1.0448728882116252,7.277637430797099,-0.5593348228976613,-8.34467331670808,159
68.48388341806213,64.8751954772811,-77.66392094603252,62.7903381041263,51.146463220625975,46.79540169801804,-1.0273882637970928,-120.69082421020421,-14.0487890273902,0.9594663919301779,-10.466157521816974,-1.2291004421151062,7.709241062034828,-0.24345279043858217,-9.051058541095063,160
69.46735675383748,67.9579872080792,-80.02263993116675,59.01843411236384,40.146463220625975,35.79540169801804,-0.19686307154149954,-116.31350543724479,-3.0487890273901996,0.8774093678735703,-6.952420187007685,-1.7087242285059978,8.389893572822183,-0.44315445651949664,-9.832238694041507,161
69.37471262680069,69.30997953233424,-76.1486995980503,59.097672348973965,29.146463220625975,29.957354401699288,5.803136928458501,-111.61042308095769,7.9512109726098,0.8352888627513779,-5.279503742551509,-1.939150931898353,8.76016942785105,-0.8390996938118837,-10.842744903485608,162
70.08647092641453,71.72907623053119,-74.65943683895699,56.44593701307955,18.146463220625975,33.056149171760126,11.8031369284585,-104.43696227743997,18.9512109726098,1.0196754094565692,-3.548550290827708,-2.116916022659978,8.721306860525804,-1.214626301043515,-10.893000948682122,163
68.61642907003956,75.5803994378506,-69.85157360180305,53.58723939733583,7.146463220625975,43.60722400737326,17.8031369284585,-95.4112493963827,29.9512109726098,1.0793684726090562,-2.073120466846716,-2.487649712642361,7.842471744383272,-1.5831010449619491,-10.586561270272536,164
67.11259469855572,80.10247828840912,-67.07485904136018,52.27955461303056,-3.853536779374025,54.51333485480058,23.8031369284585,-85.21764348496438,40.9512109726098,1.0071016764641356,-1.0157431411088367,-2.8999660059774106,6.346751964316307,-1.718960008175859,-9.659762421195337,165
63.67343932452678,85.62684606551387,-64.37734243113918,54.44010388552286,-14.853536779374025,65.51333485480058,29.8031369284585,-74.7261389707099,51.9512109726098,0.7674388647452365,0.05740018462464114,-3.3290791905257526,4.128732705273985,-1.651408392093713,-8.223169798238146,166
61.634421287690735,87.75968662521471,-62.19204877728167,55.834256426094605,-25.853536779374025,76.17604293596487,35.8031369284585,-69.16529025841605,62.9512109726098,0.48895557612074925,0.4172235203206618,-3.6950926608703143,3.2402922636001676,-1.483883310572375,-7.307289927759562,167
59.66219361801803,90.54127222333574,-60.017561979888626,55.111270178572845,-36.853536779374025,81.39328441788325,41.8031369284585,-64.46586590263878,73.9512109726098,0.36046172716283176,0.5300174529765441,-3.987344647034348,2.367803702159555,-1.1184985705159807,-6.085273272646373,168
56.602051108146384,91.31885623992477,-56.97991877675339,54.181350742749345,-47.853536779374025,84.77276132934746,47.8031369284585,-61.32830134357663,82.23333347276339,0.2626799234577336,0.45517090004541094,-4.303152932424522,1.371656665062961,-0.7543968827132432,-4.7964272267874755,169
54.3771450633241,91.37791969761633,-56.4051451366169,53.093975393393364,-47.17540053436061,86.98686682834823,51.277132636921756,-57.3673729049864,78.42476042468782,0.10618277434103407,0.4109544104392186,-4.374151800914504,0.3220821042730397,-0.6266017203977389,-4.234398358660562,170
50.29788517698841,88.25808128093534,-55.74282132260649,58.695391566904185,-43.52961091747504,86.53602434684979,50.17193068611137,-60.35728845020089,67.42476042468782,0.3298297768248996,0.1822762094432112,-4.520928082054371,-1.115478454778286,-0.11682608098491314,-5.40210886406895,171
48.79321956739359,86.70624507748421,-57.4373613420562,60.80686600562735,-41.781397095908275,85.80880452705819,50.48116068572479,-61.83695514206259,56.42476042468782,0.31613061522428026,-0.003994105632699305,-4.237928358240279,-1.720661547551997,0.29958249255802827,-5.860108413329926,172
48.43483499238844,84.95476353536628,-58.71729569507173,64.88780471758564,-39.89060927913368,85.05047533223112,48.90392695975996,-64.43022168767912,45.42476042468782,0.42150142600668034,-0.3514214503806939,-4.041601808706825,-2.931224803286951,0.9357577178316797,-7.74296893942408,173
48.026004664046084,83.43231437725323,-59.58314547522978,67.95781259470273,-38.53701804910462,84.70201070404512,47.73008441149355,-65.58876008569557,34.42476042468782,0.7183850682550921,-1.1110024298955703,-3.8824324034526856,-4.382943128972629,1.5967128679913822,-10.257616905352528,174
46.56665895415775,81.4766348259694,-60.10095971868046,72.17991254491393,-34.445883483550645,83.83284580012565,46.59533834662116,-67.442442511098,23.42476042468782,0.9082573529653615,-2.2259254899400025,-3.7674796719428243,-5.895986949514641,2.098365940227302,-11.770542808493687,175
43.318098158431816,78.82962244657425,-62.09988027179101,74.37669927288857,-29.974312264103663,87.5105486382154,47.38192389170912,-63.69330652887249,12.424760424687818,1.4986949638255807,-3.4465208641472995,-3.5790674328804326,-8.316334110602519,2.353638114180558,-12.76158756753648,176
39.08821775286872,76.85807091099353,-62.76426958251093,77.63311047864352,-25.637790740173898,90.39617677942965,46.99290892246934,-60.015824390685886,1.4247604246878183,2.2764818581608672,-4.385911521737344,-3.4449877357845597,-9.965101063292217,2.3829912065500296,-13.101748879919986,177
33.6346237027941,72.3999601552072,-63.46018367901662,85.28568548073378,-19.9033753117012,91.70081751693635,47.36587207822008,-61.89134898866115,-9.575239575312182,2.9769074420097517,-5.031341067469626,-3.3214089632538393,-11.26611444773225,2.2586578184685204,-12.305652604801182,178
27.397457130005517,68.38957982508082,-61.97747581691486,92.22880681886603,-12.251796671434104,94.75015687712423,45.07614365119849,-64.30631068523535,-20.57523957531218,3.45515397315066,-5.196584174272569,-3.1314676716811993,-12.442385854521282,2.013028744913906,-10.891084431379914,179
19.62241532989689,66.6135505864568,-59.301137503917786,96.99850291462049,-5.84226598538288,97.22314902633963,45.43539609110256,-65.97603700798713,-31.57523957531218,3.8497604028057317,-5.040788363620591,-2.8366444778577957,-12.716069266819565,1.505711450128144,-10.00829105459,180
8.622415329896889,66.44097013901187,-53.567421207587664,103.68784342626896,4.393474825106394,101.0529125551569,47.13144677134375,-71.24387280843305,-42.57523957531218,4.3906208818012695,-4.1486361311712185,-2.6707699358012067,-12.062751934005428,0.6333897976478218,-7.944033570599906,181
-2.3775846701031114,66.48555505859733,-52.10731857631661,108.84578422886705,7.6008551006046154,102.5028425169894,51.06018543492067,-73.50447883327615,-53.57523957531218,4.798423637723406,-3.663194692408233,-2.3340996090515223,-12.079642626210928,0.17656042064664862,-6.604534873037085,182
-13.377584670103111,68.26566411152491,-48.91717993076666,113.26826214977572,13.720909642144772,103.15867352587883,51.066867202314725,-76.87729325726592,-64.57523957531218,4.970513141861939,-3.0771951065565712,-2.3738896862115566,-11.902164638077199,-0.3168100963484663,-4.756797739248158,183
-22.199203562153762,70.66658855487869,-46.578407902264935,115.64561280201886,17.12974990573417,104.50075260766071,55.63675184474335,-78.74761209369852,-75.57523957531218,5.179345702411699,-2.1014020996811587,-2.43810725635362,-11.92095347338305,-0.8578646371375606,-4.201413026866641,184
-28.16738598744272,71.47631285334566,-42.57858765247449,117.37917859038559,19.834743799926105,102.43909238720512,59.05524357297667,-81.93312292237243,-86.57523957531218,5.251261690737577,-1.1285411645234609,-2.4880937479246863,-11.467931331133267,-1.4158387521650446,-3.6124115103971564,185
-34.65214636184628,76.58955396319836,-38.2424175684766,117.94460553851621,23.38219805975403,100.39383211449419,56.12074821823924,-83.72756304247244,-81.08032922895973,5.111949598558493,-0.1155243756702793,-3.1293959888250065,-10.318300119324732,-2.147908541320477,-5.678822606012698,186
-36.5060484981609,78.83514323208605,-38.37454926783919,117.58714177938343,23.58869302294669,99.06033603864421,56.35937040054769,-84.63688755504464,-78.01675926296345,5.139694129920363,0.5499050875271024,-3.0818485928276362,-9.305081993832424,-2.58653411487468,-6.719790664510149,187
-37.25121291125092,80.1573907992663,-37.60624753523035,117.1942945728057,22.460059093359007,95.50399326497597,54.512317891727776,-84.87942908679535,-73.76243865966374,5.111931412151455,1.3014979530888766,-3.047799113243586,-8.007773292691072,-2.9182582825173013,-8.038115646110583,188
-37.07700524892985,82.66314732368755,-38.179921343016595,116.65942998663417,22.340376759611694,91.08821959375365,55.82651453112717,-87.62734342997287,-73.53983691446409,4.640753306599152,2.2076570274755944,-2.8513791498857213,-5.752697609933919,-3.157504467190329,-9.50346388646207,189
-35.31202848146911,83.79774655878357,-40.62276094609751,117.06065019126974,23.166750171185424,85.55231590959495,56.742357560671266,-95.18794335827204,-73.50034513831201,4.000250352955442,3.375603806295137,-2.2982252760297697,-2.571514298162995,-3.431598009241506,-10.556357412212268,190
-28.58447366385207,87.718447422165,-44.1677498082577,110.10203027857214,22.172446344558747,79.43458843066502,56.72099992011786,-101.72343471329488,-78.56031635044249,2.7247160898129663,4.369858104901512,-1.7877574492334656,1.428485701837006,-4.467021805541873,-11.509819972536334,191
-24.364212398436973,91.44024621644931,-47.69756485485658,104.97822013117464,21.6209800715114,77.80085624940637,55.84166945135636,-105.63169283348914,-81.91632024888115,1.9883186980756413,4.705839609901575,-1.607034207034827,5.4284857018370065,-4.871970610561538,-11.961584150067512,192
-23.43777861835806,94.56970720563666,-48.90653001248776,98.06893414677577,22.977974798766844,75.04690244897232,54.4976071763848,-108.37125805987198,-92.91632024888115,1.2434527802901465,4.790355601834012,-1.339536128228874,7.839993369129464,-4.8874657034622055,-11.472659307394826,193
-18.44585333967256,97.09014034325538,-50.31934144939298,87.06893414677577,22.386275891371834,72.59899455594741,52.30204214047497,-109.98860757684619,-103.91632024888115,0.7499472540905424,5.10081102378725,-1.1515795501940036,10.70216081450272,-5.014742523944727,-11.77735483407784,194
-15.709719561655994,99.61916212716815,-49.79655818816226,76.91313834535063,23.13583102961383,70.55470453866621,46.61867698052856,-112.28330375876519,-92.91632024888115,0.9184072722283366,5.166769879910791,-0.9741838819846232,13.172869538468735,-5.155713948541507,-12.00080082219933,195
-13.243790420263984,102.91859360592827,-51.80333261506633,66.68377388450804,30.361308668659056,68.56812211201967,40.61867698052856,-114.7892455428115,-81.91632024888115,1.9525960983168902,4.6939993270203235,-0.8004783151095322,16.274210042423324,-4.547502262407166,-10.89924413829705,196
-12.719126139046068,105.38851766315834,-51.924081739575406,60.43664602157233,36.12004194605887,69.41541109486754,35.23229449858637,-117.14797274201574,-70.91632024888115,2.7586086715939406,4.317804194155004,-0.6852359724392596,17.777264441395616,-4.139285543695942,-10.186803672140853,197
-15.92092736476621,107.74394281876422,-54.043732237973984,61.82266363355504,41.38465208694419,70.08139998144016,34.0893037961696,-121.34921999114145,-59.91632024888115,3.245792254489644,3.690937129418849,-0.7968104400597729,18.260338262021417,-3.336400543460173,-8.738493871024403,198
-19.1056705313755,108.64938251127738,-58.60583309694092,67.11554034336058,45.40686644655153,73.29901921128295,31.497330098652082,-124.86863602290299,-48.91632024888115,3.2155808976619746,2.539198053728556,-0.7097005348309215,17.48910851436421,-2.7382854797244276,-7.817432667182171,199
-23.126331209670404,108.9444158440523,-58.58074029350901,69.71901792878776,50.42966186104381,78.44176798391285,27.71903851027977,-124.9408308574489,-37.91632024888115,2.9471225467242093,1.5161064598186627,-0.9711231068875308,15.809652292045532,-2.252959536656593,-7.846449123922532,200
-27.31761164031878,104.85181737114664,-58.281395678640685,75.53912716827328,50.693963902772786,80.55595635276059,31.530849468650764,-122.61559558789791,-26.91632024888115,2.2442860390156496,0.9008259094128427,-1.810409392213819,12.177521365472929,-0.9070982797373672,-8.929064327743994,201
-28.019121514684542,102.2445582454372,-58.42488851736492,78.50455636098494,50.5708688772536,82.56243521394599,32.42854039065383,-120.23173425753579,-15.91632024888115,1.753546175404862,0.4699671802290413,-1.8866567171916777,10.340323683722595,-0.16683627979012516,-9.617973715596875,202
-29.17018451061653,100.22143575693468,-59.54583902546293,83.9147600685918,49.56917607457125,83.27360744032872,35.255000963473684,-119.4187514051261,-4.916320248881149,1.4005710900598818,0.19473945025983597,-1.8479895905356607,8.690052411189823,0.45374760757226756,-10.270523676209644,203
-28.705701645844382,98.18614945922972,-61.72585503536675,86.54118784414456,48.175841058835324,83.37283476073445,37.73601966376525,-118.97037297049741,6.083679751118851,1.1691415910486507,0.10518219406417167,-1.640679436661482,7.767703986326736,0.7192490899480458,-10.237202071765802,204
-27.98532109088593,95.51545231774331,-62.925904109851665,89.52723046294616,46.31862122998032,82.99127337744521,40.319668059108956,-117.23868501370076,17.08367975111885,0.8012177487887565,-0.0479280836621167,-1.5209006700257288,6.515359196268023,0.8802730620019595,-10.050136170153376,205
-28.175653931805805,94.69264020120441,-62.74720778744823,91.82666160017503,44.703369805409295,82.04505926541356,42.33668001360837,-116.23306186620331,28.08367975111885,0.585759618045577,-0.018175542894660206,-1.3609788546979193,6.004334612055836,0.835115834243707,-9.918474678722923,206
-25.760556491177883,89.49974947833091,-63.79304422434154,93.93572352539752,39.92807308074306,81.46596875419849,46.335968795068666,-108.55613479808537,17.08367975111885,0.2985095344066845,-0.5900018002283387,-1.2173747175558185,3.4310069926379065,1.1798704340851267,-9.524423900433664,207
-23.422296005632177,83.91953992437448,-62.240904411790034,99.54237394128931,36.33175975093562,81.9120742216254,49.20955192587219,-105.20616810850296,6.083679751118851,1.0770546647211594,-1.095378507586137,-0.710889046493995,1.387766243781431,1.336812184609581,-9.78445935692806,208
-23.37154980100989,80.68564603235326,-59.59951093146753,105.23993692499275,35.23212321616942,84.17822773144856,50.583133493001576,-101.92041167671151,-4.916320248881149,1.898412047894461,-1.2413354990299372,-0.29126153653328424,0.06652174669812129,1.2173173369862853,-8.927202792920163,209
-25.361581327167762,77.26923478908695,-57.94914507396592,106.76013735077086,33.73186658990764,85.57279677265939,53.07536686934294,-95.37393484973508,-15.91632024888115,2.4991105866253878,-1.156887203087326,-0.21052921069246563,-1.326225823010315,1.239744647928486,-7.737768711074975,210
-26.817898833898514,75.24558838794988,-57.21101668830155,109.64508572653153,33.793675218786426,86.45136515138303,53.25465234291072,-92.70831163285195,-26.91632024888115,2.8657268120658066,-1.0462093481956716,-0.0828171854907902,-2.1445528478152203,1.160502518976668,-7.104889840265749,211
-34.75815203316236,73.66588919464961,-52.33846524190567,105.95648637020368,35.04685547381849,87.49615882870893,53.54531124258476,-86.34904767163549,-37.91632024888115,2.943847998734948,-0.3912360056460263,-0.0158634823525562,-2.5272019199587574,0.6933430414344235,-6.110583489655088,212
-45.70181577116723,73.06631911597172,-46.33846524190567,107.24591079457153,38.461832620413695,89.08318908510255,53.42724810551766,-84.5255784296315,-48.91632024888115,2.831580540931148,0.3266744035038562,0.05062820241734366,-3.5319286642075944,0.2181955457481142,-6.036730008889278,213
-56.70181577116723,72.60656715673144,-40.33846524190567,111.64689863574579,46.96681911625706,89.50671845226941,49.29776460630736,-86.40222026809592,-59.91632024888115,2.4942393069231614,0.934833260035101,0.22135341533368,-4.890695621713394,-0.055477852103269824,-6.10229390543984,214
-67.70181577116723,74.62527943368295,-34.33846524190567,117.55584196912774,57.96681911625706,86.52939234807174,43.29776460630736,-93.64048063072089,-70.91632024888115,2.0332888417351955,1.461334987949529,0.6585307231606558,-5.0838522133149855,-0.5178154420456271,-7.156878086064633,215
-76.31345333835172,77.81085438820317,-28.338465241905674,120.60998832415049,62.58288477788116,85.76985181424354,38.71907081898331,-98.31162409769617,-62.497665275998344,1.9591868717293714,1.561943540304914,0.8336639299526049,-5.527216118721599,-0.9587981145608427,-7.873703335149221,216
-72.66025207314615,78.68123553645304,-22.338465241905674,131.07049734491818,73.06123297314146,81.48990787387014,32.71907081898331,-109.31162409769617,-51.497665275998344,1.9821908969889745,1.9605618938326068,0.8594875993161597,-2.017294277645157,-1.8612486467844531,-10.574968802875818,217
-64.06792996051708,76.68107297609372,-16.338465241905674,135.51255835450132,76.89019278923891,76.48663157272644,26.71907081898331,-120.0837659483281,-40.497665275998344,1.9971324421600358,1.7061408144837553,0.9148717857670315,1.3944313856953787,-2.8938166609755074,-12.85777109123702,218
-53.49400672506872,73.83957872193928,-10.338465241905674,135.0194311936556,73.52452562819646,72.56710568977356,20.71907081898331,-127.8640241313854,-29.497665275998344,1.7798049970450445,1.0319053258138633,0.8597942897007949,4.103896069079533,-3.7420866470941165,-14.232324473721308,219
-47.479286264632115,74.41333435822354,-16.338465241905674,131.49737432182962,68.10259971067424,72.53099664225778,14.719070818983312,-133.05045716939765,-18.497665275998344,1.066800100052976,0.007614858069939757,1.0220848954582085,5.522030389868105,-4.743362146803849,-14.706082181364561,220
-46.767490840962004,73.36352482465541,-22.338465241905674,129.1050419255921,64.75173648941539,71.65092322151307,8.719070818983312,-135.75726846814223,-7.497665275998344,0.7788945330528535,-0.6190895302503739,1.218225392589889,5.307828207003838,-5.023895547794536,-14.973407304959737,221
-50.67221707469684,79.85048477563332,-28.338465241905674,122.88917735774191,67.47062665699197,76.33734118753675,9.234042168844335,-136.021508489493,3.5023347240016562,1.3665803210783232,-0.8790284104410672,2.052029084966032,6.548971920017575,-6.406721428384958,-14.438129483696573,222
-49.32743333562882,83.53502276653413,-34.33846524190567,111.88917735774191,72.45790620494873,77.93001011499653,12.87590292450467,-131.8074563142914,14.502334724001656,3.0048056148864677,-0.6050753761093183,2.89758252165709,9.066274064966679,-8.167487803763434,-14.679241190363133,223
-47.793110945669106,86.22347269293276,-38.999668704904174,100.88917735774191,74.65668117705768,77.2555235092077,13.185980073341591,-126.77072642427284,25.502334724001656,4.399219380224495,-0.14318245425758122,3.6630988948264136,11.068994730780748,-10.149133327133404,-15.405451251917292,224
-48.57839757001352,88.00380601976909,-41.50759012425506,89.88917735774191,81.89448774480937,75.02681726656911,10.554273026994343,-127.79947025115764,36.502334724001656,6.219415037438459,1.275672593042387,4.966522468124098,12.94054152654807,-11.792032049701461,-16.06987770072613,225
-50.78579688264349,88.46997470514508,-40.77694917751396,85.02613575520077,85.78514764726734,73.4987666409828,9.620368319773545,-128.4813914061469,47.502334724001656,7.165137121753663,1.6687289386516795,5.433699194878197,12.855063231011716,-12.705627776529179,-15.949197267966861,226
-53.650459904141535,89.75914226671021,-39.88436214497737,74.02613575520077,88.4775868738538,72.79848466885653,12.27913591082817,-121.07105561715875,58.502334724001656,8.357915739334606,3.1085101284318815,5.385301554510895,12.711360503200979,-13.326781359342162,-16.889386730010784,227
-55.759366657519166,92.54201160734675,-37.08321902819291,63.02613575520077,92.91687821456327,72.4534533648746,8.403489880153765,-114.52086401049779,69.50233472400166,9.493220428064319,4.764836232158777,5.250039137001037,13.177863281795842,-13.772003814201147,-17.696933776370628,228
-57.90462641235381,94.91219554869586,-38.02589962378689,52.02613575520077,92.36202396027062,72.13546851363006,6.934717145872369,-104.6967151292138,69.95422110019805,9.675308800493509,5.510921485735689,4.056858583282135,12.58731856749887,-13.356250988468757,-18.13395412087666,229
-60.88590020335198,95.36693982682075,-36.722473256604445,47.64002802282193,90.73327077566442,73.55469813067238,4.719971526485913,-98.61589049642474,63.966657275112865,9.99224418111275,6.143749506366723,2.320406782774567,11.047643357183713,-11.612932805404846,-18.434618894086306,230
-61.9616654478152,94.86120026773723,-39.26023913507959,51.60992370576526,89.9137298692451,74.408456900338,3.55325429273094,-95.31941300156434,60.941309577542356,10.202618187976402,6.433337021171753,1.3775653227294264,10.313028485106383,-10.388157243980249,-18.501439328234245,231
-64.85683838413367,91.58305076852692,-36.38899856989656,59.90397530054148,92.74523561080471,72.32078454392665,-2.44674570726906,-89.8750224403074,60.10311461229324,9.646929866274375,6.654245843419314,0.7580636051925769,9.782671637039806,-8.317192368415654,-16.080762499295954,232
-64.89780529984878,89.89648317515527,-32.105118199458815,68.96042252428144,90.68579597733687,69.56907859025934,-8.44674570726906,-87.44098287869615,57.25191933659208,9.144152525023445,6.557469403966238,-0.37688085233127055,9.134833015509964,-6.226683321813006,-15.280543441526174,233
-64.86482798741795,85.83716475543494,-30.792337707760357,78.73643146055552,89.70894897604677,69.22246328477577,-14.44674570726906,-91.18520795527898,57.48556258460839,8.426789723592002,5.813154625664131,-0.7965306689596622,8.584205453330952,-4.538639672708588,-13.925856190385176,234
-64.08176432981922,84.0789645400232,-27.381193310667253,86.3997908046214,87.12924494312422,69.05979368556041,-15.883082594841357,-94.89124963166336,56.189943491942266,7.477698163581601,5.036402614690803,-1.2207934220892935,7.472763754583298,-3.265206391358065,-13.370837391864216,235
-63.25904648468761,85.04353842975068,-25.995149375569405,86.80905420741304,84.39107346298906,69.56623750439924,-12.896154849541775,-94.6215096025626,55.06052926791641,6.995728495734484,4.717149718614661,-1.1961731683562593,6.737074650372464,-3.0527798385978735,-13.324809478997238,236
-61.94889126806066,83.0802879888183,-21.64927342075754,95.54594208609765,82.03142859405268,69.6144727716676,-17.0095029683563,-100.46389761154062,56.242257366181086,6.021005695188428,3.9615699567044618,-1.2832529561965456,5.643481873140949,-1.9314707166538603,-12.865742869156561,237
-60.02366849864335,82.47427783200737,-20.311279062115677,100.95627689623367,77.39261435358138,69.38059413500359,-14.667227778589226,-105.25700339613965,58.2944116811395,4.982306812968279,3.403013444648958,-1.2306844423826582,4.402717101300679,-1.1320041506063891,-12.214723105724383,238
-61.029323943053704,82.19591428957071,-18.57652958450102,107.71321862238922,74.55731597855107,71.21476662725819,-12.049472286024056,-109.55029841793375,63.29867864277977,4.137970271237968,2.8267055801315415,-1.0831085068981121,2.8669952477517766,-0.6108267529512587,-11.00982336125298,239
-59.9607247720091,80.87555153718682,-15.021563025673519,113.16383620707698,71.43088386603658,74.18719428812398,-10.377777872122286,-113.43133295440123,68.75942096474004,3.4908590588150705,2.3661208928877357,-0.9670389934618482,1.6524775324096295,-0.31027682591936623,-10.326273868856475,240
-59.64124167762475,81.65171694140129,-12.421781263498456,115.04983007192173,70.04208941899967,75.87226437959632,-8.58342774176006,-114.26210309606395,74.2191109476422,3.040205371838684,2.1504903257812167,-0.7469152161891657,1.1010493930753238,-0.36382423749091286,-9.80829097216336,241
-58.91387994448703,79.03903259725807,-6.421781263498456,121.09847733675129,69.64167818831277,77.80526538296044,-7.365731945045056,-118.17411191897438,84.24782166147477,2.7210479525541444,1.8588662088800256,-0.37637150177045475,0.23917750973215743,-0.12731260058548272,-9.264921790324017,242
-58.06275379674249,76.93105172891838,-0.4217812634984561,126.73554103572489,72.03991949338526,78.67351972343471,-9.437030130567969,-123.22261275200975,95.24782166147477,2.313577198687908,1.3829549569413184,0.0807945254420016,0.620914732004622,-0.3009484545120202,-7.815649708063407,243
-58.547282690901795,75.50488909044249,5.578218736501544,131.7338512516667,76.31958464357986,79.80407286189497,-10.493322158242988,-127.37106352693162,106.24782166147477,2.0490171629103577,1.0681482352149518,0.24904848013208067,1.3688856160760345,-0.70550662121425,-7.05213806103407,244
-58.915564022494856,74.89135784286748,9.071812164000885,134.98514133089392,79.08445878526723,82.19655056453179,-10.231841502001354,-129.26113672756878,117.24782166147477,1.8728983080074795,0.9777304188241438,0.3062406518228751,1.8894515812884394,-0.976767081301393,-7.741489767328224,245
-59.668697640350885,75.05647376714309,10.67517283715926,136.12088197086987,79.96408895933101,82.77473907536445,-9.191306325634937,-129.48789865127904,125.76735369525395,1.8703667248643987,0.8410391683000685,0.5558906078691614,1.5488508120343667,-1.2166758930797072,-8.372001202623613,246
-57.911975803461736,76.6172538955507,4.675172837159259,134.0409029424471,74.10302607513887,84.72311387156063,-3.1913063256349368,-130.97260875250583,128.1690009392817,1.7991219069708915,0.6970819764781258,0.8139320753611705,2.0407268330296624,-2.116881609283387,-11.546709704892672,247
-57.13920352081497,77.92203055530138,-1.3248271628407409,127.203681231133,69.85520537625385,85.56750796008406,2.8086936743650632,-127.82034516772134,120.30841398419828,2.1444381186956143,0.6179419835196877,1.1192272575631155,2.5574612170197897,-3.6268880338489624,-14.066437600920228,248
-59.39520908244394,79.44644492664432,-7.324827162840741,123.91315169626061,71.85863149212017,84.43010429189145,8.808693674365063,-127.4337398578167,110.49924974999134,3.108835323241003,0.7270727076399898,1.9767784336915173,3.740385268116519,-5.381582887599208,-15.88245456418963,249
-59.98471872350108,81.50729026150582,-13.32482716284074,120.05987578857187,72.16694288195322,84.50104348517617,14.808693674365063,-126.117425897483,103.49089916263101,4.089863439755034,1.0257830063493374,2.528373439088995,4.442468195764867,-6.983997112238435,-17.308743145365213,250
-59.91077843808699,82.02028051554122,-19.32482716284074,119.16881284238553,72.76139756618316,84.61476344532338,20.808693674365063,-126.53850551271998,98.81523082118072,5.027939523093015,0.9926181998758808,2.835406162620811,4.16213206922327,-7.820500005235338,-17.759550761207436,251
-61.97445250582882,80.30318623216603,-25.32482716284074,109.92150322786715,82.54004618729975,76.68239948595654,14.808693674365063,-127.74030855535277,95.88293082052624,6.864792454330606,2.010450901418183,4.373264478290784,6.3189704970214775,-9.490109785512127,-18.814698209915516,252
-61.19144126777589,81.148519785938,-28.188767528933226,98.92150322786715,86.48347284961363,71.80669483424411,8.808693674365063,-125.66528082569617,89.1592068386673,8.266213849212688,3.086185828934027,4.99271410293289,8.047232327555646,-11.27856861151936,-20.433291664852494,253
-61.202522840934876,85.0116659258665,-30.649009863161222,87.92150322786715,85.6720949169245,70.5789340314249,6.394898138347162,-123.68485270851254,81.91040033259951,9.588836777514013,3.8263513101614035,4.8363374288334615,8.123643340156551,-12.576274760386335,-21.70335921595499,254
-60.8249498024623,87.9388085505222,-33.18777140008181,76.92150322786715,87.9513119420008,68.47388669840198,4.633005576966277,-119.77526283023776,77.1146229992661,10.667056802023895,4.583346276271585,4.696577695820547,8.162437821922918,-13.526611503906711,-21.37123329296344,255
-62.23398210428318,89.87588889604793,-33.86829649091252,65.92150322786715,90.02545334495962,68.04963008079298,0.49330070498616935,-118.68047672996772,73.76796558779593,11.1382612216618,4.758415329649446,4.287341697846503,8.239476451995841,-13.808550842193032,-20.4972544412644,256
-62.13722987849082,91.821712953188,-32.98892671913523,54.92150322786715,91.41328000564648,65.94262157714932,-2.367272544970278,-107.68047672996772,68.4152131664341,11.101286969722032,5.623251182974598,3.0558815773796515,7.997219193562007,-12.756142553315408,-19.20260951489009,257
-63.695911645237054,92.28894047886557,-33.09672578900669,50.27657131763256,90.33147080983073,66.58362368999835,-7.837513816567444,-96.68047672996772,63.520451749138786,10.91067178328832,6.1022100079017,1.6397200428371095,7.186269792623126,-11.12782568247005,-18.010359258619985,258
-65.20933970636356,91.45418868433093,-33.03168224192898,55.08590109476364,89.39442343947917,66.28157137969154,-12.757689407841681,-88.17480650834796,59.70272507490945,10.59354224124071,6.289936960737007,0.42037369651657625,6.585775796318505,-9.310554535884185,-16.673750075005664,259
-68.3489233068624,88.89148813702438,-30.537129364692532,65.77945551007619,88.6870297013088,66.64560472504643,-12.10886994056574,-91.99192062795848,58.18717027590518,10.147285724672344,6.299880016616506,-0.1921343550458446,6.241473234305233,-6.868292253601668,-14.886098725681768,260
-69.07068464476099,87.47037885404228,-31.15202460063346,69.29130012189687,87.3841343112634,67.1713497404456,-8.749458342222333,-93.0442899898326,56.474982193783056,9.603014567531178,6.1399162506187235,-0.4126330158240651,6.305146293972234,-5.696000477761191,-14.097158241752773,261
-69.67081110475047,84.02303402615473,-25.15202460063346,80.29130012189687,84.84834355012782,68.55565301903343,-9.472223376769058,-100.20929657323674,56.91652377837256,8.60885768698692,6.103232475230818,-0.7404094872319514,4.751169579213259,-3.0920863209778613,-12.074961959813141,262
-68.5782297414937,81.71605260180344,-19.15202460063346,91.29130012189687,83.32350373231685,67.44104528841986,-10.070496167068173,-105.50114123385782,59.10868129285447,7.775115045584088,6.378118347444854,-0.8824536073441052,3.1563980178060183,-1.6192463121461385,-10.514220351651469,263
-64.34830497229738,80.01439066365742,-13.15202460063346,102.29130012189687,81.56753774094575,66.12105039825664,-5.169367125791843,-105.45490635264133,60.74014139650424,6.8387979123556555,6.7291498932956575,-0.8783234390454538,1.7716748485111977,-0.08948832006607577,-9.48711758002781,264
-59.1379936065172,78.23548859789945,-8.491650704669642,113.29130012189687,78.08689104640187,66.41800569436505,-7.2518424456755,-108.12804714217482,63.806799436652945,5.675185376292769,5.943310406568677,-0.7935423903077851,0.7330831878062936,0.5862688851813117,-8.887363971889288,265
-56.362329633168066,78.67252982858506,-8.347050892305205,120.41964791582011,75.82226560418417,66.18776281856171,-6.919646647637894,-108.4391984729818,64.85447746360595,4.942512578286729,5.5446089192922585,-0.6311468744029286,1.0313375490570627,0.4860182017943341,-8.597191234244226,266
-51.70633407445163,77.57915217715474,-5.549823435715176,118.16480889853044,64.82226560418417,70.19930749202398,-5.71082494698088,-112.05451551517334,65.72353155314978,4.073818261597247,4.020175769207854,-0.7656379168164541,-0.07388416333490767,0.5849411125754885,-8.535915662474899,267
-49.9803856029436,78.70965816969112,-5.134507111784101,118.17049658042151,59.20551858301915,74.28929846970532,-3.2879061682260784,-116.4562497514342,67.82486500670734,3.060727058027426,2.963547749551225,-0.5765040165416911,-0.2719847159289431,0.45465090599378644,-8.469401434389692,268
-50.82002822931294,80.07290995562123,-8.869827679473511,118.03114101023337,58.10751472903462,78.00634004730965,2.7120938317739216,-118.3605692335962,67.91544510389913,2.1236099147446668,2.167739121903874,-0.3030106146363912,-0.38317288906983754,0.21080325330752006,-8.27115793988776,269
-52.18192390587711,82.82633302958662,-14.312177188685677,116.83630581759463,56.982387904032535,81.02516336677908,8.712093831773922,-117.79268736712808,56.91544510389913,1.217671368454362,1.5700208521062564,-0.0803612004854731,-0.7748139759554519,-0.11320460774051791,-8.427795847572124,270
-52.206617653958936,83.62582500480647,-17.622072854665088,115.95726375571817,57.826214739105495,81.75155928040213,13.108236355776503,-117.26828742323922,45.91544510389913,0.7928567953143104,1.482690607020806,0.13233580602707123,0.29682121901787223,-0.4668368190830744,-8.475654333455596,271
-54.55657944607239,89.88163410306854,-23.622072854665088,114.31415486133858,58.23197431238809,88.8077402027631,19.108236355776505,-115.9544072579959,34.91544510389913,1.0688554808982256,1.0253464199091087,0.09369760467638934,0.11224576241569864,-0.7668874527610938,-7.82999223963852,272
-57.79439463124785,91.0283371487986,-29.622072854665088,107.99506032858798,59.03546940526146,91.92176916521903,25.108236355776505,-109.09325920234399,23.91544510389913,2.026762851800401,0.8496960249796273,0.1327508043728263,-0.368165993610186,-0.6513117824286068,-8.829235291996365,273
-59.976837926116886,90.45258490189721,-35.62207285466509,113.19912594868295,59.673139616788355,92.19629637747647,31.108236355776505,-114.9821196198065,12.915445103899131,2.5909570091301353,0.7596666612472716,0.27648346547124597,-1.119227452003283,-0.6682907696105028,-8.583543682413527,274
-60.52195701800413,87.67201264897889,-37.813777512554566,116.71893486773806,61.87334867098944,89.1389130043735,37.108236355776505,-120.47215401171941,1.9154451038991311,2.9255089757932806,0.7583995288691199,0.013583432556244921,-1.5466017628959146,-0.4570440469017126,-8.715774323390686,275
-60.07087117815413,86.50662409948069,-37.202362277926795,119.40321628231771,62.872852307302175,88.0186471455363,36.02706354683083,-124.07281490213833,-9.084554896100869,3.3210037631771936,0.7839600774956587,-0.1202044446132479,-1.082022689805555,-0.22685623995976703,-9.113538949200375,276
-61.45655527286221,81.21241454732579,-31.202362277926795,117.63838037038006,62.350220822280754,83.74185942458031,30.02706354683083,-125.39737396343355,-20.08455489610087,3.128779345493747,0.7772974148496696,-0.3815434439485105,-2.936725637259349,0.8157122117986741,-10.13677897651005,277
-62.94788727785605,77.81267800762214,-25.202362277926795,117.5732106640711,57.8081374474927,78.20091075179114,24.02706354683083,-126.5250692687318,-31.08455489610087,3.3874946928263148,0.9588352548969478,-0.13018191370001153,-4.5377269417958965,2.1651228568347887,-12.032009334986506,278
-64.40301915190054,76.64811218010713,-19.202362277926795,117.3512706908772,56.86704804865374,74.77460634050725,18.02706354683083,-123.60091441718015,-42.08455489610087,4.0787414251768395,1.0975008089298668,0.25763826190368655,-4.91407477528104,3.3500702855009026,-13.059513345153825,279
-66.61403875029912,74.9006605235133,-20.198162648557414,121.46512642798726,58.00388931161934,72.24894529439666,13.043055697459458,-123.35088489589805,-53.08455489610087,4.818065456476173,1.6393365944641065,1.214520396622826,-5.033218755990222,4.853096515697877,-13.880300085167676,280
-67.00189399319672,76.1764532706423,-22.374699210756138,124.0485766336523,59.05325331519801,69.27626691568828,12.173196543722344,-123.6329631038725,-64.08455489610087,5.478386317656978,2.1853126948824255,1.5736366778241957,-3.879511892989961,5.467871087766546,-14.086471878105893,281
-76.49136968422131,73.7374831516648,-17.049197677637036,125.61249160826709,62.233759143555964,70.66364921317255,13.283148606331942,-120.93521468055798,-75.08455489610087,6.555964533557151,1.5795298685906882,2.678682659878627,-7.024277002844742,7.040232112454857,-14.983334034238379,282
-83.75360310807652,72.71165233362035,-12.152460114240501,126.57371286774746,66.54067737937416,72.85795941649565,15.528554822413792,-114.92390330428182,-76.6883238213966,7.834657167734224,0.791236595041665,3.6692448666735573,-9.17617514492966,8.581883546184127,-15.163704519366728,283
-93.04521261061772,69.54643900403111,-6.152460114240501,123.84743442161479,69.27480827859522,73.69026464122933,15.532274990489507,-107.9431582202784,-76.02950188244998,9.144680495284216,-0.6685677780147744,4.46209377563235,-10.371769124563404,9.201882957860875,-14.903901343213514,284
-99.19648881792043,68.42868050501477,-1.1323628008698845,115.6048399117126,69.65313571012372,77.30710543083265,18.812190438633184,-100.9827548612171,-73.1192660140128,9.803534167530787,-1.8308408211685605,4.406756702914992,-11.238361690750743,9.174989696839495,-14.424709229089343,285
-102.46666721987584,69.66074905530176,4.2419224366390225,111.97409115257848,71.11436966996379,79.57848346217638,20.409179148036053,-98.9519981454077,-71.21827675378408,10.238891920690167,-2.0930969272225393,4.287178785423615,-11.543583958280081,9.135341943028711,-14.028830115780773,286
-97.90979502713654,71.24719101344961,2.9387575766957488,101.35501984637602,70.99110107010412,83.2942198475852,24.199223126246732,-87.9519981454077,-64.99533711111411,10.462552657513474,-2.94403090853883,2.408624562376386,-11.633616002051582,7.335287653118554,-14.043086873764821,287
-95.28662804357974,74.02519585721284,4.060715255554825,93.71509223449212,71.65174514764229,86.35564260379954,24.096991255104303,-76.9519981454077,-60.750879794815404,10.91246711466886,-3.317921370131326,0.7873335213908383,-11.890471508635661,5.410047871228497,-13.794010160881683,288
-92.10705403204389,77.61626044752917,6.360548617966804,93.90932788368528,71.90156774880656,87.86150753830758,26.699108978743915,-73.98029232856446,-58.04436468047332,10.778731291988544,-3.048687648445172,-0.4254090995360063,-11.54552444399783,3.546120364356541,-13.382483002272442,289
-89.90087507074007,77.8438065085723,5.920221872928546,97.26776660649993,71.49308692384358,88.44238431961855,29.18009700410998,-77.09337322892571,-57.236279305382176,10.511976135870253,-2.53521888430298,-1.0991380577017467,-10.834855757047807,2.082897121205258,-12.45857892501876,290
-88.79140235667668,77.28508579687485,4.568238345514367,97.18398948797993,69.96424213293258,88.27055418565361,32.71613472114943,-76.89045788635934,-56.663765032454215,10.248232716374961,-2.1635325418500773,-1.3100949017846384,-10.276174773205582,1.3818994825071749,-11.944914668791059,291
-88.0862401666048,75.57774364702985,5.2111693449946115,101.67707971101852,66.93008634737504,88.48320204490766,34.86346812555151,-80.52985308695725,-58.49554417731192,9.837222033300211,-1.6358294282551076,-1.4060069384603266,-9.737627535728583,0.4187872141772742,-10.96721568455602,292
-86.86933808419228,75.46297534242211,4.499778183218333,104.71054963976624,64.82550507923271,89.54396714069398,39.79481151995214,-83.189014805065,-61.468659316739696,9.118154417054274,-0.9533341699149633,-1.2877584684414047,-8.484670143368,-0.20501374164288014,-9.674165988619063,293
-84.42673134356603,74.08811988066556,4.614841116656257,107.61770219641855,62.688042290811254,91.28487760940428,41.78735201650173,-83.20914743115847,-64.61671435649981,8.64139026784639,-0.9520775632491374,-1.14764906859881,-8.0303576617771,-0.681681840820347,-9.162293466546162,294
-80.16644262075418,70.97728507999341,4.7995740125663735,112.62992236044978,61.44709313157591,90.73201763979671,45.90369395290297,-86.40135695823031,-68.26402601903062,7.847573847514306,-0.9017572970842882,-1.0383280759328966,-7.088324770904092,-1.3488292022754456,-8.71891498238294,295
-77.41976378093534,70.26667379212785,3.2389157790582814,113.92339836398006,60.22256343405941,91.02097535480246,47.37571759529301,-86.52060552767284,-70.02733215174187,7.56733436583715,-1.117934971703772,-0.9383870085116489,-7.077491876517875,-1.4956449651504724,-8.60699475896753,296
-73.32262847830448,71.58737275171006,4.729314509180898,117.85472465501333,61.399259208180275,90.48278511316236,44.071888668194376,-91.14067877420138,-72.8821258851007,7.058872358344151,-0.8908313795500408,-0.7861139846604823,-5.94734833397443,-2.046140698842098,-8.705670928364391,297
-67.26778964572772,74.19126938759001,0.7394870650739064,121.74772063133283,61.99793897962026,88.84051529470294,40.30989599577878,-96.6089808651728,-74.91548678820713,6.20052858038044,-0.46836230844681936,-0.5838816508863094,-3.86760183219941,-2.6547146097371663,-8.527431670893128,298
-63.654364606770564,77.03310244677887,-4.495699755220054,125.53884037134524,62.59875647750033,86.43729593570788,36.35198935735852,-104.55447013892014,-79.49993645931382,5.612390373251671,-0.5093197798695306,-0.1889106361978329,-2.1970174868891292,-3.1223743704415394,-8.065135918385685,299
-64.9628566417045,74.96548234238291,-4.9150479043536075,129.60305773255305,63.676067910655654,83.1733892636245,30.35198935735852,-113.25875110026641,-85.78087693814227,5.264080499297014,-1.040162981525948,0.28288365571048946,-2.490116323657946,-3.1579153728404967,-7.158467208014399,300
-64.5416253337356,75.20991641548046,-4.836928665181481,131.57217997729708,64.22399934330534,81.62445210104562,25.40272572509482,-117.42464118436928,-89.72016361241526,5.125110339165944,-1.4882220639188668,0.5661386202970647,-2.839992537439133,-2.998949015514191,-6.923691258070762,301
-56.03568413345152,76.9114638633103,-10.836928665181482,131.6978667787473,60.84017054010988,78.82943630329643,19.40272572509482,-124.72070242113145,-86.78121775943626,4.588516833131393,-1.860742913968437,0.05324472139743342,-1.2608161014917652,-2.9335777157264484,-8.531398305640476,302
-47.923889353988656,78.17345466852694,-16.836928665181482,127.93742632374729,52.521375325196765,76.13216305147624,13.402725725094822,-132.40436642424004,-84.22250680473442,4.201909444487361,-2.5074673207321685,-0.1908584104093837,0.5981688505401328,-2.7709633476101403,-11.104516817775297,303
-41.78024942708304,77.27712552852388,-22.836928665181482,119.93539745178491,44.957725355791005,71.97566476381333,11.04056588162263,-132.88717657531143,-83.37131329481379,3.924406408199006,-2.912091987029133,-0.21111186307762447,1.9781533666479845,-2.094865023224331,-13.370077886096695,304
-34.87291837124554,73.16252801457125,-28.836928665181482,115.051141560238,38.658361807182814,67.54402672260437,12.414298357771443,-130.51995098682963,-85.33384997902884,4.050705485612245,-3.350728361186821,-0.06379536437306124,2.192870366643861,-0.9073506500982657,-15.026383542960007,305
-31.97486149183483,72.3671268175252,-34.83692866518148,112.52718746166188,36.46074137940114,65.74141965549893,14.109017601732175,-128.29923066310846,-85.1475372390054,4.241543520498191,-3.8252104418559454,-0.017840281503319854,2.488546618677801,-0.3188944726328506,-15.704968946619964,306
-30.995475654632585,76.59570818702433,-40.83692866518148,106.2572743068046,33.762191822923256,70.4019821385563,20.109017601732177,-118.72322240678739,-75.83970710720358,4.591997212011198,-3.1107195131739473,-0.32567942353625434,1.9872373107813568,0.9215801057801433,-19.448461136575002,307
-35.56790517255735,73.30381726984737,-46.83692866518148,99.03896002031429,35.13379870202667,71.89811584431162,26.109017601732177,-107.72322240678739,-78.86354797858674,5.046969060553783,-3.2578501509424473,0.2735115352730389,0.09714682264233312,2.5646483481855467,-20.410600638773193,308
-39.91745838006116,69.09462758060694,-52.83692866518148,91.94461824407759,36.835775239531706,75.24303065104559,32.10901760173218,-96.72322240678739,-78.45627327514913,5.747022342376691,-3.425180481625284,0.8919546070627007,-1.7054682247069997,4.389246368178126,-21.253632702167323,309
-44.793233559870686,67.68154479427803,-58.83692866518148,83.19841064621959,39.02433604266667,80.20307810724661,38.10901760173218,-85.72322240678739,-75.72597331172973,6.451423752999231,-3.457500136932584,1.1470664846202454,-3.3330214962056566,6.019026644112196,-21.67529560978231,310
-48.585194434403256,66.20768910457885,-58.820865250314476,82.23817761399663,39.746460786691976,82.4997013589637,44.10901760173218,-74.72322240678739,-75.29120491599825,7.095422765671728,-3.4642806387244085,1.3636914088002745,-4.259936086132083,6.808320068263852,-20.431546808771632,311
-59.585194434403256,58.94611718262017,-52.820865250314476,74.00115135921523,42.09531420293893,86.61143353492596,46.02298017128943,-63.723222406787386,-75.03587755492545,7.894692278281864,-3.919194067543023,1.9077598680137933,-7.106056555738006,7.916519542087008,-19.15617897057977,312
-70.58519443440326,59.25984780245491,-46.820865250314476,69.34223267537715,46.1158324728975,90.80408582232745,43.416131520257444,-52.723222406787386,-72.94726260802985,8.80996344036453,-4.178982086963968,2.1408442446208857,-9.84473681359209,8.567095305400073,-17.488123724139413,313
-81.48320353258478,62.7842473970935,-40.820865250314476,72.91718030087117,50.5520637178888,94.29958966901275,39.691512557518536,-41.723222406787386,-68.9115918439551,10.006484374715832,-5.004675762254165,2.0618892762165055,-12.404184711444515,8.115897028591279,-15.96996233374789,314
-86.43950028955368,67.03957302376601,-34.820865250314476,83.90895260792986,55.618000255972596,95.7084476346974,37.47012898020275,-41.556901377508396,-66.64843827377274,10.711524151339969,-5.265963966294307,1.6403993003185324,-13.978700250055816,6.840951776928861,-14.395444753503636,315
-88.04983042867772,69.47881492155321,-28.820865250314476,89.41331464539253,57.17992193876252,96.1335192570146,39.28832463160793,-43.040550524716124,-64.54259494636136,11.036486451103617,-5.048963376601595,1.1909810748580194,-14.94222995772382,6.22996638374232,-13.45779825430773,316
-89.26855671471985,70.45947653707972,-22.820865250314476,100.41331464539253,61.021946604549996,93.75792077145606,41.16254000406113,-54.040550524716124,-63.77943011564277,10.932832269375867,-4.400321757373676,0.41608479671440457,-14.388802872657964,3.9930476163131816,-12.040256829948943,317
-86.41530448166667,72.27600264857402,-16.820865250314476,111.41331464539253,61.753601749566556,92.42962632760795,41.35532803591835,-65.04055052471612,-63.11354334019038,10.630295983599407,-3.860844801683377,-0.25955646862914455,-13.567221431122148,2.1089027623252834,-10.907847805837111,318
-86.39135788671271,72.31569270696995,-10.820865250314476,118.24587756505791,60.07421177657778,91.76914443662295,44.609242673465076,-76.04055052471612,-63.37491839296138,10.090626947395808,-3.525536688003272,-0.8106329752708664,-13.183855084395928,0.43329911307920616,-9.539478353559664,319
-84.1801207207367,75.95852401137954,-4.820865250314476,117.84413688726559,59.81327105657848,92.98327976701539,47.497555335528325,-86.32520746577897,-63.77262656598506,9.469022604047659,-3.166484227287058,-1.2178063686748375,-12.049882810674333,-0.9512880271028292,-8.412696184855536,320
-83.548922102895,76.4424800671658,1.1791347496855238,117.12937344490854,59.85247197860814,94.09703739999604,48.896247378131775,-86.12399795043714,-64.20021639585939,8.939027545281622,-2.9072409915208963,-1.2786147438313105,-12.087562445247432,-1.5079174100999546,-7.703422272344556,321
-72.93576512652022,74.56707800863553,6.504052259623152,122.71576067857961,59.665008546900815,92.74546300914012,46.48004192555216,-92.26627990557877,-67.36353034194194,7.799547719919151,-2.3956146676729495,-1.0979038027338208,-9.834845781691133,-1.9601847324707136,-7.305529868835833,322
-83.93576512652022,71.81332524277283,2.8226215004917385,119.95836013601894,70.66500854690082,81.74546300914012,40.48004192555216,-99.70254556619375,-78.36353034194194,5.63326506315026,0.22456979616955874,1.7792409242490268,-5.834845781691132,-2.9136929541311205,-7.9249679083120625,323
-94.93576512652022,72.9499107528627,5.782553219519584,114.68783997705927,81.66500854690082,70.74546300914012,34.48004192555216,-97.12861274287815,-89.36353034194194,3.747903030941224,2.4892303829532754,3.4716640944223505,-1.834845781691131,-2.9754203521094844,-8.559257291915197,324
-99.92476813844077,77.22051296778646,8.639304850936865,115.41042613203889,92.66500854690082,70.2159197376824,28.480041925552158,-96.16387156300374,-93.61225592704295,2.2552391699142036,2.6175208150788376,4.05143939543328,-0.729442828068541,-2.565386642678725,-8.183889566319888,325
-101.98775219823649,83.09967100668166,12.192405260863826,118.48745472980566,102.90048774174853,76.57062341199297,22.480041925552158,-101.16836881464855,-82.61225592704295,2.2209486956458027,2.0116703481639413,4.260161897509265,-1.4673824568760914,-2.340064505799272,-7.991653444063261,326
-90.98775219823649,75.2413441439984,18.192405260863826,127.8133528459585,94.71395141079111,77.8734954781123,16.480041925552158,-112.16836881464855,-71.61225592704295,2.3323135358537392,0.9693106696512341,2.568348533697928,0.42735251152984316,-3.2430336474803223,-11.991653444063262,327
-79.98775219823649,64.2413441439984,24.192405260863826,137.71186726920786,83.71395141079111,68.78817124093872,10.480041925552158,-123.16836881464855,-60.61225592704295,2.8879720463828886,-0.2745147820757312,1.055246416839264,1.0536700073685696,-3.6612367682747133,-15.935829408712017,328
-68.98775219823649,53.241344143998404,27.07009455810904,136.59483490266194,72.71395141079111,57.78817124093872,4.4800419255521575,-134.16836881464855,-49.61225592704295,2.865460214270979,-1.1522378220128828,0.21793691976581053,2.5515222948361296,-3.8343809497102495,-17.20524985032041,329
-57.98775219823649,42.241344143998404,22.32838819518873,135.5187770944612,61.71395141079111,58.21827347486878,-1.5199580744478425,-139.6539124038243,-46.567435499717114,2.88640958291748,-1.3105762374961512,-0.08106415106093179,3.764918609472221,-4.23923993231905,-18.545601935757904,330
-46.98775219823649,31.241344143998404,16.32838819518873,129.1355947629629,50.71395141079111,47.21827347486878,-7.5199580744478425,-138.05458153572712,-51.29878782079692,2.3755228136585904,-0.8161286065513484,-0.34335863121431953,4.432301867251,-4.259953598346718,-18.888708027935504,331
-35.98775219823649,20.241344143998404,10.32838819518873,118.13559476296291,39.71395141079111,36.21827347486878,-1.5199580744478425,-127.05458153572712,-62.29878782079692,1.5443017731419695,-0.23979368263481984,-0.19457504184324964,4.311904255048969,-3.611702501856588,-15.948459354325786,332
-24.987752198236493,20.615233994715986,4.3283881951887295,107.13559476296291,28.71395141079111,25.21827347486878,4.4800419255521575,-116.05458153572712,-73.29878782079692,1.4793596399679,-0.7265280129347673,-0.28355760255782897,3.286832528255784,-2.591926442670535,-11.948459354325784,333
-13.987752198236493,30.75448201103057,-1.6716118048112705,96.13559476296291,17.71395141079111,25.025766649856756,10.480041925552158,-105.05458153572712,-84.29878782079692,2.0969926886376045,-0.9201778197463393,-0.4155405308872183,2.1086527403223734,-2.0379000920020496,-9.058051670756344,334
-2.9877521982364925,34.01806900283409,-7.6716118048112705,85.13559476296291,6.713951410791111,28.350208186601414,16.480041925552158,-94.05458153572712,-95.29878782079692,2.2440870863444933,-0.9902005524837519,-0.5962438989940401,1.2581034469144494,-1.727529455968588,-8.544768096024205,335
8.012247801763507,39.15795449783521,-13.67161180481127,74.13559476296291,-4.286048589208889,34.347118814715245,22.480041925552158,-83.05458153572712,-106.29878782079692,2.9004110102813283,-0.8354905474164728,-0.22460721883848161,0.11684019460902256,-1.1247693574627429,-6.278135990949037,336
19.012247801763507,45.83917154135694,-19.67161180481127,63.13559476296291,-15.286048589208889,40.48498268177416,28.480041925552158,-72.05458153572712,-117.29878782079692,2.92874303500647,-0.42421662781913216,-0.24489146797392727,-1.1220067436001957,-0.25622483815040714,-5.39136567760305,337
30.012247801763507,51.03680391252371,-25.67161180481127,52.13559476296291,-26.28604858920889,46.868572865793155,34.48004192555216,-61.054581535727124,-128.29878782079692,2.677548842812931,-0.19232924264624418,-0.5889695211605845,-1.7477547842105814,0.6611942560467731,-5.923936622933481,338
41.01224780176351,55.23639377597436,-31.67161180481127,41.13559476296291,-37.28604858920889,50.539628628107586,40.48004192555216,-50.054581535727124,-139.29878782079692,2.2493577381454353,-0.14399979961758766,-1.1726629046762818,-2.056301985648051,1.2617812617753046,-8.018018308544223,339
52.01224780176351,55.457304834417684,-37.67161180481127,30.13559476296291,-48.28604858920889,50.1835078954907,46.48004192555216,-39.054581535727124,-150.29878782079692,2.3027655010027304,0.08755159575081219,-1.137460807904908,-2.00525297918136,1.4856774862383928,-8.739100556106157,340
63.01224780176351,55.024904807765694,-43.67161180481127,28.298822862089494,-59.28604858920889,49.51022672801859,52.48004192555216,-28.298822862089725,-161.29878782079692,2.170525010399556,-0.07245961973025945,-1.40427643125309,-2.4014501098002756,1.6311600512368478,-10.116257248088491,341
74.01224780176351,53.52467797831564,-49.67161180481127,28.29882286208985,-70.28604858920889,47.24076667928174,58.48004192555216,-28.298822862089683,-172.29878782079692,2.2609883292738955,-0.5376761075705572,-1.835025234746179,-3.027450691407038,1.691920500134922,-11.610886027324392,342
85.01224780176351,51.13418197703747,-55.67161180481127,28.298822862089672,-81.28604858920889,44.50024786914218,64.48004192555216,-28.675153530905487,-167.8141861949964,2.303273920257951,-1.0654360026052432,-2.0166293363830765,-3.901353029691891,1.5131926077870537,-12.90934993294415,343
85.67438945098735,48.72915064294,-61.67161180481127,28.298822862089875,-85.49096633962999,41.63255978095133,70.48004192555216,-30.311329590215166,-162.31173224050903,2.333015122223038,-1.4473530073033323,-2.024821208952856,-4.603287298119037,1.3691368563193091,-13.427535676657879,344
86.51283465475177,47.858800389480024,-67.67161180481128,28.298822862089594,-84.59404080105213,41.39125033540598,76.48004192555216,-30.402609648845747,-160.66079505885062,2.279268468592207,-1.5691589317310164,-2.1342033817596993,-4.941783858809818,1.1818487214760436,-13.403433226564974,345
85.34941419282,46.98825785392719,-73.67161180481128,28.298822862089747,-83.2813802826097,41.40158054301962,82.48004192555216,-30.4980439315892,-162.21894478290028,2.305815616415848,-1.5170233921459757,-2.080411323079594,-5.2097441099002495,1.013260621202869,-12.951742015657144,346
83.87228294735131,45.44150195000337,-79.67161180481128,28.2988228620899,-81.2638951447428,41.18507139225054,88.48004192555216,-30.697884985189933,-165.04349820821082,2.685549275783371,-1.0101688184955486,-1.4251753932201483,-4.881205956161018,0.31023347242948746,-10.819507737137886,347
83.16783435838698,43.983133011746986,-85.67161180481128,28.298822862089594,-79.78798176187038,40.644197959224805,94.48004192555216,-31.342728823722922,-168.27094919548068,3.262884973338157,-0.3729827513578831,-0.7524269305380933,-3.8276541609920276,-0.3901684673126789,-8.164857958890936,348
