JMW9912/AVATAR/install/dynamixel_control/share/dynamixel_control/data/csv/poppy/.data/waist_test/3DoF (3O+Pos)/0423_1004_Anysong_2_3_dof_waist_with_position_adj_poppy_smpl_motor_degree.csv
theta1,theta2,theta3,theta4,theta5,theta6,theta7,theta8,theta9,theta10,theta11,theta12,theta13,theta14,theta15,frame
-89.50976918793263,76.0781043716683,-23.83625539572738,56.230949957411866,93.8353779493926,74.5564848756501,12.106690621547507,-76.54360966842047,23.419364179220363,2.5427413406069426,-8.87540604456757,0.2618981548332264,3.2912515453326225,0.02997690838006026,0.5132466197690472,0
-92.2969951946905,73.97382436835849,-21.496076022603965,54.15922480085133,91.58425694293629,70.9424755435079,16.626661520377485,-78.63042311408829,20.028585024739936,2.771913568665175,-9.601625803075429,2.1836381627652166,2.77351817530833,0.11858961679533715,0.4664863214269778,1
-96.65373503188161,71.30769031395297,-16.183388632346457,55.48583851620264,88.14061206031552,65.85863764488862,18.544946561449535,-88.60016410144641,13.161013231614461,2.519777077107973,-9.534815961709992,4.2200122628448185,1.9501888744664737,0.15149287703300413,0.3250925394687773,2
-100.49728815783654,66.14165487515464,-12.84100102252309,60.57431242932435,83.7757229478045,61.581024067198065,16.719880899165567,-103.15770693001708,7.944423222225582,2.2070848032297334,-8.771952739191642,5.421991939964545,0.7068289604208849,0.06856008926224312,0.10865711530444613,3
-105.30131749543611,61.24308214343027,-10.858403717524746,66.94530108286696,74.9950068797539,58.99255351491851,17.86180019311705,-115.94481957237879,6.862691617971022,2.036610141870352,-8.184322784045598,5.706769169927876,-0.6503822811305456,-0.06512549616106651,-0.09390281510105647,4
-112.12571543495896,56.605168692968995,-10.042850450131038,73.97800085475693,62.06778956345088,55.47958877372698,20.567659527490054,-124.66967752143486,8.441533094979775,1.7910334420717364,-7.525192077354943,5.3968183161781855,-2.0484733765916103,-0.19028330761107395,-0.27397311876808805,5
-118.04025724542954,51.04357497875867,-11.322175613453664,81.64677079541592,44.77438967874903,53.20783961533838,22.626301600857538,-128.05323566640442,6.647548261355763,1.474726815617672,-6.9879216352032785,5.43323487049757,-3.5786860620487047,-0.32889072824009696,-0.44889867540566275,6
-126.51983800758057,46.459556862583185,-10.638629137572677,88.60206365978732,33.664184725358496,50.06537629208624,19.726525843838274,-130.37799231641532,4.57172702740458,1.1156916543997784,-6.968685393719556,5.888171933042137,-4.704962546394578,-0.46445175875705724,-0.5941909251061006,7
-134.8623265395597,44.03096910366214,-7.315322959332672,93.84753439123304,24.055068237946884,44.014604285001056,17.3599836270203,-130.2411749743642,1.4680168706917316,0.7308024097549267,-6.761463020009552,6.317638545146933,-5.279500376052307,-0.5586098843289927,-0.6517555557460326,8
-139.60901790925135,44.43177193483898,-5.780928072734911,97.16357796778374,13.557367566856565,44.222233434114514,16.63446225315258,-129.08751843329122,-18.102984308852303,0.5592710510018316,-6.571576679067886,6.5081352463975275,-6.124235017863398,-0.6637890329109597,-0.7411968526656185,9
-141.17228226372328,44.65726686957085,-5.460404059831817,99.60693213689707,8.756862184483392,44.65722962391619,14.40882671272982,-127.8709942973431,-26.01476315926171,0.49481462738407656,-6.460629002302288,6.60925274615883,-6.365865539015901,-0.700260980922164,-0.7600152915270588,10
-139.2589603032401,45.811162873517425,-8.595893909857352,100.89842049945914,7.77584551055519,46.12736142041412,12.643189757016076,-127.84502411254935,-30.34877557512618,0.6086491906779825,-6.274790524537944,6.563364265992936,-6.50340202494511,-0.710090061937314,-0.7556724855381746,11
-133.04056512757202,46.04818561861067,-15.620184734491101,102.82551943959406,12.265175223981434,50.61587098553778,8.520727404409898,-129.86413696463399,-22.41314599502943,0.7812833216816686,-6.249845540923261,6.412921753233164,-5.967521440650411,-0.6390987196477538,-0.6870096349787229,12
-126.5845871612054,48.807730464829234,-19.865594182181326,104.01797899011434,19.81098697931866,53.446543989650635,5.574315612678643,-132.2450683306709,-12.933399964808988,0.9282914069936533,-6.189891249887885,5.902572709863019,-4.808609866758199,-0.4773695969317436,-0.5416251601202724,13
-117.52844541728103,51.139445657082135,-25.478708139083086,104.79019159406971,31.08658589372679,56.37155197472099,2.940019752725688,-134.67214046690324,4.214191878415362,0.9614337609200326,-6.8548724345809,4.886704429540573,-2.9380745892656535,-0.24377508254381708,-0.35943430385187847,14
-110.32531711484853,57.29479664601756,-24.60482486666638,104.9502703589983,44.26191820466085,61.577060819826606,0.6459891815283039,-136.34233669889574,23.213748946080614,1.057243933784061,-8.180118255624395,3.573078304058676,-0.797699322521895,-0.0495197676237715,-0.11500708540340972,15
-105.67622969435125,62.152384434922645,-23.512718605592088,108.25490011548861,60.9710122088881,67.1429914997229,-2.899805496227307,-137.65701295137313,39.82632674136866,1.1414939800803483,-9.426330438875087,2.56363913648262,0.5700355557643249,0.026343372514290187,0.09451125591368337,16
-98.83272982436033,65.67359211994344,-22.66133910143358,112.94572326057217,77.6792051395064,71.44869715574657,-1.8912838716605198,-136.5606608581186,52.414348342920526,1.2431145017076894,-10.022133204196953,2.2901228645917904,1.3639300242927557,0.05825966189778733,0.24038012235908007,17
-92.30459798596218,70.68179094743145,-20.689903295994768,117.75699803291033,92.66322060403054,75.07760068375859,1.0642076388092467,-133.88624103654462,60.16004984477572,1.212302193456749,-10.309684346863143,2.449102504982607,2.003098769838542,0.0934451572517664,0.3628306128409778,18
-83.5474941921645,74.4750715708187,-18.585185163636417,124.91184215490534,103.76759896137565,79.66151840889448,0.7211327359663626,-131.1709765519382,76.29500949048949,1.2205293357496119,-10.696943971394038,2.7506384482509505,2.474048357618083,0.13104562736812767,0.4646803468064137,19
-77.07595533496779,77.47839871984368,-18.823918002815297,129.90355736067139,112.28034753879366,83.34761058553109,-0.2835942471083568,-127.6448045747018,90.0,1.2842847111970028,-10.754303774934144,2.817995433457379,3.188936223331829,0.17659500792699645,0.6010977840608749,20
-63.94224463014832,82.82925072237896,-22.50187215780406,132.88952790255127,115.22028066956884,83.91836889463755,2.3888372162463565,-122.91283721236262,90.0,1.554917505760643,-10.338655078598801,2.6501998178225756,4.0339657060576775,0.21561641539505158,0.7288586054846565,21
-49.81845951456153,86.21971216933234,-24.111621272855103,136.75229870936096,119.87826804114675,84.39776592676981,1.309306669503655,-119.67678825786142,90.0,2.078411866662882,-9.41945433618181,1.9996031443623088,4.785415671234381,0.20235644115030374,0.7861142395988733,22
-35.13663170555093,89.54519617853803,-24.601012619420942,139.66158537061156,124.47797681494444,85.44373784399491,-0.5022555924834254,-114.38319461087718,90.0,2.4922744600270397,-8.644447381092737,2.176164465769958,6.091107080995907,0.28295840241087683,0.9121686330294286,23
-23.850243306714233,91.00608673496984,-23.803726121743868,140.96283585236426,125.72506917131153,83.44068480220933,1.668073445834137,-110.91530869841546,90.0,2.8130063408507135,-8.153613442380133,2.322995649846957,6.686433014975434,0.32935950922284934,0.9402193911756247,24
-17.604002047592164,92.84428757025316,-20.941469446641175,141.1537759517812,127.03509798887451,84.12083253822313,0.3615678762689367,-107.71525010545692,90.0,3.1032156504757977,-6.92585644148692,2.0706516315109917,7.621526530301859,0.33836893470429924,0.9049310281446792,25
-15.129073059218262,91.6592211733871,-18.886536540201323,142.2216913152946,127.96518168092554,84.53845299295637,0.03420454556500283,-105.07750905192036,90.0,3.304533976837051,-6.393042996681187,1.9897848610901578,7.09421828718946,0.29660831798862963,0.7777163448674466,26
-14.8603351806327,93.30059505435892,-18.09909495136927,141.0843315863558,126.00353358752479,84.39943840306076,1.3446987839181515,-102.65928010794545,90.0,3.4126407286705205,-6.447105321753673,1.8211333502981661,8.004284518565782,0.31846058670150035,0.8839414560276572,27
-19.338306953881364,96.48254740122297,-17.536707640670336,140.65922002759686,121.83863866139336,84.93729489344732,1.4947992102660403,-103.39840141533757,90.0,3.279349713173558,-7.103479553128109,1.7621434868637569,7.578363251839121,0.29672547091545376,0.926408173853967,28
-30.06561662569371,97.9293330808181,-20.89844982294168,140.01530410780646,117.73254459766743,84.48625190369782,1.2992258995262915,-105.89179387309838,90.0,3.0634833699166966,-7.859675850200491,1.0777642790424509,6.560510244084678,0.17614886035105798,0.8967073354681673,29
-46.518027601099355,95.31421700133367,-26.331701263911256,135.93689310225926,111.62627462616823,83.8025710611896,2.353159464326205,-110.92729697595608,90.0,2.9102239576101954,-8.136679652317364,-0.060054261540681685,5.336468820363346,0.029864800731759553,0.7621552100195578,30
-61.09244753088994,92.03411096288565,-31.89224305344781,128.29791672602838,101.22346545891862,81.54879590056552,4.920096069668088,-117.44071763406859,90.0,2.4728219537654343,-8.178523797346063,-1.187628635246652,3.5221812028080266,-0.05816358985267899,0.5081139067552375,31
-74.74672725294398,88.19675596292258,-33.69280827453805,121.26803250849873,90.09252368232106,81.62900999879645,4.116381978275455,-124.24777837689057,90.0,2.062889844431693,-8.901942345582405,-2.059514487482915,2.256125677695933,-0.0751357253170169,0.35486579480736224,32
-86.011402462611,83.69596365101255,-33.823511776545196,112.98173368368867,80.60236508411914,76.95801487876632,2.807707581589507,-130.31933318990824,90.0,1.7045699038117827,-10.111157244196248,-2.925755689106335,2.0973302421063402,-0.10199717824986372,0.37586059422633195,33
-92.12271122351612,78.73638761690744,-34.30566880300927,102.2728478850423,67.19050394936313,71.27579017847144,-0.24129615738162677,-133.46840251785906,90.0,1.2440043187103618,-12.00704056887708,-3.624119004959025,2.265521081891126,-0.13710316968158645,0.4844899001991955,34
-99.09049768035403,74.79623662860982,-34.711928150679945,96.54936742642212,51.822253775278945,62.857102941716136,-0.8644142017912542,-137.33632097123316,90.0,1.0068139751776393,-13.67081524015392,-3.9684528979475493,1.9020067985078721,-0.1280579942728617,0.46467236337216117,35
-103.59179089928764,69.5748987340579,-34.72112194709774,92.92791974978554,36.37570850559499,50.93139762230009,2.447287592597753,-135.07509384062703,90.0,0.9092326820462482,-14.717092766725505,-3.817089593734836,1.6883905167410216,-0.10989132307386927,0.4450163743337904,36
-108.85861134530221,66.66128887114694,-33.907909293040156,93.98132803740313,14.069114274214726,44.02085496523072,14.304476905310402,-132.02111762457832,90.0,0.7922217449974346,-15.166978537982867,-3.8253122510136026,0.397828906117345,-0.027183931754897413,0.10792938902430184,37
-113.00157754536444,61.98373400891672,-33.91349946347042,95.82218439881716,-3.8019339506038294,41.02286968434648,26.953330731191546,-125.69916175210102,90.0,0.7445967773527643,-16.22598705966865,-3.604797876074338,-1.193240100040062,0.08191834967180649,-0.3464857933290854,38
-117.11626848636266,57.72336920392922,-32.380170646968516,98.32026887524303,-20.669372183027892,38.76440307259951,39.72096553702177,-119.79999867661708,78.6085938788236,0.8706133763856994,-16.77306355748373,-3.188372410390462,-2.2347631684311255,0.14317427733080354,-0.6711064704629471,39
-121.2389395585486,55.80951637408082,-32.179960060561505,101.57191954863944,-34.7106637553951,38.75172416125563,49.61501127149068,-116.69335657860297,63.00414833090905,1.0131330978211244,-17.22592902624373,-2.8155551730542183,-3.026390715915852,0.18061944618176626,-0.9342082142947733,40
-124.23445475871436,54.720845690756086,-28.0953268693905,106.05290217299509,-44.54189097403166,37.30147616270604,57.47518337201289,-115.03746018721671,58.086234006785595,1.3692379234179997,-17.24862596514772,-2.310216319619841,-3.4974911392676487,0.18087223465382,-1.0812208361390467,41
-126.63972514919818,54.33778185122476,-27.760913138751494,109.77100984491591,-49.60546442649884,34.3795951788102,63.99441802458991,-115.66265966896377,54.38433164425776,1.7190962155173448,-16.644115342529425,-1.728360961894387,-3.583554498023199,0.14633494664691024,-1.0674573649234402,42
-126.82654537800275,55.001226226329344,-27.81423745539618,112.76426978747864,-44.013038720033116,31.277344340506694,60.921271003247156,-117.69792593915332,52.1058667361316,2.0288358811277907,-15.741014234195973,-1.2790528965316126,-3.300021401827365,0.10331454246008238,-0.9276402085763229,43
-124.62207709755886,57.19042995795757,-28.65157926464226,116.32269168532152,-32.14579169018185,29.071741646915623,51.68241809569886,-121.98577744522515,49.992117228159145,2.2753333748625715,-15.010233287356666,-1.0654555334671623,-2.55251655871661,0.06438486974939726,-0.6832070501707489,44
-119.92459710490022,59.6547650756487,-28.82436964313756,119.23928012512492,-12.949922720433909,26.5151520665216,36.93680458571377,-128.7888630268967,52.88803450444984,2.6269756548723793,-14.514153285496942,-0.4722914762635826,-1.0948753210880864,0.012030692692531639,-0.2833433731597436,45
-114.0393295862062,61.86348643949832,-29.679020479175527,122.02006948252046,11.327151438383856,30.157964193605807,18.787774066573544,-134.31586857288778,52.41307703516851,2.8235786565851875,-14.645951671730629,0.3303504883916665,0.017771878452246082,0.00010663020982348339,0.004644435674000219,46
-107.00929375158698,64.21335201345924,-31.245081557994077,125.30544163551579,29.53326734914647,37.60284560880356,8.196990994584823,-137.81115913199037,52.61344770535935,2.8938841793823045,-13.962440201657245,0.8729457429784264,0.9210019678381155,0.016300884398468884,0.22887210235254346,47
-101.28615544173172,67.6002826769536,-30.70472508582689,128.77284030146058,43.65425521617005,44.96067584496013,3.847708447923582,-140.6051677754196,54.92421061626397,2.8339707427544263,-12.939350793655905,1.3632241623816335,1.7656860976703126,0.0493615713242226,0.4049824415891843,48
-94.34131294829744,71.00170257534037,-27.744593459472824,132.4663812501471,56.443290599592046,54.75677524108223,1.0852676556166634,-141.706093715657,58.187437896861724,2.867573544618333,-12.333650125991747,1.8251526380968277,2.1963634141271107,0.08084051687772578,0.4788163384364075,49
-87.08002618956475,74.19555949166937,-26.08996537473702,136.47354464152508,64.60417835466775,66.7947188531671,2.868901169506191,-141.50779426705378,61.692903040859115,2.7910718715940552,-11.875879176513038,2.570168228097978,1.8464026517003704,0.09095048347722161,0.38691741951648445,50
-80.08306554239354,77.97046360958161,-24.90259308133938,140.36962530718895,74.6470063076659,74.91351852569066,6.1770098769131,-140.04691135965686,69.30489454451002,2.854314887449726,-11.62852465342125,3.0236875193890977,1.401783768341674,0.07912946168434198,0.28755886157096205,51
-69.39461925794022,84.10453554878406,-22.82842928969767,142.96260649213832,82.41319296254497,81.29917728371852,10.899096751113964,-135.43363792103486,79.57432329333768,2.9016190766875627,-11.205524782528688,3.5581563479459075,1.6727384056688186,0.11087776289606482,0.32984595803424155,52
-57.078313079318946,88.71707080489696,-21.313040780284165,144.3675783272565,87.34909079183245,87.55712430303666,12.491058698370317,-131.82440786024685,90.0,3.0894357311164873,-10.43812023151378,3.648721457167391,2.8470679496455196,0.19762267659837898,0.519851540109012,53
-44.736161124022395,92.96832148413367,-18.896751196557208,145.00348699419217,90.17849246472487,91.14483193485654,14.990138574995148,-129.20520320243628,90.0,3.3342424397100068,-9.078465927951797,2.965437438767382,3.578849749903839,0.20553680634442076,0.5657816261317548,54
-31.378593509236666,93.1099066862612,-15.637703227827911,144.52729847917118,94.87236948566387,90.96392403262759,14.314957902980932,-128.58852016139411,90.0,3.8205470216592636,-7.491448099637789,2.0753710815581896,5.193491460337144,0.22054762022285615,0.6735757694357405,55
-24.349506294136976,92.97801618287987,-14.105167211786405,144.16004272318648,98.1997711006447,92.05197432485039,13.122802843397338,-127.785684263358,90.0,3.8963472460445754,-6.796403889403096,1.8965322541499172,5.763791325241767,0.2264563522823002,0.6762548493398314,56
-21.818634628437643,95.4005189108082,-13.168377540357731,144.20935784109713,100.66144134062522,91.10792395971185,13.457045274317496,-128.55103998231127,90.0,3.9636609748897556,-6.0176613312065985,1.2158429865717753,6.102981724107554,0.16425504189634826,0.635293491617675,57
-20.535514796743314,96.73445696495388,-14.553285115803638,144.31676326092114,101.52760574724488,92.24204153902913,12.307583641900928,-129.75005301733256,90.0,3.993587453159341,-5.5933984458306485,0.4756290566153385,6.390159756748767,0.08806005312819681,0.6215917619653761,58
-22.945837652428555,98.34230949956401,-16.202474463488617,144.609509400247,101.55276797250835,91.87077470745413,12.089035020828396,-130.8158186439671,90.0,3.9527700444603324,-5.079705859849848,0.22473092989562965,6.352947940788417,0.05624355327214346,0.5621953972322403,59
-27.207846718551085,100.91999639294859,-18.09985830477774,144.24119206217858,97.68619091652485,90.14597438789073,13.275614693487505,-132.30772793166096,90.0,3.8039824679129888,-4.712584529366026,-0.27805925317341695,5.792599497215699,-0.004041281423441346,0.478126734549679,60
-30.750928052588996,99.87969871232535,-21.62074200078258,143.0861220938585,94.13668533531325,90.08373695783347,12.415776049778612,-132.76317481124855,90.0,3.6662016687951984,-4.45809570148238,-0.39510800687795755,5.3141157565244335,-0.017504651744204222,0.4154224057179815,61
-37.14321208170988,98.02286045075077,-23.196922260338194,141.88716110856325,90.29500905261743,87.29842404575378,11.878621737129441,-133.62511914048994,90.0,3.286880752667429,-4.427829813433751,-0.7232518469376021,4.432988965450694,-0.042798782664730944,0.34508275931684373,62
-44.939282562561104,97.46818386069612,-26.87278079853154,139.93198499248038,84.54113225105597,86.49833592425965,10.324461350510866,-135.86239748233146,90.0,2.784609254756207,-4.3759206145738805,-1.1356909051705053,3.7646918601405766,-0.06533213910083213,0.2903233106709195,63
-52.04528526233857,95.52425441331968,-29.988510479110797,135.88720713879943,74.74622738673341,83.23393712525964,9.670872652810118,-137.20541574076128,90.0,2.3583799053358914,-5.153397529911663,-1.5526323713719006,3.453137003320017,-0.08453338041518453,0.3140491138270763,64
-59.707204334774765,92.02309030374549,-31.16415532106154,131.36106462772867,63.50421502611909,75.74422640253358,8.249763755900473,-138.5490482573232,90.0,2.156196252385375,-6.482935721117271,-2.446582150797142,3.360372477832887,-0.13320707741856957,0.3858167753304268,65
-66.14560982151083,87.86461539807841,-31.758715343188356,124.02883139808073,52.91311007973559,70.30343037439798,8.898167599083768,-138.24923968084872,90.0,2.3296564816959697,-7.595788395702499,-3.402853084244116,3.260692554240929,-0.18308534100421242,0.4400578884699046,66
-67.96903165519083,83.71654490717344,-29.146862466207462,115.24101733775866,41.26401167837347,69.3943737806833,9.991586550165785,-135.42495798132921,89.06220227855086,2.599355752019672,-9.316547121398175,-4.077117659786681,3.01610983481787,-0.2046786583143239,0.5001544432582502,67
-72.91258920199459,80.17896227625012,-25.182180873113992,114.55903870435502,29.819481569264468,61.18959516127383,11.15757456800556,-136.2222472378883,86.05452003954778,2.7613631593917947,-9.968951487941123,-4.634233463910858,2.9995843053856146,-0.2328770153768246,0.5332551789105142,68
-75.37353771180989,77.2593711223301,-22.720897525224963,114.55755561032058,18.565522520787503,56.35876691720328,14.153586466201983,-135.48877623597858,81.59564431044171,2.917949421673872,-10.625675274600031,-4.609069511597362,2.654763215480867,-0.2060691733352842,0.5027480312154345,69
-75.66024767699479,74.30109431229755,-17.249986069841917,113.43055148243151,5.82053755353415,57.66354157311204,19.210714599467586,-134.66823798932464,77.38140769009519,3.050346434029237,-11.5785504410217,-4.228364671093334,1.9959971886658743,-0.14344582363328526,0.41137365868601367,70
-75.4925760282709,72.07555287117043,-5.025862565944151,114.75805164479587,-2.561119292658068,55.475588018020126,23.833204973556583,-134.05661720833055,73.49480649199097,3.301446305866861,-11.836170377276401,-3.4473693341804914,1.5201043659286542,-0.08931005515922898,0.3197184329173684,71
-68.37217733463838,60.862907757988516,4.821372009009402,103.896525302678,-9.652811419901925,56.21371968164257,30.327154535029234,-132.56936026943836,69.27680904206188,3.9906232982121925,-11.704220942333754,-3.4632573424387623,3.1992205598344405,-0.17906457352258456,0.6677215676764987,72
-66.90875980410314,59.28931568034181,11.483561392134614,98.73429380226827,-14.320805023101643,60.693929790677274,33.94509214822986,-132.61633950098977,66.32511229440416,4.3807951859390135,-11.476067282887076,-3.1325130025875176,3.6086948651627093,-0.1782684160369947,0.7382424031862203,73
-64.9217413643804,60.93774135637115,16.332714222318174,105.33572022962922,-13.13078451038518,65.30757768902134,34.1958869123573,-133.66263826760593,63.447699733241826,4.316248420140673,-11.112057135845905,-1.2456079102141484,3.026961129590106,-0.05133721836570527,0.5959645965369571,74
-63.38241756802375,61.11989756152682,20.514880424959948,109.53578341570663,-12.948995526908886,65.17514976811144,36.07849457923414,-134.55903090435814,61.15673425460546,4.15689609971259,-10.975544081471249,0.4145553490657194,3.157045689638961,0.04012331147632581,0.6113541530761762,75
-65.24760617670071,62.74696092564543,21.677161413771103,117.43277206276552,-10.245401058391048,65.18995320661459,35.30798485421242,-136.390998853405,60.76221973583189,3.803432085433618,-10.323957821741457,1.6081065292416208,3.026215164545396,0.10088715089509628,0.5488108752265316,76
-65.22176406647824,61.231725384448794,22.077764390633348,119.09609293125892,-4.061401566194985,63.41767515652666,36.08143466283616,-137.2855094490878,62.75414664255293,3.7832256802169835,-9.704009677568761,2.310105730300129,3.468656123202339,0.15985989030531153,0.5886341665131132,77
-64.31996965483926,62.701240149924615,20.921131210833465,120.08218203074242,5.656822062732632,67.29087752719106,38.970742739182384,-136.8686930049685,63.045951371639255,3.435900431981549,-8.918787667630607,3.178288948642651,3.4362854492839148,0.2092567773486543,0.5332961688285724,78
-59.65835432359412,61.449556596117695,15.47499295594675,120.89772815453708,14.61041742830665,75.2425215819227,48.65896822682697,-134.12504459127499,62.65538044631388,2.974135069530877,-8.744282404584087,4.5583887080069,2.5778307849144206,0.21685021052584957,0.39180313547591056,79
-58.585518416617326,64.60673124797836,7.7367710052436225,124.77655003190226,20.368678130059568,83.27244033681733,57.85549607495826,-130.54563118771236,63.969505366316284,2.172245143124975,-8.089765323435815,5.018177325416657,1.2124315336000002,0.10936166484893817,0.17120599133471856,80
-53.87601826394857,63.26534549929296,5.706367584026821,127.00910388292246,22.88114443536834,84.83431402854288,60.47123709693032,-129.69554681301932,77.40955754039209,2.0999469257913908,-7.414788507640061,5.23532453030929,1.6651826363623328,0.15702011450127953,0.2144778837316776,81
-49.1526163244286,62.169000436439646,4.2449116861364,126.61038822907476,24.39173722018141,86.13124031668188,58.524279877983794,-128.77174718697344,90.0,2.1918807590785283,-7.038808456524824,5.160195218214109,2.1595345924470424,0.20152220752778408,0.2629323750036811,82
-46.48152215701843,61.81964419779777,3.0550907920289663,123.80918588958215,26.329126966672597,87.00974225535272,56.51329798139524,-128.190934101817,90.0,2.4809144772235276,-6.220976447209052,4.941314433740209,2.6450437902243373,0.23666049039742104,0.2829742327188316,83
-45.749329358814045,62.60562581055424,1.1674618579821965,116.66786357556299,30.686709139978515,89.84757417652219,54.16671526687882,-124.26788494399602,90.0,2.8034668564517182,-5.400358783778529,5.041796995597627,3.0965578487185335,0.28224633597713905,0.28523866940488823,84
-45.53698738266209,68.99131793284134,-6.7224278425086235,120.71355711578224,33.3013293261281,91.8054977854495,53.862416250138,-123.43725170637937,90.0,2.921619122824789,-4.756798256398883,5.120521018996218,2.7844683086503266,0.25595122233214995,0.2255707778899378,85
-44.04278778086847,75.38934090646823,-14.411415936907332,121.90568446424997,37.6780839714745,96.3113812941434,53.78495347024967,-121.17566143883552,90.0,3.005811484288143,-3.980752427685985,5.127149415568817,2.358389619163157,0.21546338575796176,0.15972747509930416,86
-43.03361671779696,78.36346798148728,-17.572819897975776,120.34940642218238,40.22760772121069,96.5428712006026,51.842438153162135,-117.96942388042736,90.0,3.2045989350630184,-3.288742418337784,5.146347385829036,2.6264830681109177,0.24034248066065347,0.1454584660322204,87
-43.80629485149469,80.31844675435399,-18.862302838503055,117.78536664698568,43.03106708760188,97.9209671099276,47.50320233310526,-117.80236425637094,90.0,3.5499371760476843,-2.2388384214153265,4.6714140823906485,3.219463881536471,0.2666911188528281,0.1184140989861705,88
-44.36481087661201,82.3494303866187,-20.22143750387408,115.64161523959106,44.692775765148866,98.4466150479384,45.74912127261477,-118.90909019507374,90.0,3.9084440687896893,-1.6119481829155007,4.184103289633405,3.616884065164958,0.2677546601896516,0.09336945760452646,89
-45.07916195948705,84.42452990348333,-21.748708019605655,113.53490227098102,46.3182259368481,99.97453906635334,44.67639823597858,-118.72088312813844,90.0,4.190675400503757,-0.8325406679438786,3.815521798221738,3.676086246296322,0.24674266084046403,0.045520954438041536,90
-45.01143652987914,84.70118081374162,-24.899271764062128,111.29854506184628,47.33606850343301,101.50151459270978,43.60375460159926,-117.70694741160521,90.0,4.412764044170672,-0.5882074762196162,3.382889211780482,3.3918061605062686,0.20142061376418546,0.028869116373777617,91
-45.836289140666985,86.27444574905881,-26.226271469803432,110.23760157896672,47.66961430286497,101.29312281127201,43.601741649702134,-117.27555417243337,90.0,4.571857373778033,-0.08851901897100709,3.1275549490851566,3.2916852926736953,0.1799062183730411,-8.241262159627458e-05,92
-46.503643489406436,87.35994905706224,-27.429280838869595,110.65584379554686,47.131639686226386,101.39319689586527,43.23148118888376,-117.7951875089011,90.0,4.661231876639847,0.002250581758326518,3.006420510600455,3.0488447057743686,0.1600466040819557,-0.0043790249088444064,93
-46.72660488374577,87.9087365164228,-28.16272886205375,110.52911686012494,46.51634997076829,101.33616439224825,42.97773645534523,-116.97803882314376,90.0,4.621382491540056,-0.30688375848631105,2.916831181542433,2.5992988751894037,0.13271314881671023,0.010913905410405779,94
-47.20528419977628,88.15860898715461,-28.85001685355864,111.80978523068157,46.46928880117032,100.42389628255386,42.78670678160555,-116.23036386601487,90.0,4.641564180448101,-0.8654473236825653,2.801240796865428,1.7733007445619346,0.08717885440971261,0.02544080962200837,95
-47.081798567382286,88.39167278279236,-29.766523157887566,114.03313856311158,45.02253138055429,98.65345932339075,44.4788431101216,-116.49173158607962,90.0,4.568761948447928,-1.854293769117779,2.8872306404584105,0.9358053322198727,0.04746742314514877,0.02990996901549279,96
-46.88347973579845,88.30374360275508,-30.192468287750934,115.88510453109996,44.32341351167545,99.14340476497904,45.53096834159964,-117.3046571565459,90.0,4.333486087364039,-2.9806678586161643,2.8730929769105376,0.056587078431651026,0.0028452414319392358,0.0029450570174130958,97
-46.302615828719375,86.61782032025624,-28.320255722878183,115.29055569365454,41.15796519065584,98.12687696057358,46.687096911870945,-119.33459451445269,90.0,4.062605232956494,-4.162497527979147,2.757742489125835,-0.18598612356113395,-0.008960403279381494,-0.013550058652574196,98
-46.35056711034682,85.0482828118269,-26.8002329312221,116.17735263447442,38.58808650333558,96.90041741501248,48.19852045291949,-121.29632292820638,90.0,3.7799177265909454,-5.278185601350757,2.6936110793050587,-0.6565156540968923,-0.03066973198682053,-0.06082588469095463,99
-46.94259123349131,83.01846593724171,-24.45406348534172,121.1601791344759,34.95697472968241,94.87532349362357,47.760347530275745,-124.63086281501903,90.0,3.4208334011443573,-6.080468416442463,2.543970907009051,-1.2928818523702212,-0.05620590597647495,-0.13835618203795777,100
-49.24060438431837,81.97928445611775,-19.34085890676973,125.14696235535641,31.33945353942272,93.46676552544234,44.45932459306888,-126.39621839404874,90.0,3.011321160543381,-7.086058429606047,2.375174262802013,-1.895427548733128,-0.07530676034865308,-0.23686717782095876,101
-49.513088106790704,78.08283913427368,-13.88740741708171,128.71026902570418,26.1546422743442,89.8071729732723,42.09428106284113,-129.34983165316194,90.0,2.6228572914455373,-8.157517556408836,2.243780300742079,-2.3784822813296107,-0.08703254817711205,-0.34276191125535865,102
-49.28012420375574,73.08445247254765,-7.513401896641395,128.83612820532656,19.99366995211648,84.76623156909213,38.469716944963096,-130.30113559024895,90.0,2.2343290507239253,-9.302186352386018,2.260305417146333,-1.7770547858757209,-0.06654418878301328,-0.29210046199456496,103
-48.72735089794041,66.19315981555636,-1.879035722314717,126.01665425169017,14.373949587715222,81.17851775010426,34.33494834447949,-130.72987429657982,90.0,2.088759734170975,-10.017720824613741,1.6168467466920777,-0.9929847189770898,-0.02694023471693093,-0.17563709372335284,104
-47.07223172673864,64.09000984236822,4.896805000457377,123.26016954237139,10.211633375808866,77.44258485720223,33.25869428186115,-130.87553024326246,90.0,2.0816355084153804,-11.015650525316316,1.6341964206637005,-0.3614137148164767,-0.010282483968003846,-0.07038559172865332,105
-45.70001136084385,62.06693530674717,6.347827643817848,122.1737856931559,8.579820348446686,77.3562768181179,32.527454786741416,-131.06828390170233,90.0,2.202344899862501,-11.400469856742427,1.9914462145325311,0.0022014386058193357,7.809611590755297e-05,0.00044390523417728854,106
-44.31122231082534,61.26674809986796,6.322389793001791,122.40281940895694,7.5954058884356455,78.11428668510983,33.01229344391459,-132.09422995236804,83.67398245319495,2.4037738513955187,-11.577009161640062,2.145655916643201,0.21892599014983655,0.008458464649125273,0.04483208072997841,107
-42.55588965062597,62.07245278887149,3.854146623151801,125.82288482455714,8.931622956446105,80.97598086073228,32.3664623591207,-133.69489470240794,83.60376641489097,2.5464655765802,-11.544208654684198,2.478179703904153,0.16660764292728025,0.007409121603199022,0.03402030241163323,108
-40.24059955079407,64.41690035697718,-0.7067945348302705,129.0787601788396,13.479357488564371,83.56095900942609,36.9807439011948,-133.83947926395416,87.77064743181874,2.489564861436192,-11.426721207368235,3.0590564748713636,-0.5711567645637755,-0.03056309733327871,-0.1155896551850598,109
-37.62119484162898,64.87222255478167,-3.256416310753909,128.66614130054273,19.924265322668013,87.0619345486356,42.64844851002466,-132.91771829604895,90.0,2.4249670612286787,-11.432125575578398,3.839210619416201,-0.8124037416149589,-0.054449982675630525,-0.16465626487924365,110
-34.84518338606772,67.85816475703636,-4.741681724840184,127.86299988992634,25.59537383645719,89.08744459203932,48.47118367049022,-129.58322850067538,90.0,2.1491006128161185,-11.754606369999118,4.598861057419743,-0.8333709067325192,-0.06719888704925574,-0.1738817184261006,111
-36.634249506883265,71.4610126987265,-8.210516857358618,129.79409526470755,28.88413344771591,91.98690840143894,45.86568869100186,-130.69328899212007,90.0,2.100143267967459,-11.163774771775593,4.309084606749,-0.28079846654056223,-0.02142952931541656,-0.05546569275404847,112
-36.24695606481521,79.433304334945,-17.332682212988527,128.9200914061315,30.090387407504714,95.62771398501279,50.421236613421996,-126.82686146774527,90.0,1.8355534557460427,-11.256268869436619,4.341537963793924,-0.193545473460841,-0.014916593262450444,-0.038544833706499915,113
-34.584204006234444,83.68850271059995,-21.19798780197692,127.45431331817856,32.488775180581136,98.43490281942017,47.180011870172976,-125.89023503520336,90.0,2.0087294423061923,-10.837309527693188,4.086063687249274,0.3915110397366251,0.0287332359026068,0.0748546813900539,114
-33.0238737762502,85.34068744820995,-21.855951048139307,124.90386785795113,33.32179629192428,98.35163090023775,43.95451230814877,-125.69573106715669,90.0,2.248113678117928,-10.514992790898585,3.6838386275037043,1.147940553806885,0.07731016237624201,0.2123279043836017,115
-31.75458424928711,86.06987385456901,-21.858042566674193,122.96105750135095,36.157393834461,99.27496286621985,39.40817485694903,-126.41411047988979,90.0,2.476334261016679,-10.072507237469575,3.441706179404268,2.127946588720916,0.13699857248094138,0.37556917236526305,116
-31.847231755846245,87.27617301815448,-22.69227392752503,119.33750401359777,39.1436099986641,99.27862186875171,37.592311261184946,-125.40959289404577,90.0,2.6064042178947076,-9.35172993506727,3.3240688254656674,2.835559997874476,0.1784406928292117,0.46276499036015983,117
-31.64092090391503,84.76670416075284,-23.93304591302885,115.05247236174277,44.243952569877536,97.73557767616055,35.444104086935376,-124.13999092245963,90.0,2.7460118624357572,-8.701229335180686,3.511211256184306,3.3959911278478074,0.22614275364395592,0.5133342034303855,118
-34.04571056205699,84.09706651728655,-24.350320004792415,114.2372744841489,48.793792728815504,96.8413426861918,33.28567459876584,-125.03558251339315,90.0,2.854880701515872,-8.32977352740147,3.748486127956808,3.661623313427946,0.2595003985338235,0.5281755560408565,119
-36.97251750191346,80.8098441631281,-25.630544124041325,106.76528178792351,53.56956970657129,96.70830372412983,31.75574285060555,-120.69145886071371,90.0,2.777561488716073,-7.592826168458171,3.9748571360579477,3.4892112612381885,0.2586783197054618,0.4575156026218764,120
-41.674556239210816,80.0640939445172,-26.60509486446236,104.1750459354907,60.30245912487478,94.94624898246664,29.354209310409296,-115.80511805426009,90.0,2.661686682034291,-7.340678283898103,4.403516379128011,2.5802762739953864,0.20780618194980197,0.3278550523441152,121
-47.72742532980006,81.07895646125456,-30.3143274775049,105.26647555291103,59.97336263176365,94.40900176755983,27.155631006295888,-117.73985550915175,90.0,2.2337572824028338,-7.10406853176426,4.500369969418242,1.3406543157890394,0.10829444327127558,0.1658440001952543,122
-54.51215653576809,81.46160492201314,-35.257773985844395,104.77549146535154,62.098047051402695,94.14095449368031,21.762199943578555,-121.47903235838446,90.0,1.9139508489674757,-7.056429353176904,4.563666136443519,0.24220014606878762,0.019543653036981527,0.02993997036111326,123
-66.7879986927142,78.79150662868028,-39.797543101025866,103.80998236019968,66.42047509523906,90.57060110535109,20.414531951773235,-124.47308612350095,90.0,1.6275876278816719,-8.055275857506677,5.017525211815251,-1.283445341157089,-0.11174599502937967,-0.18287313525311372,124
-78.06885035997676,74.49818246875166,-40.70889073802751,95.42011267237191,68.11003586584383,86.00535702850487,19.96172352686051,-119.096493505843,90.0,1.1462886908528969,-10.000421660645658,5.5150527494970385,-3.566853101834039,-0.32974010070528686,-0.6390988493189936,125
-88.39158528114517,69.46544146355991,-42.46521900027664,88.18626050004389,75.41953781286237,84.08225167331517,21.221578084633705,-119.47233436854992,90.0,1.6707481081693965,-11.360537502811693,5.428895616514802,-3.7481622642154764,-0.33824453284840916,-0.7639478171550678,126
-95.10093024904985,66.19562509925075,-40.01335227846375,76.49575323396104,77.51084500616888,80.30770244441928,26.27003663461461,-117.6191648856469,76.54519293373345,1.67751470318918,-13.037790304152212,6.435395976105608,-3.5615314650266154,-0.38615066889949756,-0.8363227261163692,127
-96.36381412640223,66.54939410446023,-36.37088734947965,64.13209222285028,72.2082618060011,79.58756768012687,31.873284238014048,-117.92928435982435,65.46134159187419,1.8210599390690014,-14.32420113602013,7.011366999160952,-2.7324327317566595,-0.329822016903364,-0.7051888298671595,128
-101.57822127942089,67.57629360124584,-23.119675125458123,55.827358856360505,61.92590839108336,75.70613105246737,35.91348599703582,-122.7014128357261,47.32598473954907,1.0818296417726692,-15.305082462337676,8.771282926302018,-2.755538207587727,-0.4220662919839786,-0.7636083196013912,129
-102.89704093432013,68.19797763825972,-13.744577466164401,52.998990001978854,48.570136735121714,72.12305027695115,35.62505339541705,-123.13509551876686,-7.111262625359611,0.7816655237366427,-15.561005816908654,9.216878072868857,-2.5531474466539654,-0.41365142988853787,-0.7195816115521212,130
-102.58546532347846,68.2616820678438,-11.158985313329062,52.74576622116613,32.70801436741624,68.64876767830208,34.92696728363725,-117.83203969536896,-44.31692098062549,1.0508869144307709,-14.625840875562552,8.498907074116323,-2.670984748677519,-0.39573983761042036,-0.7057331391751744,131
-102.1224969752051,68.17690886028657,-11.682485076674487,54.06124557258239,22.01878843546849,68.3107777085676,37.86477528142078,-112.72141691832333,-55.03622664209295,1.0548189507081018,-13.868177935035924,6.998729980045214,-3.3400898758493844,-0.3977324233112838,-0.8357192416755337,132
-103.81796352575871,68.19024323815759,-12.601816841863089,55.83744886256345,11.159912320106596,70.03812699406744,38.705645194644845,-104.7450966838905,-67.24133740767755,1.4116093883240883,-13.972291214326992,5.8785767595299525,-4.905270546929225,-0.4671224080982082,-1.2399500793782787,133
-105.8042831725237,67.17595801581854,-16.35235616085872,59.026846608214456,3.0900592320850144,73.33565536208373,38.004826603644624,-94.58691314934863,-73.90146300759658,1.8151584307023976,-14.296432101056517,4.902366785776407,-7.022584135428028,-0.509909173202973,-1.82088247864085,134
-110.78841582693053,66.34529884168721,-16.647112717477782,61.52048419340818,-3.8683641537905133,75.92503430781323,41.03380223578858,-89.53511071905459,-78.28168639255782,2.1838485343800715,-13.88937784407805,4.511198333960332,-8.86787366099923,-0.5478380964453257,-2.2367719916540185,135
-113.22389839867851,64.23910390080994,-20.51560342302811,64.66913053484372,-10.531103453336332,78.68322958570435,42.3591455946284,-76.65116017210251,-78.63247916592461,2.901436109311086,-13.889789627736262,3.9016336377750847,-11.017207597550325,-0.5075696390930748,-2.778187841683861,136
-113.67354727094838,64.63713668090442,-24.63277533144591,67.94431736916998,-14.366721719621928,79.84749929393956,42.99364678482424,-73.93203145223525,-78.44862599126438,3.255048382811854,-14.016853915440192,3.0304162734844278,-12.124208554724976,-0.3373351183891771,-3.0708704672970604,137
-116.4118129924073,65.01337613007267,-26.23303763838915,70.31176319146901,-17.044708950022166,81.57953515420905,42.13419431293016,-75.52193967890638,-77.54344572018589,3.620107719565505,-14.10949325206404,2.2851735895065817,-13.4940447806681,-0.15248628153679605,-3.4234878890558575,138
-118.8968442689573,66.30126056195795,-25.517130884612854,72.08394620462018,-18.19776565571209,84.7991790308924,39.76277609955137,-81.65202916349628,-75.98310366795764,3.81933762224549,-14.119060013394675,1.494461337819679,-14.836159731442283,0.08580739748155691,-3.7410285803267707,139
-119.67675295042596,66.76062797686501,-26.680780011845812,75.10409710326482,-16.46792142661339,86.64520511987821,35.85156408189357,-89.65034259755484,-75.43515378363527,3.8007875994937956,-14.289126906095177,1.0426813569243674,-15.664565431274108,0.25158727831143507,-3.9807375979329778,140
-121.93669760148921,66.90832162248383,-24.897457222291333,74.06378498189063,-14.87509572008965,86.78813505379746,32.621762997786725,-96.34932581759986,-75.77046665391184,3.8086304352796656,-14.765798118706465,1.0861278624709998,-16.51276328491661,0.3037633980732884,-4.3395740784773675,141
-123.58116080304364,68.55218871367613,-20.8061373476362,73.69616156599197,-11.267915893228693,87.12953812898608,28.237547836563483,-101.56637534951852,-75.01165047469685,3.851153081466747,-15.235710586644586,1.0200611882821957,-17.14272503864195,0.38197749738209485,-4.648293470744519,142
-123.1002945719882,68.24252737618835,-20.729317501414602,74.62121032961558,-6.63399352572272,86.86487105789193,25.04939844593955,-107.96862325214856,-74.58687582703355,3.7013555509845486,-15.038008678693771,1.1877899246609713,-17.27025678537357,0.3290607513744954,-4.626368143567752,143
-123.05742641635968,69.03858330208527,-17.608980540560268,77.23527020181673,-2.2997621471060836,86.25217776134801,23.053286095438732,-111.79803959636547,-73.49242305904005,3.661599529041037,-14.471479985992955,1.5349312229308922,-16.89948470612249,0.17771558640432386,-4.366661118425904,144
-122.10929073862411,69.60888585058571,-17.03147180967238,81.53657030157042,3.3306618882778958,84.48285813757974,22.89203651686549,-116.74471315621673,-73.45120672580084,3.512763033897736,-13.97976056453618,1.5059683254360279,-16.33762855192757,0.1393540671251809,-4.074595646743991,145
-120.63068495647916,71.56653273995823,-15.086519838566554,87.91426901880256,10.16067941249389,85.31331140520167,21.37549235522079,-119.59457206682205,-73.01208701719231,3.508394920996472,-13.272621268095413,1.9167978878789012,-16.371359317953747,-0.007331115561210714,-3.8877600703387403,146
-118.31484010923083,74.60064976323687,-12.53927368117251,95.31201125654202,18.455643093783408,86.79307147935071,20.85591520389468,-122.5292548989312,-73.54016238570529,3.359633136434314,-12.408872852356197,2.101387484215085,-16.083172169683984,-0.10290935769145934,-3.5748189898908267,147
-114.81931408025231,75.82575937833295,-13.109136204640645,103.91798849117936,27.191187368437134,88.09331914063301,23.362985600195344,-126.03382409474494,-75.13767918215534,3.1577562177953915,-11.360515608413706,2.4319706949618642,-15.230425155718299,-0.2476063813105271,-3.1092099095944032,148
-110.85098737263793,77.667125716093,-9.820545875093023,112.73641701019092,38.04534729381862,86.95685291064213,24.823215938392124,-127.00122232153892,-76.52720459450258,2.9963622620165964,-9.80751143083746,2.952332622834288,-14.35677934623906,-0.43397030511997103,-2.547421576088297,149
-100.83572381503608,77.07205187032712,-11.830070504270022,121.08542184974847,49.55778232106881,87.37579162423168,26.304986607665697,-128.5274229766195,-75.53329692066487,2.6641934101414084,-8.432115847405516,2.4841446472719326,-12.324506004953271,-0.3404742385139386,-1.8698322502530478,150
-91.58161196633849,78.78542611406355,-12.90496686445782,126.53973619465793,60.41829317613327,86.85738791633446,28.10717756686389,-130.21868163159186,-76.60935185952324,2.4594306450080268,-6.514025135071759,1.296517601483565,-10.982193098523888,-0.12881060083091997,-1.2700073258038078,151
-84.3340118147156,82.44992503374222,-13.178183581329836,130.17318466678284,73.6398320021558,85.28606628475633,26.25073003466159,-131.08238371157591,-80.67532117571895,2.2326767166251105,-5.4543197064418765,0.27744379918143436,-9.734262926507805,0.03164368686119613,-0.9290224933138462,152
-75.15992494938641,82.38595446579376,-13.309375674293198,132.89104130089893,86.51908555482947,81.41850189514882,24.573251458174273,-130.3794782059106,-84.84644036799729,1.9330623435236736,-4.780072489726836,-0.1005269927944063,-8.337491503392107,0.06526831540895373,-0.6936988112962182,153
-66.2599861782923,83.75394027232127,-15.441326886028296,133.8630937055011,95.93661815433374,78.46075364674377,22.25773309857316,-129.31101257940813,-90.0,1.8005062441883637,-4.735818511458142,-0.6810302520365266,-6.770707822285018,0.11368243071697187,-0.5548851532157099,154
-58.65633123245401,82.43605440165004,-15.218571664389724,135.22935349618083,106.7762278173459,75.31189468822635,19.570518837953838,-128.2517827835321,-90.0,1.7414631535743827,-4.121029926121541,-1.1508315200161696,-5.45603764111916,0.12843469813728242,-0.3873139261779175,155
-52.269591511087825,82.54792639654652,-13.78313842591912,135.8005006288391,116.99145020532433,75.21624301529758,16.275310665599395,-125.39624299362828,-90.0,1.7548771542741177,-2.8956334236130727,-1.4784380026346353,-4.5432129011878555,0.1263972738430555,-0.22492094618250022,156
-47.70614816123216,81.70043430257033,-14.50017653329383,135.5164896515322,121.51691426134576,74.16978036382346,16.04522157262989,-122.91041572091636,-90.0,1.8752379202513674,-2.408869093848229,-1.8275347920855494,-3.7035349355062714,0.12323099599720314,-0.15187530865280716,157
-45.91701381275341,82.09529946639094,-14.830574147888692,135.28377744157257,122.31459118190533,74.18067038188927,16.82605600944416,-121.1751992920903,-90.0,2.049014669252259,-2.5531538672454004,-1.7451213658630609,-3.0759515023035826,0.0974491457717505,-0.13457965220162318,158
-46.55112417091079,84.66697492060307,-14.92827203358485,134.74538519603092,119.32423367904687,75.27632382779258,18.401243779021762,-120.76944692856955,-90.0,2.137673694360586,-3.181133710395699,-1.3538956329765117,-2.8074109970228176,0.07025135485992669,-0.15434628707465164,159
-50.21403760497599,83.29270884082545,-15.328974198565923,134.5063541514046,115.2326558671131,76.67236879351807,19.29221843743343,-120.28736208640981,-90.0,2.4149275472252913,-3.696437629445086,-0.6040121615493793,-3.1015398353301586,0.038172633311993096,-0.1993935390989089,160
-56.81413168563981,81.74843109157472,-15.873279028995814,132.74476623495724,108.61087726060406,77.31454410999541,22.24788557234944,-120.1869436277387,-90.0,2.506513979264594,-4.037747270034207,0.14875144260496004,-3.854799298208841,-0.0008751488626806207,-0.27223743569784925,161
-65.25771246478425,82.0430876543597,-17.064335035793224,127.6561676957742,98.77770277045236,79.85910897214184,24.74602082107528,-120.1527138877796,-90.0,2.595953785625727,-4.709630066028188,0.0532574842817391,-4.335383044496339,0.009466828449789818,-0.3569804308572449,162
-72.5902425196154,81.67620684843654,-17.894506335441257,124.19952393102243,86.21402080177234,83.03303209949686,28.002426219589378,-121.6234397323262,-85.06055483348523,3.0302529041137802,-6.067942802159105,0.035028599275107285,-5.214900491689243,0.02200949061336185,-0.5537488867172995,163
-80.29656295098188,80.33955504486387,-17.25421209129185,119.11997530217906,73.22788479767665,87.15759988008475,30.244536826778905,-121.76917595990288,-77.09697277403538,3.3992210278927937,-6.914779395043791,-0.3321048053547939,-5.805822501895206,0.06948949375015913,-0.7012234883636969,164
-89.9485829003057,78.0401971665307,-16.551829348718172,115.979387476387,60.46803793732585,91.17635903765198,31.048595482858016,-123.31732980298139,-70.86264984750682,3.8323184951543467,-8.353103282013468,-0.5366009788176199,-6.5744238115395,0.11743824106715435,-0.9597659844160528,165
-97.8991542750401,76.3434637462612,-13.683589040995448,114.07501492243613,51.785110641760966,95.20020608384236,29.938521291499363,-123.62935172167941,-67.32704025694947,4.270254499593973,-9.484718815621086,0.10594893439651062,-7.361999079697211,0.06515258216535653,-1.227530872206415,166
-103.90447160924465,75.50030833645789,-11.770094779458327,113.21170237528692,42.35030357753704,100.35590703659378,29.694993227121078,-123.32527855563758,-63.6620606472492,4.849381039185374,-10.585765397831846,0.47950020210214206,-8.60184410323947,0.047489663918008705,-1.607053432745433,167
-110.62426843584731,74.05577161530626,-9.714022115101406,112.44609967229053,34.33756490356557,103.12567568334728,30.42448355636296,-122.66316667702407,-61.6849348202079,5.27974190408592,-11.169039523245452,0.8342351126181,-10.164255036794218,0.027473194438483818,-2.0095951485002037,168
-117.60924561996853,71.65771074299475,-10.063791691287035,110.89718986901077,26.005761111496472,105.49617942650204,27.942563970938817,-122.11818801446096,-60.11015348867797,5.598287094952918,-12.290640983183277,0.5918638961944104,-11.621861181752715,0.13391522798630862,-2.52730944680818,169
-123.65826860954009,71.32210780806399,-8.115621042860713,109.21228078880202,20.093081216509713,108.01983199762465,25.93928700148287,-121.87827953803746,-59.86340284043741,5.76169757894178,-12.531508897196709,0.9068891274324686,-13.576107914515417,0.13777830498502613,-3.015492448725099,170
-127.287033138849,73.39462529691063,-4.714589580721821,108.80957966242414,14.683443082111774,108.44963044345572,24.881203920874498,-120.93616988755682,-60.397776172091895,6.000000000000009,-12.467089260988637,1.8373387946436193,-14.871492636549027,-0.05878649025714115,-3.3129270991436846,171
-129.82003745484593,72.64874361078166,-4.543956437085657,108.81622204620747,13.108670804231043,109.99999999999997,23.753882854967657,-121.03156235353056,-61.03088444248584,6.000000000000009,-11.876229116570686,2.624272960022097,-16.195576597793163,-0.27017895463598157,-3.46445413024765,172
-131.2193924412695,72.77926349927006,-2.706814124857134,109.65780313291145,11.877027329575945,109.44400119367972,24.31685391343079,-120.71499305569034,-61.62779602343567,6.000000000000009,-11.175952211870452,3.2693206079766743,-17.29721933709095,-0.4795822415916734,-3.512532426786086,173
-131.82494795105538,74.40090144114158,0.16834352178399223,110.26541210325387,12.064453602679706,109.25951991938928,23.91582790259664,-120.9236317590179,-61.8244911545663,6.000000000000009,-10.609995424816594,3.5050576072651447,-18.4940615787423,-0.5777266250595064,-3.5843081907017003,174
-130.63272361912178,74.89491378672015,1.7663349874776508,111.41018363723337,13.801272749421807,108.26579992823957,24.614902316992975,-121.32345013179378,-61.955711880493844,6.000000000000009,-10.350143460209594,3.383287671481033,-19.40579889487009,-0.5490641849045031,-3.667870896860545,175
-129.39350021973092,74.2967631044971,2.5436186724086736,113.57391827290623,19.537317566857112,105.46203714592694,26.605320946609602,-123.36272513697875,-63.0723885290626,5.740003018966295,-9.905806728991505,3.142156774563137,-19.196152820175822,-0.4931243329187921,-3.463713410441155,176
-125.70047578839143,72.82919728705433,1.31300892931979,116.54572856979686,28.216887053718352,104.29482881544932,28.59086229264111,-124.59327273862644,-63.50167064202886,5.282355726802673,-9.520083795026604,2.493336280099933,-17.965729717793316,-0.3116443596428927,-3.0849487236317956,177
-120.03837686801346,72.14723711282916,-1.2113017885784891,118.51019179182903,34.490809623629104,101.99128037493588,32.07055395302964,-124.8120155574686,-63.925908019854134,4.962971990350622,-9.457283211695522,1.2973918778698692,-16.709966538452587,0.024785150484904865,-2.799286540227752,178
-113.7534758827431,71.14618691575694,-3.882286584582382,120.4347764953489,43.13080024357972,100.022014277778,33.77321994059573,-124.87767904142481,-65.11580947193876,4.604392615392962,-9.04794692249596,0.40137966524823476,-15.610084678616985,0.22723458020471368,-2.4705279013720935,179
-104.67015362999838,71.56285773785969,-6.012892124084702,123.74527621801097,50.822043009836776,97.11007434300802,37.213077587935025,-125.83415648789226,-67.06920512929106,4.334899648510894,-8.396579826202432,-0.1218745200706613,-14.354615660759118,0.2946875375293294,-2.0934351676168013,180
-92.4307343671816,72.71505223613795,-7.9632320280410624,126.33514193167483,58.73230746636407,93.31784213000282,36.88678072730002,-127.78112809933552,-67.6261568412272,3.8294879725243094,-8.334271880407975,-1.3820782199758266,-12.505989147395278,0.5019905451550625,-1.7853729507996077,181
-82.45759179306593,74.40040607339354,-8.024852539865174,127.88124276869209,67.03343804621551,89.45391881744465,35.21747276573236,-129.04069273968818,-69.64277984226122,3.370257282282388,-7.9580716507687335,-2.432552830223996,-11.210574689696942,0.6311016652749575,-1.5113340840954335,182
-73.6951895011201,76.49686198772177,-9.200360034944817,129.58363097444087,75.27584750583333,85.35689900812885,32.64282586125271,-129.94406325703378,-69.04535563086888,3.0037039013137306,-8.46621435995706,-3.4091296400265887,-9.614161998377389,0.6966992561969956,-1.3770071328841222,183
-67.51714436721738,78.62910968787557,-8.281406553533463,131.17126721989126,85.25131405683284,81.16664345251219,29.035109046129797,-131.00322657819697,-68.04794179915926,2.617909949019088,-8.581088793574095,-4.016910507473656,-8.094225264235313,0.6596036724701645,-1.1777513166479487,184
-65.46890794918362,77.78792638970923,-5.443890732204327,132.68174652178402,93.94831598633691,77.78776743259935,25.16014893917308,-132.3524879098394,-70.16493336443371,2.2665307060844424,-8.203876287782192,-4.377133310379842,-7.207049996943893,0.6216191009260246,-1.0020320863464955,185
-63.48676404073206,77.57250028374179,-3.397794039160182,133.72868955772142,101.53590972181185,74.34731607524213,21.330119943771344,-132.8255750120512,-78.5509168601993,1.850016454001407,-7.56664561307492,-4.8890161553765115,-6.472145520287387,0.6061944598836547,-0.8269414886700548,186
-62.511895654746965,77.11612209174416,-2.7692690228506476,135.5619900070398,109.02818756700697,72.99332941015395,18.883415267999453,-133.30017089380416,-90.0,1.675758438949667,-6.670711090459458,-4.591610797090461,-5.924913978260709,0.5142768201496932,-0.6672935565380814,187
-60.88598750193943,76.60076912721331,-2.5246952307133763,137.1691887813454,114.36941692670716,72.38294774349266,17.469494854564935,-133.22307322553976,-90.0,1.7951855314060168,-5.968619794305564,-4.021945201594024,-5.492039790929433,0.41531375187184527,-0.5549215290285395,188
-59.562381397823486,76.31920794939474,-2.276443815639322,138.09819602608172,116.84765005241583,72.19791188495657,17.106592232628202,-133.50550804842084,-90.0,2.0888505065864136,-5.738676919038888,-3.398710301407611,-5.072329710482674,0.32499728542589656,-0.4958203278190132,189
-58.535632998171444,75.9846137345888,-3.1012764639318555,138.67888287253183,118.37029213809281,73.68823092472456,15.505468721927691,-133.43701733873755,-90.0,2.3386325876890446,-5.668990162585558,-2.9064363844914043,-4.478406569024904,0.2456714386683018,-0.4352674696039988,190
-59.210488107457635,77.27821778463976,-1.0445948543651111,139.05471185506707,117.92733254549636,72.9421940209445,15.332264772086553,-133.77832362130957,-90.0,2.4065150231263104,-5.80499994154481,-2.5485065022028315,-3.87797963050564,0.18673037315339713,-0.38814440629714947,191
-58.14609066322637,76.68377508663201,-0.7747724042729693,138.6674197250184,116.73005163264524,74.2148847301556,14.378992573574138,-134.35452535885705,-90.0,2.27302199967215,-5.991682235107613,-2.322366815407811,-2.973389944246264,0.12930529026390045,-0.30882941458520785,192
-58.08092796480332,73.74851683962636,-0.4554829565912285,137.49643724374425,113.00204797870117,72.98232758626605,14.48463446342139,-136.50060384551676,-90.0,2.051078535957318,-6.421293643231797,-2.2605091918315314,-2.066306030375414,0.08626224794626985,-0.23103980787284534,193
-60.29276472992366,72.24636127088685,3.751239302208275,137.44051898427202,109.17967332947028,74.68927272059217,10.150770053898592,-139.67897490196012,-90.0,1.944956336762865,-7.1459775351436265,-2.2751048590569445,-1.313125778372654,0.054462565844118814,-0.1640213907828066,194
-58.66371274853093,68.12906135871742,6.6548436966685784,136.46708764866372,103.9703705711725,74.52680289627921,4.287189046693461,-142.6873181006901,-90.0,1.6434759208427916,-8.576973573380643,-2.5771825281020164,0.11401735297034972,-0.0051728928678467295,0.017201671522137835,195
-55.22945705508269,64.78433695927538,11.082394597285548,136.3785612984542,98.04432548954863,71.64843841996853,-6.348015462236221,-144.77403861772896,-90.0,1.5103120719017766,-9.888965836585445,-2.930414092525546,1.248721075960429,-0.06250290519895753,0.21835763741178682,196
-50.39819722920458,58.40153540637364,13.06622162366995,135.52792562735422,88.53602991023855,69.05010424650702,-17.856624905956057,-145.99846562181793,-90.0,1.4378314800322232,-10.540856522434687,-3.3503198173651088,1.6439079024402072,-0.09347196630719652,0.3072076314934634,197
-44.12999593916656,52.35490712276513,13.561799242869913,136.61457154115507,82.87843199773616,66.2055174615443,-26.006438563804075,-147.07997574207846,-90.0,1.5799967729996567,-12.130150253520808,-4.117486860863033,1.821012450249163,-0.12781149949877244,0.3933620236196513,198
-36.125589423284275,47.538512339306955,10.920075520258365,137.62775451543038,81.69518957859098,67.19753341221391,-29.949767794905743,-148.0,-83.59072805943397,1.4430476485298567,-13.01169960244416,-5.177631480696343,2.2756207528627828,-0.20105653788990183,0.529701725294917,199
-25.87363233153474,43.44293521451164,4.586114641828096,137.8512013081483,79.32509467374173,67.59644645341302,-31.728476618272392,-148.0,-69.70978100649832,1.3951637264100876,-13.938469891241294,-6.2807571486040965,2.5046961092806943,-0.270197100706665,0.6272671082809602,200
-15.9826593937013,40.67506416733406,-2.894224123954799,136.85065884617714,76.44937226845295,68.07161117499454,-29.995223626468977,-148.0,-56.41029441432907,1.3473110831380413,-14.218876967386255,-6.80483943757716,2.3635366763317656,-0.2783436517218829,0.6043445961818604,201
-9.651484148498978,39.459173063105155,-6.477452308393203,135.96288344531854,73.74636029121032,68.38786738867982,-29.02633318521485,-148.0,-47.675401395212866,1.4341870613082741,-14.15170583325862,-7.141402815078113,1.8481566910365692,-0.23112842689905494,0.46952536233772124,202
-4.754939900183661,38.738582300416745,-10.34455704847048,135.55169710213156,70.52639395896706,68.66032587352585,-26.90597736435012,-148.0,-41.150762837816266,1.6013831805991465,-13.859186640952341,-7.297978816920405,1.0710751451138871,-0.13876275091102896,0.2654797055739907,203
0.6017401186559084,38.4615358554291,-14.80911187695039,135.09439646283397,64.86194310273183,69.9938089547464,-25.722398827444295,-148.0,-39.41759439940194,1.8157030182307055,-13.37090606202372,-7.300688730187955,0.07206474445692768,-0.009478862248268754,0.01713520453322088,204
5.532675861581938,38.281429328368596,-19.789164437012683,135.32949535830576,62.8514365191744,69.41802932960945,-22.532664790542587,-148.0,-39.936693616692544,1.8859004721678267,-12.528825182837743,-7.05492035789317,-0.6998250697451647,0.08968451107154271,-0.154997981040009,205
7.873235356607721,40.13021374752266,-21.63687114210367,135.56786732038378,58.79874947230944,69.96613648251677,-21.019746104568654,-148.0,-43.07651871828547,1.9820185270431452,-11.674586896329421,-6.8173728018649316,-1.7839888245030364,0.22357388200368214,-0.3653160745561256,206
8.048453788291749,44.254620412517426,-22.035216012839943,136.52092106777738,56.279114120867916,70.04661805847908,-17.04884572241925,-148.0,-43.96624826605761,1.8493133501698777,-10.91597512683955,-6.781911640469451,-2.520673048517057,0.3160471226413725,-0.4795114814385988,207
7.092084710199961,48.66963346305922,-21.885901008912743,137.20630460521528,51.45281399443458,72.07843608672454,-13.032285402678202,-148.0,-49.90973374928081,1.701419528227701,-10.107831484958083,-6.999103292957215,-3.534446238467412,0.46022827507763286,-0.6165147626197829,208
5.595919271867787,53.560253955346504,-22.363074950981908,137.38477526549323,49.2038601692687,74.47241872022911,-6.570668448766514,-148.0,-58.69672438240047,1.4973515898464018,-8.761514643542082,-7.1683992749742105,-4.556058063716466,0.607542975489264,-0.6789304884349852,209
3.5205316265988618,58.43860471699799,-23.0645489604144,137.19865951842144,48.34049361933482,77.1461671678786,-1.2008978046035292,-147.61869810518093,-74.40501788185954,1.3465588301192968,-7.2423979195860095,-7.478106902935719,-5.226159946515092,0.7213718967322608,-0.632184330191723,210
-0.2213880585585447,62.84029424294013,-23.372267048902025,137.55262019603236,48.53373937144358,80.10785368066189,3.533080663051201,-145.74852559142343,-90.0,1.3221883417812301,-5.3028540970156595,-7.764884393809334,-5.65289238177095,0.7992063742634685,-0.48596655964401336,211
-3.083752597241849,70.28964393634332,-23.88569294521704,136.73611336626058,47.57572603086447,84.18166272437419,8.6262969846046,-142.740380555353,-90.0,1.5163457681630963,-3.8815484514796115,-7.792340344557696,-5.934907328433237,0.8337750080691841,-0.3599960949284762,212
-5.6246149491255375,74.25681783904119,-24.045460535925034,136.94003555378606,46.75055045566848,83.55772085933772,14.20727542646243,-139.86112608793914,-90.0,1.9808448509356071,-2.358104063790136,-7.361346189712051,-6.964640385156827,0.915951312397886,-0.2314935030080929,213
-7.117168605828023,78.04072218939876,-24.230754365223294,136.3037932851476,45.887168243419524,84.38858284445699,17.331379614090682,-136.50369916833628,-90.0,2.4252970416858313,-1.156011717653012,-6.880178047593867,-7.935227527108133,0.9657623712462773,-0.09341112705035692,214
-8.681423781418442,79.91942680383434,-25.86183222758038,135.67780450180717,46.32473906814334,86.05949549239745,18.340339724863878,-133.03836517076877,-90.0,2.9317816289699703,-0.060775478137779664,-6.696281650453983,-8.672726557076937,1.0149555732301623,0.06774830851479322,215
-11.581522909453588,83.01076447319956,-25.675680638373606,135.68111677474957,46.88934101577626,87.42277170543333,22.185817329183458,-129.50221277983036,-90.0,3.5173029261362556,0.7618906307471177,-6.209275283976185,-9.631449299051289,1.0320766058941169,0.21531166733430937,216
-14.208597598682887,84.8487472850253,-24.498913122199408,136.15770139048297,46.21673675047561,87.98672054120138,24.653075514082687,-126.37032182182668,-90.0,4.006896670080147,1.4987872365917643,-5.641830687787688,-10.466698868224695,1.0033179907692458,0.3664376918609306,217
-17.07736663668318,86.52761185911677,-23.853580854215565,136.13901478917225,46.1359060971847,87.03151496300379,25.599310585852148,-121.12233959881803,-90.0,4.3665006946192095,2.150718295290211,-4.745562469842217,-11.157272087817933,0.8800425259848507,0.506147797533959,218
-18.556624869390756,86.38594156909596,-24.52520627496417,136.45603547275925,46.48006580862988,86.43193602413307,27.47610139466994,-116.84123613898826,-90.0,4.674680962182925,2.315962338677188,-3.9168746550049995,-11.922574397779451,0.7608743959252163,0.5632312719431432,219
-19.20638912690329,87.96341303007365,-23.516871663069654,136.3111219997952,47.07582205491028,87.30200051853248,27.790145281500937,-112.73707338647719,-90.0,4.806240595092797,2.2067309051957715,-3.246054708121642,-12.157671572841442,0.6351886808047691,0.5377733876297357,220
-18.76850857039399,87.33667707687343,-23.365181111036854,136.3306000857295,47.400983927322876,88.18497411612876,28.506291071649777,-110.96259987539989,-90.0,4.790323672221389,1.7617285226698691,-2.745056729288517,-12.153105866385076,0.5390291972296,0.4325271787353831,221
-17.901683497705353,86.49289524287381,-22.773586391152186,136.0968534693696,47.20474298593074,88.33920418545678,28.8460092309082,-110.63605109921323,-90.0,4.671381914360063,0.8134133230109349,-2.377299105305251,-12.00086737560535,0.47681921256724524,0.22111662909885355,222
-16.411922121356827,85.72663252532705,-21.99403706277821,136.1883387674987,46.902441161472936,88.62093308543889,29.68854567362205,-112.11806166825556,-90.0,4.449066400946244,-0.2637396628571976,-2.2324261660719387,-11.647145642864471,0.4563531662327881,-0.0072545648399538944,223
-15.379599655311514,84.50686201351328,-20.720888054056285,136.00518715935414,47.41625265891153,89.7431756368883,28.351520288451702,-113.80845484768642,-90.0,4.157570026789843,-1.5175308859388108,-2.1615976239579067,-11.251033288691799,0.45130210492118683,-0.2545974802574149,224
-14.560266945200695,83.4906005441282,-19.943160258024772,135.12020744878967,47.48898543367004,90.81572867016058,27.03304275160071,-116.27216221620677,-90.0,3.72702038785187,-2.824564104425939,-2.317372889140497,-10.300498332413465,0.46074216141511387,-0.46814092084001335,225
-13.438491768863386,81.98958221584198,-19.155276209074373,134.36332682501092,48.10153525807481,89.57706593068647,26.79734776962335,-118.72499926450634,-90.0,3.215915190097156,-4.147739638177572,-2.19884722798497,-9.103882378925917,0.40143311145535604,-0.6297856865665955,226
-11.356271689115765,78.65665276758808,-19.880401248756645,133.19826788210486,48.95122019573846,90.14514012192033,24.782194533605484,-120.76377444438286,-90.0,2.5754940442845795,-5.569888137093229,-2.108540477976861,-7.922637288543774,0.3455728213737694,-0.7501306763979886,227
-8.797763302716158,75.12841995680147,-20.548284883004346,132.35494589995622,49.32736826262294,89.01130454313734,24.272630689840565,-122.80008558524335,-90.0,2.0066841535046573,-7.202476736513774,-1.9293026847937738,-6.75906774741334,0.2793685170513527,-0.8389036645375503,228
-7.017582333988242,73.62493917806975,-19.887044904915186,132.1857095261079,50.43911984100229,89.37769169385489,21.750828827846387,-125.22943097940289,-90.0,1.6376884069669508,-8.64761585588142,-1.9334074868989974,-5.4809199294017255,0.22676883527915825,-0.8235861899448184,229
-4.703363535335039,70.67768336330464,-21.149364205611295,131.54359937136968,49.44392759379715,88.38772295895993,20.531763666300325,-127.02813159627317,-90.0,1.4450745404171796,-10.001074801324505,-2.0916143552786117,-4.317902841666303,0.18871170311357569,-0.754901001704975,230
-2.7117993314300044,67.6308944609702,-21.195656388935863,131.30944090354637,47.40901108334874,87.12794265348484,18.797867487387602,-128.22294141232146,-84.89660116454564,1.5202835071664726,-10.958671015711907,-2.5395727549871006,-3.962408256580855,0.20545636465569228,-0.7607000145843933,231
-0.38647388875898336,64.80965836734954,-21.647386019143806,131.24183483008514,46.61354060689752,85.99781175960986,17.356335702655443,-129.73030056027213,-72.99573979967818,1.6946347721731314,-11.202367215781283,-2.894591013844226,-3.6572081783900394,0.21156856210760033,-0.71804838143588,232
1.1999163464834188,62.4955604512668,-22.387412630158494,130.96849965853048,46.74532164122882,86.57170781179828,14.419989548364319,-130.89829051752574,-64.53493523377973,1.8824515793433094,-11.223139463649236,-3.2740359214655452,-3.661249587819077,0.23667897674511587,-0.7194517963140235,233
2.34234385315528,60.346331973370525,-22.597615930200774,131.68613028063245,45.734761400530765,85.4851948437405,13.306147554895185,-132.77387805849466,-61.50272041852996,2.0533577514687043,-10.93959140201895,-3.7057300643360156,-4.212954693650192,0.3077438379480079,-0.8037585230206921,234
2.829310801048748,58.14661869598486,-23.0883317271675,132.47041944216855,44.77032040457313,84.69334698579284,12.128793320196765,-133.56687850788325,-59.96669424091729,2.2054872131642935,-10.328461579159736,-3.852079554697608,-4.741902597691082,0.36011661736401285,-0.8502377511868843,235
2.182312635261956,58.52943672777532,-22.508744809853894,133.3498224260163,43.88514384510668,84.2972984408033,11.975027441243565,-134.3674579971049,-60.04267626605449,2.2863736195681787,-9.84425218846488,-4.198882532863159,-5.2424172913634335,0.43194562092239325,-0.8911182755124593,236
1.5808549120454243,59.300760670636116,-22.431083787957956,133.9379751822781,42.7690030844846,84.19320278814088,12.180059483604419,-134.46627605958525,-60.007225818134,2.3356924880742533,-9.486016278959191,-4.520276008903081,-5.772655223813304,0.5108346365034512,-0.940303266067032,237
0.09005365374360108,62.46396388540709,-21.718627445344385,134.9451463527862,43.63051753352318,85.72158424513208,14.44852112489898,-135.4216395787956,-63.5641582910052,2.257051741850543,-8.672748416340939,-4.764066707433252,-6.049050655856674,0.5580756068065392,-0.8947077634718792,238
-0.6022648552593813,63.876706939940924,-22.51148506937835,135.437208934098,43.541074422409835,87.01122924564821,16.153718798745555,-134.9351111435449,-67.18592189999232,2.3252835918988164,-8.046170953000773,-4.955547053540666,-6.673091561263325,0.6383833600974943,-0.9078719798836554,239
-1.4677976860085484,65.5894813692713,-23.59204784388531,136.13326777922393,43.75624352363706,86.70976384238513,19.745890774124923,-134.35741020708005,-72.97626591018631,2.345022044317052,-7.25454410884994,-5.158841150300554,-7.3564425534011235,0.7282671347121369,-0.8916249440462151,240
-2.358142753203502,67.24329117720433,-24.531552021965247,136.42597170710025,43.76752530402483,88.87692309654366,21.614061498772784,-132.87585665996485,-78.72737571740822,2.403911134754603,-6.113122380577265,-5.138431093501021,-8.32699870856713,0.8156881351513335,-0.8346440626491065,241
-3.966930631219376,70.8952350944654,-24.045242385071482,136.17634700188464,42.00077530296106,89.15418032022617,24.624147443512275,-130.79775471191329,-83.25228725840066,2.499220253120772,-5.371335715510414,-5.344725226466032,-9.021809619403179,0.9115057908836136,-0.7786727412610595,242
-4.410259878379752,72.23157739616835,-25.03101037867429,135.50677057002488,41.33607987953272,89.93821007331152,24.618882624275816,-128.9308794182874,-88.89530741526488,2.537892430536477,-4.580807007944497,-5.380935089071717,-9.53507107932346,0.9608308463163557,-0.6860428378964764,243
-4.400133594393965,72.73870484722335,-25.174986853395474,135.39580791827134,40.41655933097049,91.02812455596279,24.402489277403404,-128.1640555783567,-90.0,2.5719689297051027,-3.81923031172848,-5.14916360050288,-10.211101012625813,0.9783669115923566,-0.5963928847275133,244
-3.532810509368581,73.50798382620852,-25.99900864998259,135.05833277967662,38.52610161881699,90.5998979271163,25.792096029509405,-127.1246188631513,-90.0,2.624757966213476,-3.4136827273492143,-4.7964872794504645,-10.546653758125133,0.9396649772276265,-0.5444280287254412,245
-3.435565732768054,75.41474296476454,-25.037996943143654,134.55743384101132,36.72645348047225,89.93266380520996,26.907705441535736,-126.66234955295738,-90.0,2.673384651734542,-3.0230496847333588,-4.378814030337072,-10.377648221449915,0.8411833871731396,-0.47335032257349524,246
-1.7453654849294131,75.55922392420354,-25.670514769723777,134.0368199639745,34.295063045013094,88.91523793427764,27.65695357517545,-126.55224776587944,-90.0,2.75353929569676,-2.862125198276599,-4.002515243347319,-10.131558573842224,0.7509776146054247,-0.4414229033079076,247
-0.23729183687710068,75.51902473733735,-26.163379661272383,133.46256852525585,31.897972002282515,87.89076912965442,28.445747271441757,-126.09271946676874,-90.0,2.859530381473031,-2.7174005203655214,-3.6269600126330035,-9.840969954955042,0.6615925780716854,-0.41138894305061235,248
1.4160761453576274,74.86803165636023,-26.365751663546305,132.4389754388422,31.2177660569711,88.0534187280623,27.74472826996138,-125.46304522380089,-90.0,2.894057710692765,-2.588209236466769,-3.232282147407354,-9.207743509773344,0.5517661578179296,-0.37276846527098434,249
3.6660946883871195,72.57146539178274,-28.06461097442175,132.09135767212024,31.246668139921425,86.89848521964353,29.585975899318914,-124.85980301612203,-90.0,2.824134855567747,-2.402627630961984,-2.9333465338540625,-8.81371998859793,0.4787038246892873,-0.3337056281818374,250
3.551182036036295,71.13272826480372,-27.609646272730515,132.06223874660756,31.44224148480878,84.85431846774839,30.351922974169,-124.88286443629248,-90.0,2.776594284537534,-2.0708526891167205,-2.196701435871024,-8.532541035754296,0.34926475301262494,-0.2830750943416934,251
2.556651607783525,68.96948033585814,-27.211612766926336,131.48764980369975,34.113985317594434,83.2969878403272,29.661495538829215,-125.8486790647663,-90.0,2.6919295877421594,-1.9028139009047464,-1.6999998152179367,-7.355887102980224,0.23351886060400515,-0.2297222959095264,252
-1.0788666637614863,66.3982359880465,-26.920134337895032,131.48706610054336,38.33433673143333,81.22203068494902,29.508660387434297,-126.2032806153482,-90.0,2.64927543970733,-2.1164446721242864,-1.4825278534186728,-5.5847706610230405,0.15446591543919416,-0.1990285280409416,253
-10.639891267524012,63.155756990831385,-25.489437318079364,132.35668744194217,44.061627509855256,78.96290301253131,30.163133782726927,-126.33003463917021,-90.0,2.6785744497175785,-2.9525194902982856,-1.5739205399733613,-3.9197159456891097,0.11467949356152464,-0.19833126162721587,254
-27.838103285580914,60.22093542698649,-19.87821704625619,131.57140908122454,52.159064118419046,75.74471335619205,29.8477445284594,-124.02954803212661,-90.0,2.659561385656562,-4.213549208292115,-1.5438581383916277,-2.4931839297683833,0.07135594717349424,-0.18216520285676982,255
-43.495943509119535,60.88199527999034,-13.760158684026194,132.74199997598774,60.555012837500726,75.50214139483221,29.732687185224535,-124.78044325261794,-90.0,2.5170345923774424,-6.545790778447521,-0.8420176779636616,-1.5577698658418793,0.025472393128117693,-0.1784158256058717,256
-58.61238646506929,63.273550380476706,-10.609424048615734,132.81325704715098,66.08976985389027,75.93026391899055,32.68195279497347,-124.06996679549091,-90.0,2.3752102330849354,-8.640887929790678,-0.37364835566634114,-1.2389939266729642,0.010208054211544356,-0.18818405647777953,257
-67.87513864309574,65.10431696205279,-13.50887508367798,131.57817973828344,70.35835905285929,77.51599618078869,34.19250490425016,-122.52641483071463,-90.0,2.201607465606447,-10.751569994576155,-0.2308241163408096,-0.48683535329120425,0.002389059633472728,-0.09243315297009701,258
-78.34477398094319,69.40696125889346,-14.0667270982025,128.73462459491705,75.36441105910362,77.66860522676679,35.34227870868175,-122.21415299544337,-90.0,1.8677487266905504,-12.121188705656207,-0.4066263718000915,0.679891694331178,-0.0040687863471632274,0.14604382066292002,259
-90.5007447286172,72.66334343563179,-13.321148702478524,127.1555703615389,84.05785881262683,79.16190885666767,30.942477422042007,-121.44597261384223,-90.0,1.3874363488202908,-13.686018876899047,-0.7378918408242457,0.9925022558281291,-0.011062147560358867,0.24178522121449383,260
-99.65364798309888,75.70947077558046,-12.000193396847722,122.33627435844464,92.71672963743329,79.88821386132418,25.75068452280142,-118.43573762922448,-90.0,0.7346441305932668,-15.107561301267484,-0.9419049660298882,1.6970643224469133,-0.02211013051817928,0.4584780084388604,261
-106.96067718714052,78.56522840545142,-11.757499570245455,116.79773950382582,97.13821384247768,80.27568868010476,22.359910146447632,-115.04469348276722,-90.0,0.4000089667717636,-15.248554726571637,-1.265046251656887,1.3112246291405092,-0.02591799127239495,0.35773429531231365,262
-108.58128349115255,81.11586590677568,-11.036941149884344,108.35547472517914,96.93998157782839,79.45118474142058,21.32187184936165,-110.82319633767945,-90.0,0.3283278721713794,-15.91717207795134,-1.988801901077268,0.839622187882571,-0.028560869091379632,0.2396409308239185,263
-110.4808882334356,81.85105859720716,-12.217383680402284,98.93777707663513,98.29328759595431,78.34088601708177,19.717200235645073,-105.59506466584452,-90.0,0.6497618166250544,-15.220708177326326,-2.5363108548002877,0.3108593599030624,-0.014040399111109872,0.08461473649170528,264
-108.5940095794119,82.54979662505066,-15.595295590907156,94.40882703088165,99.3460667854335,77.36283558482423,19.16675389041739,-104.11499264344995,-90.0,1.1818374046996447,-16.981160066833805,-3.1549317264163124,0.31952160737126056,-0.018141754333376843,0.09761878061622203,265
-102.51394093382278,83.61763189816544,-18.26715189511413,92.35527500769615,97.7887524038178,78.20819922072158,17.673862972852085,-103.14336607114201,-90.0,1.6398527570312231,-17.801314855708103,-3.6327362852382836,0.8241418461615992,-0.05304152417661796,0.2649700520863331,266
-98.40205901119734,85.22105223784807,-18.763383828367804,94.16479134799694,95.98467714859173,79.4364959698043,16.306164791759624,-104.99546717124568,-90.0,1.9699997342737448,-18.48324706745026,-3.72916267738496,1.2611908679325556,-0.08200673393951939,0.42239521706973115,267
-94.95464929209672,84.6155655071559,-20.974316670232575,97.73141195289767,96.5144677836257,80.26802707886117,14.234870161098199,-107.02078362356946,-90.0,2.249437928395032,-19.29809395477553,-3.6988780315803025,1.625971607217885,-0.1032470030856808,0.570664988014091,268
-94.23082129177511,85.13868852034429,-20.933841087688318,100.38567433939394,98.6530340012878,80.86352534159272,12.058657489347976,-109.51788474051419,-90.0,2.536432747886628,-19.448922533359045,-3.5799042166631336,2.2433230136189803,-0.13324235983186258,0.7945234469757136,269
-93.61691683777849,85.18566907333351,-21.01835748795572,102.76895400059179,98.15968251486261,80.01276651151441,11.375095835598225,-112.13132902722633,-90.0,2.742365581785251,-19.139173496646457,-3.4371553054637918,2.4429097582614134,-0.13713482481554287,0.8504878556816381,270
-91.64508762314195,85.00246286184296,-23.72000006331426,106.64308859131542,97.34555655590863,78.64916693946527,10.604342583935535,-116.04219350167146,-90.0,2.8921473000619144,-18.473359597667823,-3.6139506746278096,2.8295487932356007,-0.16492777079402426,0.9490785011798326,271
-91.73285832327889,85.28993728843938,-23.695980259065017,110.55185423120876,99.76361745788174,78.21631125271523,7.0814929952466406,-120.59671608339771,-90.0,3.2125219951238297,-18.010128115949026,-3.8135244467840756,3.2684572066424247,-0.19855306400669487,1.0679454389240532,272
-91.75707770271251,84.1119375539129,-22.865798072233886,114.38223246235624,101.58297264130012,76.58418039852606,5.0617754591912965,-124.99279104791935,-90.0,3.535160458560828,-18.13720852709485,-3.8537404776492843,3.3055124654839605,-0.20283425988637757,1.088273760997705,273
-91.6672684186627,83.12998090607987,-22.50873810913162,120.79610800355306,105.64346767504209,76.83507919543746,1.1343372123086455,-130.519416747284,-90.0,3.895388795737016,-18.050444898103933,-3.4598636694674045,3.586909201408826,-0.19125653020051914,1.1746403275245438,274
-90.74111314772014,84.59781348450322,-21.67744493884778,126.34601561092326,107.22672439823543,76.35610644928933,-0.34837570148641395,-135.3296782392519,-90.0,4.277161041707234,-17.879903490678807,-3.0209941478649815,3.471353979899732,-0.15839569677615428,1.1244772801808118,275
-85.54650869097757,83.51355399468603,-21.296234123757994,130.84928898550987,102.48662419376556,73.51247640334596,-0.77114761011902,-139.8444562047922,-90.0,4.662876725943045,-17.610695879560232,-2.834847853969932,3.330016710788181,-0.1421410817674138,1.061009081552964,276
-82.82208203129447,83.65236163756676,-21.291165620571867,134.28571823975616,102.67464708890944,71.93520925067577,-2.4111710670053075,-144.43174001937555,-90.0,5.364883786437225,-17.740317078790376,-2.8138145998509545,3.8853538449099583,-0.15814623027128116,1.2482279323309913,277
-78.6450901403486,83.72393154504537,-21.82260164501175,135.98857672744228,99.33187211882374,69.56428042697509,-1.6598396592411493,-146.61240922738094,-90.0,5.849841983581904,-17.4145847004091,-2.5283875437464367,4.203662747851298,-0.1459595377839782,1.323883967196429,278
-71.48908265349968,79.26866858472333,-21.257623245735854,135.77805509925494,95.82561203811886,66.80792795303726,-1.829164580474374,-148.0,-90.0,6.000000000000009,-16.96385900333142,-2.0432242881837497,4.608058015153841,-0.11516075638578917,1.4105349133994423,279
-69.29980982018844,77.1615176233619,-19.279243065642277,135.44358529652766,94.82096297596047,65.50181348804978,-3.803610659188041,-148.0,-90.0,6.000000000000009,-16.491484543472023,-1.6592111461249446,5.199417780186773,-0.08704162591221949,1.5438658865634054,280
-68.39805754720815,77.3320377765387,-16.908531526794647,134.41419701434498,90.98390733612804,64.97103347289003,-1.6951317548568998,-148.0,-90.0,6.000000000000009,-15.929993197071646,-0.9792474543712834,5.165711340656588,-0.02527582834184637,1.4763806883422812,281
-67.27928604265823,76.45691267239819,-16.621437623894902,134.27999157830524,90.29778750830053,63.58010454460212,0.11427307500958445,-148.0,-90.0,6.000000000000009,-15.869327330342628,-0.4712446782437738,5.469126561648904,0.02745493966170833,1.5546375091822706,282
-66.11229821461997,76.90405152101074,-17.569429771395686,133.5335202362259,89.94655092063297,65.27430518008302,2.9520542301320103,-148.0,-90.0,6.000000000000009,-15.665250827837943,-0.09451671502832351,6.064342406091312,0.07956129937020771,1.6982232468876999,283
-66.95530029644107,78.04529127880407,-18.528009840852917,133.38794242653827,89.802506593205,68.65884247474456,4.229451068787875,-148.0,-90.0,6.000000000000009,-14.499751720973373,-0.08529756185699286,6.579562214154885,0.08751405973820756,1.698613137567369,284
-68.40360342586308,79.06951653835685,-18.994004661820654,132.44566867585863,90.61303243246138,69.97379089037267,6.936297098231192,-146.4245510580432,-90.0,6.000000000000009,-14.164164276332098,-0.2540930992457339,6.883266227627991,0.07282598156288383,1.7350123036171652,285
-70.72810003189639,80.38556544666655,-19.717871940024335,130.6739416980677,91.35929420396441,74.15940363768709,8.873185168149343,-144.0755553484619,-90.0,6.000000000000009,-13.785521371916158,-0.5028726191603884,6.677669535621399,0.0351586106389544,1.6382214843110392,286
-72.42826084013866,80.55582540699164,-20.318627139633932,128.99554591668908,93.40897613403784,76.14372082370707,10.790166561260257,-140.4185004659949,-90.0,6.000000000000009,-13.839993436096643,-0.21541194340680023,5.994095670515599,0.054013740770077506,1.475338469461828,287
-73.89398428282394,82.48527924814468,-19.8053396159762,126.25550886659605,93.39212699498606,78.67673214738456,12.640155580365665,-136.2949586733573,-90.0,6.000000000000009,-14.793153697372155,0.3930833506174307,5.270825784345734,0.10135147426092297,1.3885122074044383,288
-74.2662102479686,82.27563581790182,-21.029336677468613,123.51513733429658,91.24696744968755,79.70337686316304,15.44986256060563,-131.28686636353862,-90.0,6.000000000000009,-16.499162278045347,1.0994151786377213,4.018204869357959,0.12211363219938993,1.1867190904390528,289
-75.60907717965299,83.36780955439487,-20.308861126438153,122.02829603721511,91.47464030947845,81.7753699041783,15.846496898253747,-127.04174435503383,-90.0,5.807078048077334,-18.359416887662263,1.9913998963247488,3.0580583325777977,0.1391124442858227,1.0117844511624388,290
-78.69296266882994,84.00507263064107,-21.01985645301038,119.2998119885247,91.36744890389451,82.90335885308896,16.159911486444557,-122.39601785242557,-90.0,5.443434100414598,-18.382052711386393,1.9340268968471328,2.2137444524873726,0.0929882764223409,0.7341275070841924,291
-79.82814053664941,85.41896825958229,-22.26754687629442,117.41807634670423,89.71814676650428,83.78374638978377,16.613752719675034,-119.06516871381382,-90.0,5.367438056112611,-18.485429333220925,1.4712205011422916,1.4727649412417734,0.04621273482693739,0.4918602603569707,292
-80.93191706098126,84.95719928290892,-24.70854658766314,117.64018608763246,88.90971957516439,83.83207814541328,16.81878794947629,-118.320538553573,-90.0,5.312973957061422,-18.059650025961734,0.7038858708439124,0.8829272022999616,0.013627793041885938,0.28780828055420077,293
-83.8751299155912,85.82871934275026,-24.520834442661755,119.38672581920738,91.75134733358828,84.11536025165111,14.874837497852537,-120.03489472075631,-90.0,5.231924611474212,-16.825735687937264,-0.30862897316848936,0.9470948479833597,-0.0029624633841025235,0.2864372140084717,294
-85.61370345099938,84.06657943209504,-25.2325297642473,121.73700164331984,94.19167741848474,84.26846139992864,12.560761442604196,-123.04777510158524,-90.0,5.122500020896651,-15.75555604640518,-1.3583360359374967,0.835282253128001,-0.018859937070379598,0.23579177126329837,295
-87.38648049159879,83.76609693751247,-24.452974226118773,125.43474222906528,97.1740226576706,84.41506504467375,9.810183008785213,-126.44478850760383,-90.0,5.012120834937185,-14.986151338379218,-2.372202480446331,0.5344590232796914,-0.022251512891356264,0.14316672020858429,296
-87.71302858969712,83.43457974355553,-23.201145776762296,128.34534184269134,97.8372488766609,83.22310257367133,9.551270216092076,-130.5391575538125,-90.0,4.960614499592351,-13.913549058386396,-3.2997886147475066,0.6126291328658665,-0.03557459599671485,0.15194399833043082,297
-86.00538654431465,83.29160449373464,-21.909706164415358,130.3246421535395,96.55593787622897,83.55151353511616,7.3614097472730515,-133.86932592099316,-90.0,4.964017759091386,-13.125431990788453,-4.311927451272592,0.5954616952911402,-0.04537553125199651,0.13907105930562239,298
-82.24123180627687,80.74046778090012,-22.120231598847628,132.7959090541328,93.54205547566238,80.07470065802492,7.440963394628148,-137.00210040978857,-90.0,4.968931376515202,-12.410015833334842,-4.719399197190448,0.5086987133577148,-0.04249981998992777,0.11211811068635276,299
-75.22657298811784,76.47171242809593,-20.730244423734288,132.86758621019013,87.91864934888324,76.65751525162028,7.094488223461449,-138.0769397283602,-90.0,5.033095191652736,-11.962762163745692,-4.618625302587643,0.4209897446155252,-0.03443456897013838,0.0893194030349264,300
-71.73779710267407,74.1007263205804,-17.966912229871312,134.20728295368355,84.35603180109734,73.05914709712121,6.239821696534349,-140.36178097569586,-90.0,5.0464372408393094,-11.833712075197573,-4.572800450916523,0.19844069804264847,-0.016143477918379816,0.04160506011633361,301
-64.39550441590772,70.61427575606692,-18.033259587246455,132.58716576246027,78.18263337863635,70.74103567603568,6.808134225245697,-139.5581462823617,-90.0,5.040501603290475,-11.508477466037013,-4.141583471961565,0.09561230433104063,-0.007049041178219017,0.01947291793540588,302
-58.277440982360794,69.50410232492224,-16.981659419843123,132.29469537736261,73.00488075601835,67.69757865770431,6.508700423795275,-139.55361651266833,-90.0,5.051304622744472,-11.544465176836516,-3.837698377500821,0.183026556551035,-0.012471068493142345,0.037404234779373616,303
-53.654383698636416,68.69931836272944,-16.028559718053828,130.45515962080972,69.5146291349969,66.6072104420861,4.968875865675257,-139.5924682109625,-90.0,5.076775668602323,-11.741293997601312,-3.7725210465871504,0.33289154915193647,-0.022217355551369958,0.06925071053073231,304
-50.91186567846245,69.7321176112887,-17.479660798019808,130.56594285652903,66.98322635034262,66.91084467605182,5.274374907610026,-139.77647518350327,-90.0,4.959871820782842,-11.929680828040672,-3.681326841172061,0.26711899525750393,-0.01743359909582018,0.05647425838477444,305
-49.90582384876714,71.22733276355427,-19.287590756573817,130.50762150865364,65.7731672503261,66.92682348129338,5.313738774172248,-140.19316605568017,-90.0,4.890341034787458,-11.902797889749703,-3.6802854605128252,0.2854565807419108,-0.018613873399154966,0.06021412130584942,306
-48.63894432689596,73.00086262785176,-21.172537724575534,129.28128896670935,65.2866099236192,67.09109755691719,5.790449510235565,-140.27577744522736,-90.0,4.755026496609122,-12.08681733083791,-3.7709241975888137,0.45708590089758133,-0.03041715950160434,0.09799698605735141,307
-48.33346875766343,75.68796331569176,-23.880966920127186,128.16078738395834,64.8629721746996,68.03488366795926,7.412892714707386,-139.72693312068859,-90.0,4.580055910546276,-12.430750441852839,-3.9096286187822726,0.39511108302510484,-0.027348947231060235,0.08718317859430355,308
-47.346279037544846,78.44548165575097,-26.669358937767033,125.82848358847045,63.110226347502746,69.89351587394744,9.987678470749286,-137.8526882982687,-90.0,4.324439024088739,-13.002130616166141,-3.8794351333533736,0.24912992043232288,-0.017212958728711734,0.057561443656687965,309
-48.6580031968305,82.91461046436362,-27.532383451333278,123.13524460165164,62.55628251360043,71.70217429268759,12.49663837747604,-136.31582294046643,-90.0,4.025025438930593,-13.536474594733447,-3.9146219507470925,0.19518355787427724,-0.013657490366095853,0.04701281903678701,310
-50.74805842460724,85.92336385332078,-29.873108965312493,120.64788359930166,62.818262992240605,73.79089407086485,15.521274192087617,-135.1385888025042,-90.0,3.702879223133858,-14.16627041705211,-4.176466250455593,-0.09860519318228529,0.007447764412889948,-0.024883199264060064,311
-52.901798002943515,87.57921199432536,-34.260675580229716,119.11803092123252,64.14633455552091,76.69298901177416,19.057432747598828,-133.50501463524006,-90.0,3.2128749590524937,-14.63218851795293,-4.319082854422092,-0.6247370655373038,0.04965891411301095,-0.16285585551674972,312
-54.893430565601776,90.85031345074229,-36.89093879592133,115.1974910295133,64.89874207062674,80.53467963820312,22.927238642558933,-128.9219526376836,-90.0,2.548957876885508,-15.242861550762669,-4.251005864585288,-1.2015144605216301,0.09601348228382095,-0.3264885247437998,313
-57.279750931632485,91.5688304458927,-39.70038285550021,109.99265430393476,66.43482022973078,80.87485212867874,29.554015339690686,-125.04700212714337,-90.0,2.003814240134927,-15.578515471013029,-4.229821332681588,-1.405280281964851,0.11272090539070057,-0.39053616492950366,314
-61.16975178610215,92.10463188593698,-39.685530183806755,104.82313361323622,71.24991988940116,83.68234175869186,31.4574964516637,-121.88618926356664,-90.0,1.4176923036283162,-16.849763204213797,-4.199337344172497,-1.6335887245046723,0.1324064799249787,-0.49307342213225874,315
-65.19199437641383,91.40731504594696,-38.83233269266989,98.87647855703015,73.3211506563393,83.5360391713558,33.184160605646476,-116.83764719468468,-90.0,0.7456128095839681,-18.821364263818026,-4.2148480721178325,-2.0475273404060066,0.17194081334912845,-0.6952359666417057,316
-68.21498133998922,90.68863320006668,-37.6397890188494,91.70145675587628,75.55604628165956,84.53609231573789,32.68982606203565,-109.52325342043049,-90.0,0.640376455355583,-20.32147037424047,-4.482242660360514,-2.4074563140608385,0.2200704675814946,-0.887691511291035,317
-71.40905983729533,89.82166198431322,-37.31868518099014,89.02845544381239,76.8847822025916,83.87377393425436,34.06074380938275,-106.03034036956106,4.993182826882114,0.9429787402356676,-21.508062077991763,-4.5462421173615235,-2.754400790633886,0.2616333324864877,-1.0802941389694019,318
-74.89198986680164,88.39286054306196,-33.50871037002476,81.5150267754728,77.14140240676402,83.12263605731579,34.76445846270556,-97.80031636201842,-3.762542923794393,1.3702975254999923,-21.70974426822679,-4.585361034289558,-3.00060276304749,0.29047177716267103,-1.1884982422927648,319
-82.4953817686673,85.14359702798475,-30.047679263916038,75.60804864645272,81.13816620774926,81.95971017921883,37.613780499174936,-89.5866272997409,-12.305989336144622,1.5110338530705358,-20.745040055383647,-4.336038606319564,-3.5570875082494733,0.33038840218509574,-1.3388829138402532,320
-85.78260297683268,82.82845000945578,-30.04755746138968,68.26102296413309,82.23898102540585,82.12394397807708,40.44226793900252,-77.4615139830647,-16.205886953176034,1.886136769031556,-20.268132077425314,-3.861616555585721,-4.325370949832833,0.37164051855117103,-1.5857913433576722,321
-87.90896337540963,81.53922652392251,-28.381661918564845,65.51815870647717,81.78862181965415,83.06781299104676,42.31747624013413,-67.79949607784839,-19.37775101251134,2.1563975644885045,-20.08224331426024,-3.2010985978735143,-5.415719345132866,0.41606829255912275,-1.9641810073241794,322
-91.16529111068824,81.69899265772415,-22.38706605881536,65.87085078308765,82.13997237091702,84.1140199055171,41.27957058529998,-62.44174649007838,-23.208053476177934,2.5065012338900305,-20.205140997509943,-2.1621475122397653,-6.658978973937213,0.41007410185379045,-2.4324499679258818,323
-94.489962897584,81.32892556430492,-18.307897462541845,68.74384563678655,84.14716826514041,84.303005355886,40.46508510856753,-60.28418235554537,-25.673212537284293,2.7158071422013217,-19.675441593669984,-1.0506156412893628,-7.503954033604013,0.3215027074359596,-2.6681295971980132,324
-98.55027423097557,81.67688543771051,-14.18097185553087,74.95589184422784,87.23726233729852,84.06588881205825,39.8940727449293,-62.08889261281849,-29.063961102090094,2.8140682755776156,-19.15312923193929,0.049763762736376393,-8.126329301239485,0.19248435659861404,-2.814579551739617,325
-101.99668540656288,80.62378645008862,-11.209269613494088,82.82286100977639,89.05452265596226,83.17179845094999,39.022208032797316,-66.65129714946623,-34.73596901146454,2.8375326917203023,-19.344723323271314,1.0777631304176964,-8.66223143823872,0.05739940722811143,-3.0423416051514005,326
-105.93406554015473,78.70036877973061,-7.674008521089206,92.35318012570312,91.05127240647629,81.91468513597712,38.04991628301054,-74.91369891665137,-40.709693865552126,2.830352954491935,-19.81730617612759,2.3404079680254433,-9.065751491584383,-0.13422572560320173,-3.282155652434125,327
-110.30800692207184,78.55919623861338,-1.4120259989451598,102.79269353967729,94.29656497039434,81.5225257802063,32.13963983307298,-86.18695045251889,-48.61640101778609,2.9463574914781048,-19.93212682369345,3.5449891976592,-9.187735958175876,-0.3359428693955275,-3.3613540904862766,328
-116.14043580306728,79.14843460191659,5.787190452219513,110.41767208947496,100.73630869898557,82.37579856637872,24.82460133676355,-95.96595868716742,-55.5174407825873,3.246705529926694,-19.618002211623438,4.3550535699561514,-9.117079355952077,-0.47529090578179406,-3.288676884819122,329
-118.73803552361905,81.83697674212014,13.736219979632873,119.72094860536242,105.07586778517086,83.21620886317403,19.216023717309174,-106.85510885592322,-61.36883919036186,3.519708324450775,-19.058967046687613,5.107862330701844,-9.424344446840097,-0.6188949033118951,-3.3071999903713363,330
-120.14247171612816,81.00738907902573,15.6857410025121,127.75650020804633,108.773288129337,82.47944229622098,16.78656152467159,-116.17252565667715,-67.5538421066009,3.859537939893643,-18.23344408130408,5.500431246490126,-8.891267874015718,-0.6697161098587054,-2.980601066294187,331
-119.40692548556422,80.01721157888203,17.080461782496904,134.49973129087394,110.33611740330298,82.79865763776385,14.851602182846925,-123.66662479967638,-72.91889018193412,4.195932364554022,-17.382314537033736,5.839509167872231,-8.111141165688133,-0.6856024924491457,-2.5867031369536497,332
-117.35780358506211,77.79811691799574,18.455481575016186,140.0700522911187,111.11017937654825,82.05979654143925,15.179969183368929,-129.49750515801855,-78.94552967610046,4.321179916328813,-15.993340662581954,5.773946811708752,-7.527172404419185,-0.646909382918252,-2.199269587591779,333
-116.495065429898,75.501890666639,20.12635788123994,144.91862002644072,111.06011857545121,81.80345022971473,15.652317422576454,-135.40833367345857,-86.44045097993045,4.341445988963707,-15.496221231800934,4.961976476535178,-7.550946232336557,-0.5398624505874066,-2.129161070628451,334
-115.347641940607,73.19791012767622,21.81926286527634,148.0,108.78138012767643,81.13076452253385,15.932896358600443,-139.394811358746,-90.0,4.53563947376762,-15.106177632601588,4.304575137288145,-7.220656393419762,-0.438351210657619,-1.9771218241343311,335
-112.349191004226,69.66800736546804,22.74608350761657,148.0,103.96842425817628,80.12306468969723,15.596316122128755,-141.15194564547673,-90.0,4.8318147310197075,-14.736093775229055,3.9064208221198786,-6.923075428236801,-0.37742881288462327,-1.8441889774303124,336
-108.63249802671726,67.24764263142832,22.401365628820553,148.0,99.99395397525015,80.13577292196848,16.83414259475827,-142.2739693596085,-90.0,5.025438343777753,-14.742158822224003,3.5587449340311044,-6.36264060616911,-0.3152376673856119,-1.6921085584137372,337
-104.48623658799994,65.66711621240108,20.219713489065573,148.0,95.14305080967435,80.39538268009663,17.88556901701937,-141.75166492561377,-90.0,5.3005006165454045,-14.225242733886882,3.2295576963388934,-6.256954925559309,-0.2768058004127888,-1.6018086633434574,338
-99.71378440270428,64.97453965670397,17.251074729443747,148.0,90.77231348118461,80.12594158627552,18.692325696036445,-140.97923357332726,-90.0,5.4938584607106,-13.669655241131336,2.723849194016341,-6.035000826873488,-0.21761329011634425,-1.4798529142659995,339
-93.05658081702151,64.01774545754702,10.141690424453415,146.04114962915585,85.00019054501638,78.51816578833457,21.81131435017889,-137.67439149870376,-90.0,5.634036727701736,-12.587398174206381,1.922498326824957,-6.059143792332836,-0.13649488567875293,-1.361040261709863,340
-88.01843270805782,62.77055896700855,4.621077384670915,142.7119058883448,82.13598483302796,77.83058845979063,25.315502117013985,-134.55568097801213,-90.0,5.742097200318479,-11.722303347936709,1.465920377317074,-5.945902137865485,-0.09114791787123806,-1.2393403914066774,341
-83.42285122840525,62.99529710848048,0.8790169021110786,138.0335504402496,78.76063824320731,77.12636804549122,28.57542698252205,-130.18079306379255,-90.0,5.8262058280051745,-10.81885361173815,0.8803907637110868,-6.043981821226213,-0.03351784636070099,-1.157750134043269,342
-82.35485331740398,62.14479714728926,-1.561425721769651,134.72502060041745,76.93542264669827,78.45521192342777,30.354861820465533,-126.84796641756476,-90.0,5.940366578022414,-10.707672001290339,0.17590159370107886,-6.315795727696105,0.04606563885413642,-1.1929747276024223,343
-81.77797982303903,63.12440358199985,-2.8592088514716862,131.38170924453192,75.8579920430496,79.47280426871772,31.341219948185227,-122.76123627058506,-90.0,5.911049762395307,-10.845030897656958,-0.3711194791619615,-6.640123539036232,0.1173469674980246,-1.2668959561764739,344
-80.92962177429519,64.6944371790408,-4.608385285231196,128.49142424952893,74.22404395067318,78.74768341569042,34.103959397991936,-119.4889531057418,-90.0,5.8383006682096426,-10.790880962684117,-0.9688172465180962,-6.692227576074016,0.18941025826579444,-1.266232017684173,345
-80.23965857426472,66.53510731975123,-6.527896904439299,125.6103130533257,75.71398913102088,81.19183927968322,33.521791184106135,-117.29969903149761,-89.78331696788008,5.747734776631094,-10.920107134040913,-1.443337552158619,-6.354526202995055,0.2307343740460418,-1.2148782283689932,346
-81.36700496456729,67.8483898708739,-8.507091640590128,122.81068150316575,77.53723428453931,82.08251904160592,33.963236088071845,-114.87207713254756,-87.37383909288019,5.733979138879921,-10.681745451176848,-1.7239972898200793,-6.3393824574631354,0.25996724721098496,-1.1830360933074722,347
-83.96397939334464,70.59509986906521,-8.232426950968875,120.16075615116387,78.98850259927569,82.15118310214115,33.98072089795727,-113.26083365915188,-84.20750639920813,5.653271132340222,-11.063303212243916,-2.14791312548302,-6.353619492387824,0.3112845279512069,-1.226907368343329,348
-87.67458040660834,73.74870377065764,-8.129680498885024,118.53888405618622,81.75059301797347,82.93457201616911,31.87881152973635,-111.76081131631717,-81.8074879071679,5.521061202410153,-11.798016229563247,-2.7167938325930345,-6.138794185988191,0.3658835191464023,-1.2646396225454333,349
-88.79741213328214,77.87750454237795,-8.107483561074273,116.78244513378964,82.91428291930576,82.25463749733424,32.18395775556281,-110.74957056184843,-77.8142956388108,5.268462415976607,-12.74704065213711,-3.277810724279593,-5.389245336695516,0.37354623796974085,-1.2033310415371459,350
-89.78870673217449,79.4902566047823,-9.017929243220912,114.6593027733609,84.42979908352608,83.04275683904125,30.625427356069675,-109.79551758376233,-73.74360851388177,4.9354041519524685,-13.47029772218044,-3.8941644797466384,-4.872598886356974,0.39056456485940455,-1.1521245508793543,351
-91.77310838977535,82.05693887251616,-8.448286415663409,114.04392771017513,85.95916146056398,83.29503329151432,30.734705663231704,-109.88198867748442,-68.71725740936735,4.670075428283297,-14.24159978963905,-3.86691681332341,-4.7226431453448905,0.3786511850121137,-1.1846778566958103,352
-93.49077799815541,82.1643893202329,-9.484740182974242,114.00915418021266,88.78035511664736,83.87536433774021,30.26304556253886,-109.61469885129307,-64.65526892356272,4.472255045908164,-14.407993089410631,-3.236748303747418,-4.698743716323894,0.32374649109851583,-1.1953498728383316,353
-96.55693810097603,83.25806141062645,-7.9428359060886855,113.65851387253862,92.48311624575108,83.33834389167704,28.866855214227552,-108.72478896618324,-60.94914922881948,4.2220605396030555,-14.301988302846055,-2.7754798122087494,-4.682679358663948,0.2829436680008989,-1.1835722517543936,354
-99.11596896431308,84.24505985260848,-5.717089573537687,113.65659339746571,95.2820079469068,81.4516888757875,26.965486783369794,-108.48199456905243,-59.170415069327106,4.052095891068695,-14.056154138093094,-2.6677062843691446,-4.5796538593985945,0.26568826174344895,-1.137214308416308,355
