JMW9912/AVATAR/install/dynamixel_control/share/dynamixel_control/data/csv/poppy/.data/251119_2030_GEO/1119_2030_Semina_elbow_poppy_humanoid_arm_margin_0.95_motor_degree.csv
theta1,theta2,theta3,theta4,theta5,theta6,theta7,theta8,theta9,theta10,theta11,theta12,frame
-155,20.786400517176,99.0535512594217,51.0497598534721,155,19.8221823240299,-105,-50.5052457895499,0,0,0,0,0
-155,21.8284484077078,99.149230122383,46.8450889224293,155,21.0998134325146,-105,-45.651626047914,0,0,0,0,0
-154.959291846978,21.65082529418,91.6477509756953,47.4552862668069,155,20.9296996032725,-105,-46.2231001814951,0,0,0,0,0
-152.818736771154,22.1500473981184,88.6924793384948,46.8582639224383,155,21.4258014189626,-103.435915398888,-45.5006973328742,0,0,0,0,0
-150.293967818651,22.1462141642645,88.5738905894922,46.3793545726128,155,21.2927195517282,-103.074051720018,-45.0157450609599,0,0,0,0,0
-150.070870744667,22.16206391946,89.0117124058812,45.7720278818089,155,21.362775591801,-103.202272346968,-44.3667337305629,0,0,0,0,0
-150.576106233491,22.1028749010682,89.5550250089185,45.3148606929671,155,21.3324126766691,-103.381717048152,-43.9360511008868,0,0,0,0,0
-148.72177749021,22.0092120876347,90.1563627528928,45.0248424541846,155,21.2847816424386,-103.319179784523,-43.6788041765187,0,0,0,0,0
-148.83115378399,22.0265011575545,90.274552572728,44.8563413587459,155,21.1040068983452,-103.315098264871,-43.5797137625241,0,0,0,0,0
-148.623445119821,22.0605269166961,90.0538236838306,44.8130860443625,155,21.1383837512565,-102.879165366767,-43.5452999185964,0,0,0,0,0
-148.378141362491,22.0827577380272,89.792470258974,44.8016261512583,155,21.1289853575987,-102.439684973369,-43.5650002553192,0,0,0,0,0
-148.102936544674,22.1383683202793,89.4998123401074,44.7761096918527,155,21.1229239772112,-101.80534245795,-43.5947943324544,0,0,0,0,0
-147.776945802984,22.185190643163,89.1521788106938,44.7964671469703,155,21.1683968451172,-101.228617551706,-43.6415079330354,0,0,0,0,0
-147.545993725738,22.2735921453975,88.9076081600089,44.731241044596,155,21.2520594025586,-100.654359516238,-43.6286562301723,0,0,0,0,0
-147.20671982085,22.3159544548244,88.5453863438245,44.7491347074454,154.503593984954,21.3104683688747,-100.102995341389,-43.6787607679486,0,0,0,0,0
-145.386911002084,22.3660320862343,88.4787409198786,44.7592657206938,154.038135854258,21.3465150045786,-99.6151320027817,-43.7361285492841,0,0,0,0,0
-145.163456967978,22.3997391579547,88.2379004614822,44.7530905402961,153.668357174456,21.3885088614317,-99.2274454106086,-43.7664797445761,0,0,0,0,0
-145.075095757352,22.4184740339645,88.1422969157028,44.7240527097634,153.414804529811,21.4741364074504,-98.9622407353552,-43.7166629572898,0,0,0,0,0
-144.908517292461,22.5053034757049,87.9605767484951,44.6901143001531,153.288008392848,21.5093706756341,-98.829392856803,-43.6889926260146,0,0,0,0,0
-144.737382248443,22.4853289843121,87.7779301920479,44.7327050664626,152.990823170965,21.5392097634143,-98.5174177660045,-43.7119791211832,0,0,0,0,0
-144.641618064452,22.5276417934684,87.6736607911595,44.7140011765369,152.849646649194,21.5890666203527,-98.3697518086594,-43.6792231779565,0,0,0,0,0
-144.460325469275,22.5096126796923,87.4803848508706,44.7916191613281,152.601784412559,21.5671505047009,-98.1084263946558,-43.7359953152575,0,0,0,0,0
-144.279304010522,22.4957731762926,87.2871017200213,44.8420831263919,152.378585529413,21.5369342651965,-97.8730004684117,-43.8205972086446,0,0,0,0,0
-144.195708563174,22.46299983783,87.1989418449931,44.8915078401152,152.270325831804,21.4892782418567,-97.7583015205454,-43.9093659007692,0,0,0,0,0
-144.148204900028,22.4614979678699,87.1482012155011,44.9105840146641,152.026423655303,21.4942095439502,-97.5011215552965,-43.9130082158667,0,0,0,0,0
-144.147944763094,22.4244599023555,87.1492451203257,44.919791506549,151.958461667766,21.4605363757702,-97.4287421939745,-43.9403285583989,0,0,0,0,0
-144.115099902325,22.417213663493,87.1141651339939,44.8997623769651,151.750479972616,21.4830076557846,-97.2094883202023,-43.8999262633621,0,0,0,0,0
-144.057403646498,22.366308205938,87.0540854338273,44.9010859862273,149.461680517582,21.3867612065018,-97.3439676933353,-43.8609755798539,0,0,0,0,0
-144.179411252059,22.3229249529362,87.1860557066692,44.8719462451786,149.148889748501,21.417447297735,-97.014992196778,-43.9185406195284,0,0,0,0,0
-142.034122730186,22.2869228318069,87.4781764429519,44.8428198734661,148.914639186907,21.4504969788923,-96.7683306303617,-43.8885487275147,0,0,0,0,0
-142.05914522819,22.2048846814899,87.5078914208774,44.9071071903607,148.739187569451,21.4147541054067,-96.5825962717132,-43.9976045509128,0,0,0,0,0
-142.090912728592,22.0492622017669,87.5469781499943,45.0008498654294,148.438616218557,21.3428836451464,-96.2638085647687,-44.1467430195844,0,0,0,0,0
-142.104283580763,21.9422182214154,87.5649106353663,45.1375323097266,148.346318910544,21.2944894660216,-96.1655834960089,-44.2552196993598,0,0,0,0,0
-142.107861189731,21.8771318913876,87.5708631645755,45.2306928057842,148.183924247768,21.3163907539079,-95.9947443099602,-44.3319910855452,0,0,0,0,0
-142.433716074749,21.792199085682,87.9210915424331,45.1368775718756,148.247566008852,21.3270627493778,-96.0617553779061,-44.2214001772512,0,0,0,0,0
-142.668645920148,21.5583094325526,88.1777632964105,45.1971681368955,148.265530656095,21.2496400565841,-96.0789420989748,-44.238044248604,0,0,0,0,0
-142.960894817487,21.4610948093422,88.4919109436391,45.1518416241384,148.476441091781,21.1789308781909,-96.3001783401326,-44.2220216891117,0,0,0,0,0
-143.101699062056,21.2902739202249,88.6456404461431,45.2319866149462,148.484402170835,21.1066508663627,-96.3074441891576,-44.3082223699354,0,0,0,0,0
-143.255390811376,21.1826205155088,88.8117500846136,45.3227818510775,148.649537635711,21.0537517484427,-96.4815845030896,-44.4154030063657,0,0,0,0,0
-143.391560741138,21.1328876423838,88.9579001441777,45.3209373605236,148.626527747606,21.0950047429358,-96.4580331654213,-44.3931966480555,0,0,0,0,0
-141.362453135729,21.1258403636217,89.3714964413624,45.2872397688934,148.69910766596,21.0801027651366,-96.534517747917,-44.4053320531755,0,0,0,0,0
-141.403856848115,21.0821615537454,89.4165253740468,45.3886646347693,148.606621413521,21.0697820580066,-96.4374485989502,-44.5366628984015,0,0,0,0,0
-141.374949951388,21.0259836464027,89.386604829088,45.5420238211284,148.544979829764,21.0495979719987,-96.3730675107588,-44.7059740469272,0,0,0,0,0
-141.314017359759,20.9842095741928,89.3222124710615,45.6953526286659,146.146357854469,20.9351318662586,-96.391910726765,-44.9097481244131,0,0,0,0,0
-141.151568736109,20.9014479485066,89.1496976781879,45.9292323189224,146.027342660684,20.8554436173712,-96.265958764158,-45.128265896937,0,0,0,0,0
-141.102174615395,20.8119597256517,89.0976789777197,46.0748043258178,146.010242084995,20.8251166480358,-96.2483731419764,-45.265992946,0,0,0,0,0
-141.353838063876,20.7282813133568,89.3668458981717,45.9907222498956,146.262724765777,20.7910255602831,-96.514129688113,-45.1619318672262,0,0,0,0,0
-141.442196073637,20.6106274469138,89.4616726229996,46.1048227473423,146.414641628159,20.6587434831368,-96.673453944777,-45.2793347833902,0,0,0,0,0
-141.6907113112,20.5655870252113,89.7270665676534,46.1659691089869,146.482180270169,20.6215680001479,-96.7453924998803,-45.3947553161111,0,0,0,0,0
-140.909027698144,20.5435780433006,89.5370194908228,46.6048064508611,146.759305397745,20.6143349311749,-96.4515307109506,-45.8949024734812,0,0,0,0,0
-140.453512719015,20.4383765534772,89.050428612304,47.3567759816226,146.311251416469,20.5157422321327,-95.9722903320922,-46.655373959973,0,0,0,0,0
-140.001054455554,20.4310668741681,88.5664015969239,48.1571461176585,145.820259309129,20.588030388624,-95.4506238794386,-47.5521417707522,0,0,0,0,0
-139.031114203805,20.1946034813578,87.532798816245,49.8403869066253,145.026747207587,20.3357330641806,-94.5913426473555,-49.2180341625959,0,0,0,0,0
-137.975003987149,19.9882227125304,86.4084160561571,51.4919382161994,144.065801184179,20.1542061370073,-93.5458719232631,-50.8235374639432,0,0,0,0,0
-136.943118910081,19.6275884460689,85.3247248059805,53.5871037732277,142.936919287592,19.8848933852627,-92.3057922640174,-52.6446464678266,0,0,0,0,0
-135.108118830435,19.1303219627477,83.39915743201,56.4041878344889,140.364225848915,19.5649261099442,-90.3538269040838,-54.8925737427067,0,0,0,0,0
-132.046300447662,18.8030587668111,80.1406677367197,59.5142341849404,137.597397407813,19.2241184512911,-87.4274352733956,-57.333872205498,0,0,0,0,0
-128.26615239313,18.5545177990838,76.0987863504859,63.1903383799005,134.42973621913,19.1157020734674,-84.0496700290902,-60.1760989640306,0,0,0,0,0
-127.057503239387,17.7733583339038,72.2806892014094,67.0806069869278,134.096287328864,18.6944389141694,-81.129675378815,-63.0534831837135,0,0,0,0,0
-122.887486469691,17.4334937468828,67.8343822432997,69.9938719460188,130.85863278026,18.6893889598812,-77.6087109278053,-64.7717705963613,0,0,0,0,0
-120.581251432003,16.8208216762635,62.771755414189,73.4409221787299,129.259135973852,18.1156740593408,-73.2769204619353,-67.2704467097107,0,0,0,0,0
-115.596049158575,17.1076040303895,57.2420060386587,76.3752310744644,125.087233076952,18.1562984687906,-68.6936144148779,-69.5516280697949,0,0,0,0,0
-113.943283444635,16.6747889535296,52.782292403136,79.2978090763246,124.785546402809,18.1161529339751,-65.6252276636518,-72.4692517854111,0,0,0,0,0
-103.798483713867,16.7367025028594,41.6945088559877,81.8049005150488,120.48752018137,17.1182881734152,-58.3566382833129,-75.5061759312523,0,0,0,0,0
-100.605657146474,16.0705712512591,35.685734070355,83.4312360511138,114.119030962595,17.2731870890612,-51.2533154455558,-78.1054620534779,0,0,0,0,0
-89.8301432706991,16.4517512639826,24.0412692210774,84.1121512538886,108.192393702309,16.1270353906869,-42.3643775818372,-79.6101983858265,0,0,0,0,0
-81.0284283023835,17.2974192552378,14.4011604343711,85.1059392353028,99.8031472896075,16.3103836861324,-33.1867519035572,-81.3821028875149,0,0,0,0,0
-71.7302129171785,18.7553781247901,4.08019960375925,85.7012117429134,90.2188002423463,16.7706378724986,-22.726190694885,-83.4011569629531,0,0,0,0,0
-65.3999534749762,20.2010923846186,-3.07080551089923,85.5733744287778,85.6271298054775,16.0723206431323,-15.4234331026787,-85.0156730447602,0,0,0,0,0
-61.8646139988995,19.8164793646865,-9.10698703719917,85.8952222317128,81.689093630066,16.6515871021824,-10.9634086443311,-86.4680783937748,0,0,0,0,0
-57.7968939237409,20.8182466766641,-13.540109734566,85.7474724426585,75.5618433955544,17.2570215126487,-4.37016372181732,-87.1257971258924,0,0,0,0,0
-53.3622093226695,22.2334788679341,-18.4645817203711,85.2911092700979,69.2245706840471,16.8401956294152,4.54746846962338,-88.2812948556273,0,0,0,0,0
-49.1971778011465,23.8612386008918,-23.1249505037637,84.3207099857536,62.3449708267571,18.3516592029488,12.1920993145242,-88.1606054426255,0,0,0,0,0
-46.0870658182077,25.2908415410288,-26.6252666324747,83.6368845951378,58.0359169894752,19.7596932263365,17.1935126632171,-87.8863677985135,0,0,0,0,0
-44.9507957861087,26.1863178654658,-28.1551732117079,84.0682688981953,57.0458038250503,20.5433411693683,18.715878396984,-88.4944148861864,0,0,0,0,0
-44.4962269417125,26.4754424371847,-28.7192761730799,84.5386400447137,57.0106959919201,20.8267242835036,18.99411484639,-88.9362792102119,0,0,0,0,0
-44.1137553697228,26.7063481722403,-29.1862078467588,85.0902657056434,56.9952702547929,21.1042785648976,19.2669975934092,-89.7522894749177,0,0,0,0,0
-44.2681388546267,26.7300802737447,-29.1097954959279,85.9269192708978,57.9065180520431,21.0018200110465,18.4034358003513,-90.0459596540949,0,0,0,0,0
-43.9153158944767,26.8854479997598,-29.4858509700798,85.9950447837595,57.6451324701518,21.1850394829155,18.7798086708871,-89.9107665741683,0,0,0,0,0
-43.7956492840573,26.7121664800733,-29.4575868375992,86.4124443636367,58.3532264477632,20.9228429797934,17.9576914476146,-90.3026682254946,0,0,0,0,0
-43.6656681859629,26.5757379492438,-29.4542399888591,86.407701781211,58.6498309435341,20.7443488375837,17.5455321495153,-90.2496746054868,0,0,0,0,0
-43.4600937274509,26.4515007551805,-29.5186096326222,86.5285894078831,59.0229487309172,20.5408859229041,17.050475128262,-90.3715788556793,0,0,0,0,0
-43.4401442344564,26.4420920456015,-29.5300833316667,86.7122180636609,59.1609185771239,20.4745121918773,16.8767151698466,-90.480045044718,0,0,0,0,0
-43.4580090195025,26.3897133327287,-29.4812819544702,86.8295013460525,59.3511371381517,20.3382698151204,16.5969488091896,-90.5771315965755,0,0,0,0,0
-43.308063509426,26.5370479207929,-29.6966283538982,86.749430220083,58.9806773620787,20.4748316592032,17.0314956007313,-90.3719807384331,0,0,0,0,0
-43.2004207374266,26.6792811546136,-29.8741395896595,86.5388576278444,58.7163294314453,20.6228831054823,17.3834785769522,-90.2238026851372,0,0,0,0,0
-42.9734609383075,26.8650412391896,-30.1706137662788,86.3753980831948,57.9903333141218,20.8387575416751,18.1924358969533,-90.0337365832758,0,0,0,0,0
-42.9013063167132,26.9681681341208,-30.2969280471571,86.3539920192026,58.876294522925,22.4453325101352,15.5992546914787,-89.9833620905995,0,0,0,0,0
-42.928296602538,27.1626951869315,-30.4136335161698,86.1851091580327,58.7379152646341,22.648836101203,15.887586765838,-89.8144237621676,0,0,0,0,0
-43.0550718517061,27.1792172084965,-30.3395385581051,86.4499573111358,58.5180108348594,22.7576745395609,16.1726558793236,-89.853152282246,0,0,0,0,0
-42.3514634134676,27.6060766222976,-31.1415461171502,85.8789607950817,57.4202739044403,22.9830369001139,17.2951111039891,-89.4800658051682,0,0,0,0,0
-41.8265859763292,27.9452153678023,-31.745748683938,85.3607105130285,56.4151982080047,23.2479977016385,18.3573847728363,-88.995501628673,0,0,0,0,0
-41.3495842624094,28.1916663473426,-32.2456927639532,84.868405546555,55.6631829022063,23.407174743023,19.1146422655808,-88.6790882706653,0,0,0,0,0
-41.2356081652565,28.2830181582746,-32.3890730151542,84.8209254611893,55.2226843901782,23.4894550754704,19.5499685256639,-88.5818758997486,0,0,0,0,0
-39.3931164683839,27.1537805611468,-35.9859390453875,84.8600086003643,54.8986404786997,23.5642393708949,19.8863373972497,-88.6555915917878,0,0,0,0,0
-39.541946707215,27.0900519452484,-35.8420725226534,85.0079132764083,54.8968385526943,23.6387549574299,19.9536516839081,-88.755049948103,0,0,0,0,0
-39.6999539117458,27.0478503349599,-35.7049529013265,85.1137370280039,55.0204571785678,23.6353753602801,19.849602905652,-88.8088466484939,0,0,0,0,0
-39.839049626754,26.9703291346992,-35.5522575913396,85.0451877057809,54.8649891632188,23.5979371961346,19.941290660394,-88.623062835018,0,0,0,0,0
-39.8796506723354,26.8481688122568,-35.441696889644,85.0971477712499,54.819880697159,23.5430056011957,19.9303076595851,-88.5418545156983,0,0,0,0,0
-40.2185308743502,26.6627494908724,-35.0749515979957,85.1204625948222,55.0044976153541,23.4065639469202,19.666289066115,-88.6456270823108,0,0,0,0,0
-40.2834200815635,26.8865960240537,-35.1610604383632,84.357503246742,54.6733439755027,23.6456081189818,20.1143910295286,-87.9203078864525,0,0,0,0,0
-42.0440116971581,28.0194397098428,-31.6052426476845,83.9290816859339,54.6185837458624,23.604102891212,20.1164433131669,-87.6697601681009,0,0,0,0,0
-42.5514155630491,27.607142539948,-30.9304959470985,83.2860869023916,55.1520455495638,23.26753611809,19.3726690044082,-87.142558123863,0,0,0,0,0
-44.0631230803168,26.8662241359116,-29.2800915129326,82.9324797467518,57.1050413059112,22.6825125388738,17.2243892875163,-87.0573149363681,0,0,0,0,0
-45.7849842829426,26.0324080506061,-27.3566408393396,82.3122036162424,59.2745743046966,21.8712695378087,14.6397829508612,-86.3105457478445,0,0,0,0,0
-47.5423409535424,25.1913396478693,-25.3544340591063,81.6438554125545,61.6409918640909,20.9497227327458,11.7464569974393,-85.433538977637,0,0,0,0,0
-50.1439027477174,24.1573156193344,-22.4772311063206,80.9256062864386,64.7565522963879,20.0588562800545,8.1379054686262,-84.198546980316,0,0,0,0,0
-53.0926253250777,22.9757731854144,-19.1120214936846,79.9813502990512,68.6288700257111,19.1114056355658,3.69565758219408,-82.4540820130543,0,0,0,0,0
-56.1003409718474,21.7517740642247,-15.5669533088246,78.6108697689307,72.8112745935188,19.4928102260269,-3.14699459861634,-80.5173368253071,0,0,0,0,0
-59.8300961181667,20.4010805006918,-11.1840916196211,76.5146720387586,77.6053505155002,18.5237409423703,-8.67409382985834,-77.9036947744948,0,0,0,0,0
-64.2354618750365,19.2105046911339,-6.20156498002304,74.567328826513,82.3515331814427,17.8345899623981,-14.0212464043022,-75.2269530629834,0,0,0,0,0
-69.3512478977209,18.007401308105,-0.418366679208395,72.072556890201,87.4649294329886,17.2452990038956,-19.7382396548704,-72.395934595659,0,0,0,0,0
-74.1276341759444,18.1764895311409,7.11754642062261,69.4109405141307,92.0982580041379,16.7881858432932,-24.9208592870835,-69.430787605746,0,0,0,0,0
-78.909058707256,17.172508081611,12.5948753885371,66.4877024749993,94.4852165506811,17.3472264042478,-30.0657057784199,-66.3493379103748,0,0,0,0,0
-83.1523744417904,16.4691823864914,17.367935727297,64.0332028091579,98.0364185696313,16.820646631749,-34.1451208718524,-63.7813108068939,0,0,0,0,0
-88.3329765716917,15.9279764103196,23.0406135607093,61.6767401215736,101.942806546743,16.4818998968432,-38.505344011732,-61.4367003125668,0,0,0,0,0
-93.5661537799783,15.5570816514948,28.7221382594325,59.2197677472417,106.310127437633,16.3516683106455,-43.2829902819055,-58.9714681431656,0,0,0,0,0
-98.7001072543766,15.2342016133765,34.299781659808,56.9368131009096,110.395837580726,16.084015863218,-47.801948689199,-56.6863934708676,0,0,0,0,0
-101.020556640049,15.8204540911157,39.276242244195,55.1880758776851,114.284405073951,16.0569491016035,-52.0222603293519,-54.8997932183887,0,0,0,0,0
-105.77809687847,15.650055485655,44.4155350080452,53.5402168382596,118.338374953103,16.0653388366499,-56.4096541014228,-53.2661239828864,0,0,0,0,0
-110.043490562149,15.5751695306345,49.0074402353727,52.0375091790212,122.060677707576,16.0632294211277,-60.436426923105,-51.8492229261325,0,0,0,0,0
-114.431101589474,15.5745290152687,53.7116152582423,50.7403362270885,125.582181813626,16.2233321936342,-64.2142385769438,-50.5154821250551,0,0,0,0,0
-119.038531874426,15.7498765137219,58.6173443779848,49.5846789712769,129.137195426201,16.4135393911017,-68.021315670604,-49.3834347338876,0,0,0,0,0
-122.747684902556,16.0328504500876,62.5514331035046,48.6423092101196,132.176957503544,16.8119911570937,-71.2517877415338,-48.3354624496724,0,0,0,0,0
-124.980069348684,16.1875797723868,64.9279466964392,47.9938665692711,134.034469628864,16.9831230764454,-73.2362506090207,-47.6626657237751,0,0,0,0,0
-127.224365079221,16.457992105844,67.301737931125,47.5386180474482,135.719703531913,17.2482063306215,-75.0253529162517,-47.2694050232472,0,0,0,0,0
-129.489593168216,16.807844658344,69.6972301637819,46.9229238569007,137.566503499853,17.4967435707285,-76.9923280543886,-46.7315764699478,0,0,0,0,0
-134.783497614072,16.7628920508435,72.7724230536803,46.4746958820077,139.482906772704,17.8590867810966,-79.0276347330343,-46.2695872843661,0,0,0,0,0
-136.298507542411,16.9135503991611,74.3847590806556,46.1938790458833,140.65263823436,18.0012113128999,-80.2746515878252,-46.0036429356514,0,0,0,0,0
-138.00766918316,17.2207216852632,76.1960193980755,45.7937776092136,144.643290320411,18.1311077113559,-81.9511232931241,-45.6556639406889,0,0,0,0,0
-139.45082269604,17.309006606015,77.7353440924437,45.5797915665921,145.593454156849,18.2623991996394,-82.9630289073755,-45.4693099538089,0,0,0,0,0
-140.811675898872,17.4745601278517,79.1822677069125,45.3286587294638,146.534329079152,18.4339221154267,-83.964117413151,-45.2089869235252,0,0,0,0,0
-141.919187651311,17.7416569522093,80.3544491022764,45.0838210780178,147.548459557741,18.645700387658,-85.0422282730341,-44.9611343801003,0,0,0,0,0
-142.904791308511,17.8776878698194,81.401448045128,44.9811659579447,147.831336543976,18.8531530021757,-85.340308605862,-44.8917250508397,0,0,0,0,0
-143.330209893839,18.1681592969737,81.8459299244846,44.8876329594978,147.95903731393,19.1387905603973,-85.4723116314815,-44.8351516478879,0,0,0,0,0
-143.515126733905,18.580173432765,82.0328074878276,44.6856073240829,148.568252631914,19.475833378969,-85.497613512347,-44.6726746321476,0,0,0,0,0
-143.736943164556,18.9041184449946,82.2637980745567,44.4732216255667,148.521471021067,19.8251689374535,-85.4419299960366,-44.4780771933512,0,0,0,0,0
-143.960680333107,19.0982287151674,82.4997869354024,44.3671872123951,148.688484619153,20.0038749130137,-85.6149844927413,-44.4071879003484,0,0,0,0,0
-144.905898566652,19.2367147510152,82.9161722074314,44.3071223635811,148.851956896425,20.1583178901119,-85.7847730452042,-44.3494451456141,0,0,0,0,0
-145.185387309168,19.3610946642319,83.2075580180911,44.2443316867594,149.057749904999,20.3470202519431,-85.9986494547047,-44.2732211182423,0,0,0,0,0
-145.493049670506,19.4422512704712,83.5297021555612,44.229446424164,149.344013013797,20.428160540961,-86.3006157089444,-44.2713005681822,0,0,0,0,0
-145.862867415613,19.5279030212062,83.9178107884442,44.1545183617386,149.675763161504,20.5046715472923,-86.6512727383897,-44.2291865165769,0,0,0,0,0
-146.154255916732,19.5336795130566,84.2250942089648,44.1551196953632,149.839178981927,20.4880343347297,-86.8253233777294,-44.2423855095063,0,0,0,0,0
-146.517614239817,19.5280250557607,84.6089112314913,44.1102491333741,150.051415955372,20.5703518867671,-87.0491185668652,-44.1618340570775,0,0,0,0,0
-146.845126757648,19.5685605789544,84.953950299349,44.0730550266547,147.850793433983,20.5969571802764,-87.2783761523724,-44.1756086116233,0,0,0,0,0
-146.954126513116,19.5565159319994,85.069340579969,44.0725745101714,147.74277036016,20.6085964340411,-87.1632864369124,-44.1976152531674,0,0,0,0,0
-144.797825314724,19.6192344834941,85.3430838650616,44.0296820230753,147.811976740684,20.5895941076468,-87.2372906721021,-44.2117637671787,0,0,0,0,0
-145.073646900216,19.5571113582532,85.6357219076601,44.0288151922873,147.945405675378,20.538174368036,-87.3802072092462,-44.2231348578014,0,0,0,0,0
-145.19292966861,19.4876319544692,85.7627919178407,44.0845103593426,147.953390618135,20.4839259893634,-87.3897631681612,-44.268011776808,0,0,0,0,0
-145.271376967443,19.4155310480133,85.8465715661427,44.1598816905926,147.753138477148,20.4760426763462,-87.177088552032,-44.3461082496124,0,0,0,0,0
-147.083751361969,19.3221323683272,85.8288656647828,44.2529703271258,147.542490102477,20.4875450602011,-86.9530020700149,-44.4055475627444,0,0,0,0,0
-147.09029446505,19.2430227588696,85.8363011092874,44.3089797842834,147.439551664393,20.4353582704294,-86.8446678770309,-44.4689332773742,0,0,0,0,0
-147.056629432065,19.2492114345675,85.8001928756831,44.3346270935158,147.22979534393,20.4531067427856,-86.6214670999686,-44.4975235744899,0,0,0,0,0
-147.009156752373,19.2152303190654,85.7500391222807,44.3306515010419,147.129256569223,20.4555656222196,-86.5146240064498,-44.4816649654548,0,0,0,0,0
-147.124549256118,19.2339700776037,85.8728831881647,44.3103211824322,147.027591378804,20.5064152319433,-86.4055265923701,-44.4742079325284,0,0,0,0,0
-147.145089405896,19.2341539402795,85.895076623187,44.2628715601524,147.129342747531,20.531453810971,-86.513063644824,-44.4229398265014,0,0,0,0,0
-144.72697661373,19.3354124597631,85.8923156845837,44.2022597199509,147.07467495535,20.5684036461307,-86.4541439115943,-44.4072385118814,0,0,0,0,0
-144.806587117109,19.3486602584927,85.9772285353811,44.1640618518606,147.097366161589,20.5865139687882,-86.4778369763889,-44.3943829595071,0,0,0,0,0
-145.460805149924,19.4337622451072,86.0467442521079,44.0748974978916,146.976969113823,20.634962281626,-86.3487364397438,-44.3427163947278,0,0,0,0,0
-145.504033344479,19.50897049835,86.0913672460635,44.0384291434955,146.926117036334,20.7615137609489,-86.2915071410879,-44.2926729248483,0,0,0,0,0
-145.787307112701,19.5370116629501,86.3905849486797,43.978088324733,147.019038264782,20.8935206137749,-86.3867996175946,-44.2247298851064,0,0,0,0,0
-146.0977610356,19.5741375063122,86.718526796042,43.9200048655937,147.128573970632,20.9752531143486,-86.5010706581583,-44.171426467484,0,0,0,0,0
-146.444292329441,19.5199411161535,87.0859880661314,43.8674445604812,147.35637092319,20.95353770883,-86.744054667101,-44.1456700255633,0,0,0,0,0
-146.857939886764,19.4150456668542,87.5246555792135,43.9391496174988,147.415229167443,20.9604736593919,-86.8067290125065,-44.2347265653657,0,0,0,0,0
-146.389335309757,19.3379176612376,87.6619493127258,44.1332624328254,147.383193711852,20.9159956210218,-86.7741386100941,-44.4587142027905,0,0,0,0,0
-146.566705363191,19.1873076337279,87.8512909690934,44.2712770100775,147.355771795799,20.8473522860079,-86.7467635477516,-44.5924936871141,0,0,0,0,0
-144.485425169988,19.0745675073603,88.2083699685782,44.3016049988033,147.4909146387,20.8137081933434,-86.8913581773719,-44.5772268790677,0,0,0,0,0
-144.183073952981,18.8032846356693,87.8900687219332,44.7041786908069,144.976571203594,20.809777439292,-86.7879165109425,-44.9077927016076,0,0,0,0,0
-144.012720110516,18.5414177116197,87.7134359860009,45.0102293639762,144.889844099472,20.6785206498652,-86.6982750596486,-45.1808484664006,0,0,0,0,0
-144.148873185801,18.3605531169053,87.8621818288632,45.2681526684996,144.887673550752,20.6456469703876,-86.6964174001968,-45.3813388031731,0,0,0,0,0
-144.516422534504,18.0666406788372,88.2598135102075,45.4704969207967,145.142654258078,20.5357766775792,-86.969396741596,-45.4936473495471,0,0,0,0,0
-145.068403836733,17.9361421089807,88.849963649404,45.6387828883711,145.44716121788,20.5515538094655,-87.2929238052361,-45.6612336180027,0,0,0,0,0
-144.289946032243,17.6775636842586,88.0378868495985,46.7058152123077,143.924718995176,20.4050054975862,-86.2979302093013,-46.7468708460458,0,0,0,0,0
-143.653565303094,17.3569108096305,87.3851927011517,48.0697198472526,143.42901687312,20.3901196452481,-85.7590728069438,-47.934238788076,0,0,0,0,0
-142.052725219895,16.8706173196717,85.7277854340015,50.1908746989803,142.035593117224,20.1438771415317,-84.2545419550297,-49.8228809852091,0,0,0,0,0
-136.045983299528,16.5280959940242,81.9724254817001,53.4243779978479,140.260849514419,19.9507473736522,-82.3314438720676,-52.4511117893867,0,0,0,0,0
-132.598177839,15.8752734037918,78.4210930486365,57.407362706241,138.396468029484,19.6556636848182,-80.3155498065614,-55.5995092162518,0,0,0,0,0
-126.281094963201,14.897896457745,71.9305227213557,62.8523964458147,135.095701549723,19.0607768205143,-76.7653686754378,-60.1093644698269,0,0,0,0,0
-123.158345285103,13.935271559873,66.2136360632664,65.9461017491726,131.284632038564,18.6277158982651,-72.6389081421384,-62.9151630010524,0,0,0,0,0
-115.622461253053,13.4489908573774,58.3703660887852,68.444824146104,128.091168315444,18.2229074210065,-69.1952120614573,-64.8178605334134,0,0,0,0,0
-105.357336585181,12.3744390111666,45.2615883127538,71.2755036375166,121.226597179759,17.4188718585402,-61.8288387191291,-67.6482190654314,0,0,0,0,0
-89.245626341517,13.1531358031939,28.1995148203326,73.8186650223989,115.411421986281,16.1159456689122,-53.094860971924,-70.743544302724,0,0,0,0,0
-78.8231870422047,13.2772726812762,14.78710419002,75.5255957897682,109.641248391978,15.0186253692226,-44.4579700948681,-73.1049517019409,0,0,0,0,0
-67.1655985871379,14.7716888736034,2.41505972028493,76.3761312887568,100.60692664687,15.0437664172523,-34.7725518540514,-74.5693102765113,0,0,0,0,0
-56.7748371144836,15.6597310444005,-10.8231835178339,76.5974805845477,92.9704822410447,14.2123623451719,-24.324614957613,-75.7406418780927,0,0,0,0,0
-54.4534939504332,17.2078859961708,-13.9212480897557,77.9551062004739,89.665059074291,13.5137410635603,-18.4142884448144,-77.7551018209856,0,0,0,0,0
-50.4422312966514,19.2070442441351,-18.7799210835738,78.5018490403854,80.1233647088268,14.2644746932893,-8.21041920964303,-79.2245713156288,0,0,0,0,0
-50.4847987936754,20.1908779798373,-19.389910567228,78.8658162781516,77.1295322236464,14.916463738745,-4.75431939358444,-80.2041727484226,0,0,0,0,0
-47.1703253437514,22.1959662435782,-23.5186578697962,78.1904247804556,68.0956713331495,16.3634571447451,5.10211203313658,-80.419483196435,0,0,0,0,0
-45.8111536007747,21.9049592890455,-27.4069754928188,78.1465025240685,67.2007867445383,17.3553308737326,6.71531664223065,-81.3934035008391,0,0,0,0,0
-45.145114510825,22.6740975792054,-28.4451901249237,77.8062459365345,64.1542649344365,16.8353228745126,12.2241412145895,-81.7180927430815,0,0,0,0,0
-43.7628630879072,23.5644945082208,-30.1295829882369,77.5762989043056,60.6497353307996,17.868818218535,16.2486140861366,-81.8399951815841,0,0,0,0,0
-43.0235579538055,24.4415351370491,-31.254503712588,76.7198451688085,58.2129940286983,18.8074674365918,19.1450664257017,-81.3616103222759,0,0,0,0,0
-42.2768325216003,25.0527157018047,-32.2109587591449,76.1731356534382,56.4099384055902,19.5349305410331,21.2838411957654,-81.0316937709461,0,0,0,0,0
-42.3730781332668,25.3019410171385,-32.2869683795512,75.9278736065092,56.0774017867516,19.9276572742257,21.8605738672087,-80.788445300733,0,0,0,0,0
-43.0994015773572,25.2019703297448,-31.6575927782637,75.9133706626161,56.9546928506427,19.9457886484918,21.1028119301638,-80.8499778316701,0,0,0,0,0
-41.802022871092,25.670251285838,-32.9203931344308,74.7872129770316,55.1723277530101,20.2601139832891,22.858863139405,-79.881750737471,0,0,0,0,0
-42.0369470898333,25.6160427396107,-32.6807672238502,74.1566192899847,55.7388483480439,20.0733505062689,22.1960137972612,-79.3395604347981,0,0,0,0,0
-42.4968106181425,25.3314455547721,-32.1349713693704,73.9224626577468,56.3364180105022,19.7637441197032,21.4060763162448,-78.6562979721033,0,0,0,0,0
-42.1365612756769,25.4620433088214,-32.4766809302004,73.3742838855453,55.8459710582197,19.7654372969759,21.8075909997996,-77.9504444309955,0,0,0,0,0
-41.6477970760408,25.6098624538677,-32.9228262034066,72.7092122540586,56.5492298924483,21.1090186892353,19.1295153994406,-77.1395299830737,0,0,0,0,0
-41.5211383455422,25.6857128045978,-33.055867106373,72.4041442292126,56.2160271519023,21.169067563385,19.4505595076276,-76.7756128385962,0,0,0,0,0
-41.3372227251547,25.72874503524,-33.2134148020908,72.110341783662,55.8533488949381,21.1426278322252,19.7412045116324,-76.545207355979,0,0,0,0,0
-41.0950928216087,25.8459487664595,-33.4627316798646,71.8657311238147,55.3068983182055,21.256478892154,20.2966591583678,-76.374067168883,0,0,0,0,0
-41.394060790489,25.8080628960348,-33.2103294466201,71.9270327337501,55.3639509007888,21.2373433537986,20.2420588129778,-76.5699245106886,0,0,0,0,0
-40.868250380939,26.0955422240633,-33.779804791147,71.631826303979,54.3582852797396,21.5604729218127,21.3441087598271,-76.3450325310727,0,0,0,0,0
-40.7074618360131,26.241920619105,-33.9887482481261,71.5499153762702,53.8714458275541,21.7094648673848,21.8744707843976,-76.3453573485277,0,0,0,0,0
-40.7627528848156,26.2772067822406,-33.9723420505668,71.6652009455588,53.7492517440051,21.784370548955,22.0388214169913,-76.4461079510335,0,0,0,0,0
-41.0012443830987,26.223248761926,-33.7569253965899,71.6841057094871,53.7952745954972,21.7752594926458,21.9941604366588,-76.4831529951268,0,0,0,0,0
-41.2692670289294,26.0819670953094,-33.4696721805217,71.8188772546678,54.2401265360714,21.7641697132166,21.6078459630674,-76.6558552623887,0,0,0,0,0
-41.9212623143598,25.7771504341732,-32.7920093903774,72.1851246063744,54.891714522479,21.6536922309401,20.9696766776781,-76.8555005572759,0,0,0,0,0
-42.247395033343,25.6326074186331,-32.4568833094627,72.3950695753634,55.342345178392,21.5453631797171,20.5067509689895,-77.0601290903533,0,0,0,0,0
-42.6679357703145,25.4145583975865,-32.0091282174784,72.8173002157797,55.8218948155022,21.4012428596058,19.9898058435024,-77.2460726732515,0,0,0,0,0
-42.9114667143184,25.2257955665537,-31.7175240309326,73.2645577161779,56.167775555752,21.2697302826772,19.6011852518381,-77.4940932284646,0,0,0,0,0
-42.724761885947,25.3918356964952,-31.9649635401464,73.1769928174445,56.0020697725928,21.2448677621811,19.7384264282648,-77.6852182723438,0,0,0,0,0
-43.1906340813971,25.1440262009651,-31.468116816716,73.8161488399766,56.5407085099413,20.9854948489799,19.0941581344889,-78.137438130293,0,0,0,0,0
-43.4209299537196,24.9888238236809,-31.2146783803584,74.500914194808,56.7924702298339,20.6985949500068,18.6885794236057,-78.7639677296049,0,0,0,0,0
-45.0489419033297,25.9450586723966,-27.6490013046496,75.5746313117557,56.8975590881153,20.292423719883,18.3307005600889,-79.5925107846577,0,0,0,0,0
-44.6429530198505,25.6240494012196,-27.8039280866682,77.025767095176,57.8201233155438,20.9292790440181,15.0128494274355,-80.9370205169522,0,0,0,0,0
-43.7548882686363,25.118163928272,-28.2177703789898,79.0603967967304,56.9497633242513,20.0866668756955,15.2063801292829,-82.8495026238983,0,0,0,0,0
-44.2813042380952,25.1941753555698,-24.912953909688,82.0366585551589,57.813008896923,20.1848132697633,11.5033826020801,-85.0413614392757,0,0,0,0,0
-42.6154140324222,23.6037025498432,-25.1506096934283,85.1843350808204,57.6889821986138,19.9065184317693,8.3618394387474,-87.3064657039816,0,0,0,0,0
-41.5091522955526,23.2763184804695,-22.7736774114792,87.1713146815123,56.006888625865,19.391884648456,6.43413346810842,-88.9725924373245,0,0,0,0,0
-41.8913899280318,21.9257862347205,-18.6049854383153,88.899524325682,56.6571575870696,19.3833990921626,-0.143020861794794,-90.6448885025361,0,0,0,0,0
-42.1556600469778,22.3611879985153,-12.8034791566528,89.964076534471,55.4572676868689,18.2103788093931,-2.77598072346726,-91.4220037123396,0,0,0,0,0
-40.962674202521,21.3474425185983,-10.3104807703772,90.809520619978,53.8503710401431,18.5851979874808,-6.75411229981212,-92.3055237421251,0,0,0,0,0
-40.1720971363344,20.2253830804436,-7.55312153275918,91.4689193002277,53.177572211638,17.4045947367088,-9.57306963582347,-92.659115950964,0,0,0,0,0
-39.457959875667,20.7623147083316,-2.97937770318173,92.5682009428036,52.5851712690752,16.3337283054037,-12.3414065345322,-93.6651630749931,0,0,0,0,0
-37.6152894348016,19.8651189846257,-1.47985442077974,93.1274361541209,50.0150450808688,16.8267640256734,-14.8541142911814,-93.893698870289,0,0,0,0,0
-36.6357581984825,18.9364075005614,0.67714342755541,93.9506060288911,48.9743734201451,15.8241317804785,-16.8688932869628,-94.406438287366,0,0,0,0,0
-36.0227289571302,17.7205609439101,3.15552640483405,94.7505672166952,48.5047060952054,14.6562136198156,-19.3662374366584,-94.8374324939145,0,0,0,0,0
-35.2722926508765,16.6686392486529,5.31614582445516,95.3376839341652,47.1242017093173,14.0717122628113,-21.1438486265477,-95.1122427282249,0,0,0,0,0
-34.4820966411343,16.9767014607887,9.14510548890041,95.8913156833138,46.9751300908827,13.2200366714531,-24.2290148272515,-95.5322360668381,0,0,0,0,0
-35.7123553654879,14.6275385640672,11.9803081310826,95.9279544893763,50.7253359000165,11.2902682619639,-29.3538630517512,-95.6051259185748,0,0,0,0,0
-35.3805301883994,14.2679332977213,14.7525331507953,96.3556146640733,49.8547964193076,11.0098968565001,-31.4811280579026,-95.9941202812019,0,0,0,0,0
-37.3985296650411,12.98520220482,17.7832055850868,96.621503428749,52.5503391766061,9.72769244655841,-35.0445149031647,-96.2463577168915,0,0,0,0,0
-37.6642990790514,13.2718952260681,20.9800330276192,96.8159959392759,50.7164734681205,10.0182041691245,-35.9658922330217,-96.3367740228511,0,0,0,0,0
-40.3705818053827,12.4551505412103,24.4414107007852,97.4270124168893,54.5023655567558,9.29206323988995,-40.4469477358148,-96.8900627301231,0,0,0,0,0
-40.5932884854023,13.1507145482274,27.4326406500021,97.6000466857587,52.4654152012622,9.73927534325275,-41.1144135769946,-97.1528013744972,0,0,0,0,0
-43.4019751488638,12.5419879733902,30.9886317055788,97.6122716480323,55.835095436265,9.24063732844101,-45.0796255102216,-97.3322402754514,0,0,0,0,0
-46.4172223966292,12.0417778241703,34.6928941465396,97.6477537112611,59.6169448226533,8.78430010298737,-49.465344239994,-97.4688642886525,0,0,0,0,0
-49.9472347122537,11.6738957853887,38.8831728243421,97.7987139747844,64.1487003115658,8.46026343401766,-54.5945430758187,-97.8226590253387,0,0,0,0,0
-53.8395901577192,11.4189417470573,43.4313906210234,97.8821902585807,69.8313530910304,8.46790693032843,-60.9146373444224,-97.9778655916711,0,0,0,0,0
-56.1408566019835,11.3323716096713,46.0996935251245,97.8495513374091,72.9572099578961,8.60736744582165,-64.3714709696399,-98.0455223619441,0,0,0,0,0
-57.5059653621424,11.2606132499264,47.6521331656043,98.207217646438,74.7518630468386,8.82349291721836,-66.3043633498737,-98.5724085271234,0,0,0,0,0
-59.1152782428952,11.0732406082791,49.5450333281881,98.4070972828394,77.106214277514,9.03347680032239,-68.9070498915177,-98.7329573107499,0,0,0,0,0
-60.0486890319737,10.9256700190558,50.6771726649446,98.2979836027362,78.9120513193941,9.22102224506475,-70.928222427761,-98.5593181905172,0,0,0,0,0
-59.9515376173163,10.7314361954365,50.6112770200919,98.584409668375,79.6033121158264,9.25580666402152,-71.6949086411308,-98.73435126937,0,0,0,0,0
-59.5410712126241,10.5382655372043,50.1923209659331,98.8432768632774,80.1621906075915,9.31446819703645,-72.3030446968348,-99.0257810782881,0,0,0,0,0
-59.2329995169651,10.4016745596912,49.8629334077477,99.1802309411045,79.9382330671576,9.37164361524071,-72.0270119858669,-99.2791356392932,0,0,0,0,0
-59.2175044307789,10.1540120915453,49.9242379404575,99.3695075696013,80.4926649293929,9.31132933928841,-72.6529679687433,-99.4578290839278,0,0,0,0,0
-58.7476891634053,9.90050667369734,49.4798115812685,99.5102997835708,80.4820629995439,9.20130267910771,-72.6537352627622,-99.4716015045478,0,0,0,0,0
-57.9200843540561,9.70513797705113,48.625458066333,99.506751424967,80.0952803241743,9.11886091821546,-72.2339111360921,-99.3413962085914,0,0,0,0,0
-56.7469147930014,9.71197278660356,47.3039117792008,99.4758655053396,78.9663362650464,9.08755891037404,-70.9671493563467,-99.2496123205599,0,0,0,0,0
-56.3037966743398,9.65038301336833,46.8359607344109,99.4310262873283,78.7214104305362,9.02285869506641,-70.7057049512663,-99.1521161974284,0,0,0,0,0
-55.2889474095663,9.73645428813579,45.663566846011,99.3606702713857,77.9758073950003,9.0452936684405,-69.8637457871595,-99.098041297624,0,0,0,0,0
-54.9371992625944,9.79719989447877,45.2546656469632,99.2186687105046,78.0499821521744,9.06806334048186,-69.9504204514541,-98.9933477749454,0,0,0,0,0
-54.9920050531486,9.83647541805522,45.3018088599263,99.1877425188364,78.4299027960862,9.08301105546212,-70.374253884406,-99.0420108431359,0,0,0,0,0
-54.7146629309067,9.88212710729425,44.9781232153075,99.0975854526775,78.2407176743968,9.15695339827339,-70.1558580377374,-98.9354588845556,0,0,0,0,0
-54.2280629324431,9.983678589153,44.3924986156337,99.0172972283621,77.2471391220502,9.21908218468188,-69.0257320694953,-98.8883326861848,0,0,0,0,0
-53.543683463977,10.0873828795747,43.5755206237304,99.0043687689716,76.3177745528377,9.28670933318636,-67.9679679250483,-98.8142455285424,0,0,0,0,0
-52.7041311086336,10.2612169618854,42.5621776978806,98.8706187267312,84.5744645763542,8.82592413580452,-74.1222338703489,-98.6614099461817,0,0,0,0,0
-58.6366912855641,9.27777369183309,46.4378228890966,98.8520272494422,83.3267548064623,8.9251248667204,-72.7101989139118,-98.6477387605149,0,0,0,0,0
-57.6718557384421,9.35944266775529,45.3345928440549,98.7521841513653,82.2618828004174,8.88601283041564,-71.5184797342236,-98.5887284055538,0,0,0,0,0
-56.6195388596401,9.36950332965599,44.1475983791609,98.7916401547685,81.176869241837,8.87776251404828,-70.2945580071175,-98.6323245340409,0,0,0,0,0
-55.3773691988113,9.41910255168754,42.7290400937008,98.8527307673101,79.8288559265856,8.87158931210262,-68.7814998451179,-98.5862333936474,0,0,0,0,0
-53.7545719584759,9.41598081755383,40.9105694322504,98.897149527333,78.0354016747178,8.86148415288018,-66.757393866714,-98.6856300005492,0,0,0,0,0
-52.5962468015615,9.38587780652896,39.6435078553343,98.7901530032742,76.7989482681813,8.90809160464722,-65.3662656785516,-98.5952293055028,0,0,0,0,0
-50.3995521628633,9.53333264650335,37.1479412308743,98.570260323725,74.7692640908302,8.96581712831935,-63.0848839431673,-98.4498659529347,0,0,0,0,0
-48.269019893233,9.77443256987208,34.672453007443,98.3868763060749,72.2190304573959,9.22906763654149,-60.1662954303338,-98.3645852047793,0,0,0,0,0
-45.3164824444026,10.1592178121742,31.2038566948866,98.1528522098693,68.579928167643,9.53253083063376,-56.0095320341463,-98.1357453722364,0,0,0,0,0
-42.4196842435175,10.6419525525554,27.7096556931088,98.0620804790078,65.1128288810982,9.9112103701989,-51.9925350174137,-98.0505913691392,0,0,0,0,0
-39.9338938411571,11.2542126055779,24.584677902997,97.9365143142013,61.5070766450112,10.4648428798426,-47.7355549740745,-97.9627417525298,0,0,0,0,0
-40.5476047743927,10.7541665639186,22.4205131924103,97.9851096433166,63.6867616988399,10.153763926183,-47.1359433992052,-98.1219075238169,0,0,0,0,0
-37.0831152354239,12.171056331756,17.7054378050863,97.830140823107,59.0729617422024,11.1532186671149,-41.5432214385063,-98.1828317919639,0,0,0,0,0
-36.5547087962953,12.2424713408509,14.0529921071217,97.5480961698442,59.2336045730769,11.0574001020321,-38.7221059209644,-97.8115896050882,0,0,0,0,0
-34.4548055049614,14.1808433515693,10.6006628392108,96.9200687897114,58.9171583586735,11.3423638199221,-35.3303883533516,-97.2055867031917,0,0,0,0,0
-35.4172119783023,14.9864445133394,8.38882188660451,96.3085897668547,55.0096028520281,13.2113210053452,-30.3227888687612,-96.4299068884555,0,0,0,0,0
-36.8809715248539,16.057064154437,7.0162363591749,95.7103088399952,59.0020475032744,12.5031495820642,-29.5047417178431,-95.5816354648441,0,0,0,0,0
-40.807431413049,14.9851127774096,6.13983745312629,95.1334549965141,60.3998369951358,13.4870314097831,-28.8033199883396,-94.7800133511041,0,0,0,0,0
-43.8821382802545,16.2608168549555,5.73027126242281,93.7358753539979,61.6246129973635,14.5748403060261,-26.8575359808567,-93.1783316987791,0,0,0,0,0
-46.5438551263686,17.5320661691681,4.79642735240973,92.3840935634214,62.6147993071218,15.528139757257,-24.6619738480758,-91.771769742169,0,0,0,0,0
-49.1888015216724,17.1377758128093,1.9511757599729,91.3802191819174,65.4486426851395,15.1388652928618,-22.2397478561261,-90.4734239590168,0,0,0,0,0
-52.3157626708636,18.1795645140933,1.2815741039399,90.0887261447403,67.272859263399,16.1517544294705,-20.5901522645386,-88.9588506513675,0,0,0,0,0
-53.5655677166512,18.2613256089872,-3.51056594869525,87.2749184144355,66.9796116222351,17.6126152379607,-16.4829064074041,-86.6174793312014,0,0,0,0,0
-55.4920193553679,19.5285831226668,-5.63897807615137,84.7378027711045,67.8361051124183,17.3876147114366,-11.6464641938206,-84.2715817156822,0,0,0,0,0
-57.5749351282621,20.1672920550539,-7.19602947504582,83.2116471898211,68.3593920472912,18.2574663588941,-8.6154613139149,-82.4689107885686,0,0,0,0,0
-54.0489324727792,21.074775287651,-13.9358687051713,79.4112349395246,65.2317865370861,19.1574592624082,-2.04205713671755,-78.9658183488602,0,0,0,0,0
-55.233298023505,20.6090999151823,-15.5307252935382,79.171587884252,67.0595436330355,19.2345070470892,-0.792086080140278,-78.6713529178832,0,0,0,0,0
-55.9556404307911,19.6046510746806,-17.1562475092463,79.1088145173694,69.6353072792377,18.9277622996881,-0.514461150389989,-78.8927160978408,0,0,0,0,0
-49.7098794830177,21.3289156073937,-23.7338943760776,77.0255508517049,64.6591997942853,18.9437325722565,7.17890019011443,-77.5748686352534,0,0,0,0,0
-46.4354801319144,22.667246407072,-27.3132888153331,75.3178298373184,60.2179617850454,19.0109148913133,14.273489114688,-76.2904797059721,0,0,0,0,0
-46.4781037284326,23.5258372379702,-27.7847405427863,73.8857567541541,61.274244963107,19.9519028678668,13.9210178930643,-75.1232695636286,0,0,0,0,0
-47.7185203585344,24.272564641603,-27.2346343065198,73.4025268620399,62.9609675129023,20.7515173647664,12.9135694706906,-74.6485649275804,0,0,0,0,0
-49.0412961002807,24.5205904755013,-26.2948326066357,73.1337677042422,64.6654496903249,21.472493046348,11.8128911922751,-74.0119746847305,0,0,0,0,0
-49.7994207535139,24.7232146515756,-25.7840020278889,72.7916036911496,65.7556208003847,22.0360386320222,11.1784118546193,-73.6126663944407,0,0,0,0,0
-50.8385305496815,24.6751184211245,-24.8814173044927,72.7939580686739,67.3543148924355,22.2396763426079,9.81509212514912,-73.5862420518979,0,0,0,0,0
-52.3298571535157,24.3890705671877,-23.4131340859714,72.6880014339579,69.5519081148535,20.7519856480669,9.58836561875767,-73.7499743173614,0,0,0,0,0
-52.7597979282085,24.2589553693436,-22.9498160683716,72.6127851227023,70.7663693658371,20.6154034522102,8.29732961241286,-73.5809350786124,0,0,0,0,0
-52.1002461171833,24.2635313985274,-23.5107079966692,72.524561873664,70.9070951182634,21.9026027157573,6.13599405543047,-73.5230018594159,0,0,0,0,0
-51.990630065251,24.2924576348957,-23.6072809848811,72.246782005221,71.1896566429336,21.9090139886773,5.85129021122974,-73.3555277153037,0,0,0,0,0
-50.7687314955958,24.6908856372667,-24.8944699516663,71.8630578953229,69.8991048594617,22.1033675049578,7.22984447195706,-73.1095150764627,0,0,0,0,0
-49.8942959345439,24.995945365643,-25.8275797625088,71.7089822258592,68.7000640297716,22.2348262183965,8.47857772767626,-73.0371267871164,0,0,0,0,0
-49.8227926239772,25.1483440217835,-26.0007861736024,71.857295535441,68.3741826148736,22.4206358342291,8.94577498453568,-73.2094203215971,0,0,0,0,0
-49.7551571824842,25.3509640416847,-26.2026801586048,71.9567456246055,68.0535945665306,22.605942725079,9.4097289314094,-73.4045200232409,0,0,0,0,0
-50.6598330718368,25.3221544009506,-25.4500498418695,72.2763952636149,68.7923351059356,22.6427248407692,8.77335051757848,-73.8962640701503,0,0,0,0,0
-51.1513581631155,25.4336361878079,-25.1134067890952,72.2170996070236,69.4981113275671,22.7197106457518,8.1613474594088,-73.9838348756287,0,0,0,0,0
-52.6085581781813,25.2810456695592,-23.7763723321683,72.2058952583458,71.0100716266859,21.2777149477619,8.60093552762684,-74.0488907446974,0,0,0,0,0
-53.0082452697237,25.3561266769888,-23.4786008744589,72.0367933259905,71.495436381422,21.3241427723155,8.1598051882749,-74.0025289276273,0,0,0,0,0
-53.7583615754399,25.2329076104548,-22.7630387893679,72.2176508432955,72.762607557999,21.2483953720908,6.87497430338238,-74.1266048288543,0,0,0,0,0
-54.2709719254483,25.1367352280176,-22.2539303585225,72.2213928456459,73.6477070712051,21.2306777160826,5.99676829753516,-74.1894024961786,0,0,0,0,0
-54.3878778393559,25.0832484084911,-22.1241059465249,72.3509960578087,73.8746510340215,21.189912701813,5.7597074077683,-74.3771152038826,0,0,0,0,0
-55.0654562795705,24.9510240043523,-21.4639842060865,72.6354557740802,74.9245818968115,21.108893994489,4.6891755771104,-74.6985581452534,0,0,0,0,0
-55.207704677057,24.8676127008104,-21.2854799913366,72.7121967115964,75.240109779199,21.0999335058193,4.37814457129565,-74.7961398717296,0,0,0,0,0
-55.0355626274761,24.8974404594454,-21.436884265045,72.4475319540349,75.3093695908071,21.1177332108081,4.31403581165652,-74.7042765280953,0,0,0,0,0
-55.7773945843523,24.7772585405363,-20.731258152893,72.8057187944869,76.1829155333342,21.0940741547912,3.4406239741304,-74.8685929909027,0,0,0,0,0
-55.5541297551152,23.4564810957019,-22.964876500114,73.3221351672122,77.4457117406671,21.1231020476017,2.22487445333524,-75.1660391384541,0,0,0,0,0
-55.5572240593479,23.5832691934004,-23.0939269714558,73.8295393101169,77.014672820695,19.8659207605344,4.74458154924544,-75.5032373115132,0,0,0,0,0
-55.4780139352331,23.7618817634602,-23.3400488707859,74.4144274222222,76.2514954653682,20.0886236117196,5.71774531817832,-75.9150166193622,0,0,0,0,0
-54.7356415543255,22.5761981870112,-26.2196542258837,76.0538306542523,76.6539562502875,20.2543858428921,5.56026730303602,-77.0482822271786,0,0,0,0,0
-54.2909652005661,21.4332232849963,-28.8759667745385,77.5702732239476,76.6151545882198,19.1264233551585,7.83821879448985,-77.9453483956538,0,0,0,0,0
-57.1872606735838,21.5692728101711,-26.6561711991011,79.765951885283,78.7375738282754,19.6028222720434,6.30810825365973,-79.8396429948027,0,0,0,0,0
-58.5742547317611,20.875088833106,-28.1292870808299,81.6143849381263,80.4022805699627,19.1125467928775,7.49402719475603,-81.3773352184247,0,0,0,0,0
-61.426273084058,20.4973979198527,-28.5992800911651,83.5038624272741,83.2761365376489,19.1920123830476,7.9466928013884,-82.8778403055273,0,0,0,0,0
-63.6693557065598,19.4526284301394,-32.0977485511762,84.9369433067358,86.4236810117093,20.0387109137416,8.73334010317812,-84.0164350906458,0,0,0,0,0
-69.5728842223451,20.1163069327688,-30.4732298377716,85.4888333132964,89.1959349736765,20.0828200541744,12.109488765588,-84.2637451397316,0,0,0,0,0
-72.9969745217969,19.5878725394771,-32.9827494919017,85.9711191999963,91.9522578763611,20.1796856746388,15.3896207417104,-84.5461715384932,0,0,0,0,0
-76.2078165856775,20.1112656240912,-33.3344755811388,85.7615487985355,93.8911523072229,20.9589748256953,16.9283821805631,-84.5383995994334,0,0,0,0,0
-78.3092724671054,19.3545601106098,-36.3734913819103,85.567053445962,97.1421885926853,21.4723080024218,17.5298523436252,-84.4293433748559,0,0,0,0,0
-80.0960378412166,19.6570261438926,-37.459293646339,84.6735806693551,98.0840658270161,22.0504800956847,19.0862635947363,-83.6487127636137,0,0,0,0,0
-83.4249517141915,20.5521439476657,-36.3315015225592,83.8120314076985,99.2935377502543,22.5608005825188,20.5091357880057,-82.7218043134121,0,0,0,0,0
-87.0472284713373,20.9655964993369,-35.7198546614604,83.139489945443,101.837417162509,22.8898157846577,20.9150573850582,-81.9771602566027,0,0,0,0,0
-92.4670225806601,22.3680900986019,-31.6062679714245,82.2299861233461,104.988487806671,24.5264418303293,18.8503360836306,-80.8466312750697,0,0,0,0,0
-94.10210231355,22.6768507574246,-32.8156182713264,81.2373656169324,106.952346306333,25.9255984608971,17.7217668480864,-79.8957563676741,0,0,0,0,0
-97.3235387306063,24.0145843040758,-30.590148778714,80.4256926949289,108.00384642438,25.7405134513969,19.3504512701406,-79.3998851443207,0,0,0,0,0
-98.5159043359926,23.747502278713,-32.160715572453,79.75467297147,110.245178899368,26.5997095640535,17.9129491707884,-78.9848723417152,0,0,0,0,0
-100.969805551154,24.5400540044618,-30.5330710782213,79.0388496723136,111.368707874729,25.9938388404525,19.4041334917177,-78.8284573903923,0,0,0,0,0
-103.835866658261,25.3774460049001,-28.6360999960166,78.4495178668428,113.989125078853,26.75357508405,17.669772650732,-78.7422216818732,0,0,0,0,0
-107.103335651589,26.2717427423362,-26.4834644527956,78.0827638387581,116.517877998343,26.3257277143345,18.1460118619056,-79.2569097852346,0,0,0,0,0
-109.745046054055,27.0458606377814,-24.8110997827337,77.6167906907962,119.038338497454,26.972940718498,16.4749478462121,-79.4378173949374,0,0,0,0,0
-113.393697609264,27.7925145186015,-22.4245000889022,77.2559168641574,122.343282061102,27.7090711591684,14.2723398163628,-79.5579814765261,0,0,0,0,0
-116.241351237797,28.4402157522918,-20.5960606134886,77.0882588462656,124.861429772955,28.3386818823331,12.6373612311555,-79.6696059854502,0,0,0,0,0
-118.569366842614,28.8665243283448,-19.0604591763592,77.1524248736193,126.858887453161,28.8009600458236,11.3319837888333,-79.710204993751,0,0,0,0,0
-119.322160446008,27.7609439435112,-20.7273565711397,77.0485241261163,128.431512100378,28.8852410223118,10.1605911061239,-79.6992417217619,0,0,0,0,0
-122.538838500826,29.2104154611152,-16.2855594797852,77.1024815005075,130.612786910693,29.1211172732489,8.56865289723359,-80.0642669627489,0,0,0,0,0
-124.110074672063,29.3827871064536,-15.2080365649595,76.7827617462617,132.146861900424,29.217492695524,7.41365901845253,-80.0000846301248,0,0,0,0,0
-125.069417181413,29.5208623665445,-14.5695116671316,76.4167163941076,133.187543447712,29.2608354739405,6.61183592971531,-79.9234681381652,0,0,0,0,0
-125.543661473518,29.5052663793822,-14.2135211921112,76.1760236165733,133.81545839065,29.3679805725997,6.17582938760669,-79.7722571848378,0,0,0,0,0
-125.163912956635,29.3780180364106,-14.4395820199569,76.1543063267254,133.5785198179,29.2938934867918,6.32254767505797,-79.7770252918824,0,0,0,0,0
-124.53930059125,29.1857646524333,-14.8198315543636,76.1418378635224,133.089332245608,29.1384846704982,6.62165551593431,-79.8627981453081,0,0,0,0,0
-124.803133375375,30.4939546559033,-12.5383315696205,76.1734326056741,132.938879459994,29.278581141717,6.82906344556553,-79.6764837742056,0,0,0,0,0
-124.397700479246,30.5334814167189,-12.8687399368882,76.0182590252353,132.369424793758,29.3827357361603,7.34812748117602,-79.5113752373741,0,0,0,0,0
-123.576922726446,30.4279272042187,-13.435541769895,75.9744888047131,131.468795948626,29.3133935850829,8.02942223933222,-79.3155778739152,0,0,0,0,0
-122.455360589752,30.2932739786582,-14.2157142452906,75.8548136266135,130.257741954334,29.2771291026239,8.97332973265762,-79.0305272783124,0,0,0,0,0
-121.684446811355,30.2094529374007,-14.7559849389422,75.7514447590289,129.039325013004,29.2996376071655,9.9418714433533,-78.9025571305616,0,0,0,0,0
-121.353739050147,30.3087431502921,-15.0526698005218,75.5903790762977,128.228003163171,29.3898760857295,10.6193269484809,-78.8736821435973,0,0,0,0,0
-121.262984555103,30.6206802645798,-15.2639293215302,75.4370705904001,127.716841817263,29.6288815968811,11.1457190168992,-78.6848368763766,0,0,0,0,0
-121.246174405714,30.944058544971,-15.4216540936964,75.3691741598238,127.400514505507,29.8608418815142,11.5123344499591,-78.5923553114585,0,0,0,0,0
-121.450567102393,31.2478264762569,-15.4129057560211,75.2463472689862,127.372388229849,30.1006777631946,11.6700304748578,-78.3170515656988,0,0,0,0,0
-121.290921303878,31.4096014977143,-15.6021688238039,75.2194932188046,127.098737978453,30.1650857113936,11.9136298600776,-78.2604505121001,0,0,0,0,0
-121.317875353495,31.5846210772629,-15.6614245164681,75.1991028549658,127.039614234504,30.2321404103807,11.9922049830418,-78.2841690060119,0,0,0,0,0
-121.270385255142,31.631315443142,-15.7203995532209,75.1192651055131,126.912544474883,30.2204359945429,12.0879084513548,-78.1496335727718,0,0,0,0,0
-121.255978903651,31.6933047166505,-15.7636772611359,75.0086104397678,126.872706264002,30.2152456915216,12.1187880564492,-78.0674469444393,0,0,0,0,0
-120.942380232341,31.6589548652336,-15.9828285127164,74.8448619093915,126.614032330377,30.090600940801,12.2560583602723,-77.9381608236866,0,0,0,0,0
-120.543206309568,31.7118227355183,-16.3014928943693,74.6847471138788,126.399377604373,30.0995071454357,12.4258506959755,-77.8716360340551,0,0,0,0,0
-120.226566161062,31.7250693122189,-16.544432592896,74.4915206889671,126.010561696482,30.1338088730506,12.7419525689858,-77.7512403450802,0,0,0,0,0
-119.635431453107,31.6299946373931,-16.9335205303381,74.3873781555353,125.448866136589,30.0415205703777,13.1175629840759,-77.7779249471051,0,0,0,0,0
-119.272109366123,31.6288397223626,-17.1994788209824,74.2690699164383,125.013269860203,29.9995529303088,13.4266905674521,-77.7199433524985,0,0,0,0,0
-119.327531523099,31.7516883630337,-17.2255292354021,73.9872915074653,124.857641414751,30.191719617347,13.6474493312842,-77.5018457392991,0,0,0,0,0
-119.299888069034,31.8498510189633,-17.3020734818463,73.6742091957186,124.802359286735,30.1634098457864,13.6787064973363,-77.4191581947161,0,0,0,0,0
-118.842031852915,31.8424925814304,-17.6410638858225,73.3753671226225,124.410982864454,30.1776180185666,13.9891635152837,-77.1766773893981,0,0,0,0,0
-118.248441254172,31.874449338372,-18.0890615093785,73.1384565465724,124.585400205898,31.3904279946449,11.7478413132736,-76.9473413508704,0,0,0,0,0
-117.369386070554,31.7535305577688,-18.6839556455556,72.7917439739603,123.945915383358,31.1863807136632,12.1355268237688,-76.7383283516115,0,0,0,0,0
-117.337884497212,32.8527502196555,-16.5229524019585,72.5567513520978,123.166188975503,30.8380249828784,12.560174950241,-76.588480075829,0,0,0,0,0
-116.429659184264,32.7347939944693,-17.1361611361728,72.2411384602921,122.510795924012,30.5506753463903,12.9270877527186,-76.3946646026021,0,0,0,0,0
-115.668096547857,32.619396681054,-17.6451140853865,71.9746305777993,121.97643309718,30.3112171413861,13.2215792883994,-76.337101731728,0,0,0,0,0
-115.82938000371,33.6994247026387,-15.3532722674181,71.6816136946802,121.978011839415,31.3189221808168,11.020013829812,-76.1977816100482,0,0,0,0,0
-115.04259757542,33.4465860798106,-15.8307985828231,71.4170837268047,121.297237854804,30.9641103777398,11.3847549404028,-75.9947961133305,0,0,0,0,0
-114.280529056854,33.1190151984131,-16.2611616862299,71.3012728730603,120.30507997064,30.4338347387455,11.9176005462034,-75.752934898974,0,0,0,0,0
-113.545408850721,32.452395572137,-16.5475884949905,71.5091654793731,120.046268317945,30.8847866432309,9.68609258439066,-75.8833148764468,0,0,0,0,0
-112.599128637694,32.5903896920058,-14.7111161382447,71.9488390178502,118.310693081269,29.4798938204434,10.4363434770077,-76.2468306089495,0,0,0,0,0
-111.798906527982,31.2452378475133,-14.8222565647423,72.9089389307473,118.203676239377,29.2171408751162,7.83116428560452,-77.0683033593028,0,0,0,0,0
-111.770204988943,30.9359891072183,-12.1897566989396,74.2068321871082,118.157725810246,28.7087087075059,5.13219287347155,-77.8389896239984,0,0,0,0,0
-110.777250664119,30.310810176302,-10.2178080873208,75.6856904039042,117.550304828503,27.8558055118603,2.79480695717906,-78.8720759163994,0,0,0,0,0
-109.996641768882,30.3103572064511,-5.91251036365688,77.582440438494,117.095393584616,27.9384826626122,-1.69836476862477,-79.6984424551711,0,0,0,0,0
-109.190109240833,30.3007782547728,-1.76609586893283,79.6286243938535,116.712174924416,27.9088270268345,-6.18172182579328,-80.7901184175287,0,0,0,0,0
-108.661996310663,28.6444642723282,0.522510383022083,81.3159951904684,116.382041318625,27.4486316876685,-10.7138194489986,-82.0247546619313,0,0,0,0,0
-107.228304245668,28.6343076193168,3.85991542219386,83.0788353844401,115.908316812476,27.0348324150659,-14.9950745295918,-83.5595782804727,0,0,0,0,0
-105.824481585442,28.6923477492362,7.39787619690394,84.8749689754746,115.422727938772,26.5139295082482,-19.3367128879741,-85.5462438367787,0,0,0,0,0
-102.202121959788,28.3721154535172,9.22865875061454,86.7553623283745,112.901435314787,26.5014831086089,-22.3630346886598,-86.7961770353547,0,0,0,0,0
-98.1585847216321,27.0533045793205,8.68509485084612,87.4348402556918,110.623550804622,25.3650608959435,-23.5179773132929,-87.1222200628247,0,0,0,0,0
-88.0714732688102,26.3556741778192,4.71714646609184,86.0775801585312,103.38135945182,23.019837258381,-20.0044299661926,-85.7317435253403,0,0,0,0,0
-78.4281070989007,25.8524946930198,-1.44861153362918,83.886984005429,93.2779942405969,22.8823592394773,-15.2806226124918,-84.2376189835162,0,0,0,0,0
-70.8427752408226,26.964812231079,-6.34048204966055,80.0977111231132,85.1809209783919,21.5849108840859,-7.89139036620512,-80.9862139169725,0,0,0,0,0
-63.9819936922302,28.8196091480187,-11.0050431458402,77.6989226514679,75.5366132406593,22.6192599776953,-0.440248156627339,-79.2638223941314,0,0,0,0,0
-63.0612431852847,28.2624299825559,-11.2907099319681,76.8700351345538,73.866061882491,22.0919413725567,0.752090453704544,-78.6196987142162,0,0,0,0,0
-63.5176319521671,28.6910911040646,-8.19253168713915,77.5701189580354,73.9814308867733,22.7842993360354,-1.86150172552007,-78.9664180930896,0,0,0,0,0
-63.2929998709821,27.9400277477474,-7.8208708879408,78.1784828142296,74.2042140690928,22.0963237435492,-2.59752318885108,-79.2779797005817,0,0,0,0,0
-62.6138654956174,27.2659118924821,-7.95107098555494,79.1539377465352,73.394796858726,22.9218479187775,-4.18968324266454,-79.8478117082211,0,0,0,0,0
-62.7053056378502,27.8259479682703,-5.28160875944626,80.0207598872281,73.9503383070368,22.3249672680466,-5.17765233595747,-80.2807668738874,0,0,0,0,0
-62.4404531569575,27.0929898213547,-4.97270640991417,80.9130169526784,74.3669521623839,21.7133826465781,-6.03615437247762,-80.7806437992936,0,0,0,0,0
-62.4782716238082,26.5641444375337,-4.5341416054146,81.3917412867382,74.2986055210678,22.5822602150385,-8.35174809723088,-81.0573597116602,0,0,0,0,0
-62.4465523369653,26.3259634810526,-4.36894947748265,81.2834967821285,74.6439754331309,22.3816962804612,-8.85269939718951,-80.8359214976669,0,0,0,0,0
-63.4115138064381,25.9337733214746,-3.18273447132185,81.4936851616843,76.2361615355507,22.1089654579994,-10.6487579529003,-80.8691798943355,0,0,0,0,0
-64.3122354843886,25.6799276721741,-2.15891248276936,81.728269013677,77.9361031079608,21.9445809835541,-12.484262962365,-80.9786783012671,0,0,0,0,0
-64.6971334326803,25.5707678396432,-1.70723879709379,81.50323329458,78.6586104880669,21.7851156545712,-13.339080047099,-80.8443352657308,0,0,0,0,0
-65.2272145529837,25.546389567584,-1.18770560586029,81.3317735636532,79.3127534851986,21.7136412176402,-14.0603772639774,-80.7716943688109,0,0,0,0,0
-65.2122520238942,25.6190956880435,-1.25389532501018,81.1921364592381,79.3482615053974,21.6537540794167,-14.1415778506338,-80.7105011369154,0,0,0,0,0
-65.7523796033358,25.5283085164981,-0.686011423801772,81.4432686762415,79.9460843452501,21.5498708476246,-14.8239999624854,-80.8634761885996,0,0,0,0,0
-65.9618146865045,25.5464099702723,-0.506175019223867,81.5064797154615,80.1735384938894,21.5329959881579,-15.0687864813312,-80.8844889112618,0,0,0,0,0
-66.551617667947,25.5995559264458,-0.011316653037148,81.9710797216438,80.71726513306,21.6012237722107,-15.5708508675882,-81.1659800825989,0,0,0,0,0
-67.4832414246363,25.6500772292709,0.820204723810449,82.2067640527805,81.6944404723359,21.6657545176786,-16.5261013376947,-81.4031625686245,0,0,0,0,0
-67.5887471003359,25.8251040999486,0.77816522090952,82.2365108018809,81.8077512065428,21.7609154643841,-16.5730350173372,-81.4731100768689,0,0,0,0,0
-67.7682794653597,25.9389542807755,0.860745284608238,82.1442232206477,82.035065712413,21.8994412587994,-16.7119675291134,-81.3747896728241,0,0,0,0,0
-67.6901556417759,25.9958622838362,0.728732435008209,82.4112852664019,82.2555995698706,22.0089831132522,-16.8562621078008,-81.5621077549646,0,0,0,0,0
-67.8933205543752,26.124882135123,0.821181568233663,82.31640515615,82.7121875420201,22.1737278838384,-17.2162760527695,-81.4513947117645,0,0,0,0,0
-68.2926006849286,26.324600702557,1.03861139761446,82.3175344948291,83.2845368217874,22.3830958105389,-17.6658263081889,-81.3802902443798,0,0,0,0,0
-68.0434432216401,26.3942491750607,0.737190842469688,82.4608414885562,83.3325745867602,22.4710791297921,-17.6495890594498,-81.4682129697038,0,0,0,0,0
-67.8783915734243,26.3851060556247,0.579301088539441,82.638574567315,83.3882316879029,22.4469411182559,-17.7222137598486,-81.5534998476815,0,0,0,0,0
-68.2812834769052,26.3218891631963,1.00071139730387,82.941537284212,84.050820667797,22.4700352874747,-18.3952577921244,-81.7079382362132,0,0,0,0,0
-68.485730163393,26.3473686149591,1.1726945858613,82.9857404691187,84.1405195139008,22.5179988881133,-18.456664954977,-81.6644574431243,0,0,0,0,0
-69.2963050773091,26.3428654421497,1.94786738779208,83.0924010794773,83.441079811114,23.8184732124536,-19.8617841056062,-81.682742624835,0,0,0,0,0
-70.2665912267734,26.2913438272978,2.94299861621954,82.7662315895249,84.08155424108,23.8603143412058,-20.522397806505,-81.3442373059924,0,0,0,0,0
-71.6182689487496,26.1882802221951,4.37569182992228,82.1773572599619,84.9019410025706,23.8705968068094,-21.4151698242601,-80.6129782795837,0,0,0,0,0
-72.7183835222551,26.1246499726434,5.57408861453822,81.0132027528804,85.6530819396376,23.806417186386,-22.3088913475128,-79.4118364109503,0,0,0,0,0
-74.4618808154096,26.064268940607,7.43784034146306,79.6967296732485,86.9679831759995,23.8023385855346,-23.7760534062212,-78.1418366385527,0,0,0,0,0
-75.8192837302545,25.811566947158,9.11115979833433,77.9453398919949,88.2994961729968,23.6204918204737,-25.4013230482218,-76.5356724490551,0,0,0,0,0
-76.9950387809014,25.5639572090558,10.603449086335,76.2336628087848,89.1646439060376,23.4295180579291,-26.5277685834904,-74.9597887592119,0,0,0,0,0
-78.5327371479571,25.2527355413833,12.5273905699318,74.4557966833707,90.3720025805853,23.114774074664,-28.1056619076845,-73.2207311918498,0,0,0,0,0
-80.2448712829551,24.8917889170092,14.6695078497917,72.7935949915664,93.2648999968887,21.6219727145139,-29.2261053164661,-71.5458833201641,0,0,0,0,0
-81.930601863061,24.5040587285571,16.7977645776078,71.2909557473719,94.3755163370728,21.2420595904879,-30.6994848773937,-70.1879728836395,0,0,0,0,0
-84.496151814127,22.8613808077681,17.7291587117405,69.2745433774338,95.8232956839492,20.784200299924,-32.5909459836239,-68.279261276658,0,0,0,0,0
-85.657694118788,22.2974019956933,19.4200327743513,67.3999363821507,96.6939079576978,20.1977945459232,-33.890137694698,-66.5682313540249,0,0,0,0,0
-87.3523103094133,21.7608540283365,21.6370468959135,65.6507500841117,100.388571129896,18.7001988902022,-35.8029117508984,-65.002174637811,0,0,0,0,0
-89.1412420732932,21.2326603030969,23.9521046501984,63.6160477236876,102.429347134749,18.2505563594039,-38.2665700343598,-63.2291815233269,0,0,0,0,0
-92.5147369421988,19.578667812832,25.6672658698467,61.7486229464941,104.466909690381,17.71464808964,-40.7405928371172,-61.423851779793,0,0,0,0,0
-95.2251854764618,18.9867554772741,28.9433413093947,59.9104437291851,109.811860234332,16.5693350484791,-44.227746770904,-59.4955247508455,0,0,0,0,0
-97.6067997764682,18.4737525811005,31.8015589240709,58.2566508420123,112.268766646152,16.220884340685,-47.0364995839132,-57.8544222591756,0,0,0,0,0
-101.779001836825,18.1288442349729,36.5094888772422,56.4449583229857,116.134731054901,16.0845630660207,-51.289188245272,-56.1221701530017,0,0,0,0,0
-104.991025307884,17.655742621219,40.206957384873,54.8407517921023,119.488235775996,15.8414160720404,-55.0011405800286,-54.526237217933,0,0,0,0,0
-111.272121245234,16.366210275074,44.7276710623199,53.1926024118479,123.520694746226,15.4581323078321,-59.4518415702988,-52.9038260317258,0,0,0,0,0
-115.844336238302,16.2182341350393,49.740057554488,51.6380361847996,127.527391588917,15.3918266050339,-63.7851095029762,-51.511763811872,0,0,0,0,0
-119.983535499177,15.9467286576825,54.2834960071292,50.5996890169468,134.988492651764,14.8712438162619,-69.2348945265601,-50.4431853537266,0,0,0,0,0
-124.504867988512,15.6045445941835,59.2319155301668,49.4111712770385,139.354497021399,14.8082528465727,-73.9131498358432,-49.2446571141603,0,0,0,0,0
-132.391434335652,15.0785401674617,65.1541075561385,48.1923592058155,144.149718167618,15.0249702980176,-79.0043544016983,-47.9849366247229,0,0,0,0,0
-136.868330192029,15.0695606928414,69.9487756266862,47.29299704719,148.035022380015,15.2017342777487,-83.1197116589687,-47.0596865912685,0,0,0,0,0
-140.779557614132,15.2532012883392,74.1082017172432,46.5134572038817,151.435521661995,15.595639066292,-86.7009988514436,-46.1416162174879,0,0,0,0,0
-144.057330896884,15.3761218996121,77.5903563739374,45.9860060489374,155,15.9666677222923,-89.9644472842613,-45.5491277544859,0,0,0,0,0
-149.669437839003,15.4448197459178,80.9709063517153,45.4548526166188,155,16.4099296699768,-91.9102363482936,-44.9089134937357,0,0,0,0,0
-151.625532756419,15.8958042778174,83.0278281706892,44.9152450397092,155,17.0265535965529,-93.0002503400434,-44.2545268857693,0,0,0,0,0
-153.074286963345,16.231934827787,84.552764283468,44.5597215478759,155,17.5653980841534,-93.3105772003374,-43.8763569765831,0,0,0,0,0
-153.88834012287,16.64512018565,85.4036973002316,44.3044424377512,155,18.1454434949799,-93.4586112000957,-43.5498545632805,0,0,0,0,0
-154.770160146698,16.9556587988651,86.331012942369,44.1245434200299,155,18.6587259929536,-93.3316840927899,-43.2906601864828,0,0,0,0,0
-155,17.178062685235,87.133781250908,43.9789529863512,155,18.9577634128197,-93.4965780248701,-43.0979749866679,0,0,0,0,0
-155,17.3630824370095,87.5999678910066,43.9060894970089,155,19.2442261367516,-93.5104821478954,-43.0220932609135,0,0,0,0,0
-155,17.4344030043327,88.17319934188,43.9084849119893,155,19.4379698549609,-93.6418994319538,-43.0234454142566,0,0,0,0,0
-155,17.3959575297523,88.7745227694663,43.9339719810969,155,19.527800704471,-94.1790512058348,-43.0126272870151,0,0,0,0,0
-155,17.5048301390495,89.3275236559834,43.8706806625243,155,19.6193993458429,-94.5988972762131,-42.9531380318799,0,0,0,0,0
-155,17.4792870341759,90.0194254091745,43.8513099662522,155,19.6177528755939,-95.3285041228299,-42.9467029084662,0,0,0,0,0
-155,17.4982728981885,90.8408201089364,43.757568466927,155,19.6343275240906,-96.2524345465743,-42.8183839595938,0,0,0,0,0
-155,17.4590981652875,91.4893567565248,43.7255192024172,155,19.6512143435241,-96.7965122035651,-42.7801155187993,0,0,0,0,0
-155,17.4379215367992,92.0398930705007,43.737126131873,155,19.6618576108555,-97.3265163479942,-42.7716575497688,0,0,0,0,0
-155,17.3746926466856,92.373318504214,43.7646022372215,155,19.4478223460814,-97.7633855103979,-42.8701359366837,0,0,0,0,0
-155,17.3641279119856,92.7674366929803,43.8276528448456,155,19.4447766944418,-98.0393377402946,-42.937371477168,0,0,0,0,0
-155,17.3048508384477,92.9841077439306,43.8421184801205,155,19.5199355272916,-97.972318952535,-42.9164773707659,0,0,0,0,0
-155,17.367742818551,92.9741598802395,43.9048148441622,155,19.4859848935938,-97.4497825576936,-43.0583352237212,0,0,0,0,0
-155,17.3931332212142,92.861932778645,43.9688318293115,155,19.5203943926587,-97.1025432512903,-43.1366946920798,0,0,0,0,0
-155,17.3155567653761,92.4321296646696,44.1360567348653,155,19.484374664219,-96.5165812323682,-43.3136167455853,0,0,0,0,0
-155,17.3212208197858,92.0507988948443,44.2491504517473,155,19.539260148439,-96.078240839285,-43.418469326683,0,0,0,0,0
-155,17.3011672780243,91.7153801892755,44.3532334901169,155,19.5446774704023,-95.8102073810807,-43.5172986306837,0,0,0,0,0
-155,17.2337954920912,91.557167268585,44.462294308519,155,19.5072714714988,-95.4518602416971,-43.6216285548467,0,0,0,0,0
-155,17.2315005803126,91.2141801576032,44.5542577069849,155,19.5140982063376,-95.0620400226151,-43.7422763760634,0,0,0,0,0
-155,17.2684823984211,90.9475422365473,44.6193728462563,155,19.5007314041996,-94.7703886547305,-43.8057113983734,0,0,0,0,0
-155,17.3118380390684,90.8507262542779,44.643066796434,155,19.5262356856082,-94.507082604936,-43.8445313841023,0,0,0,0,0
-155,17.2460050636637,90.7409421814191,44.6968874392233,155,19.4651020769415,-94.2005279952446,-43.907526046497,0,0,0,0,0
-155,17.1996377979544,90.5487814147623,44.7749181034507,155,19.4316232996053,-93.7921338852369,-44.01368917556,0,0,0,0,0
-155,17.1253703376673,90.2942137218272,44.8404391069206,155,19.3829740895233,-93.5162453961261,-44.1199989954759,0,0,0,0,0
-155,17.2744115953737,89.9760606001146,44.855182226568,155,19.467832882144,-93.0715483498884,-44.1858035383873,0,0,0,0,0
-155,17.5078523990658,89.1553829590115,44.8735931884151,155,19.6853201774295,-92.4471061064249,-44.2190787077583,0,0,0,0,0
-155,17.8478021748723,88.1290283723471,44.9358569330406,155,20.0142004855061,-91.1389215998141,-44.3061954220585,0,0,0,0,0
-151.790423980071,18.2823428767368,85.7044431874447,45.1655417049897,155,20.3057652612998,-89.3768496064077,-44.5716943802736,0,0,0,0,0
-149.312340459219,19.097770792826,83.0443525222544,45.1669424379652,154.643841800798,21.099905876236,-86.780416786996,-44.5823088648993,0,0,0,0,0
-146.560940233469,20.3901409861834,79.5162229632392,45.2372205332465,151.687661995336,22.2711291981786,-83.5771726444134,-44.6377264507831,0,0,0,0,0
-141.977164328103,22.2264839149198,74.5582685555624,45.5728449381272,147.374309774334,23.8692027359378,-78.8556660312987,-45.0253252360646,0,0,0,0,0
-137.522099983517,24.6721334114731,69.6197563141399,45.8099274730553,142.784201348698,26.0754753053961,-73.7189074002348,-45.2747075994965,0,0,0,0,0
-133.179126467968,26.9976775004246,64.7617701516188,46.0873236729354,138.253093490919,28.0837366563415,-68.6200180354478,-45.7573417157359,0,0,0,0,0
-131.196001458575,29.0944410265607,59.7882108469994,46.3701240286874,136.256429217225,30.0173776816115,-63.5700536258448,-46.3044918717918,0,0,0,0,0
-128.376565137485,31.3025751658469,56.4813010564447,46.2344655773058,133.071848992827,31.8588361246032,-59.8780237205913,-46.5881541251267,0,0,0,0,0
-126.061999732784,33.2811247601573,53.7329739830468,45.7957803228427,130.420226974464,33.5779312730833,-56.7693005489574,-46.523373310591,0,0,0,0,0
-124.656583205027,35.4119963181512,51.8537549225736,44.8921978571149,128.793239635634,35.6243344563699,-54.6212690726961,-45.7749552192886,0,0,0,0,0
-122.566077636368,36.898754061113,49.4585018065843,44.7375853726814,126.416737119237,37.059147504812,-51.8864117604506,-45.850840966134,0,0,0,0,0
-120.493233810964,38.3060856171461,47.1323427768424,44.1466712188479,124.043209279863,38.3475964102738,-49.2282461725097,-45.2616589161454,0,0,0,0,0
-119.112363075227,39.8450030939034,45.456844794385,43.4275848873872,122.371337992247,40.2108755164709,-47.1262721859571,-44.5029446547964,0,0,0,0,0
-117.190282978692,40.9837855012058,43.4074540062513,43.5071744359687,120.157400392046,41.3782716805459,-44.7415874653668,-44.4623331338928,0,0,0,0,0
-115.472482209105,41.9433031171884,41.6260382573546,43.4137773992622,117.976827502059,42.5130907788504,-42.4498743854215,-44.6668078748127,0,0,0,0,0
-114.827127487082,43.1925882950061,40.7550770773816,42.7991599506313,117.169998167183,43.8935586186986,-41.3619736160328,-44.1175367723273,0,0,0,0,0
-113.440138734067,44.0147416349701,39.3514085402823,42.4165327904762,115.719768230348,44.8517657350036,-39.8376180643069,-43.7641719051634,0,0,0,0,0
-112.240824944208,44.7832002099726,38.1454933381521,42.2993584560051,114.193290371531,45.7250619778845,-38.3010286397956,-43.844656925551,0,0,0,0,0
-110.87596800538,45.7199331932273,36.7861080535074,42.1055149245343,112.764717019253,46.8560495887234,-36.8169417070832,-43.6443920274957,0,0,0,0,0
-109.799307541961,46.8295049920403,35.6537271447523,42.0664528813497,112.445489692482,47.5393886590886,-33.8519647125004,-43.4311095425106,0,0,0,0,0
-108.593539105238,48.0974235825813,34.413478641826,41.5821671564183,110.954429448324,48.8363754735711,-32.3401967760428,-42.8616255955215,0,0,0,0,0
-107.553524588941,48.6862463193695,30.9802265887815,41.5541859375127,109.227746206619,50.0886506738665,-30.7012859930294,-42.9144119646019,0,0,0,0,0
-106.302654054853,50.1314155285008,29.7375646304,41.201058557325,107.800240211141,51.6143147852299,-29.2860582918292,-42.5009362443687,0,0,0,0,0
-104.280895464291,51.3503678141287,28.0076236461701,41.3805791882949,106.369408486458,52.2050360756892,-25.6328210276936,-42.577420828167,0,0,0,0,0
-103.653926577062,52.0607474286724,24.9850831548566,40.7802362077697,105.189055100057,53.5666779845834,-24.5317129892511,-42.0377722159391,0,0,0,0,0
-102.570246010519,53.4832170291285,23.9986003068807,40.1859804977069,104.203721394276,55.0407450414325,-23.5820168855576,-41.4827457909846,0,0,0,0,0
-101.949206899418,54.8411531716059,23.376288016075,39.1079067480605,103.883834954074,55.6353727249859,-20.8120259060468,-40.4678219731471,0,0,0,0,0
-101.36165594221,56.2479439384489,22.7856567742752,38.1501120635423,103.375223052686,56.9392332292272,-20.2511148029468,-39.69365817057,0,0,0,0,0
-100.952872171814,56.8662485946485,20.0085859380516,37.1969858267431,102.67009573361,58.1493559642839,-19.6042990926798,-38.8726958116131,0,0,0,0,0
-100.196140836794,58.3697603231438,19.332656765208,36.5984083826437,102.380765376806,58.7443022489887,-16.8829877770988,-38.267790836788,0,0,0,0,0
-99.9995388693106,59.4507621810427,16.6321560265151,36.5984083826437,101.635067289362,60.1681534111264,-16.2114897072869,-37.8260116878207,0,0,0,0,0
-99.53011415832,61.0172059806131,16.1460560183666,36.5984083826437,101.211299624593,61.4734319405641,-15.7670063296002,-36.7988116315289,0,0,0,0,0
-99.5081689755657,62.4547624133031,15.9298636835059,36.5984083826437,101.068500537466,61.9709855028829,-13.1699601005246,-36.6758529160118,0,0,0,0,0
-99.5249571555348,63.3627191679416,13.3828296328669,36.5984083826437,100.734915465384,63.3133487412707,-12.7779354557196,-36.5984083826437,0,0,0,0,0
-99.3542060652742,64.8649711392029,13.0811003238871,36.5984083826437,100.540066165364,63.8813908832551,-10.1552317597205,-36.5984083826437,0,0,0,0,0
-99.457144234731,66.4035394901573,12.9024346470036,36.5984083826437,100.398749331041,65.1454066572899,-9.88249379467138,-36.5984083826438,0,0,0,0,0
-100.264463946898,67.3671932333073,10.676068099327,36.5984083826437,100.812594827083,66.0002196380727,-7.48814975374489,-36.5984083826436,0,0,0,0,0
-100.730044573476,69.0580960969248,10.5827166728388,36.5984083826437,101.10394205316,67.5898630243083,-7.33122203444147,-36.5984083826437,0,0,0,0,0
-101.117240969748,70.7630511384131,10.4283472133362,36.5984083826437,101.557729108166,69.198201145732,-7.21431485899514,-36.5984083826437,0,0,0,0,0
-101.26372586557,71.7453358926487,7.85237910015779,36.5984083826437,101.644926577526,70.2203804465434,-4.60192524900204,-36.5984083826437,0,0,0,0,0
-101.752115467733,73.2972210908022,7.71635037664556,36.5984083826437,101.985458638748,71.7918608521074,-4.40898389631075,-36.5984083826437,0,0,0,0,0
-102.50041396648,73.9628127754971,5.35226536084492,36.5984083826438,102.651070028601,72.4670490462033,-2.02061740802269,-36.5984083826437,0,0,0,0,0
-102.960454302416,75.2464037489419,5.20641748897096,36.5984083826438,103.054919906882,73.8256775106234,-1.84344788973328,-36.5984083826436,0,0,0,0,0
-103.915761830867,76.518175692688,5.16752594208879,36.5984083826437,104.069042360073,75.1627853105923,-1.80966781433645,-36.5984083826438,0,0,0,0,0
-104.46043938118,77.0373543465205,2.68841057398988,36.5984083826438,104.434243933263,75.6175401290975,0.695629226062376,-36.5984083826437,0,0,0,0,0
-104.801569075025,78.1390447206733,2.48523526876205,36.5984083826437,104.789689841838,76.7582408035718,0.90218007136907,-36.5984083826437,0,0,0,0,0
-105.031436094437,78.5472633193525,-0.0694727356278913,36.5984083826438,104.918066995284,77.2082329382426,3.48646438936037,-36.5984083826437,0,0,0,0,0
-104.969855183268,79.5237814885948,-0.338047817749327,36.5984083826437,104.809956890089,78.1825262304183,3.76113185264929,-36.5984083826437,0,0,0,0,0
-105.091122658108,79.8629778948746,-2.90580856722041,36.5984083826438,104.76078752711,78.5390241010038,6.35862946234102,-36.5984083826436,0,0,0,0,0
-104.88039995071,80.198051137473,-5.52542052783561,36.5984083826437,104.595778513496,79.526548844101,6.64009014473319,-36.5984083826438,0,0,0,0,0
-105.03872736695,81.0577999785295,-5.73201707386481,36.5984083826437,104.820852051144,79.7243963817639,9.15773857584726,-36.5984083826439,0,0,0,0,0
-104.872184303001,81.3056848055212,-8.31802231900796,36.5984083826438,104.570194986384,79.9207126546645,11.7393306600922,-36.5984083826438,0,0,0,0,0
-104.063343603324,81.3966200354734,-10.9197638002912,36.5984083826437,103.928462931963,80.7750331413572,12.0243655992438,-36.5984083826438,0,0,0,0,0
-103.881796841441,82.0650366372842,-11.1016281167267,36.5984083826437,103.668354945427,80.8947266061524,14.5690206915692,-36.5984083826437,0,0,0,0,0
-103.468051218333,82.0042017543542,-13.6074260796029,36.5984083826438,103.495739945419,81.5492627073342,14.7406864194703,-36.5984083826438,0,0,0,0,0
-103.117195972446,82.510499019055,-13.7500373646737,36.5984083826438,102.853485254555,81.5222370110475,17.2641458904533,-36.5984083826437,0,0,0,0,0
-103.006034955389,82.0565265997348,-16.1356062888283,36.5984083826437,102.780800212408,81.8550955009349,17.3442379110511,-36.5984083826437,0,0,0,0,0
-103.345801437921,82.091247935366,-16.124457990126,36.5984083826437,102.946414405726,82.0004731921068,17.3686746195924,-36.5984083826437,0,0,0,0,0
-103.722688079077,81.923360376161,-16.0620536400281,36.5984083826438,103.293125309892,81.9224781175703,17.3321162515612,-36.5984083826439,0,0,0,0,0
-104.022578078699,81.7859865408426,-16.009733904854,36.5984083826437,103.607554723911,81.7969146757819,17.2847518346747,-36.5984083826438,0,0,0,0,0
-104.049946257151,81.6885696848402,-15.9836125223367,36.5984083826437,103.787133514499,81.6466475476106,17.2377101501341,-36.5984083826436,0,0,0,0,0
-104.210056106922,81.5408183536353,-15.9358476386212,36.5984083826437,104.003825399456,81.4789397325001,17.1830042347351,-36.5984083826437,0,0,0,0,0
-104.384770471367,81.3711973861109,-15.8805605859405,36.5984083826437,104.171230675013,81.318350960088,17.1319597620819,-36.5984083826437,0,0,0,0,0
-104.439947976083,81.2464549527915,-15.8445307381882,36.5984083826438,104.015873685067,80.5548708541465,19.4508124078607,-36.5984083826437,0,0,0,0,0
-104.385748269276,81.1285972575303,-15.8182303866737,36.5984083826437,103.98052091752,80.3942751061064,19.413121488393,-36.5984083826438,0,0,0,0,0
-104.257658258015,81.0228790828399,-15.8009511852357,36.5984083826437,103.837604881412,80.2528706398357,19.3882859784878,-36.5984083826436,0,0,0,0,0
-104.062659184291,80.9349147352713,-15.7938795731422,36.5984083826437,103.677584566371,80.1966248876576,19.3862513707621,-36.5984083826438,0,0,0,0,0
-103.791118072396,80.8690034545917,-15.7989416768961,36.5984083826437,103.407284862486,80.1539498482461,19.396036204719,-36.5984083826437,0,0,0,0,0
-103.640719458443,80.8322644768102,-15.8019531763752,36.5984083826438,103.316488700927,80.1703971260372,19.4067093211618,-36.5984083826438,0,0,0,0,0
-103.648935136954,80.7600310378179,-15.7837563297024,36.5984083826437,103.280643494903,80.138369629234,19.4017959088454,-36.5984083826437,0,0,0,0,0
-103.827746018924,80.6584371340988,-15.744211000814,36.5984083826438,103.459547918434,80.0675450302966,19.3714163832727,-36.5984083826438,0,0,0,0,0
-103.843060208621,80.6258879018657,-15.7349171395932,36.5984083826437,103.481253861341,80.0434872358004,19.3639832364843,-36.5984083826437,0,0,0,0,0
-103.730709576619,80.6077691027834,-15.7399116119182,36.5984083826437,103.406702582875,80.0507232599569,19.3714275353282,-36.5984083826437,0,0,0,0,0
-103.726131381518,80.5906328220656,-15.7361126041907,36.5984083826437,103.416607912989,80.0672988426617,19.3746308302056,-36.5984083826437,0,0,0,0,0
-103.720363945967,80.6063559636807,-15.7404371698559,36.5984083826437,103.44295385253,80.0580217401216,19.3704009246417,-36.5984083826436,0,0,0,0,0
-103.65503963427,80.6105881971603,-15.7469612629591,36.5984083826437,103.443547025806,80.0804262064054,19.3757211085538,-36.5984083826436,0,0,0,0,0
-103.679848643363,80.6339559044653,-15.750562200309,36.5984083826437,103.430502182747,80.0928987978546,19.379696454797,-36.5984083826437,0,0,0,0,0
-103.623250943462,80.6168696280762,-15.7511541910977,36.5984083826437,103.436608821142,80.0988092251707,19.3806485767011,-36.5984083826438,0,0,0,0,0
-103.716381241794,80.6238142431342,-15.7450321611044,36.5984083826437,103.499516015414,80.1544423291202,19.3892702040025,-36.5984083826437,0,0,0,0,0
-103.772190472848,80.6265949550431,-15.7410336376033,36.5984083826437,103.543653145806,80.152804634186,19.385578922987,-36.5984083826437,0,0,0,0,0
-103.860407786493,80.6040476764828,-15.7280747039256,36.5984083826437,103.613010537903,80.1285354738937,19.3745063625654,-36.5984083826437,0,0,0,0,0
-103.713294911031,80.6056054405602,-15.7408490048058,36.5984083826438,103.448095390277,80.0751632929792,19.3741146091943,-36.5984083826438,0,0,0,0,0
