JMW9912/AVATAR/install/dynamixel_control/share/dynamixel_control/data/csv/poppy/.data/251119_2030_GEO/1119_2030_gymnast_2_poppy_humanoid_arm_margin_0.95_motor_degree.csv
theta1,theta2,theta3,theta4,theta5,theta6,theta7,theta8,theta9,theta10,theta11,theta12,frame
-101.617279829227,84.8593595622831,-4.79195131987796,36.5984083826437,101.505200780997,85.2314971717399,4.81781158085993,-39.9004475462295,0,0,0,0,0
-106.63084609137,85.2117256863528,-4.24417909328735,36.5984083826438,104.955204149051,85.39704690218,5.64700126333676,-36.5984083826438,0,0,0,0,0
-107.641670578659,86.2962263866811,-1.99093967150598,36.5984083826437,106.155852631843,86.6837074317086,3.44165938605607,-36.5984083826437,0,0,0,0,0
-107.852080914077,85.9840918976937,-1.87902215209823,36.5984083826438,106.375322433822,86.4359124712768,3.36005123006975,-36.5984083826437,0,0,0,0,0
-108.664469283147,86.7472987841925,0.461088074645989,36.5984083826437,107.167968366936,86.5628635388506,3.36337371050978,-36.5984083826437,0,0,0,0,0
-108.48188094252,86.7162378576534,0.460526166770288,36.5984083826437,106.94839936138,86.5969871927981,3.38319805913722,-36.5984083826437,0,0,0,0,0
-108.251480805114,86.7018169246547,0.451382006385731,36.5984083826437,106.730666960673,86.5809587226853,3.38757478584938,-36.5984083826437,0,0,0,0,0
-107.509320178419,86.6346410674562,0.427829943142948,36.5984083826437,106.145019852496,86.5359051000735,3.39933952081106,-36.5984083826438,0,0,0,0,0
-106.313604351939,86.5686604618,0.374305153998134,36.5984083826437,105.183928791788,86.4275761081496,3.41115852249914,-36.5984083826437,0,0,0,0,0
-104.837274572428,86.6162047437228,0.27122745026273,36.5984083826437,103.812024764583,86.3341317181483,3.44913525178279,-36.5984083826437,0,0,0,0,0
-101.790248384889,86.037684506759,-2.61664706009074,36.5984083826437,101.266677230185,85.8204485185581,5.07349880664491,-36.5984083826437,0,0,0,0,0
-92.9997549304995,85.3269026952633,-7.45093028330443,36.5984083826437,93.2916414576158,84.8392800809252,9.79636036807842,-38.6993761059593,0,0,0,0,0
-83.6805340421298,83.2421391343571,-14.233530740714,51.0222807924934,83.5940549574111,82.2173259423421,16.4297443310321,-53.0861763383169,0,0,0,0,0
-67.8160498083334,80.3542715211936,-20.9784087720598,48.5947816740963,66.5328855906883,79.4246976597761,23.2318733370729,-49.8418143101221,0,0,0,0,0
-51.4341158570581,84.0836127831841,-27.2802610093559,39.2392794428267,49.4268714928635,83.5896270324603,29.6659526093899,-39.4870934630463,0,0,0,0,0
-33.5029653410178,83.5544380469242,-34.6178568142082,36.5984083826437,32.1115756173623,83.6134506586359,37.1248801376503,-36.5984083826437,0,0,0,0,0
-24.8194228547198,83.420303348522,-42.0516123070316,36.5984083826437,23.6857949260462,84.409314656152,44.7322246037441,-36.5984083826437,0,0,0,0,0
-15.8910991767453,84.9927675408449,-39.6253788180192,36.5984083826437,15.0162620960889,86.2839572723954,43.7058254120258,-36.5984083826438,0,0,0,0,0
-9.76843652187917,87.2385848906757,-34.4496585745498,36.5984083826437,9.0148763973816,88.2293238849296,38.2333275401458,-36.5984083826437,0,0,0,0,0
-8.41246779430483,89.2072147911219,-29.666660124138,36.5984083826437,7.94427683407065,89.7067240427663,33.35583659413,-36.5984083826437,0,0,0,0,0
-6.55270700763311,91.194945835053,-27.2245558249883,36.5984083826437,6.0400560911691,91.1339443518379,30.7810391425345,-36.5984083826437,0,0,0,0,0
-4.1773553506378,93.0284074333242,-24.6223690720573,36.5984083826438,3.97881645634213,92.3424058847015,29.3688210858948,-36.5984083826436,0,0,0,0,0
-2.27269389859558,94.0077479399995,-22.4170353547647,36.5984083826438,1.91403748574802,93.1761678979008,27.1268194922716,-36.5984083826437,0,0,0,0,0
-0.45620390343782,94.142138227803,-22.4538700345247,36.5984083826439,0.22694853148148,93.1764415903657,27.1268915397521,-36.5984083826437,0,0,0,0,0
0.549334771901462,94.038437614415,-22.4254458850006,36.5984083826438,-0.784893826395774,92.9985888546846,27.0800813202571,-36.5984083826437,0,0,0,0,0
0.744977791133988,94.1266970960482,-22.4496371632905,36.5984083826437,-1.01965059064745,92.9909864820182,27.0780807599085,-36.5984083826438,0,0,0,0,0
0.338378940831825,94.0931671814248,-22.4404462083995,36.5984083826437,-0.387955214241865,93.5426724961874,24.7605471787789,-36.5984083826438,0,0,0,0,0
-1.90588073481371,94.4084395600811,-20.0521794149752,36.5984083826439,1.70790791657778,93.1402001247455,24.6523943378027,-36.5984083826436,0,0,0,0,0
-6.00241803503644,93.8823494583876,-19.9056433152277,36.5984083826437,5.56638178876372,92.5600514434941,24.4966451265574,-36.5984083826438,0,0,0,0,0
-9.82246087400347,94.1330585567935,-18.4066294109457,36.5984083826437,9.17154743085926,92.3402259415518,24.1285214849712,-36.5984083826437,0,0,0,0,0
-11.6984078155057,93.7812448770706,-18.6389790032312,36.5984083826437,11.0217499796277,91.9865756202465,24.3534772670146,-36.5984083826437,0,0,0,0,0
-17.8105311021338,89.8424894457211,-26.0124746812718,36.5984083826437,17.327121524373,88.4786381176329,29.3497283468966,-36.5984083826437,0,0,0,0,0
-23.5089406458193,89.6530428723884,-26.2014433109667,36.5984083826437,22.7455280231344,87.8592183702546,30.6992779962852,-36.5984083826437,0,0,0,0,0
-31.906085389887,88.2410541689934,-25.8307794534523,36.5984083826437,31.2614283489588,86.8974405607005,27.9706934215737,-36.5984083826437,0,0,0,0,0
-44.6791019743886,86.1731023664832,-22.784329540037,36.5984083826437,44.3884192670859,84.8157349743997,24.9282499906207,-36.5984083826436,0,0,0,0,0
-60.047127611639,84.2219509082625,-17.2221038290975,36.5984083826438,59.5271292844929,83.0491992683082,19.4176129318734,-36.5984083826437,0,0,0,0,0
-77.7603057456964,83.1734687481228,-6.82141661455735,36.5984083826437,77.518873513784,81.8623661326,8.96511241082425,-36.5984083826436,0,0,0,0,0
-92.5225527006846,84.0647130083915,5.51567539341432,36.5984083826437,92.4761036216166,82.211548010776,-1.03506029603443,-36.5984083826436,0,0,0,0,0
-104.109314947399,84.5518106682882,18.1862953645735,36.5984083826437,104.134925142894,83.3613360504283,-14.7423952896642,-36.5984083826437,0,0,0,0,0
-110.904032976573,83.9572176219724,30.0568823142321,36.5984083826437,111.416428434547,83.0877470542269,-26.6302530865736,-36.5984083826437,0,0,0,0,0
-115.451196134202,80.6772203889681,38.0917302001933,36.5984083826438,116.76876453002,79.9817569647512,-34.9221467888777,-36.5984083826438,0,0,0,0,0
-121.576314131743,79.6023791055577,43.8511333163257,36.5984083826437,122.796389600835,78.9539047477216,-40.6795671439472,-36.5984083826437,0,0,0,0,0
-126.503385994217,78.7231374607514,46.8093376672489,36.5984083826438,127.342474053018,79.0897762697211,-45.8029664187088,-36.5984083826437,0,0,0,0,0
-131.428235833775,79.5107917587139,50.3525397768662,36.5984083826438,132.22819174585,79.7878466424787,-47.9789509814186,-36.5984083826437,0,0,0,0,0
-134.064001494852,80.4463184714131,50.1645338107914,36.5984083826437,134.063385718048,81.8113495598107,-49.8920682071603,-36.5984083826437,0,0,0,0,0
-134.97511251952,82.2826715083285,52.1286350239958,36.5984083826438,135.042904244322,83.4622470042274,-49.5650476359764,-36.5984083826436,0,0,0,0,0
-134.952264010657,82.9872068358431,49.6588965288409,36.5984083826439,134.781733665022,84.4407871318971,-47.0116467906409,-36.5984083826437,0,0,0,0,0
-131.552777636644,84.3883152555479,47.0224436693579,36.5984083826438,131.259296996703,85.6078493177382,-44.3909092570848,-36.5984083826437,0,0,0,0,0
-125.862018868071,83.5878606757996,40.0653373839272,36.5984083826439,125.855137389202,84.60626042954,-37.4265256724019,-36.5984083826438,0,0,0,0,0
-118.932385983307,83.11285470607,32.7423450334837,36.5984083826439,119.094465718952,84.2508054589215,-32.6790829270189,-36.5984083826438,0,0,0,0,0
-113.592838237875,84.7907127096821,27.7916531746479,36.5984083826437,112.930394902084,84.8118412719814,-26.3159120743677,-36.5984083826437,0,0,0,0,0
-106.176957643513,85.4039803243445,20.8520319646874,36.5984083826437,105.828388601744,85.2837100222721,-19.5609697719104,-36.5984083826438,0,0,0,0,0
-97.9834119381721,84.6464279562658,10.3588540461859,36.5984083826437,97.2122446098549,83.973256474243,-8.0517759257061,-36.5984083826436,0,0,0,0,0
-84.9940113832485,80.2747374100551,-5.54065615744032,43.5810023519904,83.823478196433,79.2255957705805,7.5580851825379,-46.661706081857,0,0,0,0,0
-64.5707562696642,83.3670594625746,-16.9998901929542,62.561931888165,63.692102408571,81.8054536778839,18.9612757280372,-64.4588690917382,0,0,0,0,0
-28.7401769604562,78.7054803703759,-30.8377296904188,54.3506745851271,28.1549055955147,77.4512056323009,30.3569246835079,-54.6556728732417,0,0,0,0,0
-6.73232074182912,83.644775576117,-37.132137902337,36.5984083826437,5.63945105954321,82.1367204799074,39.2807220072196,-36.5984083826436,0,0,0,0,0
-0.307567219797973,88.1567344315953,-30.7738274753817,36.5984083826436,-1.24037634324372,86.3579270268823,35.2858904567478,-36.5984083826438,0,0,0,0,0
9.91136016697068,88.4156343606579,-28.3609034289399,36.5984083826439,-11.2374754719766,86.3749707597378,32.8115425131166,-36.5984083826437,0,0,0,0,0
16.4781529914055,89.4131806186605,-26.1384974873205,36.5984083826437,-17.4379526934248,87.6383523501227,30.6439158677255,-36.5984083826437,0,0,0,0,0
23.1685267964956,89.4082198651361,-26.1371956110894,36.5984083826437,-24.0138229729644,87.7216832381847,30.6648055733466,-36.5984083826437,0,0,0,0,0
28.3264474588792,90.8313930915715,-24.0332979891979,36.5984083826437,-28.8054743585441,89.1020356700155,28.5370962164534,-36.5984083826437,0,0,0,0,0
30.1998316302044,92.4131887213395,-21.9808276404139,36.5984083826438,-30.5657987234904,90.7463563111149,26.4883484316389,-36.5984083826437,0,0,0,0,0
31.5331381320056,93.2380377330292,-22.2062964892375,36.5984083826438,-31.9670412833042,91.6213544583935,26.7180596523707,-36.5984083826438,0,0,0,0,0
32.2029404231175,93.9400341662556,-22.3984806490783,36.5984083826438,-32.691369831064,92.3097747313781,26.8989279371517,-36.5984083826437,0,0,0,0,0
32.6967219793978,94.1441616096242,-22.4544247160572,36.5984083826439,-33.1424322143264,92.4183597842804,26.9274716041422,-36.5984083826439,0,0,0,0,0
33.807123184796,93.2365247211942,-24.6782705173432,36.5984083826437,-34.208610174608,91.4228755407088,29.1326350180804,-36.5984083826438,0,0,0,0,0
34.3146922757556,92.8381980725446,-24.5712972962573,36.5984083826437,-34.8106090138768,91.0034683321546,29.0249802779967,-36.5984083826437,0,0,0,0,0
34.5492036244794,92.5833804637056,-24.502905095091,36.5984083826438,-35.4298092257322,90.0963145943968,31.2593912808945,-36.5984083826437,0,0,0,0,0
34.6344419004763,92.3106308140416,-24.4297314195929,36.5984083826438,-35.4694996685515,89.8589639905789,31.1999917909785,-36.5984083826437,0,0,0,0,0
35.1989935309804,91.3040912767029,-26.6347513702717,36.5984083826436,-35.5617302286807,89.4593880489089,31.0999897965173,-36.5984083826437,0,0,0,0,0
34.4407502200354,91.132222409892,-26.5896307396213,36.5984083826439,-34.9034735860612,89.4044287381671,31.0862342765882,-36.5984083826439,0,0,0,0,0
32.610860677918,90.8078504071649,-26.504487952307,36.5984083826437,-32.9694027293044,88.9142025145796,30.9635221818727,-36.5984083826437,0,0,0,0,0
29.6144231404666,90.3663239494366,-26.3886153798235,36.5984083826437,-30.1799226614379,88.546069848471,30.8713462374151,-36.5984083826437,0,0,0,0,0
21.3813975107938,91.0214026755276,-26.560540288394,36.5984083826437,-21.8120914901626,89.3144907453324,28.5916151575784,-36.5984083826437,0,0,0,0,0
17.4797944509148,91.4186600017865,-21.7093458518556,36.5984083826436,-18.6176919097282,89.0516908610132,26.0436223017244,-36.5984083826437,0,0,0,0,0
-2.85489150886104,91.224178003641,-16.6730023549437,36.5984083826437,1.50375030025355,88.0668440744616,23.2928029009639,-36.5984083826437,0,0,0,0,0
-21.6657344421903,87.9312973418135,-20.7581740585012,36.5984083826437,20.6673638035265,85.3643142102033,25.0733010818827,-36.5984083826437,0,0,0,0,0
-31.9373853512551,87.2770893718913,-20.5794772351702,36.5984083826437,30.7038974327229,85.0382820068675,24.9871240308417,-36.5984083826437,0,0,0,0,0
-47.4503752870647,85.4276957757147,-15.0419889930434,36.5984083826437,46.3603789149031,83.3173253721343,19.4918021793665,-36.5984083826437,0,0,0,0,0
-68.2547181741658,81.8118429586173,-6.42043283100534,36.5984083826437,66.684084759142,79.7757136707367,10.8867533763273,-36.5984083826437,0,0,0,0,0
-90.0137209455604,82.5031731741375,10.987036088118,36.5984083826438,88.6743581182719,80.1153112008529,-4.18144460986895,-36.5984083826439,0,0,0,0,0
-103.307806056705,84.5492902529318,28.01721208778,36.5984083826437,103.202485458398,81.9382317028929,-19.865250564275,-36.5984083826437,0,0,0,0,0
-110.386039611584,82.221458341634,43.5027803985515,36.5984083826438,110.953704142706,81.0079776660519,-37.6492572850393,-36.5984083826437,0,0,0,0,0
-115.330534086366,73.5250862167254,49.0986839302404,36.5984083826436,116.63421654473,73.9611402432721,-45.6332072407869,-36.5984083826437,0,0,0,0,0
-124.242436881725,72.9202481220931,58.1420573998082,42.8286573004399,125.421220667021,73.9680606949663,-54.1109283493895,-42.7589547104441,0,0,0,0,0
-131.629924064258,71.5237860194727,61.1979573523436,38.7791153117762,131.881186360918,73.0013945271038,-58.8848919177631,-38.6353106336262,0,0,0,0,0
-137.494405022143,68.1916574567923,71.6603849210107,37.8219713049173,137.392820015868,70.1272611744162,-68.5651801473582,-37.5079589826346,0,0,0,0,0
-140.985743791163,67.1164395004111,78.4474615874355,37.2378491869066,141.2053117598,70.0114684015708,-73.8848610257818,-36.5984083826437,0,0,0,0,0
-142.215744630641,68.2475524006262,77.0430222561258,39.0758438582062,141.47802301725,70.6873731303381,-74.532440122443,-36.5984083826436,0,0,0,0,0
-142.101021870283,70.7922130321157,73.0531698364926,39.0859911033261,141.516007138972,73.676624894517,-69.1896491173479,-36.5984083826437,0,0,0,0,0
-139.584868765509,74.1507671119688,64.8231033442805,37.0091257181052,138.81397182297,77.366882507615,-62.0872355576637,-36.5984083826437,0,0,0,0,0
-134.873730265782,76.90416345545,57.9743859559356,38.9930544248924,134.565430673383,80.1256517407009,-54.8368868073644,-36.5984083826437,0,0,0,0,0
-127.334816913499,78.0839220623028,47.9872666303989,39.0653174343088,126.596820922133,80.2278648041555,-45.5529170150789,-36.5984083826437,0,0,0,0,0
-116.957441804765,78.9571559341354,36.9210620037899,38.7036600003864,116.622196604007,81.2625182848423,-36.9195176795534,-36.5984083826437,0,0,0,0,0
-109.782008941576,82.4964233384742,30.2777039047173,36.5984083826437,109.973501150525,83.7241654797974,-28.6081207506311,-36.5984083826437,0,0,0,0,0
-102.394179453016,85.8491288269446,22.5509921296973,36.5984083826438,101.901161030275,85.8000400523959,-18.7583129308548,-36.5984083826438,0,0,0,0,0
-94.3741842940689,87.1300841558441,9.63650141940971,36.5984083826438,93.5485190779965,87.2853039313962,-7.08206781840593,-36.5984083826437,0,0,0,0,0
-77.2048043992651,83.5765273540377,-11.8592639157902,43.2692945505627,75.902709094753,82.1315086827284,13.8903865977607,-45.2383571081228,0,0,0,0,0
-46.7159586061877,86.0152503224977,-25.4725927603261,44.7856153585519,43.2017731304651,84.696193031723,27.5842783978209,-44.7114835629023,0,0,0,0,0
-20.4972803725455,86.6476876612799,-35.3546366177791,36.5984083826437,18.5380214089369,85.5601364477344,38.7981203341981,-36.5984083826436,0,0,0,0,0
-8.85912817645674,89.4089046705124,-27.2992765899334,36.5984083826438,7.7985011796233,88.060557275691,30.6544545255586,-36.5984083826437,0,0,0,0,0
11.2094451125815,89.0266218630155,-28.5177424856647,36.5984083826437,-12.2568840468523,87.5762627245972,33.1049265320308,-36.5984083826438,0,0,0,0,0
17.1042762201244,89.9859163404583,-23.806884809597,36.5984083826437,-18.5938964640315,87.9246625054019,30.7156789427025,-36.5984083826439,0,0,0,0,0
24.9835795719179,87.4304582023467,-25.6177558883034,36.5984083826437,-26.0951417709591,85.7602852794321,30.1722541810492,-36.5984083826435,0,0,0,0,0
30.7683043881096,87.7271303591632,-23.2017089357908,36.5984083826438,-32.2011772644017,85.1624945481788,30.0216771712031,-36.5984083826438,0,0,0,0,0
34.0592505491312,87.8254124417669,-20.7292632521852,36.5984083826439,-35.004518089856,85.2148325942283,27.5368459465112,-36.5984083826438,0,0,0,0,0
36.464472687137,86.0914581869369,-20.2550752140768,36.5984083826438,-37.1260136930412,83.3397714914308,27.0507363394634,-36.5984083826439,0,0,0,0,0
37.5903852327181,83.0498977571439,-19.417806313153,36.5984083826437,-38.2951867222188,80.2063086637609,26.2292092716711,-36.5984083826437,0,0,0,0,0
38.7956598952048,77.6681952685894,-20.4546437421357,36.5984083826437,-39.7811427407676,74.3825738083264,29.7923449762268,-36.5984083826437,0,0,0,0,0
40.7978219175937,67.895698513297,-25.4015562673923,36.5984083826437,-41.830409550052,64.9443814745633,32.4528719964039,-36.5984083826436,0,0,0,0,0
43.4276736740645,53.6940240574708,-28.8851681956703,36.5984083826438,-44.8658203516439,50.3565599851738,36.8400979154818,-36.5984083826437,0,0,0,0,0
45.9184698723757,40.141481531234,-26.8094458802067,36.5984083826438,-47.1447775735486,36.6153757622418,35.0305847378361,-36.5984083826437,0,0,0,0,0
46.7552265725107,22.8061327004504,-26.9270330614859,36.5984083826437,-49.0855391782119,19.353627161952,36.7047123020747,-36.5984083826437,0,0,0,0,0
44.7559934730128,6.22929464333601,-24.8026010508764,37.3861149484838,-56.6876642714835,2.23573175661338,46.9949643322,-36.9905964556083,0,0,0,0,0
-121.496424246452,10.8266015015655,105,38.4432079060972,126.651304148444,14.3509542715402,-105,-38.4007587588616,0,0,0,0,0
-113.827227001572,28.0187063505638,105,41.4520695246017,116.404773686385,30.5975823173983,-105,-41.0222148806329,0,0,0,0,0
-109.783440685796,44.5008978761051,92.4899324853016,43.229894500668,112.887842662931,46.2890657016266,-91.2839444720769,-42.0708572905473,0,0,0,0,0
-109.625894281128,59.2859559510379,81.2729180100786,38.1599742899515,112.105268309899,59.995215091276,-79.19216116657,-37.7962467739125,0,0,0,0,0
-104.383854518226,70.5922944124762,64.5399081435996,36.5984083826436,106.867403395177,70.714348774032,-62.1454487929114,-36.5984083826437,0,0,0,0,0
-103.265409399927,81.1267166666464,54.0005771070541,36.5984083826438,104.511221170328,80.5486504627545,-50.8108932062147,-36.5984083826438,0,0,0,0,0
-99.0121092642253,88.5350232458985,43.7156841612569,36.5984083826438,99.5992923106985,87.1890718031903,-37.8517661324896,-36.5984083826437,0,0,0,0,0
-90.1665140847968,91.4362589944858,23.4259792580049,36.5984083826438,91.0702354372244,89.7991242077367,-18.8840722128472,-36.5984083826437,0,0,0,0,0
-79.136500118184,92.6197475885308,5.52898161339799,36.5984083826437,79.3288241148302,90.6933890468703,-1.05581183833846,-36.5984083826437,0,0,0,0,0
-59.086314359541,91.513635092631,-6.73214106451593,36.5984083826437,58.5202680810442,89.7712867459281,8.73953995802107,-36.5984083826437,0,0,0,0,0
-39.557663907339,94.1179053056049,-12.5010130222229,36.5984083826437,38.9370879469739,91.1320155258793,16.6471043473164,-36.5984083826437,0,0,0,0,0
-29.9984294256939,94.8446333967088,-12.7109179314553,36.5984083826437,29.3806978970729,91.3988857631388,19.216030203952,-36.5984083826437,0,0,0,0,0
-19.4053713026036,94.4923369172048,-22.7059624947273,36.5984083826437,18.4959161655774,91.7001400849684,28.0019378068944,-36.5984083826436,0,0,0,0,0
-10.4638807542624,96.6621093239412,-18.9713226623538,36.5984083826437,9.51370962539932,93.7692645369929,24.4201878875364,-36.5984083826437,0,0,0,0,0
-7.60227784795913,97.6653135803182,-13.677637434987,36.5984083826438,6.86440298238699,94.8118038058515,19.2214312309566,-36.5984083826437,0,0,0,0,0
-4.12219607392785,98.8596965921256,-13.0774967706032,36.5984083826438,3.34884880483343,96.4538855658008,18.1498821032486,-36.5984083826437,0,0,0,0,0
-3.71695859908589,100.089956359147,-9.25914068727165,36.5984083826437,2.83903957259665,97.2076932979289,15.8848965740872,-36.5984083826437,0,0,0,0,0
-3.45135487781045,100.047262934031,-9.24631143601596,36.5984083826438,2.61589901355741,97.2186039853,15.8880491812699,-36.5984083826438,0,0,0,0,0
-3.6848704542452,100.526496363512,-6.88664017226126,36.5984083826438,2.87575414540883,97.6927325621195,13.5387686159017,-36.5984083826436,0,0,0,0,0
-5.21521875583917,100.718727553773,-6.32792733343148,36.5984083826437,4.19640447451817,97.8278882242952,13.578308335266,-36.5984083826437,0,0,0,0,0
-6.85913493767651,100.617866382828,-6.66859952034803,36.5984083826437,5.80071425942158,97.5249813855211,14.5059479218779,-36.5984083826437,0,0,0,0,0
-10.0169534657728,100.689396120579,-4.92234671377567,36.5984083826437,9.20941389250378,97.3152137426263,12.7242996384022,-36.5984083826437,0,0,0,0,0
-17.2667697832452,96.3971644157911,-12.733637965068,36.5984083826437,16.1423602403589,94.0031535885468,18.1514308630228,-36.5984083826438,0,0,0,0,0
-25.1720949582287,94.9392502045477,-12.7382797159014,36.5984083826436,23.8998969024074,92.2394859201409,19.4491454326028,-36.5984083826437,0,0,0,0,0
-35.2774556803592,94.0579597249835,-9.98145217795293,36.5984083826437,34.2148545992363,91.3117186369894,16.6976033183459,-36.5984083826437,0,0,0,0,0
-49.7801211993635,91.0685680304079,-6.60259131931658,36.5984083826437,49.1160703821072,88.2169539245217,13.3181745312381,-36.5984083826437,0,0,0,0,0
-65.9005699419919,87.6225153913333,1.95482518176532,36.5984083826437,65.9588366057712,85.4554734933828,2.44562921804949,-36.5984083826438,0,0,0,0,0
-83.0519180319574,84.2261621626437,20.4335660241563,36.5984083826437,84.3009319282852,82.343612987432,-16.01467847105,-36.5984083826436,0,0,0,0,0
-93.4027526749884,76.4820857654711,43.1552228193428,36.5984083826438,95.6751651428332,74.9392417845824,-38.1409391377972,-36.5984083826438,0,0,0,0,0
-102.337519870941,64.8664081775965,61.8586714037875,39.2794878166675,104.521278469778,64.6255761123611,-59.567764005825,-39.3929391872527,0,0,0,0,0
-114.996109741091,55.1922334817916,79.2482792522698,39.589988208456,116.249436773151,55.7136901886338,-78.8987200708366,-39.4975240637822,0,0,0,0,0
-120.246809605478,44.2963323858596,92.4969322600328,41.0878768326865,122.434561527755,44.8623449887073,-90.6525042394094,-40.834463009677,0,0,0,0,0
-130.949769672198,33.0750633082472,105,39.1556979593108,133.278363130861,33.914431217075,-105,-38.6443865479106,0,0,0,0,0
-146.073427334042,24.6174456921114,105,36.5984083826437,148.436336035116,26.2748413309357,-105,-36.5984083826437,0,0,0,0,0
-155,17.6353414923187,105,36.5984083826438,155,19.9131030712361,-105,-36.5984083826437,0,0,0,0,0
120,15.70108360755,-105,36.5984083826437,-120,17.0042411907815,105,-36.5984083826437,0,0,0,0,0
100.069903358019,21.254695173407,-92.0471568108788,36.5984083826438,-109.078866308533,19.8323148119766,105,-36.5984083826438,0,0,0,0,0
82.5672969002924,32.8167433672869,-66.0303765453392,36.5984083826439,-88.8029286306866,29.7126419944533,81.5834599106066,-36.5984083826439,0,0,0,0,0
73.5850441697101,45.4434788190293,-52.5775536306107,36.5984083826437,-76.5007342772583,42.037031065557,64.8418140900138,-36.5984083826438,0,0,0,0,0
66.6786032699525,56.8353627283574,-42.746705623056,36.5984083826438,-67.0044271691505,53.989511847325,50.8308203353584,-36.5984083826438,0,0,0,0,0
62.4304269394179,65.5326400664677,-37.3540093192687,36.5984083826437,-62.1815179511238,62.6899644425061,45.1944633258803,-36.5984083826439,0,0,0,0,0
58.5109080481117,71.6066498108352,-34.2294009724515,36.5984083826439,-58.3012793520191,68.8727002123058,41.3589183998932,-36.5984083826437,0,0,0,0,0
55.7889401767877,75.5967916392307,-30.1099768717294,36.5984083826438,-55.8267341477985,72.2879916845637,39.5651046426177,-36.5984083826436,0,0,0,0,0
51.1859556540563,79.9151705906201,-28.6842235633745,36.5984083826439,-51.0049462946209,76.7192405493838,38.0407787851983,-36.5984083826438,0,0,0,0,0
42.1492799838555,85.6566723734271,-25.1505072755127,36.5984083826437,-41.4629168123834,82.8314697927365,31.9404231841112,-36.5984083826437,0,0,0,0,0
24.567384276065,92.360965988583,-21.9665633565256,36.5984083826439,-24.2986385738028,89.5712007558723,28.6574840106783,-36.5984083826437,0,0,0,0,0
14.4452370567744,96.6906155588596,-13.246386384219,36.5984083826437,-15.1135832392671,93.1058013180978,22.1701271317634,-36.5984083826436,0,0,0,0,0
3.35688958521262,99.1187832572293,-11.4666320494188,36.5984083826439,-3.3759362552927,95.9944786873974,18.0192468646319,-36.5984083826437,0,0,0,0,0
-9.92566973443227,96.5503036321387,-16.3932033818846,36.5984083826437,9.5830497860253,93.6131774965367,21.9535994292666,-36.5984083826437,0,0,0,0,0
-21.7644325926101,94.2098635597773,-15.2776195208418,36.5984083826437,21.2971634373591,90.63216536197,22.882269698082,-36.5984083826437,0,0,0,0,0
-36.9877573832252,94.8441764397441,-7.70447804975912,36.5984083826437,37.0068539242469,91.8128224930475,14.3404957167027,-36.5984083826437,0,0,0,0,0
-57.3456414243278,93.2926659410123,2.81304105082917,36.5984083826437,57.7133843683923,90.5178287685563,3.92701012733141,-36.5984083826438,0,0,0,0,0
-79.6632517243399,90.9820892835995,16.0532229066818,36.5984083826437,80.8617628936099,88.2634692296552,-9.30812118994806,-36.5984083826437,0,0,0,0,0
-94.8582966994863,92.1373733257125,35.6424693007192,36.5984083826438,96.6725183051192,90.2294507932256,-28.7086312558646,-36.5984083826437,0,0,0,0,0
-103.340696761329,89.101190779912,49.6448657292344,36.5984083826437,105.347508001462,88.3082514301895,-43.9655922276546,-36.5984083826438,0,0,0,0,0
-110.668024825779,81.5195581810323,56.8741084148738,36.5984083826437,112.374348774506,81.2575641932311,-53.7624993128937,-36.5984083826437,0,0,0,0,0
-115.646829848887,73.1755521857873,62.6517996167942,36.5984083826436,117.248064203812,73.9816961565971,-61.9405553543495,-36.5984083826437,0,0,0,0,0
-125.563432284242,71.9769486625426,69.8737755625232,36.5984083826437,126.617627157655,72.0561038783507,-69.2404410602016,-36.5984083826438,0,0,0,0,0
-132.151609486509,69.3142929427165,76.9629624388228,36.5984083826437,132.565861956244,69.7213027923761,-75.6604172761502,-36.5984083826437,0,0,0,0,0
-137.531588933,68.7960729693343,87.0757497340048,36.5984083826437,137.908282854711,69.7966300677928,-86.7061832448542,-36.5984083826437,0,0,0,0,0
-139.341300652715,69.5371703606267,92.0242063168933,36.5984083826436,139.910664717391,70.0743012449758,-91.5064418012443,-36.5984083826438,0,0,0,0,0
-140.346550888258,70.6375269743231,90.8798220160623,36.5984083826437,140.82758801205,71.5791666910609,-90.5254363955847,-36.5984083826437,0,0,0,0,0
-138.401492092172,73.9498762714912,88.4072562405354,36.5984083826437,138.76728125376,75.0099709187925,-88.3971129488186,-36.5984083826436,0,0,0,0,0
-135.61936208918,75.983504754468,77.6132315289629,36.5984083826437,135.969863540896,76.6258578646585,-77.5672235091713,-36.5984083826437,0,0,0,0,0
-129.616404927661,77.0390447291458,68.7835131643152,36.5984083826436,130.330780827788,78.1703591341857,-68.649477046696,-36.5984083826437,0,0,0,0,0
-122.906927949927,78.961760396922,58.56712709986,36.5984083826437,123.33821922452,79.0686160851787,-57.3681314090027,-36.5984083826437,0,0,0,0,0
-114.874403926296,80.8749501221159,48.3727320098181,36.5984083826437,114.9976814117,80.5692487742781,-47.2342121976406,-36.5984083826437,0,0,0,0,0
-106.038437389573,83.4529620333037,39.1218582509997,36.5984083826437,106.219530582391,82.3699848926127,-35.6632113184529,-36.5984083826436,0,0,0,0,0
-109.416299329724,77.938198435187,16.3504068751723,38.879085182132,109.874065297298,80.2812148479796,-19.5061891444781,-36.5984083826439,0,0,0,0,0
-113.228526508644,73.6560115925597,16.6724781030856,44.9474923994681,110.869450784212,79.3810045767665,-17.5329837857894,-36.7329004314598,0,0,0,0,0
-113.191713221953,68.1922870626438,29.2100543236836,47.0799498497319,110.147087249901,78.5612652873425,-20.1985796118987,-37.8835617720406,0,0,0,0,0
-111.760375563024,60.7753373776399,43.7956372702864,50.0986816360478,111.541480013883,78.3118950972528,-23.2980777773845,-36.5984083826437,0,0,0,0,0
-112.701181525392,56.2397824052225,58.8912538141104,46.6823204100108,112.765583950447,79.3936536420051,-31.0914898409223,-36.5984083826438,0,0,0,0,0
-111.987047284967,49.3065000349746,70.3979610131147,46.3466058952916,112.443211304633,79.0160127754005,-33.7339715279745,-36.5984083826436,0,0,0,0,0
-115.157496597306,41.069557479084,85.5003512098343,44.6887093586532,113.509499413721,78.2228752599191,-37.0775278710457,-36.5984083826436,0,0,0,0,0
-114.122837616325,27.4973766511214,88.499370237004,46.7371689009525,113.116501504762,77.1450197750907,-37.3496029542349,-36.5984083826436,0,0,0,0,0
-116.128065532076,17.6423320040069,95.9304929008381,45.4928530377689,111.411018278133,76.2461533282437,-39.5646345440757,-36.5984083826437,0,0,0,0,0
-133.64478841162,8.17968612598563,105,43.0832387065486,112.059106332853,74.9588088313675,-40.3279578904565,-36.5984083826438,0,0,0,0,0
120,3.07203688105763,-105,40.7405652935475,110.648946918586,71.986617096061,-43.2695520807239,-36.5984083826437,0,0,0,0,0
94.9911087688669,8.79904665223495,-105,37.5008318901803,108.465734612927,67.6247585817456,-43.4092793895267,-36.6334164244329,0,0,0,0,0
87.1742761707928,13.5042439307417,-96.24876123136,36.5984083826437,109.146454651722,64.6000109589747,-47.2550102916773,-37.7628558582397,0,0,0,0,0
83.4841373925645,16.3902533648993,-88.0586623833768,36.5984083826437,110.160771220299,61.3662827511823,-51.4292557099058,-38.6389877523445,0,0,0,0,0
83.9958420265204,19.2662550261837,-88.6835050349046,36.5984083826438,110.405592037386,57.6092603191235,-52.6509108392405,-40.3043431110248,0,0,0,0,0
81.8459097927951,23.9137859453274,-84.7619329383478,36.5984083826438,109.930225118453,54.9325795423603,-52.9654479059501,-41.8278041834791,0,0,0,0,0
79.9746943580339,27.8343671072182,-81.2236168149147,36.5984083826437,109.808329105692,52.8308886935406,-53.3638508696381,-43.2970442949422,0,0,0,0,0
79.4593140558978,30.591325451305,-81.2090224493273,36.5984083826437,108.920025297694,51.3842353644101,-52.9321245996617,-44.4914727798019,0,0,0,0,0
80.0851490625989,31.3693855446873,-81.7617948061485,36.5984083826437,109.480188255559,50.2050090296456,-51.0904037302844,-45.3089373380325,0,0,0,0,0
80.20872369699,31.0520783302808,-81.8079372217214,36.5984083826437,109.032811525751,50.0251693391773,-50.740263075077,-45.9218099376742,0,0,0,0,0
80.1350823566959,29.4516623666185,-81.5482172232841,36.5984083826437,109.081029227725,50.0374332630074,-50.7766855326319,-46.1956338097059,0,0,0,0,0
79.8092495273364,26.6650261946457,-80.9505952024655,36.5984083826439,109.185981575207,50.6957477000249,-50.7318679099579,-46.1377348113113,0,0,0,0,0
79.9993047788677,23.7621100792026,-83.2669109112209,36.5984083826437,109.078309746116,51.5518432787713,-50.4632373780902,-45.9524874219442,0,0,0,0,0
78.9536903432361,18.6699788531754,-81.8107863525694,36.5984083826438,109.575407500176,52.6507239662458,-50.6442851694978,-45.1786584182994,0,0,0,0,0
80.5504838754853,13.4385209598199,-85.2194502719567,36.5984083826437,109.690298926778,55.1550217713218,-50.1624695122127,-44.0916154563216,0,0,0,0,0
74.0249539838925,8.86450354779063,-78.7439262067164,38.3718469850501,109.72504350306,58.1688503660454,-49.4429366395689,-42.7744347694686,0,0,0,0,0
57.4762250418593,2.86141817645185,-66.9251171167757,41.498070922747,108.814656138926,61.4313168351856,-47.9304194637334,-41.1912192379128,0,0,0,0,0
-79.8989844354127,3.80981280334066,68.190499432051,43.3205924328556,108.355374503365,64.3100465223376,-46.8504353496421,-39.5827295870152,0,0,0,0,0
-89.8532368161242,9.52201721448775,73.1757954069256,45.2552984601279,108.217101151568,67.8197133846758,-48.3314027785384,-36.775180011638,0,0,0,0,0
-96.2032866711881,20.1431657549739,77.9203908281519,46.9622502601861,108.579711515907,70.6230880144745,-45.1732934791917,-36.5984083826438,0,0,0,0,0
-100.996394411996,31.0699531783409,77.0243676571974,47.5684067433936,108.594586877232,74.1522883456389,-44.1288435090186,-36.5984083826437,0,0,0,0,0
-105.383611281978,42.5305650199549,72.9239592193837,46.9761737494877,109.557908432174,77.6250615548117,-43.4659675342333,-36.5984083826437,0,0,0,0,0
-99.0239158282729,51.9900507347984,58.3491078994732,46.9233244435653,108.52024558272,81.4507469967766,-39.2415676011873,-36.5984083826437,0,0,0,0,0
-97.0186661703271,62.2010694312755,48.4394297736782,43.3294731260245,105.860299191337,83.2258088003459,-30.246096916179,-36.5984083826438,0,0,0,0,0
-96.7817741557024,70.1209042028768,40.2962961878094,38.4604875362857,104.779464688457,85.6071650729053,-26.8249172568209,-36.5984083826437,0,0,0,0,0
-96.9145204063737,77.7269373204045,34.6852114684449,36.5984083826437,103.435030552783,87.142010345907,-21.1876421801601,-36.5984083826437,0,0,0,0,0
-100.981337085771,83.5388979545534,32.6365155095215,36.5984083826438,103.809025296199,88.9098242408705,-18.3149626853304,-36.5984083826437,0,0,0,0,0
-104.382370328422,88.5572294412541,32.2853902339287,36.5984083826438,104.17099609219,90.3020072104037,-15.5041980021526,-36.5984083826437,0,0,0,0,0
-104.896472507111,90.2499214615496,31.9295762861076,36.5984083826437,103.852154354389,90.5411871965399,-12.9290870871708,-36.5984083826437,0,0,0,0,0
-103.287574732842,88.7327515914402,29.5381412134763,36.5984083826438,102.735680891456,89.4038866490332,-10.6472533715002,-36.5984083826437,0,0,0,0,0
-103.119767994162,85.5639454550035,30.2425793005794,36.5984083826437,102.358057834451,88.1477980604872,-10.8980808472346,-36.5984083826437,0,0,0,0,0
-101.383484937886,81.5923698862408,35.614472604869,36.5984083826437,101.508567201248,86.3621622996197,-11.1871217115564,-36.5984083826438,0,0,0,0,0
-98.3951847931912,74.7916490960606,38.1001171879867,36.5984083826438,101.131757997001,84.9122155312373,-13.882997649363,-36.5984083826437,0,0,0,0,0
-96.5624499852606,68.3677967617988,45.1650981964971,41.3290056309205,100.843172716822,83.0923742949147,-14.1822017504253,-36.5984083826437,0,0,0,0,0
-95.3507472783475,60.9919635587711,49.7420120392251,45.4413301156279,102.1448361412,81.5135737670851,-14.7616972560972,-36.5984083826437,0,0,0,0,0
-95.1053730009917,54.3274132149158,57.3474121704615,47.3396462291727,104.045711849558,80.3488718942958,-15.4636396307745,-36.5984083826437,0,0,0,0,0
-96.0764982574408,46.1646786956494,61.1007756136816,48.7780538334517,105.349668695082,79.2827986249757,-18.5735940687126,-36.5984083826438,0,0,0,0,0
-95.9757151514972,39.5261372792879,68.9486848882715,48.3360516345168,106.230770895487,77.663625375657,-21.7912458275075,-36.5984083826437,0,0,0,0,0
-98.3940965830657,33.0658958992207,76.8092266908321,47.5881055771084,107.306926005658,76.1583341219535,-27.6536963029613,-36.5984083826437,0,0,0,0,0
-98.6926955780901,24.2210971529891,79.9175107888465,46.9210474533935,107.590919953681,73.5055788187899,-28.5405755663481,-36.5984083826437,0,0,0,0,0
-98.7498403569596,17.2458596042514,83.3599828975574,45.7911069921742,107.4467424838,71.1861721504422,-31.6785302334645,-36.5984083826437,0,0,0,0,0
-96.1076663994256,9.49454516404873,84.8556622449616,43.8773630142076,108.121988641248,69.1824877010428,-37.6709415126843,-36.5984083826436,0,0,0,0,0
-105.041787895606,1.86951714119965,96.2904329252264,41.2327112349489,107.452395964704,65.2483019714407,-38.3693147696146,-36.7678901577269,0,0,0,0,0
87.683165247642,4.868772635554,-94.0709281200482,38.491295165837,107.745546671882,62.0002180696849,-41.9306924128844,-38.122086411785,0,0,0,0,0
89.8456474827195,9.87671843234821,-93.6314407554251,36.5984083826438,108.72964047781,59.0865200786739,-45.8880807035072,-39.0837937754166,0,0,0,0,0
91.023794745473,13.6932866723465,-92.1825056083292,36.5984083826436,110.176550486779,56.3444022450002,-50.2194867241515,-39.8222816017042,0,0,0,0,0
87.8568170457647,17.5231760318998,-89.4036949648379,36.5984083826437,110.625567095468,53.0086970470028,-51.4136766210021,-41.2357267879197,0,0,0,0,0
82.389252493162,21.8734822854672,-82.5009836406403,36.5984083826437,109.332545842705,50.0342005701774,-51.0100304626282,-42.9842633592117,0,0,0,0,0
80.5608334695533,26.3480778438807,-81.4913318690297,36.5984083826437,108.136976608587,47.5573793204305,-50.4573293993012,-44.4946189046397,0,0,0,0,0
80.7030619566248,31.413301804,-82.204971060857,36.5984083826437,108.117244957773,44.9795300196617,-48.3481825043217,-45.8082015160372,0,0,0,0,0
79.0890595588952,35.2929406549623,-79.1239927038667,36.5984083826438,106.484900882811,43.2943852011846,-47.1226868616844,-47.315946176634,0,0,0,0,0
78.9647931266368,37.2178046793133,-79.3474382750385,36.5984083826437,104.4183847142,41.8491314873796,-45.4067997840773,-48.6239678678153,0,0,0,0,0
79.8361639769798,37.5954816400032,-79.9518682855315,36.5984083826437,104.391853144934,40.4149155342226,-43.0564149745963,-49.3778404955061,0,0,0,0,0
80.2001842624484,36.7584695185827,-80.0591238169565,36.5984083826438,103.800444170375,40.1672810798249,-42.529027518523,-49.7697451204399,0,0,0,0,0
81.7764773360704,34.7868809878568,-83.3452493577218,36.5984083826436,103.887430696234,40.2233095983531,-42.591145127921,-50.0363780372071,0,0,0,0,0
82.2606481390404,32.65294445915,-83.4350719439255,36.5984083826437,104.357184837329,40.4946628373044,-42.9895505093725,-50.0245094012545,0,0,0,0,0
82.6631039833927,29.2351718980229,-83.3783690433406,36.5984083826437,105.855707189463,41.0593862338391,-44.295741850047,-49.8235387934974,0,0,0,0,0
83.9504752047649,25.1751833205053,-86.5325471049907,36.5984083826436,106.863414224269,42.343835708487,-45.0486844729004,-49.3077978274782,0,0,0,0,0
84.823308576929,20.5738009918901,-89.4584624342429,36.5984083826437,107.896074998734,44.4183614071844,-45.6638103591322,-48.7986129909656,0,0,0,0,0
85.5764598052567,15.5204724367252,-92.3732380286126,36.6112939391534,108.70482600496,47.3231473350118,-45.8800659129939,-47.6674521467933,0,0,0,0,0
82.4784672351703,10.5840907786324,-89.3508909305751,38.6465951206632,108.612764915885,51.3188620097194,-47.5681615162797,-46.129870035737,0,0,0,0,0
79.1327552311859,6.64529856684263,-88.4802060005536,40.1082981732916,108.63533539931,54.7811080322895,-46.8511497544499,-44.3033270468801,0,0,0,0,0
58.2893144076235,2.96901088924896,-70.3171726013028,42.3172041272508,108.560749685951,58.2740551366894,-45.9806444049811,-42.300956420476,0,0,0,0,0
-99.8511884877021,2.40596024319297,85.9353056166266,43.3070184613412,108.472414378844,61.4411151557033,-45.1217548782257,-40.400164537159,0,0,0,0,0
-101.687983366444,7.2049891030721,82.9010656082692,44.8823750513264,108.887718163188,65.2381072894294,-44.3329801622838,-36.7364675118843,0,0,0,0,0
-105.174855881141,15.8728285921315,84.2574304175058,45.8160748756105,108.228051656287,68.2097508766583,-40.5543478718418,-36.5984083826436,0,0,0,0,0
-103.385857155828,25.1015903015187,77.1732453087544,47.1292412410239,107.472086553919,72.145257527838,-39.0510762665355,-36.5984083826437,0,0,0,0,0
-106.499334036082,35.8529301866202,74.7118028152276,46.6119490726337,107.652284223669,75.2101819734545,-35.7033502982234,-36.5984083826437,0,0,0,0,0
-103.729151686088,45.1910258854484,65.8861206205655,46.0972879727863,107.507357957113,78.7610319909496,-32.0439175269337,-36.5984083826436,0,0,0,0,0
-100.844231812399,54.3678021309351,54.6310276860489,44.8346023849597,105.934894137641,81.4770312323352,-28.220107739392,-36.5984083826437,0,0,0,0,0
-97.3588588862317,63.4115414014746,43.671828904332,41.6182465218663,104.444766412801,83.6420007261818,-22.234775235065,-36.5984083826438,0,0,0,0,0
-98.4652704993697,70.219641719089,36.2830355040791,36.5984083826439,104.191474297032,85.4393020502087,-19.2295295713044,-36.5984083826437,0,0,0,0,0
-99.7086672388255,76.9569622411107,30.9128684701596,36.5984083826437,103.028675228,86.7233558695004,-16.2477955159239,-36.5984083826437,0,0,0,0,0
-102.142314172805,82.2229071639381,28.2391723974661,36.5984083826438,103.401980026621,88.00251905933,-15.9958240257529,-36.5984083826436,0,0,0,0,0
-104.518022264858,86.3576140164827,27.8359481240384,36.5984083826437,104.801399929012,88.9361055590613,-15.9107214382565,-36.5984083826437,0,0,0,0,0
-105.161797765947,88.5670546335719,27.3704841422145,36.5984083826437,104.38476167904,88.4943592956146,-13.4833500126171,-36.5984083826437,0,0,0,0,0
-106.118316831689,88.3448748735842,27.5881213869761,36.5984083826437,104.06306852607,88.140912907653,-16.0370641021275,-36.5984083826437,0,0,0,0,0
-106.438696830358,86.7913435742531,30.6366151343706,36.5984083826437,102.45413530677,85.4446997529212,-16.4492308621535,-36.5984083826437,0,0,0,0,0
-106.047538634839,84.3254029394333,33.792823176336,36.5984083826437,100.662741323217,81.2956241231435,-21.8477239950545,-36.5984083826437,0,0,0,0,0
-105.504808376565,80.892711380208,37.1084459418171,36.5984083826437,97.9486158954065,73.7962815977645,-31.8994684820672,-36.7612137933116,0,0,0,0,0
-105.734550757346,76.6013901488084,38.3279868175257,36.5984083826437,98.8744993001999,65.8282083590855,-43.0989748715181,-41.8624437640387,0,0,0,0,0
-105.474171945832,73.5402357268866,41.5320723812445,36.5984083826438,99.0180943130058,56.6734499336122,-51.6307118019725,-45.5275806284306,0,0,0,0,0
-106.139072998167,70.9040394413209,45.0679375820166,36.5984083826437,103.290125051769,49.6094133643133,-63.6611668707059,-45.881843624911,0,0,0,0,0
-105.769031589951,67.4352284298658,45.713458770003,36.5984083826437,104.261555751726,39.1333570067919,-70.8616516749134,-47.4464540514745,0,0,0,0,0
-107.335628882174,64.890357794996,49.834969001391,36.5984083826437,105.767027875471,30.5926833317624,-80.7670156342484,-46.6085030809412,0,0,0,0,0
-107.823975669988,62.1608473035125,53.3920419905632,36.5984083826437,112.574683029015,19.4082706221097,-94.0774870549717,-44.4834078826022,0,0,0,0,0
-108.562167248028,59.0455759740229,57.2394255381463,36.5984083826437,128.503035892922,11.1914002408916,-105,-41.6103065066419,0,0,0,0,0
-109.82638426463,56.0352553716598,58.9477580201604,36.9318403230273,155,6.56446380487095,-105,-38.210990317567,0,0,0,0,0
-110.541512609308,53.9914488364027,62.6221309483635,38.0453982942786,-120,9.34395415320097,105,-36.5984083826437,0,0,0,0,0
-111.968675577923,51.6816771303871,61.8438582521958,39.4466752961901,-117.970280650491,13.378517607205,105,-36.5984083826437,0,0,0,0,0
-112.256025766202,49.5175070545916,62.6379437010007,40.8523813516463,-105.181915849954,17.7809872597973,105,-36.5984083826437,0,0,0,0,0
-112.051269416648,47.4056058850183,62.9469981072642,42.440724780901,-98.0501005624467,22.1515766831258,101.613457408713,-36.5984083826438,0,0,0,0,0
-112.658714889756,45.2314887029366,61.3879142961071,43.6985784552065,-93.3086965022369,26.996062431212,97.5449611309241,-36.5984083826437,0,0,0,0,0
-111.778248193954,43.9152076690708,60.824480020707,44.9651967075056,-88.7566787593681,31.0399213315238,91.6394670770467,-36.5984083826437,0,0,0,0,0
-110.892319918895,42.3976201519205,57.6850935854132,46.3203001071213,-86.5119718166043,34.0172938239518,90.1956776783618,-36.5984083826439,0,0,0,0,0
-110.430469168933,41.0967523440215,54.9003360200417,47.2640211280058,-84.0298713080266,36.2632840231228,86.2138564287464,-36.5984083826437,0,0,0,0,0
-109.412851901263,40.9027601187953,53.958926988491,47.7624263972051,-83.4405362288009,36.8877419552815,85.8980679260462,-36.5984083826437,0,0,0,0,0
-109.524551213325,41.2507491679523,54.0104131825317,47.7694434413734,-84.4383511811384,35.9856324625513,88.9678235635068,-36.5984083826436,0,0,0,0,0
-110.743865616595,41.3835235254303,52.5986474624602,47.6875478156875,-84.0610663014045,35.067538998001,88.6484844469342,-36.5984083826438,0,0,0,0,0
-110.904280433332,42.2521458349877,52.6041987543153,47.3495420097086,-84.3271708689397,32.8568130370156,88.647225342138,-36.5984083826438,0,0,0,0,0
-110.423932362762,44.0463499278248,54.397660077825,46.6461472841425,-85.4420436963569,29.0335438423783,91.6915152664448,-36.5984083826439,0,0,0,0,0
-110.667288388822,46.0355245100325,54.254583426931,45.8678026667888,-86.8109782506183,24.5042300387548,95.0303492719479,-36.5984083826437,0,0,0,0,0
-110.672735317979,48.8450602860123,53.6925614628169,44.6154254463619,-85.7921522145249,20.2809968511718,94.0240975761776,-36.5984083826439,0,0,0,0,0
-110.235986697785,52.9032070220434,52.4129873710592,42.6071773109193,-84.0116975257457,16.5817956243487,94.8126132803109,-36.5984083826438,0,0,0,0,0
-109.205572011456,56.4049744602822,50.7499579196931,40.8726534988282,-84.0299343385528,13.8336209360015,97.1806240494947,-36.5984083826437,0,0,0,0,0
-108.591892069683,59.8061493297806,46.8856223724772,38.9874099528519,-75.5654109990448,9.34508567338611,91.5918237665189,-38.6863578164115,0,0,0,0,0
-107.668649168985,62.9718616328769,47.9860315110086,36.8035646908846,-81.2874021149816,4.46736982476565,101.784632676108,-40.8131087146854,0,0,0,0,0
-109.17940593361,67.5811958532466,47.6855667473947,36.5984083826437,82.9171341272451,3.06348542568066,-59.8895158360395,-43.4859978958752,0,0,0,0,0
-108.882686331758,71.3838815607999,46.3955011225493,36.5984083826437,98.5351392809579,13.6372061044162,-72.1057207620726,-45.3178006449824,0,0,0,0,0
-108.737214595514,74.8247299379178,42.7057027063555,36.5984083826438,99.7839172762529,25.2790655370677,-67.0067140916175,-47.4115218362014,0,0,0,0,0
-109.332535470583,78.519021971395,41.7867027926052,36.5984083826437,102.512859130996,38.1894672019904,-64.1064340645092,-46.9115996873974,0,0,0,0,0
-108.94497158357,81.903082343494,40.5263614202113,36.5984083826438,102.396334648992,46.3915788055288,-55.6352166172908,-45.7979407031869,0,0,0,0,0
-107.909596583157,83.9526138159318,34.4060713314062,36.5984083826437,100.545167324503,54.3222570176762,-48.1711196597265,-43.5144248508827,0,0,0,0,0
-106.315674119623,85.8117646850253,28.356040381631,36.5984083826437,101.854615055123,61.363585075872,-40.7188718602839,-39.9489499374888,0,0,0,0,0
-105.994727428034,87.5825940132801,22.7246984381571,36.5984083826437,102.250587173842,67.5951237739635,-34.9338782531625,-36.5984083826437,0,0,0,0,0
-105.595114790429,89.3566134499422,19.6481896016562,36.5984083826438,101.85785042507,74.0345787527013,-28.5550703786387,-36.5984083826438,0,0,0,0,0
-105.231509104554,90.3729945875014,16.8179755274763,36.5984083826437,102.046013649454,79.0639362769609,-22.6624578481635,-36.5984083826438,0,0,0,0,0
-106.245244392597,91.422072638982,16.5914123989337,36.5984083826438,105.012080643578,83.438253482391,-22.4134329214842,-36.5984083826436,0,0,0,0,0
-106.033432185023,91.3210090183865,16.6080406901949,36.5984083826437,104.775861768964,83.6555385939091,-19.7957725477843,-36.5984083826438,0,0,0,0,0
-105.671604062466,90.0556556210381,16.9414419825342,36.5984083826438,101.300448685454,81.424589829262,-19.5191842127574,-36.5984083826438,0,0,0,0,0
-105.999353119066,88.3541407389186,19.9794419896194,36.5984083826437,102.333731016237,78.0387604658381,-25.4429741725857,-36.5984083826438,0,0,0,0,0
-105.649966605761,85.9259021702159,23.1314375280081,36.5984083826438,98.3529344170016,70.3766662365995,-34.9795923078761,-36.5984083826437,0,0,0,0,0
-105.953397190971,82.9286813512021,24.0308226822225,36.5984083826437,95.1348087027567,60.7949836706483,-41.1939711055803,-41.9091409304024,0,0,0,0,0
-106.567837675284,81.1017714604914,27.2422071107248,36.5984083826437,95.5044463975115,53.2083765644497,-49.1991499114256,-44.2921557243514,0,0,0,0,0
-106.806153368119,78.8430756958048,30.5041652032092,36.5984083826437,95.7009632003071,45.3487462682617,-57.1758871670242,-45.8658727624851,0,0,0,0,0
-106.780793253201,76.3222492248231,33.7513804682336,36.5984083826437,96.222319764446,37.246005738056,-63.0138315231964,-46.631325939946,0,0,0,0,0
-106.857652673709,73.0983886233345,34.6806469685299,36.5984083826437,94.7583179949099,27.1844420400564,-66.8119337735206,-46.7453464740675,0,0,0,0,0
-106.017621650181,70.0564231404915,37.6100729309894,36.5984083826437,99.1331964045836,19.2390426404881,-74.6617996301221,-45.8390928893141,0,0,0,0,0
-106.372369122924,67.2822246591345,41.0281529072966,36.5984083826437,107.02445939831,9.73016404093556,-87.3392073664659,-43.3244199087308,0,0,0,0,0
-107.512628771783,64.1692739245178,45.0340132135101,36.5984083826437,151.368693327079,3.54536854557196,-105,-40.2002271959656,0,0,0,0,0
-107.975969870315,61.2078083898248,48.6293988662892,36.5984083826438,-116.467645479972,5.55270120276558,105,-36.6819136788028,0,0,0,0,0
-109.0043215094,58.0742627761747,52.6902488583127,36.5984083826437,-113.852321256451,9.57922525985486,105,-36.5984083826437,0,0,0,0,0
-109.76960834323,55.0846045989302,54.010061846409,36.876176408008,-108.803558571063,12.7082831248143,105,-36.5984083826438,0,0,0,0,0
-110.688239143382,52.5731764112687,55.3762678889425,38.2164646850204,-103.137349459869,16.913629733818,105,-36.5984083826437,0,0,0,0,0
-110.936280957728,49.9090371908323,56.2264099570713,39.8994412653217,-99.9119393653177,20.8020255811407,103.288168206402,-36.5984083826437,0,0,0,0,0
-110.151088658972,47.3176751690568,56.1041675663338,41.5981286470042,-94.1068526488408,25.065082897361,95.7300365941339,-36.5984083826437,0,0,0,0,0
-109.311198367262,45.1336762033961,55.7646450707247,42.940616534161,-91.2961151439739,28.0200163722636,93.4835372064714,-36.5984083826437,0,0,0,0,0
-109.612881454602,42.9563504186598,53.8699693762759,44.0233744633896,-89.408636633613,31.3387902027621,92.102182836388,-36.5984083826437,0,0,0,0,0
-108.727489728539,41.8932347572907,53.2139863646899,44.9976148979676,-86.7821779857712,33.2711665940572,87.8254418025045,-36.5984083826437,0,0,0,0,0
-108.253319744798,40.3821633419888,50.4665798068087,45.8480276760386,-85.7991994303616,35.2601860990876,87.2776404360145,-36.5984083826437,0,0,0,0,0
-107.316049007859,39.8047538149795,49.6616148345925,46.4316796966345,-85.2715340722572,36.4874705954544,87.0183735102483,-36.5984083826437,0,0,0,0,0
-107.00033070946,39.7355081414948,49.3678994419435,46.7432101630641,-84.9638644848298,36.3842824478568,86.8164257097163,-36.5984083826436,0,0,0,0,0
-107.61498913692,39.6722679058086,47.4443380920003,46.9181088080162,-84.4333438956763,36.2314548169138,86.4679008468194,-36.5984083826437,0,0,0,0,0
-108.054902702096,40.4496397164857,47.7424102600043,46.7551228805359,-84.9556094122769,34.7783342606348,89.2119202866434,-36.5984083826437,0,0,0,0,0
-108.400474807164,41.2635603794283,47.9434469114999,46.443610403985,-84.1092717112484,32.613388898705,88.4785321776475,-36.5984083826437,0,0,0,0,0
-109.406870539086,43.3751063200327,48.5202164858973,45.8712464892668,-83.5336284512821,29.0270512561421,90.2883988305097,-36.5984083826438,0,0,0,0,0
-109.466005985153,46.6504327796462,50.5189212079276,44.7811972400919,-84.4501385919415,23.8705474608319,93.1223696739247,-36.5984083826438,0,0,0,0,0
-110.597180237183,50.6107034211083,50.6747471619041,42.6449274351374,-78.8779770675054,18.6163468751336,88.0211757978183,-36.5984083826439,0,0,0,0,0
-110.338727079403,54.0667043535369,49.6390602077502,40.6415203544763,-73.7031541559931,15.4679842204978,85.5647511274451,-36.5984083826437,0,0,0,0,0
-109.995947027195,57.4095826896425,45.9537445546782,38.7520132886362,-58.817039863881,10.8636810943928,73.6880347455912,-39.7700544780484,0,0,0,0,0
-109.296164601576,60.7159304507736,47.1105967787198,36.5984083826437,-40.972962001375,5.35312028760361,60.2079233502427,-42.135593721949,0,0,0,0,0
-110.315891983126,65.4855045964908,46.4299555537265,36.5984083826436,46.5345219273665,5.92946533864702,-24.8490304263275,-44.7048787556738,0,0,0,0,0
-111.098855405055,68.9665947704722,45.8075823266752,36.5984083826437,90.7761819335856,14.0787747276292,-64.0456101817664,-46.3241342627775,0,0,0,0,0
-110.743330360006,72.5201312491993,41.8462070171993,36.5984083826438,94.7449563278571,25.5074774979797,-61.0369560930044,-48.0444557008183,0,0,0,0,0
-110.567986640097,76.1880200016052,40.5109825637041,36.5984083826436,100.320778671875,38.4043782720213,-59.3983274022521,-47.3047284537757,0,0,0,0,0
-110.394184231275,79.6752762838119,39.2221193398372,36.5984083826437,103.140032991723,49.2748441217609,-55.9706409293726,-44.3105709270465,0,0,0,0,0
-109.054996510503,81.4725023731542,32.982532731089,36.5984083826438,102.233282231642,56.4127320852847,-46.7321030712085,-41.3025482827963,0,0,0,0,0
-108.025944403367,83.7335663357401,29.3888599104162,36.5984083826437,102.001619006213,63.6757378723162,-40.4555894876538,-37.9826215845213,0,0,0,0,0
-106.776450997806,85.3281243097872,23.5203490510544,36.5984083826437,102.365813264383,69.5636463947534,-34.6187947497298,-36.5984083826437,0,0,0,0,0
-105.689524336944,86.2319999578075,18.0131279739911,36.5984083826437,102.419523508385,74.2182792921538,-28.7453613624429,-36.5984083826437,0,0,0,0,0
-106.187915891311,88.0585415897207,17.5639076677563,36.5984083826437,104.083145068535,78.7489152784155,-25.8480208947455,-36.5984083826436,0,0,0,0,0
-107.480358354393,89.5711405297639,17.2479310144361,36.5984083826438,106.718687172438,82.8272548889598,-25.5141944859081,-36.5984083826437,0,0,0,0,0
-107.569178683392,90.0383003204991,17.1085233251517,36.5984083826438,107.162505968699,84.5542828301653,-22.5631177376677,-36.5984083826438,0,0,0,0,0
-105.546606925679,89.4819121759471,17.0904662500296,36.5984083826438,106.02561316386,84.8427272719173,-22.2456271267884,-36.5984083826437,0,0,0,0,0
-103.239123698661,89.0184167885932,12.0113752798004,36.5984083826437,101.503483054033,85.8453234810863,-11.2910690463569,-36.5984083826437,0,0,0,0,0
-103.075573895026,90.3071645995639,11.2289133948264,36.5984083826437,101.692907891158,88.4320206392291,-9.25932764811775,-36.5984083826437,0,0,0,0,0
-101.183743711106,89.651770917771,8.90641447887999,36.5984083826438,100.27082190889,88.6911704105201,-6.67252055172465,-36.5984083826436,0,0,0,0,0
-101.325946204121,88.1433339935886,12.0398295870012,36.5984083826437,101.398237968839,86.8329270487615,-8.62095925066944,-36.5984083826436,0,0,0,0,0
-102.741571755207,84.90045329427,20.3402981323346,36.5984083826437,104.282226780391,84.528428111773,-19.474416253497,-36.5984083826437,0,0,0,0,0
-103.217492570808,78.0375114646525,29.4751828621368,36.5984083826437,106.056620614281,78.1895443933038,-29.1624342565336,-36.5984083826437,0,0,0,0,0
-102.961043952555,72.141566099443,38.139029689237,36.5984083826437,107.104435262577,72.8603489737142,-38.6741604718235,-36.5984083826437,0,0,0,0,0
-103.522843461326,67.2494790424122,44.455288215885,36.5984083826437,109.347588835267,68.9131303735128,-46.1065588845993,-36.5984083826436,0,0,0,0,0
-103.103968083007,62.8685106124676,50.0728791688851,36.5984083826438,111.015183315221,65.7545093369559,-50.6615640328763,-36.5984083826437,0,0,0,0,0
-105.143670853558,59.67533377561,54.618049295377,37.6117479143451,113.733253126308,64.1352232207397,-55.6055350299301,-36.5984083826436,0,0,0,0,0
-108.453251123345,56.9829121846693,60.2316655653283,37.6895591207173,116.755327873769,64.2005601486012,-63.0045581210542,-36.5984083826437,0,0,0,0,0
-114.3584838618,55.6891644225562,70.4793533840653,36.5984083826437,122.587281539135,65.3052111667343,-72.3880927009904,-36.5984083826437,0,0,0,0,0
-120.192055197913,56.09174223861,80.7085734462688,36.5984083826437,128.330535352574,68.1474021231274,-83.9429056235204,-36.5984083826437,0,0,0,0,0
-126.839654539405,60.810868733227,90.3715321636824,36.5984083826437,133.568462598897,72.6941955141159,-92.6345078104435,-36.5984083826436,0,0,0,0,0
-129.45262758227,64.4382659229311,96.5360511193625,36.5984083826437,135.715174927568,77.1567540028808,-103.560322136965,-36.5984083826437,0,0,0,0,0
-130.330385298857,69.8248448458022,99.7232371230736,36.5984083826437,135.568674783941,83.1985296916657,-105,-36.5984083826437,0,0,0,0,0
-127.508963071575,73.7904136018221,96.9001922049623,36.5984083826437,132.182923819718,89.8266321256029,-102.178700764623,-36.5984083826438,0,0,0,0,0
-125.551101252428,77.3724903628306,90.5416970374162,36.5984083826438,130.117148168806,94.6594347485319,-97.7192410321134,-36.5984083826437,0,0,0,0,0
-122.452708846342,81.0718254316386,81.6972644798771,36.5984083826437,128.289255286324,96.6831653942669,-88.2011979034358,-36.5984083826438,0,0,0,0,0
-118.569981341143,84.0039493755334,69.7969836678199,36.5984083826437,125.161053935017,96.791819721822,-80.9965537238863,-36.5984083826437,0,0,0,0,0
-114.058820679999,86.3957167323325,58.8636905711726,36.5984083826437,122.586194065716,96.2715102555427,-71.4092932660423,-36.5984083826437,0,0,0,0,0
-105.554412638558,87.7538162687312,47.9987489041117,36.5984083826437,116.781294377615,94.1146499699893,-62.0289755703185,-36.5984083826438,0,0,0,0,0
-91.8211954828501,88.2156351570582,26.7608737689353,36.5984083826437,106.181326008073,89.4453186715184,-48.9571467043696,-36.5984083826437,0,0,0,0,0
-73.5924475937053,91.5271090380185,10.8786875514358,36.5984083826437,88.6523114688514,82.87101416374,-30.6063477507781,-36.5984083826437,0,0,0,0,0
-61.3874076266775,95.2244877093212,-5.30601601647919,36.5984083826437,72.9663884393842,78.5453966616465,-19.5917964713495,-36.5984083826437,0,0,0,0,0
-49.6425916233302,98.8488539456825,-16.3610239408006,36.5984083826437,59.5754694171131,73.3659257241674,-8.78138963265741,-36.5984083826437,0,0,0,0,0
-35.4797308189225,98.7969020544717,-21.2854669350735,36.5984083826438,43.6814088302019,68.8366631160937,-0.175131889955987,-36.5984083826437,0,0,0,0,0
-22.0154254302783,99.7471576075566,-25.2982128850737,36.5984083826437,26.7911797254575,66.274665432151,11.520812563846,-36.5984083826437,0,0,0,0,0
-11.1220523713849,100.289607086167,-27.2051316719447,36.5984083826437,12.2597080685277,64.6156165794568,18.6499889596885,-36.5984083826437,0,0,0,0,0
-2.13401940911783,95.4401574588849,-31.4871815323601,36.5984083826438,0.300221842900923,58.2028761567364,27.291746081675,-36.5984083826437,0,0,0,0,0
4.16883148653773,94.7754803496709,-32.4332623121091,36.5984083826437,-9.62366908869406,57.6688568217666,35.72761513457,-36.5984083826437,0,0,0,0,0
9.86945449176221,93.5080852729916,-36.9780448274142,36.5984083826438,-17.647408416484,56.1473172936695,40.7796604935845,-36.5984083826438,0,0,0,0,0
12.7845119005733,91.775155576836,-36.5675494095287,36.5984083826438,-22.145996088839,56.2649760260797,43.5756979618636,-36.5984083826438,0,0,0,0,0
14.9473730303422,89.8358527507947,-38.5545925770569,36.5984083826436,-25.0489210209594,57.3724194427311,46.6209391823727,-36.5984083826438,0,0,0,0,0
16.2451592871787,88.6268310998692,-40.7249253722099,36.5984083826437,-25.3426440698532,58.0420216322682,46.6413750546595,-37.9381550255071,0,0,0,0,0
15.5916878741632,88.393841128873,-40.6734457475941,36.5984083826438,-22.0547467707597,56.6638429058224,45.4857818421308,-45.1675832584404,0,0,0,0,0
13.1166745328366,88.8787890058633,-38.3356159002048,36.5984083826437,-16.0780563441741,53.560993780366,43.2351083079162,-55.6977672364392,0,0,0,0,0
6.69550051475546,86.9790971794444,-35.7452074302653,43.1733494596489,-5.66541450145097,51.5171904694144,34.6130194378692,-67.0106159790338,0,0,0,0,0
-2.36299881595707,83.979936283655,-32.8162080851996,54.2993675945976,5.73487585926149,48.7550511621722,27.9042163236155,-76.5117847397244,0,0,0,0,0
-12.9735993278864,80.0740201848474,-29.0647845017635,67.2954132862188,20.5890747964493,48.7845717948007,16.4010347154861,-88.7801901626598,0,0,0,0,0
-25.9373904355923,79.1208671007832,-23.5018891714862,83.8021476033992,38.2143966348443,50.9603910965074,5.8755557263108,-104.219780480108,0,0,0,0,0
-37.551429309383,75.1186602161854,-20.0541948609593,94.4371266992342,55.9535768348949,53.3333663145509,-5.58593411773545,-113.329243616499,0,0,0,0,0
-46.3331306947075,73.8604932773253,-16.5578770324032,101.988430348992,68.910824990053,56.4203647419392,-11.6310864326094,-120.69703644153,0,0,0,0,0
-53.098244626683,70.657616787452,-13.3095258730348,107.990225734521,79.9910012266165,58.9141354656554,-19.323221782796,-126.517992772712,0,0,0,0,0
-56.2705872571694,69.6102612748285,-8.4045839158014,110.449715035647,85.1268337415223,59.6320052732041,-25.4925754928912,-128.684850036747,0,0,0,0,0
-56.2678854293317,65.528658004487,-7.55614016360462,112.011176079387,88.7364368702071,57.4442185076486,-29.918829662267,-129.774507440538,0,0,0,0,0
-55.5614712678049,62.1363089407614,-7.22084319643794,111.875804237755,92.5035763040713,54.8151796555252,-35.555491958209,-128.94511740775,0,0,0,0,0
-56.4346412524503,59.1300553305943,-6.82370325762869,111.743171648908,96.4434801637245,52.9026653949124,-40.2634760194199,-127.377989724606,0,0,0,0,0
-58.5561172184788,56.8459981135321,-6.75516709872089,112.690271779832,102.63768729881,50.7523580545771,-44.2077027517699,-125.172963321581,0,0,0,0,0
-61.5280954645287,52.9215676040379,-7.72759500663617,111.422536344403,107.797880258436,49.4461446421616,-45.5112992387214,-121.994183782721,0,0,0,0,0
-70.9899742054239,49.3747471584864,-4.26406867484301,112.483631724929,116.417963600695,51.2699526535471,-51.6092653890439,-117.339485896428,0,0,0,0,0
-82.4073223225127,47.9773864053541,0.734131728274153,108.767945573323,123.448302729029,52.8395165634463,-53.9700880382126,-109.125667048052,0,0,0,0,0
-96.2542758463328,47.4989703727448,8.43856541502158,101.91020964702,128.682193583785,55.3051205713396,-56.4748758088742,-97.6693587168311,0,0,0,0,0
-109.326004843364,48.0777047438887,14.874929239126,91.8825072729207,132.26233156191,57.0989769898176,-56.7727523487672,-88.6096113784448,0,0,0,0,0
-120.20184702834,50.3648230637108,22.2903817206324,80.2307711539778,137.062452449119,58.7160522437705,-58.0796810099376,-79.1826835914,0,0,0,0,0
-127.24632067474,55.8763628784715,33.5729572845199,63.1813571251524,139.249567847773,61.9992720143156,-64.326233240754,-62.9120162074518,0,0,0,0,0
-130.010766887792,61.3842894484356,49.4255811478412,42.2672150756799,140.751386667066,64.3004644376739,-74.659472242511,-43.746206829162,0,0,0,0,0
-134.410186478551,68.0011923608724,65.6890543744648,36.5984083826437,142.167082827831,67.7141250538081,-84.0795035817155,-36.5984083826437,0,0,0,0,0
-137.188671675212,74.7108597693322,81.9922411541472,36.5984083826436,141.800057837109,76.7657857352053,-94.8598736165331,-36.5984083826437,0,0,0,0,0
-136.527944263331,80.5509153863539,94.9647376512245,36.5984083826437,138.084376898918,85.8278567245238,-97.3793816789523,-36.5984083826437,0,0,0,0,0
-135.734330250948,82.6768754231033,105,36.5984083826437,135.332701294132,91.8358849768852,-99.9553735270323,-36.5984083826437,0,0,0,0,0
-136.429869715427,83.7405451058597,105,36.5984083826439,134.299565869233,94.4976856357753,-95.3385749400742,-36.5984083826437,0,0,0,0,0
-136.087106946147,83.3239824594755,105,36.5984083826437,133.497134735144,94.8623781533365,-88.2175384834691,-36.5984083826436,0,0,0,0,0
-135.20514965439,82.7311449421658,101.737776094473,36.5984083826437,131.481031282036,93.5914937698554,-81.1394686374181,-36.5984083826437,0,0,0,0,0
-132.552524556682,82.0287795846442,95.0050067901497,36.5984083826438,129.460311108451,92.4282400846466,-76.482069298365,-36.5984083826437,0,0,0,0,0
-128.361950105864,82.4551516976265,86.0986745456343,36.5984083826437,126.89574853898,90.7152311023185,-69.5662849243685,-36.5984083826437,0,0,0,0,0
-122.320996287827,82.3151070305471,74.9267501883331,36.5984083826438,123.486753703442,89.6550823548637,-64.9848706937383,-36.5984083826436,0,0,0,0,0
-114.826610213081,83.6740176509872,63.0009818862715,36.5984083826437,119.394438540328,89.3889158217814,-57.9438553579526,-36.5984083826437,0,0,0,0,0
-99.8872729670457,82.2183787961777,44.9926737862256,36.5984083826437,106.321496741825,84.1442787482221,-45.3962699807405,-36.5984083826436,0,0,0,0,0
-80.1521161770635,83.8063181658303,25.4758902356447,36.5984083826437,85.9181004828389,78.0920913812893,-27.192807573301,-36.5984083826437,0,0,0,0,0
-66.1163752373504,87.5808252889899,12.0117914452308,36.5984083826438,70.768364798025,76.0033543038557,-15.4194093139355,-36.5984083826436,0,0,0,0,0
-55.1786664419791,90.4549791208426,-1.39185582227455,36.5984083826437,59.1284882062859,73.8589670281521,-6.1167045205766,-36.5984083826437,0,0,0,0,0
-46.1220895059527,93.5106772585383,-9.82243509209867,36.5984083826437,48.4486487521666,72.3054553216392,0.966106801178491,-36.5984083826436,0,0,0,0,0
-36.2190019787652,96.3071196890786,-15.6252004735865,36.5984083826439,37.1415973757434,71.3607263247043,8.324092999974,-36.5984083826437,0,0,0,0,0
-24.7386436883006,97.3537689090752,-22.4457328042513,36.5984083826438,24.554299758932,69.2741088175326,16.2536976098259,-36.5984083826437,0,0,0,0,0
-13.8025255895107,96.7276265563946,-24.6827759700127,36.5984083826437,13.0692624086312,68.4881057126258,21.7209034574669,-36.5984083826437,0,0,0,0,0
-6.07066049580832,97.6492957369573,-27.8283014998011,36.5984083826437,4.06085283362253,67.7936336026718,28.7901858029088,-36.5984083826438,0,0,0,0,0
-0.60645353366098,97.9395262016564,-28.7647848432509,36.5984083826438,-2.42451233987609,66.7830847558449,32.9607049899249,-36.5984083826438,0,0,0,0,0
3.11109685655748,97.8243087383881,-33.2060521776364,36.5984083826437,-7.17268633611501,66.8585831816449,35.6132689331692,-36.5984083826437,0,0,0,0,0
5.54181270341972,95.3593618475958,-35.0045200363308,36.5984083826438,-11.6191454988552,64.3936100240115,40.2706932950354,-36.5984083826438,0,0,0,0,0
8.73233850222411,96.4434169948907,-37.6773590976186,36.5984083826437,-15.3572213304076,67.3128500409741,43.6160798455729,-36.5984083826437,0,0,0,0,0
11.3954341633144,96.2220861769271,-40.0213127867301,36.5984083826437,-17.7113724956268,67.3465964695823,46.2503022094578,-36.5984083826437,0,0,0,0,0
13.3688360544875,94.011790021481,-41.9154633678904,36.5984083826437,-17.0502852173853,64.7579393230594,45.2734981327073,-42.4339135586636,0,0,0,0,0
12.2576948364532,91.1167437203133,-41.2747866310108,36.5984083826438,-13.9167723778405,61.8608200890605,43.9447547151424,-49.6151395882716,0,0,0,0,0
10.0724811928066,89.0266543431412,-40.8132441742304,36.5984083826437,-9.6167476099626,59.3588139437514,42.520259573174,-56.9734896076321,0,0,0,0,0
5.52001521808703,86.2949940627016,-40.5632293263029,43.9750362413404,-4.05610813470584,56.8252816143084,40.833445844281,-64.7106041613505,0,0,0,0,0
-0.862959546657503,82.6754912921615,-37.4321143347632,53.4586773328883,3.02566391131666,54.5709529765463,35.8233216781454,-72.6735441148645,0,0,0,0,0
-9.3965741034399,77.0289903861174,-35.749867159423,67.405584341754,13.277643064312,49.6673909259135,27.4784261532587,-84.4070099074012,0,0,0,0,0
-17.8059258923008,74.3231730659161,-31.9163549861403,77.9502787390768,23.7036190897956,46.2091722190494,21.4683459422,-93.8670077606005,0,0,0,0,0
-24.2758480854881,70.3768997349764,-26.6079535932364,84.2352413003124,32.8125700216471,45.5279358621514,13.7969516889832,-100.765211836533,0,0,0,0,0
-31.8156540668703,67.3877275024831,-21.0627699774124,92.6957663252839,43.856694722021,46.2778788623054,2.15423553281062,-108.797034201139,0,0,0,0,0
-42.5264512014308,64.8205978925513,-13.9539059686551,102.08973764206,60.5494940041957,47.0474800937605,-8.70671483611266,-116.991837193597,0,0,0,0,0
-54.3647756026569,61.4961238903203,-6.89187895900896,113.132733727971,78.776603421217,49.5355228639717,-23.2796387182452,-126.046614195632,0,0,0,0,0
-63.9762378444926,59.6730691235709,0.325222484336971,122.094842560664,91.8282719405414,54.2688699877715,-34.9214304390464,-133.251347366705,0,0,0,0,0
-72.3618218591784,56.6036469595628,7.03956331381828,127.890366863529,102.186864832819,57.6605115684085,-44.7695547299181,-136.362339348976,0,0,0,0,0
-78.0595439411138,55.7363268112353,14.539413349874,130.355596873303,107.150173388603,60.4449952821285,-53.4906609103249,-137.443923099004,0,0,0,0,0
-79.3478240190834,55.1029819515397,17.225718528713,131.723611844964,108.626579417902,60.7173950820189,-57.1321640370764,-137.382547417224,0,0,0,0,0
-79.7104176474222,55.2605139173657,17.3811761379413,131.872315861915,108.543087424939,60.7007889871005,-56.9919494414932,-136.436252756754,0,0,0,0,0
-80.7811165251981,54.1483621998919,15.4504802807203,131.369685833693,110.083770111509,59.6386308362632,-55.7186732567748,-135.180506328604,0,0,0,0,0
-81.6705398140117,53.8891957186851,11.5434778703668,130.386177442514,110.918320155476,59.1937463217064,-52.0871841666489,-132.858444563433,0,0,0,0,0
-85.4699161490813,54.5832920794106,9.49301625672861,126.12646820415,113.57199519689,58.891389564571,-48.8319741182521,-127.151152180695,0,0,0,0,0
-92.4178263405183,54.3641658863875,9.99089927660257,117.785100400649,116.824083750888,58.8084384054999,-47.6345937322172,-115.648982541273,0,0,0,0,0
-102.005621991516,54.6233917962544,12.1350239188337,108.981671164186,121.333541097163,58.8666613465432,-47.2914635858403,-103.68811169734,0,0,0,0,0
-109.025258317614,56.6341761192159,14.6624831199882,99.3241032379385,123.947134191186,59.220198746109,-47.2100908021146,-94.5755228330082,0,0,0,0,0
-115.931408792254,57.8268566575183,16.3837579948694,88.7621455058757,125.380697337935,60.7685737284137,-48.1298492229916,-84.5397760022761,0,0,0,0,0
-119.438139483046,58.3854636322935,18.4554288456461,74.8554148187964,126.894665551321,60.442208921359,-46.7891363682986,-74.5631452797057,0,0,0,0,0
-121.658776004644,60.6997602459822,26.9897612124257,58.6801359705561,127.54806492309,61.7869227358329,-52.3414928615449,-61.8587032677469,0,0,0,0,0
-124.205816679396,63.2476243684587,35.5685404750521,43.9636110255571,129.195427350551,63.5958849294862,-58.1481380428026,-51.0225517132271,0,0,0,0,0
-126.507668797401,66.1604912581723,49.0851967535552,36.5984083826437,129.915253611723,64.4005668090718,-66.024248506383,-41.611207879743,0,0,0,0,0
-130.755909042057,71.3226218091438,63.1317893451463,36.5984083826438,132.376327583872,66.4487012523081,-71.9581632975725,-36.5984083826437,0,0,0,0,0
-132.74133327509,75.1225328812683,75.5194752077916,36.5984083826437,135.191951562011,71.9589750879608,-79.3615791459661,-36.5984083826437,0,0,0,0,0
-133.274781631059,77.2610142783315,86.2097983435306,36.5984083826437,135.976100820181,76.0046436792616,-86.2372952991168,-36.5984083826437,0,0,0,0,0
-130.621682159039,79.7659236488926,92.7456334494389,36.5984083826438,132.264281842967,82.4638105163073,-83.8674694339665,-36.5984083826437,0,0,0,0,0
-130.949154847191,82.535365939855,97.2515822549035,36.5984083826438,131.347128242472,88.3677660148995,-83.6740694301263,-36.5984083826437,0,0,0,0,0
-130.164774642164,85.0038761302342,97.3475322967991,36.5984083826437,130.018535475148,91.8988994213694,-81.2145922375374,-36.5984083826437,0,0,0,0,0
-128.248196772377,83.1611099520998,90.5593595755704,36.5984083826438,128.744823262697,91.5477414683795,-74.1924811898847,-36.5984083826437,0,0,0,0,0
-125.444104098128,83.4022579182426,83.8364821072937,36.5984083826437,126.04641568113,90.9810900774306,-67.182662136739,-36.5984083826437,0,0,0,0,0
-121.624902081193,83.2535101961856,74.8513009598075,36.5984083826438,123.235947416862,89.7769152913935,-62.6145135004749,-36.5984083826436,0,0,0,0,0
-115.796770211643,83.6177286454442,66.0877520528196,36.5984083826437,119.905092165565,88.9456200752803,-58.0129161038175,-36.5984083826437,0,0,0,0,0
-108.030991901337,84.2743992001192,54.9307177625845,36.5984083826438,115.155036028488,88.0066928827964,-51.874916966393,-36.5984083826437,0,0,0,0,0
-95.5317365389471,84.5326994910317,38.4164986243349,36.5984083826437,103.075153819897,84.4593281694849,-39.270459637585,-36.5984083826437,0,0,0,0,0
-80.0549017258027,86.9052163231011,24.6401956047463,36.5984083826437,88.1361863062464,80.1559324919047,-25.6794638380092,-36.5984083826437,0,0,0,0,0
-67.1110350655859,90.3698115259846,11.2109333499953,36.5984083826438,73.9159469100466,78.3087794679115,-17.1966715925804,-36.5984083826437,0,0,0,0,0
-57.4592961602484,92.8729439252044,0.417314346097645,36.5984083826437,62.613439889769,76.329730712603,-7.84914493449112,-36.5984083826437,0,0,0,0,0
-48.6139048899798,94.8702358536743,-7.71211642930893,36.5984083826437,53.258660507271,73.9097201438642,-1.05669778793144,-36.5984083826438,0,0,0,0,0
-39.3636636425787,96.8968394987992,-15.7951418418968,36.5984083826437,43.1276160268162,71.6482895090498,5.85411479474556,-36.5984083826437,0,0,0,0,0
-29.0396444660577,97.4938377359338,-23.6639896561789,36.5984083826438,33.1282169398897,69.0922822101758,10.7174972580674,-36.5984083826437,0,0,0,0,0
-18.3929860490022,97.208200068503,-25.9513262448485,36.5984083826438,21.2932679999523,67.3077361937352,16.4580705182009,-36.5984083826438,0,0,0,0,0
-10.7013974448122,97.4708964127691,-29.0322356393204,36.5984083826437,12.2685085406607,66.578467561883,24.0104772623783,-36.5984083826437,0,0,0,0,0
-3.65776547729401,96.7928019527494,-34.3580718477127,36.5984083826437,4.44981703593095,65.2553682469431,28.5025793684885,-36.5984083826438,0,0,0,0,0
1.14189496957393,97.4932194425002,-37.7594869179828,36.5984083826439,-1.89287706235708,64.0778920281018,32.7138078364057,-36.5984083826437,0,0,0,0,0
4.30304601184479,97.4070626804412,-39.1429359171673,36.5984083826437,-6.90800977851721,65.4253171130758,37.8422989113994,-37.0243001772206,0,0,0,0,0
7.13758423778204,96.9167068679378,-37.7907966617654,36.5984083826436,-10.4739244187696,67.8493565816248,38.4340473117024,-37.4359550343284,0,0,0,0,0
9.23737865916738,96.9396987585139,-40.1877230110251,36.5984083826437,-9.57124796767062,66.6726320952067,37.5795736823159,-45.0301113067271,0,0,0,0,0
9.91076231395216,96.2103789416237,-40.0186019593611,36.5984083826437,-5.59258286090754,61.5933790633823,37.5821946813897,-58.0932431085291,0,0,0,0,0
5.10121593632952,92.4722934493181,-37.5315614766387,45.8649952920107,-1.583797008042,58.809381085719,35.6775223474988,-65.8561382689,0,0,0,0,0
0.266901569620948,88.2137945435131,-36.9698372769137,55.3125573593807,3.7150072791023,56.6721653617701,30.6388686313576,-73.6863218197009,0,0,0,0,0
-6.89121651905949,85.9215779710055,-34.3983247480387,66.1509284985239,11.1039293476606,55.481444817211,25.4840603050458,-83.2132177278234,0,0,0,0,0
-13.9502624734946,82.5808756812565,-30.6352273206475,73.1312975440653,19.992606062886,54.2080663552056,19.8819249763854,-90.901255054185,0,0,0,0,0
-23.5402848149254,79.2326285811521,-26.4527130451235,83.044432849191,32.2878076833894,51.5970209143699,12.025038639194,-100.275370645056,0,0,0,0,0
-33.6074266647828,75.7740654795169,-23.453298120446,93.0964377916027,46.2732323347595,50.4735984812929,4.2681410493255,-109.588659832756,0,0,0,0,0
-44.0301824796219,73.3289425186404,-19.4245845789346,103.662796774609,60.4630368486991,53.2820063528934,-5.02116012094148,-119.833199718082,0,0,0,0,0
-56.2978561623278,69.2937175967035,-15.3059853952503,113.961624667172,77.1057419273067,55.9481727362041,-15.7385672824602,-128.838839064829,0,0,0,0,0
-71.6222279559266,66.445046867548,-7.42598623561941,124.340223486119,95.7677748926456,60.4251286832524,-30.7528192094967,-136.700047358386,0,0,0,0,0
-81.4574669491027,65.6223647563121,-1.45332159131157,130.307455187151,108.126428277864,65.4180542372796,-40.9598144132537,-140.25407113403,0,0,0,0,0
-85.2278878927778,64.9476770000226,4.64760206425527,134.832204240464,112.133858472792,69.5099540461368,-49.6232855657429,-142.782047408079,0,0,0,0,0
-83.5737708808894,63.2686211852218,7.8202166372431,136.576353843308,114.717631195332,68.5838682427535,-52.7768845512742,-143.485549843628,0,0,0,0,0
-80.459519352001,62.3965952814972,7.77734020653849,137.526892313051,113.47341233365,69.1139542863593,-54.2786800876465,-143.020944548098,0,0,0,0,0
-77.5664218831002,61.6386463414827,6.56305331022063,136.250726191786,113.160326417043,67.1938979366131,-54.4306055572662,-141.347651927369,0,0,0,0,0
-75.6329489694723,59.4797581246248,3.68973239257664,135.259528003369,114.597587997534,64.2107874906841,-53.8582536035444,-139.882740500402,0,0,0,0,0
-74.7770875327684,57.7232432077496,1.12184445438416,133.507419734925,115.645888507229,61.413228996502,-52.874143418947,-137.41335430908,0,0,0,0,0
-76.8274743374948,54.4313737515041,-0.944216559740395,130.227486741805,117.77178305239,59.9629818080458,-52.9827173059791,-132.732360962291,0,0,0,0,0
-81.0298854375089,54.3018800597561,-1.85781934619909,126.078956316017,120.37312829688,58.0927661463637,-51.0295307930093,-125.779385053217,0,0,0,0,0
-89.9071377100997,51.5425736018741,1.72450569383889,118.385359129147,124.38854515374,59.1594015472056,-52.8584460733476,-112.794677579247,0,0,0,0,0
-99.5221839016168,51.326714988653,4.45390016053415,109.545569654651,126.838417647839,60.6510917834154,-52.3156577921381,-101.316848731571,0,0,0,0,0
-110.483146801618,52.6983721146546,9.93046920573376,98.3532886905987,130.002498762775,61.4038801935221,-52.3740550144787,-90.7395223751784,0,0,0,0,0
-121.104501857734,54.8135517799798,15.9082682499409,84.2553050874948,133.515659491405,62.2649317086244,-52.3087380829313,-78.445823134295,0,0,0,0,0
-126.751295222216,57.0121695757914,24.2211832236729,67.8605129613586,135.417605826634,63.2734979048149,-56.3341117816682,-65.4987958408869,0,0,0,0,0
-129.03934428017,62.4921435552963,36.8399445178972,46.2627229918973,135.481361494344,65.4217636050122,-63.3306201195011,-52.6380637476229,0,0,0,0,0
-132.713171580709,67.4074075205327,50.3011063871795,36.5984083826437,135.658890272501,66.0655046082369,-70.0783478894922,-39.0394218531828,0,0,0,0,0
-136.15742640357,73.9550509493725,66.9851963639771,36.5984083826437,137.483042969256,71.964220250661,-77.9075559282214,-36.5984083826437,0,0,0,0,0
-133.21893774847,78.122409650791,79.6486065396766,36.5984083826437,132.075874855516,79.44423549265,-79.5716956840009,-36.5984083826437,0,0,0,0,0
-133.918396078507,82.1987608633559,88.3305634395303,36.5984083826438,131.635047584318,86.9097893243895,-79.1471729568397,-36.5984083826437,0,0,0,0,0
-132.646382316781,83.6934293745328,92.8050194008916,36.5984083826437,130.515210697347,90.4276703495207,-76.6174044540776,-36.5984083826438,0,0,0,0,0
-130.877820621579,82.2962617402649,86.1020249455903,36.5984083826437,128.44337921588,91.3545764312794,-71.8567622767264,-36.5984083826438,0,0,0,0,0
-127.354012046877,82.3452165985757,81.6396793734704,36.5984083826436,126.260839026108,90.9332019503872,-67.1880740591509,-36.5984083826437,0,0,0,0,0
-122.821322358751,82.1915400340666,70.4392844413604,36.5984083826437,124.090642742269,89.6345816872513,-60.2732187685244,-36.5984083826437,0,0,0,0,0
-116.875829319161,82.8280690832522,61.620439465553,36.5984083826437,120.735044315148,88.4334212974733,-55.729801705918,-36.5984083826436,0,0,0,0,0
-106.724286361396,83.3311621575111,49.6078172603221,36.5984083826437,113.125069263289,86.5512111623845,-46.6304260725231,-36.5984083826436,0,0,0,0,0
-90.4337167258121,84.3116371990038,32.2615399259296,36.5984083826437,97.9576609232565,82.1358323624566,-33.255072763458,-36.5984083826437,0,0,0,0,0
-73.7898158667232,86.309507765466,14.8754759166005,36.5984083826438,80.4026081345768,78.5301083032727,-19.5962744904315,-36.5984083826438,0,0,0,0,0
-61.983839327214,89.3730603906523,3.95887940314846,36.5984083826437,67.3613572462919,75.6910511123668,-10.5471630584436,-36.5984083826437,0,0,0,0,0
-52.4058316281809,91.4190876754484,-9.21623219102655,36.5984083826437,56.5654504560169,72.7038901708595,-1.44203210678711,-36.5984083826437,0,0,0,0,0
-42.9109085595126,94.1462980427335,-19.9791377115551,36.5984083826437,45.3447448853844,70.9230747190066,5.62098751361506,-36.5984083826436,0,0,0,0,0
-31.8801491629434,95.0773702614795,-27.6284426360557,36.5984083826437,34.949188529058,66.9311606278349,11.5602852503802,-39.1328932142154,0,0,0,0,0
-22.1002538483717,96.1306847764888,-31.7106694465922,36.5984083826438,24.1040337142417,64.5913004740391,19.7745967381784,-43.1293603628479,0,0,0,0,0
-13.3668591739845,96.3424175421558,-37.0199414071027,36.5984083826437,14.8186177195092,63.8552594263224,27.5257244039381,-45.808900211652,0,0,0,0,0
-7.4768680237116,96.5490616987183,-40.3200711014592,36.5984083826437,9.13962233167185,62.5894905999957,31.2438860669359,-48.6027193512529,0,0,0,0,0
-2.81878571336037,93.7828225457708,-41.2328512451862,36.5984083826438,4.86068628289827,61.2569757084057,34.5382933671443,-51.1520976932184,0,0,0,0,0
0.0906677001086908,92.9008236860046,-42.8795703363975,36.8453939168261,2.05395068211702,59.7521460638433,37.1374825878771,-54.1831554519959,0,0,0,0,0
-0.453463253840078,90.3866617272742,-41.3717340709911,40.2991320577498,1.01693574675834,61.2692540769846,37.6248253901268,-55.7554558466357,0,0,0,0,0
-4.04714350762542,86.0565678157623,-40.9709729353688,51.7909980514514,4.5021235790314,59.1837591749037,35.9368358045374,-65.0067161037476,0,0,0,0,0
-7.4024865389926,81.5928174760417,-40.0422407214221,61.8897061475499,8.49804475508666,55.2851053991687,32.8567202364257,-74.6962150892098,0,0,0,0,0
-12.2292526531287,79.8991242459682,-36.9869548053385,66.4944168131756,14.7897322278121,54.9274156427483,28.7046201361881,-80.7469035766086,0,0,0,0,0
-17.7645103908902,80.4803562838493,-32.0782832628564,69.7722797977276,20.9040441327073,56.4885870774442,24.5845781999268,-84.9914960441381,0,0,0,0,0
-23.3216151417286,79.2155932657437,-30.3097165692707,77.8514469913117,28.8803534689396,56.1879435684302,19.0325652982808,-93.3172664694537,0,0,0,0,0
-30.4980630465176,77.4915864847641,-27.3264102393963,88.0333146995752,38.2090545304068,57.5472275549572,13.8229234854508,-101.354944024318,0,0,0,0,0
-43.7031748656822,76.157032998964,-21.4205603752152,101.045524847999,53.0660378193406,62.1064849070479,6.21875863785535,-112.154282161357,0,0,0,0,0
-58.6056885100796,72.5189458759498,-15.1986494933275,108.775467274174,68.9172881099529,66.4513348931595,0.169177354409457,-115.371461325187,0,0,0,0,0
-71.9158361167972,72.8476546878132,-8.19968835640287,112.991584169731,81.6796632074269,72.1624196248019,-4.72430008949228,-119.449096735011,0,0,0,0,0
-83.3981413266338,75.1304157450127,-3.04707064085289,118.479819797547,92.4991088247847,77.9683633898373,-9.34747417565966,-123.80890514727,0,0,0,0,0
-100.027252376305,77.2791388437585,9.6966942673537,74.026782214235,102.623751897196,81.4181700171294,-12.9164685075761,-76.4182350607397,0,0,0,0,0
-101.157188437373,82.7533137533372,20.4604789827098,36.5984083826437,100.566910240364,84.1572913861596,-18.8422361074965,-36.5984083826437,0,0,0,0,0
-105.236119938544,88.5061643392252,19.8400357592964,36.5984083826438,103.982716970145,88.3716136583144,-15.9707540972728,-36.5984083826437,0,0,0,0,0
-106.380668292443,89.466347595627,14.6490818025892,36.5984083826439,103.861890113104,89.4543476027689,-10.7068021197427,-36.5984083826438,0,0,0,0,0
-105.835943375474,89.4259061281755,9.58372485921334,36.5984083826437,102.758200020758,88.448998748015,-1.71268199982256,-36.5984083826438,0,0,0,0,0
-104.194492831892,88.1050881355753,2.34701747305977,36.5984083826437,101.139822081716,87.8477438323133,3.14689593880323,-36.5984083826437,0,0,0,0,0
-103.646174856323,87.4647522650427,-0.516359795537892,36.5984083826437,100.946851399803,87.1560176118064,5.46359150077886,-36.5984083826438,0,0,0,0,0
-103.065927134114,86.752753926319,-2.82635113031565,36.5984083826437,100.542214881923,87.0108024648712,5.42123065100254,-36.5984083826438,0,0,0,0,0
-102.775255754316,86.6042265999042,-2.78282116563012,36.5984083826438,100.343436874932,86.1063186086975,7.67768750350674,-36.5984083826437,0,0,0,0,0
-102.310192004442,85.6773712321663,-5.0316344492742,36.5984083826438,100.022759179456,85.7745334384993,7.58121909157726,-36.5984083826438,0,0,0,0,0
-102.640541163492,85.9153508279389,-2.5807350085809,36.5984083826437,100.207676316281,85.2328750767498,7.42354082135167,-36.5984083826437,0,0,0,0,0
-103.611675114202,85.2307628468654,-1.95000360138026,36.5984083826437,101.140824460791,84.9932970269118,4.83123716829895,-36.5984083826436,0,0,0,0,0
-104.727800065805,84.6739802559669,0.773622230043311,36.5984083826438,102.370076588653,84.0575803034602,3.01665194205387,-36.5984083826438,0,0,0,0,0
-105.860911624801,84.2348800476736,6.02868383014011,36.5984083826437,103.529577688249,83.3694035040571,-2.21176406606675,-36.5984083826438,0,0,0,0,0
-106.610313828553,83.2314992531343,13.9891064477871,36.5984083826437,104.15026705402,81.6032622101736,-7.70719432408403,-36.5984083826437,0,0,0,0,0
-105.834189518346,79.0011329011063,20.0427907366155,36.5984083826437,103.088024527686,77.6999413322923,-15.8281285346394,-36.5984083826437,0,0,0,0,0
-105.681888652074,73.9491904353233,31.4073663611691,36.5984083826437,103.062708410601,72.380084165203,-26.908346870517,-36.5984083826437,0,0,0,0,0
-105.940008371878,67.9848984418992,43.1445930060826,36.5984083826437,104.247378702061,66.0392040983062,-38.8264267599714,-39.6507361701003,0,0,0,0,0
-105.854340423236,60.2583814360658,52.4682039247369,37.5586550702248,105.805544132654,58.8181927570287,-48.9284181858296,-42.722282824388,0,0,0,0,0
-109.246647137294,54.3037357881834,64.0585906584748,38.314751070618,110.090423352996,52.2780778612885,-58.8689251554044,-42.5219665338361,0,0,0,0,0
-112.220680546542,45.8488604170156,71.1458528626061,40.9427218822775,112.572286554366,43.7143317949721,-68.0726237554293,-44.0056108549743,0,0,0,0,0
-119.018195425344,37.9421537137343,81.9523804868745,41.0717828205619,119.385718357864,35.4036472031371,-78.9251423110635,-43.6992115927243,0,0,0,0,0
-123.016820763328,29.9762358558702,92.4358103367757,41.0099361140897,125.877543573899,27.8041253267607,-89.2556331005202,-42.5187953462676,0,0,0,0,0
-132.645047105186,23.6576456404979,105,39.5271642026486,136.639487296165,21.8884718508345,-104.248901005557,-40.7474953301798,0,0,0,0,0
-144.113270834074,19.6696557315993,105,37.1332741518687,149.284175499231,18.6551103131435,-105,-37.9348705152528,0,0,0,0,0
-154.858736199743,17.583238575419,105,36.5984083826437,155,17.4980038464335,-105,-36.5984083826436,0,0,0,0,0
-155,16.5016494500966,105,36.5984083826438,155,17.1788563877283,-105,-36.5984083826436,0,0,0,0,0
-155,15.9938017204658,105,36.5984083826437,155,17.5289657796268,-105,-36.5984083826437,0,0,0,0,0
-155,16.1557542846797,105,36.5984083826437,155,17.7990572817881,-105,-36.5984083826436,0,0,0,0,0
-155,15.6852014808686,105,36.5984083826437,155,18.0570345661724,-105,-36.5984083826438,0,0,0,0,0
-155,16.1850846274674,105,36.5984083826437,155,18.181283599865,-105,-36.5984083826438,0,0,0,0,0
-155,17.0057514492274,105,36.5984083826437,155,19.3901563945127,-105,-36.5984083826437,0,0,0,0,0
-153.916976494131,19.4346761564781,105,36.5984083826437,155,21.0046420765433,-105,-36.5984083826437,0,0,0,0,0
-145.523138237469,23.1063000292553,105,36.5984083826437,147.081154640283,23.9193976948691,-105,-36.5984083826437,0,0,0,0,0
-136.695553662533,26.8558599027925,105,36.5984083826438,138.016620297325,27.8671598567605,-105,-36.5984083826437,0,0,0,0,0
-130.672105766496,31.2138712824794,105,36.5984083826437,130.697537067673,32.1436975199548,-105,-36.7597520799053,0,0,0,0,0
-123.455223649143,36.501062907145,102.105753667555,36.8015222754446,122.41353906678,38.5176618910725,-96.9172625903091,-38.2049823946403,0,0,0,0,0
-116.891152531859,43.603407231,88.8588271773016,37.1013802777738,115.624405929727,45.9270944767938,-83.3575966142286,-38.6587816467484,0,0,0,0,0
-110.058253783447,50.0123458825287,75.8931250337143,36.8938152926792,108.729116333217,52.6393044006952,-67.8472843984043,-38.7378171585889,0,0,0,0,0
-103.039258005387,57.0504073012952,61.115242315598,36.5984083826438,101.44972658427,59.4791113731586,-53.2766704465521,-36.5984083826437,0,0,0,0,0
-96.1914667712817,63.3857180871681,45.5772776083113,36.5984083826437,92.7848513921489,66.0367354686512,-37.2894190980397,-36.5984083826437,0,0,0,0,0
-91.5702070305445,70.5964342073032,35.2977028359484,36.5984083826438,89.3570588019145,72.7782834353853,-25.9660837842438,-36.5984083826437,0,0,0,0,0
-87.1106818628667,77.9251605325623,22.2258604137052,36.5984083826437,83.9809592894389,79.7552213521542,-14.2903494204912,-36.5984083826438,0,0,0,0,0
-78.4077818301633,85.4503627942092,10.1245035751027,36.5984083826438,74.5876006648248,86.3842818539952,0.199235236586115,-36.5984083826437,0,0,0,0,0
-65.1219564943472,91.8216875127363,-6.82184019200732,36.5984083826437,63.2826303747828,92.5202045957427,14.5418408886567,-36.5984083826436,0,0,0,0,0
-57.1005042687745,98.2646753757281,-18.6673691871544,36.5984083826438,56.3896955838175,98.8861024145854,21.3107990610529,-36.5984083826438,0,0,0,0,0
-50.3716117423249,104.817564816056,-30.2729816397442,36.5984083826437,50.5634684447597,104.880057575037,32.6764159480189,-36.5984083826437,0,0,0,0,0
-40.9215838600714,105,-41.4397873678458,36.5984083826438,43.4460492357077,110,41.3288484035778,-36.5984083826437,0,0,0,0,0
-32.3936279717349,105,-50.7206673314562,36.5984083826437,38.1237807998826,110,49.7658976323043,-36.5984083826437,0,0,0,0,0
-26.0057829302148,105,-53.1709365391628,36.5984083826437,35.5496644472387,110,54.9886445206406,-36.5984083826439,0,0,0,0,0
-21.1654249512096,105,-49.8521221767873,36.5984083826437,34.5553190001435,110,54.3807937935046,-36.5984083826437,0,0,0,0,0
-21.7641691285428,105,-47.4778684781374,41.6202325352364,35.2671343925874,110,52.0104613376029,-36.5984083826437,0,0,0,0,0
-22.6007305170784,105,-47.2804106413145,43.3021063743432,36.7478572335773,110,51.9989959927415,-36.5984083826437,0,0,0,0,0
-24.9281513312345,105,-45.6482929384552,41.9845473279918,38.0657995726541,110,51.6682744481102,-36.5984083826437,0,0,0,0,0
-27.2109047485657,105,-45.9688122311833,36.6524773317801,40.1456493250832,110,48.530061005196,-36.5984083826437,0,0,0,0,0
-30.7878534625749,105,-43.4787347069182,36.5984083826437,39.650913212344,108.804564929603,45.4063081654764,-36.5984083826437,0,0,0,0,0
-36.4800726865789,105,-42.9272911308696,36.5984083826437,42.3794413273741,103.517524528554,41.744758812171,-36.5984083826437,0,0,0,0,0
-41.8994353746115,97.8762091802301,-33.2192955894324,36.5984083826437,44.6179686682953,96.8884849715654,32.9678191036488,-36.5984083826438,0,0,0,0,0
-47.5920318973728,87.3949822526615,-20.6116931245933,36.5984083826438,48.3761337466633,86.8718949676865,22.9721665825925,-36.5984083826437,0,0,0,0,0
-59.7625928417121,78.3738577929073,-7.93188710901112,36.5984083826438,58.1557343487376,78.7236958572971,10.5765223662536,-36.5984083826437,0,0,0,0,0
-73.595409792603,69.5819859444966,10.0171575703153,36.5984083826437,70.3614878595957,68.9556513957095,-5.32534371241293,-37.2522737613827,0,0,0,0,0
-82.9406153894635,63.8638853243495,28.0381851195392,36.5984083826437,80.7912151719619,62.4116547227944,-20.6397961903165,-39.5374738216587,0,0,0,0,0
-90.2441577017374,58.3750802443714,41.8227768030549,37.5305223884443,88.5008685140506,56.9732826699296,-34.3460734375834,-41.4386065346681,0,0,0,0,0
-98.8034734075377,52.457253167138,53.341195947966,39.723156684226,97.6791020975124,50.8902059267661,-46.2452382075796,-43.382440882428,0,0,0,0,0
-106.922606842128,46.9658518678855,63.4844659838535,39.3646830238305,106.434251159536,45.1214976458331,-56.9800512996919,-42.4333328174705,0,0,0,0,0
-118.101884090577,40.3971985687923,75.2675858175367,38.8970094494582,117.469215555511,39.5159546621573,-70.9988350970202,-41.1664819771614,0,0,0,0,0
-127.55946845574,35.0534225370504,88.6000691154808,37.9394782762269,127.910888959017,34.8286891020173,-85.1804965151593,-39.441559151702,0,0,0,0,0
-137.802496119901,30.2720020019994,102.689720220861,36.5984083826437,138.180198071194,29.8299037381534,-99.0968156640375,-37.5553635053924,0,0,0,0,0
-145.655627726491,27.6939988059254,105,36.5984083826437,147.213740135783,27.6826472798715,-105,-36.5984083826437,0,0,0,0,0
-155,26.7795714405851,105,36.5984083826437,155,26.6562898982656,-105,-36.5984083826437,0,0,0,0,0
-155,23.8589986350065,105,36.5984083826438,155,24.6133120313538,-105,-36.5984083826438,0,0,0,0,0
-155,23.0980137726627,105,36.5984083826437,155,24.2499726384386,-105,-36.5984083826437,0,0,0,0,0
-155,22.5323855525713,105,36.5984083826437,155,23.8863983941199,-105,-36.5984083826436,0,0,0,0,0
-155,22.2935080439208,105,36.5984083826436,155,23.8327293435023,-105,-36.5984083826437,0,0,0,0,0
-155,22.0089921243013,105,36.5984083826438,155,24.142555836469,-105,-36.5984083826438,0,0,0,0,0
-155,22.8843990986687,105,36.5984083826437,155,24.5288103193439,-105,-36.5984083826435,0,0,0,0,0
-152.568509951024,25.4193356518171,105,36.5984083826437,155,26.1312197419614,-105,-36.5984083826437,0,0,0,0,0
-141.26465892536,29.3270607469312,105,36.5984083826436,143.757258426934,29.6141247898606,-105,-36.5984083826437,0,0,0,0,0
-131.911689596419,34.8417360040712,105,36.5984083826437,133.715287206395,34.7637570094253,-105,-36.5984083826436,0,0,0,0,0
-125.699685231206,42.7946528800574,100.63104613846,36.5984083826437,126.859093493764,42.7421688510844,-97.9492795356554,-36.5984083826436,0,0,0,0,0
-116.336593625066,49.6821561473441,84.2839780837152,36.5984083826437,117.163183536408,49.7531216044446,-81.1420624336632,-36.5984083826437,0,0,0,0,0
-108.833153312272,58.914319329864,67.7381364812314,36.5984083826437,108.867948247227,59.0207716231257,-63.8854947365441,-36.5984083826437,0,0,0,0,0
-105.057714745446,69.6464457171854,54.9483925722089,36.5984083826437,104.47021399419,69.8787237286861,-50.7487870145054,-36.5984083826437,0,0,0,0,0
-101.295331949274,79.5498024672364,43.4719487799798,36.5984083826438,101.178726609833,79.3014397146949,-37.2296627835529,-36.5984083826437,0,0,0,0,0
-96.5519756601357,86.3562752755427,21.4478715399775,36.5984083826437,95.6878494113594,86.5666847886603,-17.2946526291051,-36.5984083826437,0,0,0,0,0
-83.6608435677005,93.0119245590522,-9.67768851817549,36.5984083826437,83.1604417403371,93.1964238643788,12.2354208112759,-36.5984083826437,0,0,0,0,0
-69.66498223591,101.511798876806,-36.5383008303034,36.5984083826437,70.2053209426597,101.269244819575,36.4767638893969,-36.5984083826438,0,0,0,0,0
-58.1726462387598,105,-49.692014978712,36.5984083826438,61.9025786581482,105.067049921373,49.0198324878882,-36.5984083826437,0,0,0,0,0
-51.8645058247429,105,-58.4471876970404,36.5984083826438,57.7744496102776,109.522404986872,56.6569869110995,-36.5984083826437,0,0,0,0,0
-45.51192588174,105,-60.9140335774408,36.5984083826438,52.6559750564613,110,60.2228112332245,-36.5984083826437,0,0,0,0,0
-39.9241043144295,105,-59.9011357263516,36.5984083826438,49.7137472012233,110,61.8637803271897,-36.5984083826438,0,0,0,0,0
-36.7240354936806,105,-62.7988914315049,44.1459434542935,48.5666196943662,110,67.094631111515,-41.5567432311692,0,0,0,0,0
-35.3267067670573,105,-60.8564706964854,48.2839392674029,48.6881761623537,110,66.3155555787915,-46.1834208244582,0,0,0,0,0
-36.7986122822186,105,-58.372167147713,50.9506955641896,49.8949079059686,110,66.357304096059,-49.2888489396781,0,0,0,0,0
-37.3828120031024,105,-57.2485810609767,46.8515513667988,50.5539593456639,108.580763681509,64.8226829326403,-46.1137585324604,0,0,0,0,0
-40.6597107937371,105,-57.7575755747319,47.8893783372435,53.4186256709714,104.643364979092,61.3621738635853,-45.8179576826226,0,0,0,0,0
-43.2594390008309,105,-53.4005563400656,36.5984083826437,53.5450453843768,102.155512303549,55.2534238548753,-36.5984083826437,0,0,0,0,0
-49.7836857729848,98.9934766401755,-45.3828564864081,36.5984083826437,58.5137854560926,96.0085034295227,47.104160676848,-36.5984083826437,0,0,0,0,0
-59.1698568907022,91.3819982094349,-36.4745562753895,36.5984083826437,65.878269597681,89.1166784209852,38.3900539670369,-36.5984083826438,0,0,0,0,0
-73.5141412727946,83.339531936059,-19.4979428007441,36.5984083826437,78.1638204344828,82.0298324181929,21.6620727252876,-36.5984083826438,0,0,0,0,0
-85.5316976460311,78.0179049820802,2.30174634012754,36.5984083826437,89.3321151388655,75.2485666666282,-0.634538458607237,-36.5984083826437,0,0,0,0,0
-92.4333109021668,70.9190564498459,26.1389840977745,36.5984083826437,95.1632376279048,67.4883387064336,-24.0279161866765,-36.5984083826437,0,0,0,0,0
-97.035654552318,63.1632469888045,43.6684827993824,36.5984083826437,99.1859269407649,58.7846761117197,-39.3868499631529,-37.1458893197195,0,0,0,0,0
-102.981872667532,55.478354808693,56.2801935409046,36.9922165807157,106.571402305524,51.212010333793,-51.0244221996674,-40.6946840314038,0,0,0,0,0
-108.373711379644,47.1230328419955,62.2107647427223,39.9012126997351,112.02012242156,41.2837580064579,-57.6806781593824,-44.1664527372471,0,0,0,0,0
-116.376539100877,38.983353783821,68.7223997196677,41.339305658127,122.655763422771,31.2553588233242,-67.3732630680439,-46.3617951342659,0,0,0,0,0
-124.291312237076,31.3676688961052,75.4750929252832,41.5918792545797,132.354513398062,23.4734503156183,-78.4003030321727,-45.3417998907379,0,0,0,0,0
-133.906151951037,28.6171666932603,85.9339599232617,38.8033647551118,142.490554868676,18.3759082569175,-89.9405933298397,-43.3728327516907,0,0,0,0,0
-148.861620840401,26.8078837660361,100.92989741893,36.5984083826437,155,16.4247815455052,-105,-40.9938912950826,0,0,0,0,0
-155,27.1318338505721,105,36.5984083826437,155,15.9022991588576,-105,-38.9421805278545,0,0,0,0,0
-155,27.9118643557749,105,36.5984083826437,-120,16.0620128008579,-105,-36.81318561786,0,0,0,0,0
-155,29.153250162772,105,36.5984083826437,-120,17.8185448919569,-105,-36.5984083826437,0,0,0,0,0
-155,29.4066033098752,105,36.5984083826437,-120,18.5473269107356,-105,-36.5984083826436,0,0,0,0,0
-155,28.6442211067007,105,36.5984083826437,-120,18.3694838732649,-105,-36.5984083826437,0,0,0,0,0
-155,28.4096517552789,105,36.5984083826436,-120,18.4310790928251,-105,-36.5984083826437,0,0,0,0,0
-155,26.8741853495079,105,36.5984083826437,155,17.4428451037485,-105,-36.5984083826438,0,0,0,0,0
-155,26.926224539578,105,36.5984083826437,155,17.9645199581993,-105,-36.5984083826437,0,0,0,0,0
-155,27.9629164392774,105,36.5984083826436,155,20.272478716074,-105,-36.7722515732397,0,0,0,0,0
-143.27691938534,29.1608240704567,105,36.5984083826437,139.29103693666,24.1330781934279,-99.571374769764,-39.159394532883,0,0,0,0,0
-131.64861779899,33.3254531142132,93.9827360507718,36.9975353599517,127.656422337648,29.6515014526068,-85.7192136702514,-40.9199814481309,0,0,0,0,0
-123.701903743236,41.0420115347975,83.2470447939309,36.5984083826437,121.068700931283,37.7267879942902,-74.9452575283576,-40.4647819740722,0,0,0,0,0
-115.257373658028,47.9884012616714,70.7284904738773,36.5984083826437,112.800084469882,45.9263646761486,-62.604497604128,-39.8062561548075,0,0,0,0,0
-109.613292981579,56.3715417283755,58.6891380981666,36.5984083826437,107.537140964443,54.9175134042244,-53.5811144679174,-36.8022826419605,0,0,0,0,0
-103.688943165261,66.3480228078012,47.2519565772552,36.5984083826437,103.885720169008,65.6684681323158,-43.7329157502434,-36.5984083826437,0,0,0,0,0
-100.851183768595,76.6126565512769,36.3552873732021,36.5984083826437,101.321420631923,76.0257478441848,-32.9226474835274,-36.5984083826438,0,0,0,0,0
-97.2346567393904,84.9614606060533,21.7374314528386,36.5984083826438,98.8672052233853,84.49716174471,-20.9031391885497,-36.5984083826436,0,0,0,0,0
-83.966793606966,91.7319217975836,-4.2817438225159,36.5984083826437,90.4790994077696,90.5814478775318,-1.08857183844272,-36.5984083826437,0,0,0,0,0
-70.0620733102871,100.232917797463,-26.5813594132588,36.5984083826437,76.5464521447362,96.8145979239826,23.1896171235838,-36.5984083826437,0,0,0,0,0
-57.8132417728582,105,-37.8258360636335,36.5984083826438,66.3343695590176,101.721350487305,36.5915529862554,-36.5984083826437,0,0,0,0,0
-51.1120925746386,105,-49.9466051671259,36.5984083826437,60.3336771359799,106.725814508593,49.385912276695,-36.5984083826437,0,0,0,0,0
-43.387386442497,105,-54.9645078313805,36.5984083826438,53.9016265013643,110,56.8815028625048,-36.5984083826437,0,0,0,0,0
-37.3343698239548,105,-53.6774852809093,36.5984083826438,47.8872341115317,110,58.8446540450183,-36.5984083826437,0,0,0,0,0
-30.046354076356,105,-53.7897788189989,36.5984083826438,41.8680104977764,110,60.4561470222493,-36.5984083826438,0,0,0,0,0
-27.3757515953851,105,-51.8517385780982,36.5984083826438,40.5441448758903,110,59.8608026619161,-36.5984083826437,0,0,0,0,0
-26.2261276190225,105,-50.4825226843942,36.5984083826437,40.0506997693055,110,59.3667565578789,-36.5984083826436,0,0,0,0,0
-27.7518717609697,105,-48.4824345784665,38.3593840877786,40.8816463565126,110,59.7562263861943,-38.6281773734242,0,0,0,0,0
-29.8752132916813,105,-51.9923052718152,41.7832568197525,42.7739854849044,110,60.7084163298705,-41.4373397459206,0,0,0,0,0
-34.3483327341438,105,-51.7462897300613,39.4697955226083,45.7794782988798,110,59.2265158473489,-39.8525644091844,0,0,0,0,0
-39.1348703096146,105,-50.8574227357875,36.5984083826437,49.4655738093149,109.238387097975,56.4695227647311,-36.5984083826437,0,0,0,0,0
-47.0797447381942,103.605308133921,-44.0914392539027,36.5984083826437,55.0174204181462,102.49677270101,48.46375262751,-36.5984083826439,0,0,0,0,0
-55.3398342269408,97.1399377066021,-35.4435099132861,36.5984083826437,61.7657344082542,96.6397605715719,40.118108840047,-36.5984083826437,0,0,0,0,0
-65.5741475460479,90.4553497704399,-23.9325897034151,36.5984083826437,71.2487590919468,90.6749007618911,26.4695950473754,-36.5984083826438,0,0,0,0,0
-81.7438032652655,84.4340952470887,-4.66709854460372,36.5984083826437,85.7898279658547,85.2778473980459,7.43664184914155,-36.5984083826437,0,0,0,0,0
