JMW9912/AVATAR/install/dynamixel_control/share/dynamixel_control/data/csv/poppy/.data/251119_2030_GEO/1119_2030_Semina_collar_poppy_humanoid_arm_margin_0.95_motor_degree.csv
theta1,theta2,theta3,theta4,theta5,theta6,theta7,theta8,theta9,theta10,theta11,theta12,frame
-96.5870218109193,84.0564844924183,-12.0989459237616,38.3332090238759,98.3952869770039,84.5526257381056,14.7627598503694,-41.3660192071126,0,0,0,0,0
-98.3767862167791,83.9739318518879,-12.1058460734185,36.5984083826438,98.8793816415092,84.8978995864315,14.8875935290962,-37.3972215041337,0,0,0,0,0
-98.920898309409,84.1744772782282,-12.1634817328521,36.5984083826437,99.0385983386854,85.1399501853783,14.9605948097995,-36.5984083826438,0,0,0,0,0
-98.3981431080052,84.0111933518371,-12.1165581339603,36.5984083826437,98.5919456207402,84.8755933221623,14.8857529341467,-36.5984083826436,0,0,0,0,0
-98.186191122742,83.9817258675093,-12.1080868493843,36.5984083826437,98.4653579822527,84.7059924945624,14.8377036582071,-36.5984083826437,0,0,0,0,0
-98.2760924424451,83.910720609586,-12.0876703873312,36.5984083826437,98.5052189363987,84.513226385482,14.783058133657,-36.5984083826439,0,0,0,0,0
-98.1196125366386,83.9092270621866,-12.0872408808005,36.5984083826437,98.4011678022165,84.4420191829994,14.7628630245754,-36.5984083826437,0,0,0,0,0
-98.0361168106668,83.2127978604263,-14.4133848535934,36.5984083826438,98.2297111699306,83.7525707181462,17.0905745897914,-36.5984083826438,0,0,0,0,0
-98.0733516268399,83.1923194568721,-14.4075478771717,36.5984083826438,98.1595172504571,83.7482505406595,17.0893628839189,-36.5984083826437,0,0,0,0,0
-98.2492371447716,83.1546258777592,-14.3968026893163,36.5984083826438,98.1783916289326,83.838212546316,17.1145907926717,-36.5984083826438,0,0,0,0,0
-98.1675709455194,83.2435717354372,-14.4221553861363,36.5984083826437,97.9723368834555,83.946249744944,17.144875771968,-36.5984083826437,0,0,0,0,0
-98.0301699075139,83.3093322553069,-14.4408932041133,36.5984083826437,97.6875484372275,84.1022453256653,17.1885823053861,-36.5984083826438,0,0,0,0,0
-97.7173453898717,83.300142561543,-14.4382750072204,36.5984083826437,97.0102029926067,83.6141798120162,19.5738421475688,-36.5984083826436,0,0,0,0,0
-97.3461238151197,83.3091346466953,-14.4408369053557,36.5984083826438,96.5951012720574,83.7025376410601,19.5968306981204,-36.8893664922503,0,0,0,0,0
-96.993632169019,83.3596218232653,-14.4552191820548,36.5984083826437,96.3434066455361,83.8262088219134,19.6300705197556,-37.2241649973076,0,0,0,0,0
-96.022894076017,82.7791339216316,-16.8169953548298,36.5984083826438,95.5636369227016,83.1979491122023,21.9757934276432,-38.1242134077872,0,0,0,0,0
-95.2166413849153,82.9026268551522,-16.8517667311359,36.5984083826437,94.909819159211,83.3409335843056,22.0161376833404,-38.3574491983062,0,0,0,0,0
-94.4692417101784,83.032276390628,-16.8882507425611,36.5984083826438,94.1220081792837,83.5231550405645,22.0680386205652,-38.319656439199,0,0,0,0,0
-93.3713450404724,82.5433279625491,-19.277398472862,36.5984083826438,92.9540591587918,83.0687243168748,24.4666911853638,-38.5113131197949,0,0,0,0,0
-92.1613872457785,82.7119454898463,-19.3241711293652,36.5984083826437,91.7014213262756,83.447831154697,24.5707078659103,-38.0423455653036,0,0,0,0,0
-91.0562191671936,82.846125935461,-19.3613651755469,36.5984083826437,90.3004542107707,84.0177714718103,24.7232844153041,-37.456885935725,0,0,0,0,0
-90.3052268590042,83.1802825909692,-19.453893841746,36.5984083826437,89.0722400488249,84.7235722143533,24.9038561849718,-36.5984083826437,0,0,0,0,0
-89.2930590446391,83.7496334929146,-19.6112436403433,36.5984083826437,87.7397568447247,85.5682107256208,25.1271529722161,-36.5984083826438,0,0,0,0,0
-88.1392425932401,84.4657707817139,-19.808660322622,36.5984083826437,86.3198456062483,86.6969005252185,25.4247389362286,-36.5984083826439,0,0,0,0,0
-86.8748954465522,85.4741601336224,-20.0858167848433,36.5984083826437,84.4943879093957,87.5438478925567,28.1369432594321,-36.5984083826436,0,0,0,0,0
-85.0077170212679,86.8588966045015,-20.4651454686287,36.5984083826437,82.2159984228324,88.4938928702416,30.8582794292524,-36.5984083826437,0,0,0,0,0
-83.9274488090983,87.8594141605531,-20.7385475282003,36.5984083826437,81.133398253537,89.82442345864,31.1913476046374,-36.5984083826438,0,0,0,0,0
-82.9593369887178,88.7346460020345,-20.9774046162,36.5984083826437,80.0958711349573,90.9056382671555,31.4619521733043,-36.5984083826437,0,0,0,0,0
-82.2738780517071,89.3783856381874,-21.1529726265634,36.5984083826437,79.3960649457129,91.6309555250731,31.6435644303954,-36.5984083826436,0,0,0,0,0
-81.9558029106379,89.7193519349407,-21.245943937837,36.5984083826438,79.0155260509051,91.9540162955374,31.7244955466059,-36.5984083826437,0,0,0,0,0
-81.7894565392812,89.9081588246371,-21.2974230743497,36.5984083826437,78.7855490037084,92.0860507341329,31.7575809129955,-36.5984083826437,0,0,0,0,0
-81.6223645339647,90.0059764412893,-21.3240932384471,36.5984083826437,78.5436909826626,92.1119881940303,31.7640810182142,-36.5984083826438,0,0,0,0,0
-81.4649731405469,90.1082121526633,-21.3519680178175,36.5984083826437,78.3995352070875,92.1925681306593,31.784276342881,-36.5984083826437,0,0,0,0,0
-81.4706464528753,90.1033421864739,-21.350640208444,36.5984083826437,78.4164417591299,92.063263113989,31.7518703617387,-36.5984083826437,0,0,0,0,0
-81.4512293107432,90.1577496034893,-21.3654745655372,36.5984083826438,78.4847598764571,91.9798361318486,31.7309650823565,-36.5984083826438,0,0,0,0,0
-81.4570818816282,90.1672103729245,-21.3680540821581,36.5984083826437,78.5009040697116,91.9021390369751,31.7114975619553,-36.5984083826438,0,0,0,0,0
-81.0655609745628,89.6338411294835,-23.7126067140063,36.5984083826437,78.3789136091576,91.7786229576259,31.6805534847822,-36.5984083826438,0,0,0,0,0
-81.0776997739979,89.6369673597845,-23.7134438734269,36.5984083826438,78.4126410238581,91.6604663071175,31.6509560901864,-36.5984083826437,0,0,0,0,0
-81.0532419436383,89.6279121203617,-23.7110190091445,36.5984083826438,78.4355499555894,91.6213513510281,31.6411588906832,-36.5984083826438,0,0,0,0,0
-80.9246074806034,89.6459699869916,-23.7158546439194,36.5984083826437,77.9734107667903,90.9813706555185,33.9345064120536,-36.5984083826437,0,0,0,0,0
-80.9714648137804,89.6522975246056,-23.7175490620521,36.5984083826437,78.360891711551,91.4701872065014,31.6033000978464,-36.5984083826437,0,0,0,0,0
-81.0955452266963,89.5937468174604,-23.7018699796491,36.5984083826437,78.5738577872978,91.3418092028021,31.5711522271247,-36.5984083826437,0,0,0,0,0
-81.2856540046405,89.5300720855293,-23.6848184848676,36.5984083826438,78.814944716965,91.2345652191477,31.5442993291463,-36.5984083826438,0,0,0,0,0
-81.321692741942,89.5146845391169,-23.6806977978995,36.5984083826437,78.8483205011138,91.137942722177,31.5201078715216,-36.5984083826437,0,0,0,0,0
-81.3907466700665,89.4826031468782,-23.6721065421275,36.5984083826437,79.0544603609076,90.9562903515013,31.4746318234558,-36.5984083826436,0,0,0,0,0
-81.5367128908149,89.454669832621,-23.6646260502997,36.5984083826438,79.2354331892094,90.8329741316948,31.4437629168905,-36.5984083826437,0,0,0,0,0
-81.8981499358699,89.288787810019,-23.6202015334271,36.5984083826438,79.6867651362407,90.5978466822161,31.3849103432344,-36.5984083826437,0,0,0,0,0
-82.1464843255415,89.091751341861,-23.5674292489184,36.5984083826437,79.9675279818014,90.3729193727327,31.3286157644357,-36.5984083826437,0,0,0,0,0
-82.4046684540447,88.9048746254175,-23.5173725639251,36.5984083826437,80.2260312302631,90.0794484406222,31.2551703447847,-36.5984083826437,0,0,0,0,0
-82.7413579004515,88.5523895664069,-23.42293763863,36.5984083826438,80.6422774723477,89.6680826620075,31.1522209200609,-36.5984083826437,0,0,0,0,0
-83.2698495452319,88.1155191387908,-23.305851832512,36.5984083826437,81.2727908861817,89.1990470594958,31.0348275004301,-36.5984083826437,0,0,0,0,0
-83.5532192117153,87.6847226351052,-23.1903343556,36.5984083826438,81.7222718430443,88.6585937354247,30.899523778409,-36.5984083826437,0,0,0,0,0
-84.2684809711053,87.1513979058774,-23.0472217591179,36.5984083826437,82.5535656110599,88.0904009648105,30.7572084749828,-36.5984083826437,0,0,0,0,0
-85.1391599617542,86.3769569540875,-22.8391563380576,36.5984083826438,83.4594573804763,87.3301373790082,30.566628183128,-36.5984083826438,0,0,0,0,0
-85.6897165663687,85.109359066752,-25.0059184759426,36.5984083826437,83.9481026541879,85.9890778140554,32.7171406549583,-36.5984083826437,0,0,0,0,0
-86.7929885547556,84.3477524136213,-24.8043044423941,36.5984083826438,84.9877800777559,85.2114970431932,32.5266310370683,-36.5984083826436,0,0,0,0,0
-87.7035200006946,83.6842246661491,-24.6282086331412,36.5984083826436,85.8820302124566,84.4356021272944,32.3360893013295,-36.5984083826437,0,0,0,0,0
-88.7184346635705,83.1112749294973,-24.4757771061312,36.5984083826437,86.8694481248515,83.7257802293085,32.1613212101771,-36.5984083826437,0,0,0,0,0
-89.5098984111705,82.6343654958129,-24.348607144978,36.5984083826437,87.6519838989115,83.0603255074164,31.9970320030936,-36.5984083826437,0,0,0,0,0
-90.2716988080277,82.3309338502225,-24.267549390817,36.5984083826437,88.3406232154434,82.5315358861131,31.8668575053591,-36.6805963082094,0,0,0,0,0
-91.0913508409593,82.0784814513612,-24.2000190162677,36.5984083826437,89.6865253878598,81.7796610805418,31.686555789035,-38.1261708271108,0,0,0,0,0
-92.0356372334426,81.899141544272,-24.1519941098045,36.5984083826437,91.5098089697291,81.7055028137561,29.1463032195895,-39.1443157047502,0,0,0,0,0
-92.696061881994,81.1002850397648,-26.4615972828807,36.9423757119424,92.9301309255256,81.0613270301418,28.9682455601937,-40.2866981183334,0,0,0,0,0
-94.3148122165144,80.6426033841657,-26.3204725787716,38.5773590607838,94.2189089694106,80.4855076910663,28.8019901599942,-41.0403534433641,0,0,0,0,0
-95.716171225671,80.2252303089241,-26.1794931713422,40.5646687165002,95.8163853712795,80.6594765921866,26.297761425543,-41.9519303384355,0,0,0,0,0
-97.2447913255996,80.6564917360059,-23.7497640351139,41.0171145874706,96.941373673416,80.3059909271201,26.1905334137472,-41.9218764496532,0,0,0,0,0
-98.3919158127541,80.3799639530117,-23.6617881971924,41.291059904344,98.1311246211853,80.6731649261203,23.7510211134113,-41.3306311154274,0,0,0,0,0
-99.3815573465289,80.8828429519394,-21.2663435314458,40.8269082817967,99.0059998198307,81.1574603801236,21.3571664346876,-40.400067348594,0,0,0,0,0
-99.9626197552395,81.5734659379062,-18.9504552800707,39.4285171835164,99.8072485603699,82.5678803325781,16.7191280181793,-38.7007178062796,0,0,0,0,0
-100.591364224305,82.0960406988813,-16.5877317745484,38.2409518924023,100.550999110479,83.0751378865527,14.3537634010066,-37.6033148519759,0,0,0,0,0
-101.216594912402,82.6312659420052,-14.2474232297649,36.5984083826438,101.251121206448,83.0167573870116,14.3574858468822,-36.5984083826437,0,0,0,0,0
-102.323498335764,82.9210090210069,-11.8024785722949,36.5984083826437,102.32101992626,83.5282640875935,11.9776025777695,-36.5984083826437,0,0,0,0,0
-103.675012184029,83.257433704757,-8.92082143695806,36.5984083826437,103.414015732291,84.3657225632004,7.96194660122066,-36.5984083826437,0,0,0,0,0
-105.166789914028,84.31497694808,-4.09172882487987,36.5984083826437,104.402945691766,84.3280875265691,7.89551453908089,-36.5984083826436,0,0,0,0,0
-106.210104449844,84.8518263767565,-1.64989893630675,36.5984083826437,105.728859772226,84.9986748099735,5.49515277310149,-36.5984083826438,0,0,0,0,0
-107.314664022881,85.3800928561494,0.805961897689762,36.5984083826438,106.777230804591,85.504410637186,3.06144818895965,-36.5984083826437,0,0,0,0,0
-108.026812184947,85.353354962477,0.875459371758757,36.5984083826437,107.719892798721,85.3661194552669,2.95771011386563,-36.5984083826438,0,0,0,0,0
-108.434337222947,86.085253886278,3.211999743838,36.5984083826438,108.371505864156,85.8956729778193,0.546070072996816,-36.5984083826438,0,0,0,0,0
-109.048553978415,86.1050247766814,3.25799931423356,36.5984083826437,108.960912856738,85.8260506638308,0.481050408366482,-36.5984083826438,0,0,0,0,0
-109.239571388459,86.7840359168346,5.59371032342969,36.5984083826439,109.156327701605,85.7189212529845,0.429959143310033,-36.5984083826437,0,0,0,0,0
-109.709967602131,86.7645581436438,5.64128214051659,36.5984083826437,109.509319288412,85.6803669743819,0.390271378706486,-36.5984083826438,0,0,0,0,0
-110.037988211201,86.6487166693026,5.71197646913744,36.5984083826437,109.674583319181,85.7562699312132,0.404968763086803,-36.5984083826436,0,0,0,0,0
-110.177910704907,86.5124699301769,5.77441338697767,36.5984083826439,109.716154410733,85.7106578275781,0.385614491146523,-36.5984083826438,0,0,0,0,0
-110.359625553221,86.9565571654509,8.19808302464935,36.5984083826438,109.897869753958,85.6588036045224,0.353372140635397,-36.5984083826436,0,0,0,0,0
-110.539053081606,86.8405215713504,8.25886835246487,36.5984083826438,110.008938673963,85.6150432409338,0.329086913262773,-36.5984083826436,0,0,0,0,0
-110.826922463596,86.7701386320075,8.31432573398619,36.5984083826437,110.183580424151,86.2363088165941,-2.02420807925537,-36.5984083826437,0,0,0,0,0
-111.044047693609,86.7057448306699,8.36108990593125,36.5984083826437,110.363901684961,86.2144495697794,-2.04634633544738,-36.5984083826437,0,0,0,0,0
-111.127867297479,86.7633932575784,8.34756110361885,36.5984083826438,110.467369875816,86.2028216685946,-2.05879385052496,-36.5984083826437,0,0,0,0,0
-111.02764313306,86.7813481123873,8.33045649571689,36.5984083826437,110.424702753495,86.1788047546048,-2.0643503792225,-36.5984083826437,0,0,0,0,0
-111.060129154997,86.786968985803,8.33160414392162,36.5984083826439,110.520678065259,86.1326510978563,-2.08917778280814,-36.5984083826438,0,0,0,0,0
-110.842304331872,86.7587923463167,8.32019050467907,36.5984083826437,110.339764095926,86.0590851343684,-2.10186735278268,-36.5984083826437,0,0,0,0,0
-110.810392932664,86.7041762643894,8.33761140847068,36.5984083826437,110.328917614551,85.9792868960784,-2.13044998553758,-36.5984083826437,0,0,0,0,0
-110.771081477995,86.4530243722393,8.42839620049657,36.5984083826437,110.211453385501,85.8078879743921,-2.18358318795048,-36.5984083826437,0,0,0,0,0
-110.642199133719,86.2543556391762,8.48898179714407,36.5984083826437,110.035946843508,85.6451446755659,-2.22757993286098,-36.5984083826437,0,0,0,0,0
-110.601569732141,85.9407070681286,8.60170421488219,36.5984083826437,109.895712864504,85.4638563701664,-2.28041127980603,-36.5984083826437,0,0,0,0,0
-110.555170522925,85.8424326985664,8.63287593599637,36.5984083826438,109.775521478912,85.3250418488327,-2.31897027105233,-36.5984083826438,0,0,0,0,0
-110.463997471038,85.7443686619754,8.65834830563016,36.5984083826437,109.615307467722,85.2119245764282,-2.34384905234213,-36.5984083826438,0,0,0,0,0
-110.297203057793,85.6603907016616,8.66898709125104,36.5984083826437,109.439241277167,85.158510314436,-2.34549755516682,-36.5984083826438,0,0,0,0,0
-110.04031912259,85.729274845114,8.61253287497447,36.5984083826438,109.150190402958,85.1869015524958,-2.30736629878214,-36.5984083826436,0,0,0,0,0
-110.036683232464,85.1530217329755,6.2546341503426,36.5984083826438,109.017707292896,85.2349156963729,-2.27801978728721,-36.5984083826437,0,0,0,0,0
-109.992016787798,85.1796360189796,6.23970052875663,36.5984083826437,108.910532840203,85.2045122979509,-2.27808848612594,-36.5984083826436,0,0,0,0,0
-109.921785276522,85.2427228841387,6.20866933808869,36.5984083826437,108.778170041572,85.2263961706717,-2.25790197813128,-36.5984083826438,0,0,0,0,0
-109.902537154685,85.230766561098,6.21071774188327,36.5984083826437,108.722728991281,84.52083552747,0.0572418926615883,-36.5984083826437,0,0,0,0,0
-109.89256617973,85.2828542842337,6.19081844545065,36.5984083826437,108.591498176649,84.5102471985668,0.0663506785470026,-36.5984083826438,0,0,0,0,0
-109.349929878972,84.5503560231765,3.82716864712686,36.5984083826437,108.0427574838,84.4490560503761,0.0993276093618941,-36.5984083826436,0,0,0,0,0
-108.904675036358,84.5548405910992,3.77391765167246,36.5984083826437,107.654031869898,84.3129150494193,0.0938810441935591,-36.5984083826437,0,0,0,0,0
-108.800361201949,84.5263989913214,3.77146753392327,36.5984083826437,107.438654944422,84.1594685734567,0.0672869563977201,-36.5984083826437,0,0,0,0,0
-107.907823473661,83.8144497661957,1.35994149820551,36.5984083826439,106.544597736611,83.3821855467974,2.44779434570448,-36.5984083826438,0,0,0,0,0
-107.239166210084,83.7660361357345,1.29784437501765,36.5984083826437,105.846197249782,83.2881342489709,2.49286198861373,-36.5984083826436,0,0,0,0,0
-106.695039924692,83.1415417088318,-1.09991093744161,36.5984083826437,105.263869147061,82.5779399254347,4.86398764174603,-36.5984083826437,0,0,0,0,0
-105.828349417847,82.4721450955171,-3.51992735868497,36.5984083826437,104.229885154658,82.6114546952445,4.97951278082199,-36.5984083826438,0,0,0,0,0
-105.108874580454,82.47310066959,-3.60112442790953,36.5984083826438,103.480526734042,82.079584226868,7.41139174330862,-36.5984083826437,0,0,0,0,0
-104.131624813749,81.7797717406395,-6.02624902776139,36.5984083826437,102.493003596965,82.3131329978761,7.56056695463778,-36.5984083826437,0,0,0,0,0
-103.101091920316,81.8106303754457,-6.14779972774933,36.5984083826437,101.24022665181,81.8830938322991,10.0494523196796,-36.5984083826437,0,0,0,0,0
-102.023818388306,81.1449254959692,-8.58965256937442,36.5984083826437,100.169078476981,81.7966057588074,11.4769149376376,-36.5984083826438,0,0,0,0,0
-100.929739444295,81.12532513337,-8.70472479245145,36.5984083826439,99.1069836686732,81.9827774153982,11.5309451602868,-36.5984083826437,0,0,0,0,0
-100.504739648282,81.1043598096082,-8.74693311079147,36.5984083826437,98.4442588149693,81.6385310097519,13.9630405166578,-36.5984083826437,0,0,0,0,0
-99.8423072262349,80.4603818167696,-11.0874950611318,36.5984083826438,97.7015563390193,81.8778955409559,14.0317408669703,-36.5984083826437,0,0,0,0,0
-98.8400504747398,80.5752272539131,-11.1210833927257,36.5984083826437,96.79263924387,81.481267414742,16.4502988184537,-36.5984083826436,0,0,0,0,0
-98.0697310571719,80.700009221577,-11.1575514467376,36.5984083826437,96.0564994756188,81.7739081035274,16.5331926089828,-36.5984083826437,0,0,0,0,0
-97.2456914600047,80.8909895091262,-11.2133139258942,36.5984083826437,95.0591309812207,82.0327988617293,16.6064202204201,-36.5984083826439,0,0,0,0,0
-96.5312165822353,80.3808842922885,-13.6005759347766,36.5984083826437,94.3133939529598,81.6583548663227,19.0312825172051,-36.5984083826438,0,0,0,0,0
-95.7203341838984,80.6114612513591,-13.6672294120214,36.5984083826437,93.4155216307532,82.0624688987903,19.1438049513445,-36.5984083826437,0,0,0,0,0
-94.5774255315375,80.9212488348227,-13.7566357324961,36.5984083826438,92.6279159134029,82.3402555746445,19.221018676376,-36.5984083826437,0,0,0,0,0
-93.1163565349478,81.427164131945,-13.9023028761914,36.5984083826438,91.1538912063786,82.7725972945074,19.3409862979451,-36.5984083826437,0,0,0,0,0
-91.6258484548483,81.3437408359542,-16.4112975843709,36.5984083826438,89.3966041006435,82.8917691421001,21.8970725486696,-36.5984083826438,0,0,0,0,0
-90.2305120366369,82.1611064045239,-16.6426763349872,36.5984083826438,88.1994594614585,83.6621150621397,22.1063255510814,-36.5984083826436,0,0,0,0,0
-88.8694472795513,83.2035543420235,-16.9364171250052,36.5984083826437,86.6749772866868,84.5210220525767,22.3388759959967,-36.5984083826437,0,0,0,0,0
-87.6331504453916,83.6002690408033,-19.5699999475699,36.5984083826437,85.1552165834629,84.9827935975119,24.9724486826495,-36.5984083826438,0,0,0,0,0
-86.2561910495854,84.8287513841445,-19.9085293806972,36.5984083826438,84.0008915537182,86.1043282192672,25.2686061282979,-36.5984083826436,0,0,0,0,0
-85.6248126030212,86.0148301953964,-20.234079286072,36.5984083826438,83.2650056577248,87.47232870885,25.6287654991057,-36.5984083826436,0,0,0,0,0
-83.3760455818199,86.8746785349668,-22.9729142546712,36.5984083826437,80.8587353660247,88.3333119748902,28.3397649722846,-36.5984083826437,0,0,0,0,0
-81.6977709539795,88.2786704720274,-23.3495844458941,36.5984083826438,79.5860931470756,89.6626728606521,28.6809534625364,-36.5984083826437,0,0,0,0,0
-80.1800122647665,89.6065056669213,-23.7052866447486,36.5984083826437,78.2890927393916,90.888548689283,28.9954878286504,-36.5984083826437,0,0,0,0,0
-78.9989529707293,90.8822441772127,-24.0469177616211,36.5984083826438,77.4647934306564,92.0057719880465,29.282324428126,-36.5984083826437,0,0,0,0,0
-78.3650678832312,91.95466720981,-24.3342762482215,36.5984083826438,77.0939880399003,92.9416081163091,29.5228938475758,-36.5984083826437,0,0,0,0,0
-77.4978066635228,92.8616131771501,-24.5775833575186,36.5984083826437,76.4818430441804,93.6263202698753,29.6991653537105,-36.5984083826437,0,0,0,0,0
-76.9715060583446,93.4811795651691,-24.7440166952547,36.5984083826437,76.1682306591372,94.068959406904,29.8132614688779,-36.5984083826438,0,0,0,0,0
-76.5817237303622,93.7021212489983,-24.8034207735494,36.5984083826437,75.8148627646626,94.3075156933801,29.8748053657908,-36.5984083826437,0,0,0,0,0
-76.3165316826812,93.6179967698722,-24.7807988989816,36.5984083826437,75.5505923381403,94.3740605296602,29.8919799422505,-36.5984083826437,0,0,0,0,0
-76.1102159387762,93.4031048331659,-24.7230319210857,36.5984083826438,75.2702027976482,94.3084317539025,29.8750417709384,-36.5984083826437,0,0,0,0,0
-76.1885223673623,93.1146319837445,-24.6455266712171,36.5984083826437,75.2199087963583,94.0748195407712,29.8147728341126,-36.5984083826438,0,0,0,0,0
-76.2232704143966,92.9729149651871,-24.6074673121695,36.5984083826437,75.2292725176029,93.9036987739124,29.7706489474049,-36.5984083826437,0,0,0,0,0
-76.1523727798157,92.9004586982046,-24.5880124841317,36.5984083826437,75.4735619096824,94.3359528942164,27.4325225248274,-36.5984083826437,0,0,0,0,0
-76.1143428503647,92.9261994636952,-24.5949236943542,36.5984083826437,75.0508998835892,93.8351549172826,29.7529800118077,-36.5984083826438,0,0,0,0,0
-76.0386685501565,93.0653949178226,-24.6323024430718,36.5984083826437,74.8841126849413,93.9581507919013,29.7846874721918,-36.5984083826438,0,0,0,0,0
-75.9125596706116,93.3258883968633,-24.7022813033076,36.5984083826437,74.7953443756645,94.092231194412,29.8192635430254,-36.5984083826437,0,0,0,0,0
-75.7016016154747,93.6131033482562,-24.7794831461498,36.5984083826437,74.5595521753326,94.3043865369444,29.8739978376777,-36.5984083826438,0,0,0,0,0
-75.5657825178183,93.8260908031739,-24.8367655152648,36.5984083826438,74.3158422519494,94.4601050310946,29.9141918741612,-36.5984083826437,0,0,0,0,0
-75.1508573100143,93.4327712616112,-27.1943862163645,36.5984083826437,74.1892832654024,94.6538581251506,29.9642280547434,-36.5984083826437,0,0,0,0,0
-75.1131109999146,93.5284980745029,-27.2196016970407,36.5984083826437,74.0976441964254,94.7152298341453,29.9800830021479,-36.5984083826439,0,0,0,0,0
-75.0166101996305,93.6304030686185,-27.2464504883991,36.5984083826437,74.0342878617015,94.7178643107971,29.9807636651003,-36.5984083826438,0,0,0,0,0
-74.8505478968026,93.7451420952463,-27.2766881604499,36.5984083826437,73.9000315527426,94.7585434361619,29.9912745053431,-36.5984083826437,0,0,0,0,0
-74.7917886930089,93.7711615345363,-27.2835463077084,36.5984083826437,73.8379095159978,94.7804618278064,29.9969384012655,-36.5984083826437,0,0,0,0,0
-74.8438489456537,93.7244203127586,-27.2712266599409,36.5984083826437,73.8183503375928,94.6486184894705,29.9628745647679,-36.5984083826437,0,0,0,0,0
-74.914360150448,93.5639059939986,-27.228929881113,36.5984083826437,73.9145200695261,94.470460787527,29.9168655182011,-36.5984083826437,0,0,0,0,0
-75.1065842786511,93.3045564269128,-27.1606212033374,36.5984083826438,74.0780539674582,94.2087340846476,29.8493165006945,-36.5984083826436,0,0,0,0,0
-75.3258754901264,92.9975866449186,-27.0798175876421,36.5984083826437,74.3774560478308,93.9083076072046,29.7718370986426,-36.5984083826437,0,0,0,0,0
-75.6666464883414,92.6186320763738,-26.9801295805933,36.5984083826437,74.6028516330413,93.6186089350037,29.6971787184698,-36.5984083826437,0,0,0,0,0
-75.70331128957,92.2688861854922,-26.8881807788327,36.5984083826437,74.6309344805727,93.3561739248936,29.6295891426939,-36.5984083826438,0,0,0,0,0
-76.3232637941507,92.4232908527464,-24.4599522933553,36.5984083826437,75.0034502933263,92.9024782782946,29.5128275561985,-36.5984083826438,0,0,0,0,0
-76.642347197925,91.9140551546314,-24.3233885309189,36.5984083826437,75.3771844829029,92.4635478180007,29.399958181169,-36.5984083826437,0,0,0,0,0
-76.8883603827056,91.3655181313015,-24.1763785205251,36.5984083826437,75.5882472224875,91.849944385662,29.2422980061886,-36.5984083826437,0,0,0,0,0
-77.6528841299682,90.5826429515149,-23.9666784647841,36.5984083826437,76.3010098787841,91.029896079641,29.0317628675556,-36.5984083826436,0,0,0,0,0
-78.4711922588658,89.7585179634629,-23.7459929590352,36.5984083826437,77.0848209459438,89.9240172854266,28.7480058090504,-36.5984083826438,0,0,0,0,0
-79.3537655314958,88.7052806811627,-23.4639022809871,36.5984083826437,78.1436335054072,88.5988872390672,28.4079523687601,-36.5984083826437,0,0,0,0,0
-80.6289040349782,87.9436233818633,-20.7615392956194,36.5984083826438,79.5804369299038,87.5705815999886,25.6545976725234,-36.5984083826438,0,0,0,0,0
-81.9130817197607,86.1846451642144,-20.2806029182062,36.5984083826438,80.8177497219893,85.6546850089232,25.1499826643202,-36.5984083826438,0,0,0,0,0
-83.7601277734953,84.8443745353026,-17.3961728431641,36.5984083826437,82.6934771000946,84.2357054007903,22.261708297868,-36.5984083826437,0,0,0,0,0
-85.7795012991174,83.3637967165241,-14.4564083457643,36.5984083826437,84.6777633569792,82.7674018451117,19.3395460902633,-36.5984083826436,0,0,0,0,0
-88.0301950595569,81.8494627614233,-11.4922602561694,36.5984083826438,86.5484021091065,80.6898117657613,18.760591057421,-36.5984083826439,0,0,0,0,0
-89.4284933961261,80.0856504936427,-10.9777334703101,36.5984083826439,88.1270186717397,79.5779726024682,15.9077318046808,-36.5984083826436,0,0,0,0,0
-91.5712415041194,79.3991498146813,-8.23799226314057,36.5984083826437,90.1060265211257,78.6334137249175,13.0921752848076,-36.5984083826437,0,0,0,0,0
-93.5225001039027,78.9493282533882,-5.56747839885109,36.5984083826438,91.8658667670862,77.9911882343031,10.35912347736,-36.5984083826438,0,0,0,0,0
-95.680823589879,78.8508734314263,-3.00476700439818,36.5984083826437,93.9205031086588,77.5562066302131,7.6860935189893,-36.5984083826438,0,0,0,0,0
-97.2051168879363,78.5426368052456,-1.56528245349985,36.5984083826437,95.5569890797092,77.4018695206056,5.09938652811988,-36.5984083826437,0,0,0,0,0
-99.1759097957545,78.922990535422,1.17101664970483,36.5984083826438,97.5596228435992,76.9715755458892,4.90617259691916,-36.5984083826436,0,0,0,0,0
-101.133205215537,78.7219118804026,1.59163944572532,36.5984083826437,99.5988537655137,77.4938897161788,2.15705384189052,-36.5984083826436,0,0,0,0,0
-103.068662125732,79.4074680344903,4.29857808288171,36.5984083826437,101.653322730328,77.5674327395965,1.75497983116166,-36.5984083826437,0,0,0,0,0
-104.412941870676,80.2383232460701,6.85387810515626,36.5984083826437,103.364838364879,78.4981044468584,-0.854810879910617,-36.5984083826437,0,0,0,0,0
-105.847393419416,80.697644407888,7.01784881536749,36.5984083826437,104.944372511465,79.0497895066169,-1.03009808281917,-36.5984083826438,0,0,0,0,0
-106.503969616449,81.1474644665703,7.01631570899287,36.5984083826437,105.77204089737,79.7582778726178,-0.994474784886458,-36.5984083826438,0,0,0,0,0
-107.267679549339,82.2661805364881,9.34777409530881,36.5984083826438,106.613668165311,81.0826696399693,-3.27774033708436,-36.5984083826437,0,0,0,0,0
-107.98166342535,82.8800546839384,9.28232363124467,36.5984083826438,107.434212738605,81.9446083025141,-3.15215308087862,-36.5984083826439,0,0,0,0,0
-108.812058479825,83.4749140330737,9.22611908183558,36.5984083826438,108.256168605241,82.8024592597194,-3.00185459089518,-36.5984083826436,0,0,0,0,0
-109.229616739799,84.6798291204139,11.4344491148011,36.5984083826438,109.041763020482,84.1689147451,-5.19801911506341,-36.5984083826437,0,0,0,0,0
-109.362199122679,85.2820200191688,11.2450999585771,36.5984083826437,109.21285565002,84.3007914488462,-2.62055259352345,-36.5984083826438,0,0,0,0,0
-109.881832234323,85.8121611926875,11.1288036472719,36.5984083826437,109.66892832275,85.8186752803183,-4.69387692399417,-36.5984083826437,0,0,0,0,0
-110.75296917583,86.866977295623,13.4257291646872,36.5984083826437,110.397463257851,86.4501982627,-4.5323096423504,-36.5984083826437,0,0,0,0,0
-111.630019363714,88.2493216602366,15.5829391923542,36.5984083826437,111.355099065279,87.2311188205472,-4.58508535916902,-36.5984083826438,0,0,0,0,0
-112.503283563945,88.5930393154983,14.2250515401323,36.5984083826438,111.98611500721,87.8706254966349,-4.3979583700945,-36.5984083826437,0,0,0,0,0
-112.929041195771,89.0827134928225,14.0858221148476,36.5984083826437,112.421950018056,88.1980619636586,-4.30221244024512,-36.5984083826436,0,0,0,0,0
-113.120605807702,89.4134604224053,13.9918043174526,36.5984083826437,112.723819807564,88.4340868396714,-4.23321887641825,-36.5984083826437,0,0,0,0,0
-113.061729921015,90.1751994449303,16.2798902730425,36.5984083826437,112.843901132948,89.2246664667352,-6.51725926309105,-36.5984083826438,0,0,0,0,0
-113.300834856954,90.1752259802664,16.2798828197175,36.5984083826437,112.964993572292,89.1716381206093,-6.53268961123946,-36.5984083826438,0,0,0,0,0
-113.197068991847,89.9529243271832,16.3423231322208,36.5984083826437,112.776839616555,88.9350566500277,-6.601536433146,-36.5984083826437,0,0,0,0,0
-113.094562651629,89.609944456733,16.4386611694925,36.5984083826437,112.553557391512,88.584138559109,-6.70367700910226,-36.5984083826438,0,0,0,0,0
-113.027025057871,89.2633468812983,16.5360236847833,36.5984083826437,112.526862618304,88.1806903236751,-6.82114769482242,-36.5984083826437,0,0,0,0,0
-112.798985659348,88.895492964675,16.6393746945218,36.5984083826438,112.059693914086,88.4919138910621,-9.24199131181629,-36.5984083826438,0,0,0,0,0
-112.609896524683,89.2934639335668,19.0241626214878,36.5984083826437,112.188083627147,88.137074088187,-9.34471691708919,-36.5984083826437,0,0,0,0,0
-112.575118209473,89.1644683521225,19.0599043090551,36.5984083826437,112.131532560567,87.8850471860335,-9.41770404823126,-36.5984083826437,0,0,0,0,0
-112.620153815355,89.0653747623597,19.0873624828949,36.5984083826438,112.127277342589,87.689669047757,-9.47430251647108,-36.5984083826437,0,0,0,0,0
-112.662039575367,88.9733726114242,19.1128571029904,36.5984083826437,112.082557080797,87.5291830217659,-9.52080527848604,-36.5984083826437,0,0,0,0,0
-112.678738204244,88.9623296468135,19.1159173071139,36.5984083826437,112.001037391712,87.4513720719047,-9.54335610908667,-36.5984083826436,0,0,0,0,0
-112.722460003823,89.0084349697882,19.1031408371732,36.5984083826439,112.017865703832,87.3735143530322,-9.5659233374697,-36.5984083826438,0,0,0,0,0
-112.737570196427,88.9711643544399,19.1134690489573,36.5984083826439,111.986804875075,87.3545227196747,-9.57142854494286,-36.5984083826437,0,0,0,0,0
-112.713129365716,88.9531561208335,19.1184594730278,36.5984083826437,112.002073038864,87.3136392795294,-9.58328024673411,-36.5984083826437,0,0,0,0,0
-113.013766154464,88.3503130410096,16.7925981730193,36.5984083826437,112.160935933823,87.3537187981157,-9.57166158590021,-36.5984083826437,0,0,0,0,0
-112.946519298436,88.3559845099703,16.7910038004567,36.5984083826437,112.255880820359,87.3163907702445,-9.58248259119016,-36.5984083826437,0,0,0,0,0
-112.890677525466,88.3450221711653,16.7940855594594,36.5984083826439,112.354620818361,87.2731177748184,-9.59502784295773,-36.5984083826436,0,0,0,0,0
-112.83665853241,88.3878308519618,16.7820512790576,36.5984083826438,112.541718643117,87.2886645084577,-9.59052058997394,-36.5984083826437,0,0,0,0,0
-112.830621888234,88.3729825775489,16.7862253323773,36.5984083826437,112.660398563183,87.2954217441957,-9.5885615942126,-36.5984083826437,0,0,0,0,0
-112.781828689636,88.399290929231,16.7788297376716,36.5984083826437,112.709044808701,87.2945510727699,-9.58881401000292,-36.5984083826437,0,0,0,0,0
-112.755285341809,88.3318331046424,16.7977933484646,36.5984083826437,112.663125264221,87.2845208488124,-9.5917218930181,-36.5984083826437,0,0,0,0,0
-112.561341450201,88.2964440375474,16.8077423904649,36.5984083826437,112.394022207111,87.3548973809329,-9.57131993816293,-36.5984083826437,0,0,0,0,0
-112.21100977179,88.2845732178567,16.811079756811,36.5984083826438,112.116432350155,87.4135649732983,-9.55431421783528,-36.5984083826437,0,0,0,0,0
-112.061314464645,87.9622839791557,15.7480021158364,36.5984083826438,111.854939797059,87.4061657588716,-9.5564589049054,-36.5984083826436,0,0,0,0,0
-111.696789116573,87.9267451249753,15.7184427718871,36.5984083826437,111.566543434929,86.7203553344711,-7.24689578892481,-36.5984083826437,0,0,0,0,0
-111.213945117798,87.7538052852509,15.7274902700806,36.5984083826437,111.100103373234,86.6267807886814,-7.10664866116512,-36.5984083826437,0,0,0,0,0
-110.923506553601,87.5613567489426,15.7651575502196,36.5984083826439,110.909493873675,86.5006774152529,-7.13595644833156,-36.5984083826436,0,0,0,0,0
-110.665669487178,87.3054519421624,15.8287488741729,36.5984083826437,110.621621430425,86.3565703125055,-7.16111831063246,-36.5984083826436,0,0,0,0,0
-110.294370902017,87.0624359751631,15.8696893878239,36.5984083826437,110.336532157455,86.1743244028241,-7.19909376856798,-36.5984083826437,0,0,0,0,0
-110.195792055363,86.138936980927,13.621708458901,36.5984083826437,110.061411136098,85.9046224229881,-7.2679634864855,-36.5984083826436,0,0,0,0,0
-109.498350949508,85.794604132301,13.6456645440823,36.5984083826437,109.454928822998,84.9045121453788,-4.99391540989111,-36.5984083826438,0,0,0,0,0
-109.093276979855,85.4687102943646,13.6988381710438,36.5984083826437,109.079192263339,84.4955776151044,-5.09077013187892,-36.5984083826438,0,0,0,0,0
-108.846566665759,85.0908385561027,13.7894596833403,36.5984083826437,108.767053096547,84.0300813031652,-5.20914934935024,-36.5984083826437,0,0,0,0,0
-108.507115673157,84.1833542114669,11.4886168103257,36.5984083826438,108.045007292717,83.6211807115655,-5.24609407731232,-36.5984083826437,0,0,0,0,0
-107.627472493235,83.9906631219208,11.4078085202737,36.5984083826437,107.10805479145,82.5872092950029,-2.9055127431477,-36.5984083826438,0,0,0,0,0
-106.934420903579,83.2375523531523,8.99540046335629,36.5984083826439,106.185938056695,82.2573965567791,-2.86786958089426,-36.5984083826437,0,0,0,0,0
-105.905174988058,83.2715134892434,8.81821145879909,36.5984083826437,104.971699861575,81.4424397671732,-0.405112578934527,-36.5984083826438,0,0,0,0,0
-104.90960661617,82.6730382052161,6.31659503019627,36.5984083826439,103.902100415227,81.4276732291286,-0.249258196783728,-36.5984083826437,0,0,0,0,0
-103.750494933612,82.1339115174995,3.78060266468378,36.5984083826437,102.696550299225,80.8351848497401,2.26722012419369,-36.5984083826437,0,0,0,0,0
-102.441295515979,82.4343881557053,3.51423718277635,36.5984083826437,101.068345042911,80.3745579777502,4.86477641812679,-36.5984083826436,0,0,0,0,0
-101.025913922948,82.0979353965493,0.922028816440751,36.5984083826437,99.7547177662057,80.8214404428509,5.12431010225459,-36.5984083826436,0,0,0,0,0
-99.1769864332099,81.9268476661336,-1.73465514675329,36.5984083826437,97.7615523965754,80.4954043983101,8.56293213017096,-36.5984083826437,0,0,0,0,0
-97.7936755935551,81.9679832894883,-3.93888957207677,36.5984083826437,96.0030584233946,79.9801990682775,13.4845221454028,-36.5984083826437,0,0,0,0,0
-95.4837410721271,81.9645367936142,-6.4655330666699,36.5984083826438,93.6955270730758,80.0789947108442,16.0511733919072,-36.5984083826438,0,0,0,0,0
-93.500788498009,82.0781917230051,-9.02833798781261,36.5984083826437,92.0877737071224,80.3818890411868,18.6742128764608,-36.5984083826438,0,0,0,0,0
-91.6740797622448,82.3458986115944,-11.6361822362767,36.5984083826437,90.6179963073577,81.3070403115975,18.9332656142518,-36.5984083826437,0,0,0,0,0
-89.8551273933063,83.2849475441445,-11.9074883896733,36.5984083826437,88.5451801886152,81.7114113236829,21.5750039697706,-36.5984083826437,0,0,0,0,0
-87.4503326748611,83.7864667970545,-14.5766942260064,36.5984083826437,85.9126577416949,82.1944643527425,24.2310546239344,-36.5984083826438,0,0,0,0,0
-84.9101141758579,84.5097644973856,-17.3026415129065,36.5984083826437,83.6322130412263,83.4589575557191,24.5683204307674,-36.5984083826437,0,0,0,0,0
-83.1577451843779,85.8464256500818,-17.6756844249566,36.5984083826437,81.3171656750519,84.2738869510858,27.2933177155775,-36.5984083826437,0,0,0,0,0
-81.6351227716183,86.5478559333183,-20.3800476089863,36.5984083826438,80.026185154609,85.6728086255918,27.6551172145726,-36.5984083826437,0,0,0,0,0
-80.3811913864049,87.9568776521999,-20.7651578966309,36.5984083826437,78.5566371069671,87.2856047146327,28.0705479506068,-36.5984083826437,0,0,0,0,0
-78.4345580452908,88.7977696678871,-23.4886806501871,36.5984083826437,76.3496216039239,88.3441897803231,30.8207852590395,-36.5984083826437,0,0,0,0,0
-76.1901677501647,90.2212635034766,-23.8699050498654,36.5984083826437,74.0349235195066,90.1244450329065,31.2664312351864,-36.5984083826437,0,0,0,0,0
-74.780322903046,91.5796738043136,-24.2337632446169,36.5984083826438,72.6577686540656,91.8084690916754,31.6880303358457,-36.5984083826437,0,0,0,0,0
-73.0548457893834,92.8052795429046,-24.5624603740933,36.5984083826437,70.7877226529603,92.9921528149508,34.4248196953661,-36.5984083826437,0,0,0,0,0
-71.8934087644415,93.9569351338173,-24.871970254582,36.5984083826437,69.7557816766724,94.5118195549296,34.7965421235019,-36.5984083826438,0,0,0,0,0
-70.293771032297,95.2314211554094,-25.215543076745,36.5984083826438,68.5914478470259,95.726038278213,35.0946774090072,-36.5984083826438,0,0,0,0,0
-68.5711349961444,95.5972517586966,-27.7660959566465,36.5984083826437,67.2070169478068,96.6300671567482,35.3174834036584,-36.5984083826437,0,0,0,0,0
-67.629962651894,96.3238147408401,-27.9589042451275,36.5984083826438,66.2922551529511,97.129049044298,35.4408155727453,-36.5984083826436,0,0,0,0,0
-66.7642854030288,96.8263859383784,-28.0925963530807,36.5984083826437,65.4710202676812,97.3512595680528,35.495826789497,-36.5984083826437,0,0,0,0,0
-66.0820466913221,96.9203524625643,-28.1176245857831,36.5984083826437,65.1804604678131,97.7709043187002,33.1924285474029,-36.5984083826437,0,0,0,0,0
-65.3718243578094,96.8242020268598,-28.0920147839409,36.5984083826437,64.4228369343261,97.2622712195386,33.0628502398186,-36.5984083826437,0,0,0,0,0
-64.992557678855,97.2167422104021,-25.753771694689,36.5984083826437,63.7848849666341,96.6737252004152,32.9132891548799,-36.5984083826437,0,0,0,0,0
-64.7323343750306,97.0201262872783,-25.7002719123644,36.5984083826437,63.4642905305672,96.1313373109187,32.7757865892571,-36.5984083826437,0,0,0,0,0
-64.5322881776422,96.810317068312,-25.6432338231397,36.5984083826436,63.1378867348114,95.8223390199881,32.6975819606734,-36.5984083826438,0,0,0,0,0
-64.4082624299235,96.652452702066,-25.6003514636022,36.5984083826437,62.9761631113411,95.4815767791486,32.6114408077587,-36.5984083826437,0,0,0,0,0
-64.7640486968848,96.5489996805059,-25.5722649614167,36.5984083826437,63.6198783338167,95.7557450736837,30.2493645208137,-36.5984083826437,0,0,0,0,0
-65.0998208001574,96.5407835023308,-25.5700348676507,36.5984083826438,63.9612891212642,95.6587785647955,30.2242297379231,-36.5984083826437,0,0,0,0,0
-64.7678548182556,96.5890227671623,-25.5831294034973,36.5984083826437,63.6281172553391,95.6173071448879,30.2134825586303,-36.5984083826438,0,0,0,0,0
-64.6918304633098,96.7052157981283,-25.6146808470962,36.5984083826438,63.4520040032051,95.5981666765342,30.2085229044383,-36.5984083826439,0,0,0,0,0
-64.6023874863937,96.7988185203676,-25.6401093721061,36.5984083826438,63.291909268122,95.636631604867,30.2184902301464,-36.5984083826437,0,0,0,0,0
-64.5232340027282,96.9775372395828,-25.6886895239517,36.5984083826437,63.1867428880545,95.8358969540533,30.270147451064,-36.5984083826437,0,0,0,0,0
-64.6992875768334,97.0890235214152,-25.7190136551189,36.5984083826437,62.9428372799197,95.3798908103001,32.5857555843996,-36.5984083826437,0,0,0,0,0
-64.4659723338787,97.1637282231518,-25.739341739739,36.5984083826438,62.6695477977577,95.529565634588,32.6235656096929,-36.5984083826437,0,0,0,0,0
-64.5644477061074,97.2134341219392,-25.7528711589823,36.5984083826437,62.7802216682401,95.6860396490069,32.6631143168849,-36.5984083826437,0,0,0,0,0
-64.7011427201093,97.1677019413627,-25.7404232310095,36.5984083826437,62.9407763268338,95.7721961896565,32.6848997621662,-36.5984083826438,0,0,0,0,0
-64.7782264692482,97.1596921359633,-25.738243294067,36.5984083826438,63.0246800377831,95.8368860880955,32.7012616626947,-36.5984083826436,0,0,0,0,0
-64.8276726650628,97.1084550316774,-25.7243005519324,36.5984083826437,63.0768621225035,95.84597999014,32.7035620785047,-36.5984083826436,0,0,0,0,0
-64.5794824653905,96.4642197285162,-27.9962262554078,36.5984083826437,63.1171855978443,95.8512671411117,32.70489956466,-36.5984083826437,0,0,0,0,0
-64.5080659440622,96.4576801733087,-27.994487458872,36.5984083826437,63.0202003807623,95.8898586317407,32.7146628137298,-36.5984083826437,0,0,0,0,0
-64.762653782773,97.0636031702681,-25.7120980208854,36.5984083826437,62.9199225474651,95.9197762970939,32.7222326372469,-36.5984083826437,0,0,0,0,0
-64.4482781991725,96.3773923254756,-27.9731435687069,36.5984083826437,62.8993207145418,96.0354249931177,32.7515022787691,-36.5984083826437,0,0,0,0,0
-64.4896044363032,96.3528912950876,-27.9666315451295,36.5984083826437,62.9457876943628,96.123697068187,32.7738518061918,-36.5984083826437,0,0,0,0,0
-64.583204977447,96.3080319272127,-27.9547102276269,36.5984083826437,63.0485300809608,96.2244222111283,32.7993636342561,-36.5984083826437,0,0,0,0,0
-64.6875912489535,96.2506165681315,-27.9394552854711,36.5984083826437,63.1296394220724,96.3176651462318,32.8229893511407,-36.5984083826437,0,0,0,0,0
-64.7709879037481,96.2083258915783,-27.9282211054494,36.5984083826437,63.2201640113896,96.3025426080557,32.8191570379484,-36.5984083826436,0,0,0,0,0
-64.7724861517868,96.0744381872056,-27.8926671553575,36.5984083826437,63.1228471844956,96.1706066170017,32.7857318877795,-36.5984083826437,0,0,0,0,0
-64.7560493938325,95.8416596992905,-27.8308960152059,36.5984083826437,63.1065526491158,95.8831714010681,32.7129709133428,-36.5984083826437,0,0,0,0,0
-65.6077880516239,95.8622020834119,-25.3861025238803,36.5984083826438,63.7194862676052,95.4501133268956,32.60349238511,-36.5984083826437,0,0,0,0,0
-66.1092787036534,95.015170018905,-25.1571541854778,36.5984083826438,64.133201892397,94.589028896332,32.3862780222448,-36.5984083826437,0,0,0,0,0
-67.0133758213912,93.7392085078844,-24.8133952995022,36.5984083826438,65.3348386093218,93.9140692583798,29.7733224638102,-36.5984083826437,0,0,0,0,0
-68.2079083861129,91.9771446164005,-24.3403024674109,36.5984083826437,66.4575344338684,92.3485351523631,29.3703963547167,-36.5984083826437,0,0,0,0,0
-69.5601606478764,90.6719899440478,-21.5056916821276,36.5984083826436,67.6301333313674,90.4132679182846,28.8735313598252,-36.5984083826437,0,0,0,0,0
-71.5333656690734,88.7741630894057,-18.4887836251145,36.5984083826437,69.7387183494368,88.283709239602,25.8419830759748,-36.5984083826437,0,0,0,0,0
-72.9210207593421,86.3932981476279,-15.3146558700511,36.5984083826437,71.4922876048017,85.8210546718578,22.6895816158701,-36.5984083826437,0,0,0,0,0
-75.971362607508,83.6411242322049,-12.0101003733862,36.5984083826438,74.070922045331,82.3965428546279,21.7621721564106,-36.5984083826437,0,0,0,0,0
-78.7880737069732,80.7514634246818,-11.172581245032,36.5984083826437,77.389111740111,80.0078608847358,18.569070372556,-36.5984083826437,0,0,0,0,0
-80.4357917585277,79.1634498552741,-8.16781991982843,36.5984083826437,79.2687215190415,78.1275313707394,15.4896730458038,-36.5984083826437,0,0,0,0,0
-82.3344109499605,78.0482600561201,-5.29558838313159,36.5984083826438,81.2212637069272,76.9809329534932,12.6054177445753,-36.5984083826436,0,0,0,0,0
-84.245412410531,76.6584161180078,-4.8724381842121,36.5984083826437,82.8747166306203,75.4430566948048,12.1463191753678,-36.5984083826437,0,0,0,0,0
-86.8485509972505,75.4304479051454,-4.49433524412476,36.5984083826438,84.7977038893054,74.8683338407858,9.41736955995113,-36.5984083826437,0,0,0,0,0
-89.2741555107534,75.1671041119376,-1.8730045238397,36.5984083826437,86.7235524315803,73.9041399404463,9.12099139673497,-36.5984083826438,0,0,0,0,0
-92.1880636652224,74.7775614277393,-0.0111895221877866,36.5984083826437,89.2592552616764,73.8479054212488,6.54915632695086,-36.5984083826438,0,0,0,0,0
-94.4979811228438,74.3125141197529,0.625975310375039,36.5984083826437,91.5193573781235,73.427011862402,6.41747963599159,-36.5984083826438,0,0,0,0,0
-96.9827555911771,75.0164805869388,3.61306737362825,36.5984083826438,94.2380882814425,73.638668989735,5.31562139475415,-36.5984083826437,0,0,0,0,0
-99.4714227656632,75.0470781433937,4.28597472569917,36.5984083826437,96.7811802741788,74.42785897294,2.36606444583822,-36.5984083826437,0,0,0,0,0
-101.665681240633,76.1310818894347,7.12940317301711,36.5984083826437,99.5104651687373,74.9222906840871,1.75499703120485,-36.5984083826437,0,0,0,0,0
-103.595520081818,76.5948510744372,7.54639036966609,36.5984083826437,101.801853252893,75.5273077970628,1.30910286389261,-36.5984083826437,0,0,0,0,0
-105.285157933117,77.785388491934,10.1850940288255,36.5984083826438,103.85466389488,76.9087854374033,-1.33617548318107,-36.5984083826436,0,0,0,0,0
-106.358549069163,78.3987688082362,10.2920017003399,36.5984083826438,105.38523546198,77.7553827608371,-1.46416317950327,-36.5984083826437,0,0,0,0,0
-107.06391217908,79.857804800824,12.5606716097566,36.5984083826437,106.42360744259,78.6649931298787,-1.4296775447649,-36.5984083826437,0,0,0,0,0
-107.892857622028,80.6488666397766,12.5113085886311,36.5984083826437,107.190464897538,80.2539947207324,-3.62922842624507,-36.5984083826437,0,0,0,0,0
-108.257970023776,81.6764946110757,12.2627644061028,36.5984083826438,108.018091206726,81.2108292028245,-3.47948429333909,-36.5984083826436,0,0,0,0,0
-108.475026789069,83.5872558880612,14.2272819048133,36.5984083826437,108.487150938013,82.1860465821695,-3.23853312916514,-36.5984083826437,0,0,0,0,0
-108.75255532712,84.6592203720912,13.9196449433899,36.5984083826438,108.953573372334,83.6928037697228,-5.34864993882066,-36.5984083826438,0,0,0,0,0
-109.443258745618,85.6677472893454,13.6820816561198,36.5984083826437,109.684255071062,84.4612608755122,-5.17810533356513,-36.5984083826437,0,0,0,0,0
-109.593759676042,86.6024146610552,13.3739780953399,36.5984083826437,109.997627912812,85.2488486800563,-4.93272669289058,-36.5984083826437,0,0,0,0,0
-110.076351609171,87.3449083663807,13.1667703239771,36.5984083826438,110.494644655007,85.8424628905523,-4.76703631863713,-36.5984083826437,0,0,0,0,0
-110.279609231255,87.7718232475956,13.0332144248911,36.5984083826437,110.752661682459,86.1366625170805,-4.68172473420106,-36.5984083826438,0,0,0,0,0
-110.55727915891,87.8605458512871,13.0300244661517,36.5984083826437,110.884646207933,86.1156233669354,-4.70212001358498,-36.5984083826437,0,0,0,0,0
-110.507975924662,87.6799827135518,13.0920868464026,36.5984083826437,110.769586042159,85.9005315823693,-4.77248469155893,-36.5984083826437,0,0,0,0,0
-110.790789644383,87.2538033712651,13.2843707874299,36.5984083826437,111.067839988919,86.1532809340388,-7.28506772675521,-36.5984083826437,0,0,0,0,0
-110.825079422303,87.4227024379009,15.8052435025727,36.5984083826438,111.289666418457,85.7299101909802,-7.47302253042918,-36.5984083826437,0,0,0,0,0
-110.86830071753,86.9457762990543,15.9916527242588,36.5984083826437,111.271349995488,85.9950458044516,-9.95168593370257,-36.5984083826437,0,0,0,0,0
-110.880541206812,86.5812685832131,16.1315016185588,36.5984083826437,111.2422210008,85.6829101885474,-10.068590863625,-36.5984083826438,0,0,0,0,0
-111.134426685752,86.3760796187095,16.2472593439788,36.5984083826438,111.487601081113,85.5082275476798,-10.1689587190946,-36.5984083826437,0,0,0,0,0
-111.3620168574,86.3000285949046,16.310994256386,36.5984083826438,111.590442834464,85.4202137676302,-10.217368560857,-36.5984083826438,0,0,0,0,0
-111.432622437944,86.373881471893,16.2929683631531,36.5984083826438,111.459879564241,85.3860787152371,-10.2128801320693,-36.5984083826438,0,0,0,0,0
-111.195116744901,86.4446529451194,16.229979381937,36.5984083826437,111.145714086534,85.341180975519,-10.1871879496601,-36.5984083826437,0,0,0,0,0
-111.098984171899,86.4823335707956,16.2012439016887,36.5984083826437,111.052861080537,85.256640016816,-10.2067366075625,-36.5984083826437,0,0,0,0,0
-110.95874280403,86.5406654359048,16.1583330278828,36.5984083826437,110.847959196616,85.1660384811873,-10.212570330174,-36.5984083826437,0,0,0,0,0
-110.816042988013,86.6121350488072,16.1104641572595,36.5984083826437,110.769516252284,85.0414158499214,-10.2484476421287,-36.5984083826437,0,0,0,0,0
-110.789874317124,86.58040500966,16.1186395186374,36.5984083826438,110.668720514634,84.8628504594366,-10.3008657292008,-36.5984083826437,0,0,0,0,0
-110.821816304328,86.5200408451311,16.1460803631174,36.5984083826437,110.60511764962,84.6771362700734,-10.3607703183612,-36.5984083826438,0,0,0,0,0
-110.653641026009,86.4789376696372,16.1368302400472,36.5984083826437,110.458182056759,84.4954996260053,-10.4059454606157,-36.5984083826437,0,0,0,0,0
-110.722254115504,86.3184635442647,16.2071902743947,36.5984083826437,110.512067914767,84.2522941813808,-10.5042108073202,-36.5984083826437,0,0,0,0,0
-110.952948443586,86.1194472994357,16.3175502974389,36.5984083826437,110.568856314982,84.7202590250472,-12.9137715911513,-36.5984083826437,0,0,0,0,0
-111.103153841235,85.9765136442509,16.3955272084939,36.5984083826437,110.671889964817,84.5433580472445,-12.9964582897743,-36.5984083826437,0,0,0,0,0
-110.928903789642,85.8752163603607,16.4064328913372,36.5984083826437,110.532502784381,84.4090258473773,-13.0231603960901,-36.5984083826437,0,0,0,0,0
-110.970528615103,85.8397204386591,16.4265610899939,36.5984083826437,110.508364517314,84.339762357898,-13.0447159057393,-36.5984083826437,0,0,0,0,0
-110.998779997567,85.8293766022613,16.4350279537513,36.5984083826437,110.525302887769,84.2876782989603,-13.0668463280337,-36.5984083826437,0,0,0,0,0
-110.91010583069,85.8347487736252,16.41875546006,36.5984083826437,110.363206966641,84.2697788667887,-13.0458664412373,-36.5984083826436,0,0,0,0,0
-110.772393271418,85.8322977864231,16.3976118097761,36.5984083826438,110.188300598635,84.2669230255739,-13.0171863005428,-36.5984083826437,0,0,0,0,0
-110.706115436178,85.8519781732745,16.3796313021657,36.5984083826437,110.156132218152,83.6482741845571,-10.6674154187982,-36.5984083826437,0,0,0,0,0
-110.700228345997,85.1720167461698,14.0546909796762,36.5984083826437,109.960076581461,83.6397508140149,-10.6374695286409,-36.5984083826437,0,0,0,0,0
-110.608400400754,85.1473677063182,14.0492074584653,36.5984083826437,109.745855205175,83.5709883776023,-10.6258368498113,-36.5984083826436,0,0,0,0,0
-110.426354457812,84.9239472028234,14.1024571028887,36.5984083826437,109.53785942698,83.4329549152059,-10.6390444126593,-36.5984083826437,0,0,0,0,0
-110.080424479557,84.564338073054,14.1758316944175,36.5984083826438,109.224300098697,83.0856863308705,-10.7048463000364,-36.5984083826439,0,0,0,0,0
-109.791089457594,84.0926132724964,14.2942832503496,36.5984083826437,109.031908074113,82.0217501970949,-8.4801889970214,-36.5984083826437,0,0,0,0,0
-109.322447280799,83.502503995595,14.4147050245628,36.5984083826437,108.685786822631,81.616810926694,-8.55117656267025,-36.5984083826436,0,0,0,0,0
-108.919847827805,82.6663443322856,14.6205985318904,36.5984083826439,108.171552592783,81.1591225896191,-8.60059671039448,-36.5984083826438,0,0,0,0,0
-108.183936782224,81.1574693736337,12.4142571672733,36.5984083826437,107.080597968288,80.627532671143,-8.54509991796316,-36.5984083826438,0,0,0,0,0
-106.932254999551,80.435370984041,12.3578268050487,36.5984083826437,105.733813461971,79.5095532278887,-6.06971764167046,-36.5984083826437,0,0,0,0,0
-105.645269302545,79.2611429594835,9.87820071563738,36.5984083826437,104.196305319944,78.4845827127672,-3.51274267073223,-36.5984083826437,0,0,0,0,0
-103.879248804958,78.2531904576998,7.2250994915178,36.5984083826437,102.40797090166,78.2520057403162,-3.18110885492878,-36.5984083826438,0,0,0,0,0
-102.585462401136,78.0239748996724,6.96991130256531,36.5984083826438,100.901195595344,77.4132580543184,-0.568490421957166,-36.5984083826437,0,0,0,0,0
-100.901396678939,77.1892901950959,4.27994613769774,36.5984083826438,98.978277142579,76.5727675996855,2.13966213570173,-36.5984083826437,0,0,0,0,0
-99.0109138672173,76.5459102145772,1.50717567316163,36.5984083826439,97.1441077573299,75.9564202444553,4.86337857329922,-36.5984083826437,0,0,0,0,0
-97.2972738232312,76.1134951472674,-1.24380066759139,36.5984083826437,95.3834898289234,75.515862450024,7.58250958815847,-36.5984083826437,0,0,0,0,0
-94.9436348203072,75.8775051765397,-4.1374629985794,36.5984083826437,93.2471680464048,75.4773544110849,9.60311559099741,-36.5984083826437,0,0,0,0,0
-93.2319115184624,75.6936283019531,-7.11993912817743,36.5984083826438,91.7160565145018,75.5574121168566,12.1806783633969,-36.5984083826436,0,0,0,0,0
-91.5527296697457,76.3757920054732,-7.32835936061694,36.5984083826437,89.7376070104675,75.8097227800021,14.8116810070571,-36.5984083826437,0,0,0,0,0
-88.8961073597816,76.5967514325894,-9.94178466399969,36.5984083826437,87.2518368838499,76.4313934593764,17.5494872846554,-36.5984083826438,0,0,0,0,0
-87.8553381196943,77.0372239809518,-12.6221053702454,36.5984083826437,86.3012122366986,77.8970465111656,17.9706877974813,-36.5984083826438,0,0,0,0,0
-86.5242576150532,78.4508308802093,-13.0386977349692,36.5984083826438,84.391191668957,79.0857181845064,20.8509044776989,-36.5984083826436,0,0,0,0,0
-84.2232890146191,79.5371226168922,-15.8960156909098,36.5984083826437,81.8751871421244,80.7706039401126,23.8487272215834,-36.5984083826436,0,0,0,0,0
-81.1812099584491,81.0616047595828,-18.8646761743325,36.5984083826437,78.5172692285062,82.8104496236491,26.9128606233769,-36.5984083826437,0,0,0,0,0
-78.6785543052333,83.4224150212726,-19.5208567863935,36.5984083826437,75.7457649624417,84.9238318642367,29.9614858714707,-36.5984083826437,0,0,0,0,0
-76.6430586159982,85.3838100064915,-22.5717806853811,36.5984083826437,73.5774418242582,87.0200094674208,32.9691590815679,-36.5984083826439,0,0,0,0,0
-75.0279209902379,88.0199755843192,-23.2802375479191,36.5984083826437,72.09138859911,90.0115939773998,33.6983276945577,-36.5984083826437,0,0,0,0,0
-72.5520964569063,90.3254775545503,-26.3778966173398,36.5984083826437,70.3357436221325,92.8277680768236,34.3846830959072,-36.5984083826437,0,0,0,0,0
-70.7875419489738,93.2860866071732,-27.1557579807489,36.5984083826437,68.5875972349606,94.7053326256307,37.2625169916515,-36.5984083826437,0,0,0,0,0
-69.5216411976612,95.8087858813818,-27.8221768025763,36.5984083826437,67.6973336737606,96.7180283137575,37.743150075689,-36.5984083826437,0,0,0,0,0
-68.3776598308261,97.9735427477363,-28.3988843963744,36.5984083826437,67.1708349655414,98.6196407370464,35.8109721934069,-36.5984083826436,0,0,0,0,0
-66.9920912976133,99.8317717747375,-28.8989317306362,36.5984083826437,65.6248798951931,99.6012912730316,36.0563594061463,-36.5984083826437,0,0,0,0,0
-65.3315337462154,100.885381897177,-29.1849815929763,36.5984083826437,63.9982518205183,99.9720986346822,36.1494254793274,-36.5984083826437,0,0,0,0,0
-64.1042047890828,101.520396777227,-29.3583864605008,36.5984083826437,62.7724290787187,100.614853962178,33.9235642133489,-36.5984083826437,0,0,0,0,0
-63.0278158698655,101.535280121942,-29.3624602492877,36.5984083826438,61.5608427686406,100.357606946013,33.8569083507623,-36.5984083826437,0,0,0,0,0
-62.3404157517584,101.961555278494,-27.0627590345847,36.5984083826437,60.8125511983152,100.601634544479,31.5200194450784,-36.5984083826437,0,0,0,0,0
-61.8745151005336,101.502068125123,-26.9342142108351,36.5984083826437,60.2545196551677,100.137804694492,31.3968965818525,-36.5984083826438,0,0,0,0,0
-61.2356563362876,100.832604896355,-26.7476995794743,36.5984083826438,59.5369059284804,99.5631210690296,31.2448562326474,-36.5984083826437,0,0,0,0,0
-61.0368562770801,100.068982741493,-26.5360023889883,36.5984083826437,59.7360006014751,99.5449967155045,28.821408739636,-36.5984083826436,0,0,0,0,0
-61.2763307923216,100.176612019642,-24.1278059915419,36.5984083826437,59.8576744403481,99.0579001123639,28.6900405269985,-36.5984083826437,0,0,0,0,0
-61.7741315158279,99.8030863054002,-24.0226819865291,36.5984083826437,60.4549488772617,98.6148945533377,28.5708837579765,-36.5984083826438,0,0,0,0,0
-61.9394637318166,99.5250414219984,-23.9445898670106,36.5984083826438,60.6578943595385,98.2056730636731,28.4610708471546,-36.5984083826437,0,0,0,0,0
-62.2282380531882,99.203450316079,-23.8544315646811,36.5984083826437,61.2653062692438,98.3900949367505,26.0740943724778,-36.5984083826437,0,0,0,0,0
-62.4253045084824,99.0128511205063,-23.8010776278503,36.5984083826437,61.5540547222908,98.1315250700467,26.0033429034585,-36.5984083826437,0,0,0,0,0
-62.6671589351895,98.8139557919088,-23.7454636467718,36.5984083826437,61.9495670654353,97.8476821290356,25.9257847754525,-36.5984083826437,0,0,0,0,0
-62.4909702422567,98.0141918672819,-25.9712688434658,36.5984083826438,61.8792527848257,97.0649543491603,28.1561598821293,-36.5984083826437,0,0,0,0,0
-62.7684789951502,97.8306632827345,-25.921138020915,36.5984083826437,62.2045825951461,96.9858284680312,28.1350703822835,-36.5984083826437,0,0,0,0,0
-62.8483405053503,97.685830881948,-25.8816094215379,36.5984083826437,62.369758661453,96.983066679317,28.1343344138924,-36.5984083826437,0,0,0,0,0
-62.8875994518918,97.4993282898913,-25.8307490069838,36.5984083826437,62.4488124185802,96.9171923514402,28.1167827150197,-36.5984083826437,0,0,0,0,0
-62.8717602583556,97.418676658824,-25.8087688624799,36.5984083826437,62.4953645177587,96.9012968913312,28.112548254852,-36.5984083826437,0,0,0,0,0
-62.8586600206297,97.3766492335247,-25.797318362483,36.5984083826437,62.4715872812617,96.92016073773,28.1175735089138,-36.5984083826437,0,0,0,0,0
-63.0461953152314,97.3144524059056,-25.7803767794249,36.5984083826438,62.5533046757075,96.836038466345,28.0951668583748,-36.5984083826437,0,0,0,0,0
-63.0572076208052,97.3252083553904,-25.783306204927,36.5984083826437,62.5831413462202,96.8154147247677,28.0896748070155,-36.5984083826437,0,0,0,0,0
-63.3077481846886,97.1907733437163,-25.7467027544922,36.5984083826437,62.7123824861437,96.4994973323144,28.0056069901809,-36.5984083826438,0,0,0,0,0
-63.5124832965917,97.0370310160164,-25.7048698797319,36.5984083826437,62.8289427048818,96.1621124812285,27.9159470166647,-36.5984083826438,0,0,0,0,0
-63.4330932144679,96.9262035102896,-25.6747318597301,36.5984083826438,62.6717804528541,95.6605858977979,27.782882303284,-36.5984083826437,0,0,0,0,0
-63.8290900433039,96.4599951319904,-25.5481107431684,36.5984083826437,63.1050181505147,94.9508644472836,27.5949822749595,-36.5984083826437,0,0,0,0,0
-64.534740141974,95.7685101428388,-25.360744550205,36.5984083826437,63.9318769451972,94.0471623414379,27.356320737159,-36.5984083826436,0,0,0,0,0
-65.3981402261337,94.6307211980128,-25.0534488698926,36.5984083826437,65.0373980108263,93.4473812226309,24.7349320050076,-36.5984083826436,0,0,0,0,0
-66.5896459041489,93.2201440508358,-24.6738697367826,36.5984083826437,66.1574452971574,91.7837499881025,24.2884584689531,-36.5984083826437,0,0,0,0,0
-67.2323092597695,91.5055854164674,-24.2139093669203,36.5984083826437,66.8105588656846,89.8862387109102,23.7801936551152,-36.5984083826437,0,0,0,0,0
-69.3547613998547,89.6575449100898,-21.2290916274456,36.5984083826437,68.7121130931104,87.3134837195909,23.0907292824496,-36.5984083826437,0,0,0,0,0
-70.5999694217858,86.8583354851799,-20.4649920004753,36.5984083826437,70.4510869778856,85.1154339114751,19.987321736701,-36.5984083826437,0,0,0,0,0
-73.0365377245982,83.5675645777625,-19.5609660128488,36.5984083826438,73.3974908426074,81.7226006884818,19.0491871182399,-36.5984083826436,0,0,0,0,0
-75.9396644436499,81.2352795219811,-16.3805181058856,36.5984083826437,76.6404335592161,79.365118388525,15.8466480986357,-36.5984083826436,0,0,0,0,0
-78.2821437375393,78.6655325749511,-15.6452496546661,36.5984083826437,79.1117144871536,76.633682423328,15.0542295543831,-36.5984083826437,0,0,0,0,0
-80.2041896003558,76.9553227162415,-15.1484373709738,36.5984083826438,81.051821153893,75.5296242320987,12.1723326233741,-36.5984083826437,0,0,0,0,0
-82.0959080566425,75.6614854676258,-14.7678524739517,36.5984083826437,82.7148397779229,73.9682871884552,11.6997573814013,-36.5984083826437,0,0,0,0,0
-84.890848568131,75.0732348601598,-12.0349465757066,36.5984083826438,85.3812248446106,72.6668720801038,11.2999450525131,-36.5984083826437,0,0,0,0,0
-87.9821809541004,74.7338741448078,-9.37621177795312,36.5984083826438,87.9934868438999,72.376155209879,8.64503571207926,-36.5984083826437,0,0,0,0,0
-91.5411203988946,74.479201438677,-6.7455680877701,36.5984083826437,91.3972756387604,72.2946399239524,5.99729760004451,-36.5984083826436,0,0,0,0,0
-94.80021627837,74.5792654935877,-4.06285631649811,36.5984083826437,94.7128504940357,72.0478817278534,5.06952544237304,-36.5984083826437,0,0,0,0,0
-97.8812936389005,75.1484519336032,-0.980064422812445,36.5984083826438,97.6076324211283,72.9177547490885,1.96317116504427,-36.5984083826438,0,0,0,0,0
-100.531497517597,75.4153553494263,-0.370904000941891,36.5984083826437,100.548258724454,73.5473725944223,1.25127031643672,-36.5984083826438,0,0,0,0,0
-103.148870630375,76.4568324441025,2.51308874026086,36.5984083826439,103.297327637684,74.2512081633853,0.657592862219839,-36.5984083826437,0,0,0,0,0
-105.053676810092,77.722789744196,5.1459244942342,36.5984083826437,105.375302990537,75.7948839754011,-1.98587645495627,-36.5984083826437,0,0,0,0,0
-106.164460169773,78.3576082263695,5.23101467109726,36.5984083826438,106.529264141135,76.747334838441,-2.0061633639405,-36.5984083826438,0,0,0,0,0
-107.18849693175,80.0200054580945,7.48820058990145,36.5984083826437,107.76164546254,77.9781909728264,-1.91878738121955,-36.5984083826437,0,0,0,0,0
-108.286696911433,80.9659664617018,7.41573795881321,36.5984083826437,108.979413524246,79.9240337839933,-4.08045677179514,-36.5984083826439,0,0,0,0,0
-108.806076020163,82.6297551050802,9.50910102991637,36.5984083826437,109.502464612565,81.0719294441794,-3.78506359666804,-36.5984083826437,0,0,0,0,0
-109.439538880267,84.318597182068,11.592815792701,36.5984083826438,110.220912216343,82.8713116603658,-5.82559548219596,-36.5984083826436,0,0,0,0,0
-109.834774404914,85.3607638798971,11.2841624735966,36.5984083826437,110.58610906253,83.9122657529502,-5.49626869085314,-36.5984083826438,0,0,0,0,0
-110.033313012347,86.277481006413,10.9803094943796,36.5984083826437,110.811196249432,84.7702808180764,-5.20375106751081,-36.5984083826437,0,0,0,0,0
-110.474746140993,87.0212795408521,10.7587041540368,36.5984083826437,111.058053346845,85.579955275806,-4.92380908232389,-36.5984083826438,0,0,0,0,0
-111.216848734854,87.5927774638243,10.6193873818005,36.5984083826437,111.54838342807,86.2285716657982,-4.8788851126013,-36.5984083826437,0,0,0,0,0
-111.436530045899,88.4052888025824,11.7748672703433,36.5984083826437,111.900716189091,86.6404949214523,-4.75809481609301,-36.5984083826436,0,0,0,0,0
-112.089993493747,88.6845657497048,11.6946620145715,36.5984083826437,112.465844635395,86.8924867090328,-4.68425524698427,-36.5984083826438,0,0,0,0,0
-112.632633783042,88.7163154955599,11.6855450957373,36.5984083826439,112.908013113356,86.8048318795188,-4.70993586771318,-36.5984083826437,0,0,0,0,0
-112.572199286907,88.6511920232166,11.704245518925,36.5984083826438,113.015463937974,87.2357078903055,-7.09653091513556,-36.5984083826436,0,0,0,0,0
-112.272588518319,88.9646215779707,14.1193948487284,36.5984083826437,112.924848973586,86.8646674742028,-7.20477451214087,-36.5984083826437,0,0,0,0,0
-112.22996163283,88.5780823286156,14.2293051209152,36.5984083826437,112.744180783726,86.5614094085582,-7.29330301196255,-36.5984083826437,0,0,0,0,0
-112.000950498246,88.0615214348455,14.3762479479663,36.5984083826438,112.47436550419,86.7745660850632,-9.73963434107443,-36.5984083826436,0,0,0,0,0
-111.910416953056,87.8575476196492,15.7718748166873,36.5984083826437,112.626892427421,86.3090895171599,-9.87478029645152,-36.5984083826437,0,0,0,0,0
-112.228804437991,87.4821497702861,15.9635306031898,36.5984083826437,112.923567857025,85.907808708504,-10.1963199651177,-36.5984083826437,0,0,0,0,0
-112.445021022178,87.2169637153587,16.1006821581237,36.5984083826437,113.085220027248,85.563824148873,-10.3627922840511,-36.5984083826437,0,0,0,0,0
-112.562745726538,87.6282435787008,18.5522722406734,36.5984083826438,113.379703221832,85.2746149563265,-10.5270993444328,-36.5984083826437,0,0,0,0,0
-112.609565966075,87.4182911465904,18.6458619420236,36.5984083826437,113.123327920502,85.5856919944003,-12.9681928177563,-36.5984083826438,0,0,0,0,0
-112.870017025011,87.3518763612014,18.7117097268387,36.5984083826437,113.251975929538,85.2956637913265,-13.1109898578001,-36.5984083826437,0,0,0,0,0
-113.121046592452,87.2856009169316,18.7769383798106,36.5984083826438,113.383877960894,85.098979935456,-13.2158185223928,-36.5984083826437,0,0,0,0,0
-113.118126196119,87.2599771226079,18.7873755200465,36.5984083826437,113.236522932987,84.9796180730795,-13.242924155813,-36.5984083826438,0,0,0,0,0
-113.14401703845,87.213459431698,18.8110205454428,36.5984083826438,113.236445193648,84.8184876617849,-13.3113546388201,-36.5984083826438,0,0,0,0,0
-113.038076946299,87.1568692450003,18.8189581583073,36.5984083826438,113.209161034783,84.734354368674,-13.3425078709709,-36.5984083826438,0,0,0,0,0
-113.037602119486,87.1284139223679,18.8309098366622,36.5984083826437,113.04968402094,84.6615307111949,-13.3464702463768,-36.5984083826436,0,0,0,0,0
-112.907132367548,87.0835679659438,18.8298686189584,36.5984083826437,112.908713944958,84.6842479216354,-13.3132436609029,-36.5984083826438,0,0,0,0,0
-112.724081377056,87.0189810693416,18.828759954593,36.5984083826437,112.92528128415,84.7117557184666,-13.3045197438319,-36.5984083826437,0,0,0,0,0
-112.496897098602,86.9301323152904,18.830387642973,36.5984083826438,112.774057076022,84.6907691225379,-13.2879718980135,-36.5984083826437,0,0,0,0,0
-112.340245905479,86.8909247469446,18.8220947639408,36.5984083826437,112.609958426902,84.7705843162984,-13.2276824492118,-36.5984083826437,0,0,0,0,0
-112.309410227553,86.8422170548478,18.8371396671186,36.5984083826437,112.457798720332,84.7884254753391,-13.195267763188,-36.5984083826438,0,0,0,0,0
-112.277988762742,86.8568111842598,18.8262831942782,36.5984083826437,112.396849072009,84.8768865211098,-13.1491776767073,-36.5984083826437,0,0,0,0,0
-112.328553849917,86.8511395841414,18.8364997058119,36.5984083826437,112.376320065198,84.9156986078309,-13.1300289466697,-36.5984083826437,0,0,0,0,0
-112.26996792818,86.8878727154783,18.8123991645249,36.5984083826437,112.410914646991,84.3013105177305,-10.7870676011862,-36.5984083826438,0,0,0,0,0
-112.188044875294,86.8820915017909,18.8020003896161,36.5984083826437,112.348441061058,84.3279807117841,-10.766194990758,-36.5984083826437,0,0,0,0,0
-112.128928273433,86.2111520688458,16.4641031296107,36.5984083826438,112.096704697642,84.2778621827799,-10.746132943539,-36.5984083826436,0,0,0,0,0
-112.158763059454,86.2052907913685,16.4711110873926,36.5984083826438,112.093259733563,84.3216069292435,-10.7280188219278,-36.5984083826436,0,0,0,0,0
-112.043240539514,86.0978760285933,16.4962737629322,36.5984083826437,111.889545232265,84.277292735009,-10.7131876326547,-36.5984083826437,0,0,0,0,0
-111.668772300575,85.9697382956754,16.4878915001736,36.5984083826439,111.516502022435,84.1652690681756,-10.6973623731489,-36.5984083826437,0,0,0,0,0
-111.544805114093,85.8184721138447,16.5273441181437,36.5984083826437,111.331809785588,84.048320809182,-10.7127555751032,-36.5984083826437,0,0,0,0,0
-111.426619881009,85.6205221405473,16.5851518536553,36.5984083826438,111.258209580683,83.9301099241717,-10.7461960010351,-36.5984083826436,0,0,0,0,0
-111.085275510001,85.4008853215703,16.612540388333,36.5984083826438,110.886714438689,83.7606279939945,-10.7487900081662,-36.5984083826437,0,0,0,0,0
-110.959225858457,85.2185219335609,16.660323681367,36.5984083826437,110.861861339213,82.9568259507232,-8.47033507010942,-36.5984083826438,0,0,0,0,0
-110.761718208397,85.0400717411572,16.6931623314124,36.5984083826437,110.499574186779,82.8093551728041,-8.463176634805,-36.5984083826437,0,0,0,0,0
-110.622531355893,84.8910158673277,16.7241654665977,36.5984083826437,110.286540568316,82.7086698029754,-8.46320675990804,-36.5984083826438,0,0,0,0,0
-110.663577904135,84.166073911856,14.423860772718,36.5984083826437,110.005567901381,82.7378683424944,-8.40396213399525,-36.5984083826437,0,0,0,0,0
-110.286999617952,84.2185880859531,14.3373002028679,36.5984083826438,109.666334310808,82.8983812287066,-8.28891960278664,-36.5984083826437,0,0,0,0,0
-109.714420328511,84.2715535937557,14.2172800068438,36.5984083826437,109.08570653694,82.4180751197104,-5.80320294487007,-36.5984083826438,0,0,0,0,0
-109.415440109582,83.7146029172629,11.7992787379225,36.5984083826438,108.539158885056,82.6157059965175,-5.64851366790167,-36.5984083826437,0,0,0,0,0
-108.980838274502,83.7934213597002,11.6978378517005,36.5984083826437,107.953264217244,82.1904266216505,-3.15510904054911,-36.5984083826436,0,0,0,0,0
-108.529793065617,83.9592873748532,11.5665078869883,36.5984083826437,107.405343075394,82.4295280358184,-2.99736254254494,-36.5984083826438,0,0,0,0,0
-107.995443014283,83.4825512590354,9.09149640908239,36.5984083826438,106.721788120106,82.0424313230447,-0.491166313564708,-36.5984083826439,0,0,0,0,0
-107.221999790882,83.7517923465162,8.88501984019228,36.5984083826437,105.966567699364,82.3501872719097,-0.29778391113895,-36.5984083826437,0,0,0,0,0
-106.75698407037,83.3183722455052,6.41970588608466,36.5984083826437,105.285032934697,81.9400323401972,2.18508664231796,-36.5984083826437,0,0,0,0,0
-106.281315568901,83.6303661920327,6.25873487697617,36.5984083826438,104.828129810272,82.2610735042768,2.32799114989399,-36.5984083826438,0,0,0,0,0
-105.77367800304,83.2884911078541,3.77268571513719,36.5984083826437,104.385354808023,81.9216692202525,4.78764998764881,-36.5984083826438,0,0,0,0,0
-105.581927556878,83.5619085792974,3.67113002028564,36.5984083826437,104.319137422777,82.2270383603306,4.87276218000647,-36.5984083826438,0,0,0,0,0
-105.261350249485,83.8896731087684,3.54072397974638,36.5984083826437,104.396288960091,82.5890966423344,4.95674124176097,-36.5984083826437,0,0,0,0,0
-105.216545529553,83.4811057127653,1.14324176928312,36.5984083826437,104.259879111558,82.8676241891565,5.04124097596323,-36.5984083826437,0,0,0,0,0
-104.585113328089,83.6399077814007,1.02749474078788,36.5984083826438,103.78855114032,82.4785222552105,7.47830735443953,-36.5984083826438,0,0,0,0,0
-104.051600746613,83.8855636690857,0.905168210139067,36.5984083826438,103.395072351349,82.782616354003,7.58669980350617,-36.5984083826437,0,0,0,0,0
-103.686352652127,84.0664060583963,0.821278874555278,36.5984083826437,103.066949414591,83.067453187787,7.6809058288656,-36.5984083826438,0,0,0,0,0
-103.467070672212,83.6305069652443,-1.57869543617553,36.5984083826439,102.947710007547,83.4323294387424,7.77424406964783,-36.5984083826438,0,0,0,0,0
-102.996470028838,83.9450672860794,-1.69870768731217,36.5984083826437,102.612095179177,83.8216779063784,7.88604409574523,-36.5984083826437,0,0,0,0,0
-102.612061228771,84.1232091729095,-1.77506654666302,36.5984083826438,102.154757226354,83.7385008954592,9.5125601625446,-36.5984083826438,0,0,0,0,0
-102.382053577245,84.3613108191269,-1.84827515454703,36.5984083826437,101.852956664024,84.1505973985285,9.63221701116923,-36.5984083826436,0,0,0,0,0
-102.349504928546,84.5755456962016,-1.89785878938417,36.5984083826437,101.838309725684,84.5155415851917,9.73802898714222,-36.5984083826437,0,0,0,0,0
-102.331978487551,84.7665177697969,-1.94093654850677,36.5984083826438,101.792377295664,84.7687708229585,9.81137058852237,-36.5984083826438,0,0,0,0,0
-102.343066173485,84.9485574843666,-1.97976254590695,36.5984083826437,101.72598232669,84.9428030711705,9.861738722057,-36.5984083826438,0,0,0,0,0
-102.303867716257,85.0757544240365,-2.01043696733962,36.5984083826437,101.761472316291,85.0761539137319,9.90031377757919,-36.5984083826437,0,0,0,0,0
-102.220600369574,85.1024074230359,-2.34178203349458,36.5984083826437,101.665651634913,85.1793314415762,9.93014937346712,-36.5984083826437,0,0,0,0,0
-102.255216366556,85.2190486898261,-2.37610192966716,36.5984083826438,101.723134563153,85.180045742866,9.9303558931115,-36.5984083826437,0,0,0,0,0
-102.13487267576,85.3696551639444,-2.4203975813617,36.5984083826439,101.77799895296,85.1992573840191,9.93591021638665,-36.5984083826437,0,0,0,0,0
-102.146615824235,85.5059765108659,-2.46047478586014,36.5984083826437,101.738378367099,85.2231992689218,9.94283165583403,-36.5984083826436,0,0,0,0,0
-102.156830235078,85.6711200241105,-2.50900454830119,36.5984083826437,101.801733832779,85.3392620587948,9.97637754670586,-36.5984083826436,0,0,0,0,0
-102.295707017396,85.7435682570152,-2.53028746994068,36.5984083826437,101.92687967919,85.3398131340438,9.97653679748052,-36.5984083826437,0,0,0,0,0
-102.402197276945,85.8584692199186,-2.56403307823094,36.5984083826437,101.998425346376,85.4070413525495,9.99596259441058,-36.5984083826437,0,0,0,0,0
-102.5005131583,85.9358244292172,-2.5867459880748,36.5984083826438,102.053876977215,85.4033238911187,9.994888522827,-36.5984083826437,0,0,0,0,0
-102.589196264301,85.9394853401003,-2.58782078542737,36.5984083826438,102.116059029426,85.4166219692137,9.99873063076273,-36.5984083826438,0,0,0,0,0
-102.53794558749,86.0121015682814,-2.60913790683417,36.5984083826438,102.092479599222,85.3725110099348,9.98598542748467,-36.5984083826438,0,0,0,0,0
-102.405379032464,85.9653189711173,-2.59540492579788,36.5984083826437,102.015354793115,85.3662903640351,9.98418793196546,-36.5984083826437,0,0,0,0,0
-102.436560192455,85.9583562657449,-2.59336089056197,36.5984083826438,101.985879705311,85.3398678722293,9.97655261581141,-36.5984083826436,0,0,0,0,0
-102.466907055598,85.8916498977515,-2.57377609666226,36.5984083826438,101.931339225967,85.3558702025787,9.98117688565768,-36.5984083826438,0,0,0,0,0
-102.487032744638,85.8411740255701,-2.55895426114586,36.5984083826437,101.919091751502,85.3520325158739,9.98006791094589,-36.5984083826437,0,0,0,0,0
-102.402525898608,85.7911504093338,-2.54426327308154,36.5984083826437,101.745526456967,85.3558129223161,9.9811603334967,-36.5984083826437,0,0,0,0,0
-102.489793008517,85.7369988485286,-2.52835776585893,36.5984083826439,101.763676624544,85.2809988231132,9.95953905228812,-36.5984083826437,0,0,0,0,0
-102.410507934607,85.6920733857655,-2.51516039433794,36.5984083826437,101.745113028113,85.2358914494013,9.94650067633003,-36.5984083826437,0,0,0,0,0
-102.46701615843,85.6494164602122,-2.50262792705533,36.5984083826437,101.796156376343,85.2111869348742,9.93935903316268,-36.5984083826438,0,0,0,0,0
-102.346115928079,85.6000314601392,-2.48811692274729,36.5984083826438,101.761361708867,85.1756758452794,9.92909245600541,-36.5984083826436,0,0,0,0,0
-102.278612706906,85.5514148996448,-2.47382975149764,36.5984083826437,101.718008911249,85.0976297609345,9.90652468415416,-36.5984083826437,0,0,0,0,0
-102.143852292613,85.4910236699174,-2.4560795619668,36.5984083826437,101.628871667895,85.0656968916577,9.89728941108828,-36.5984083826438,0,0,0,0,0
-101.928016840453,85.4147039002376,-2.43364324842603,36.5984083826437,101.480113310822,85.0524822150498,9.89346733728396,-36.5984083826436,0,0,0,0,0
-101.679651193456,85.325116006267,-2.40730001583948,36.5984083826438,101.339016680034,84.9430758466943,9.86181764592118,-36.5984083826437,0,0,0,0,0
-101.340581693997,85.2313338058951,-2.37971592118713,36.5984083826437,101.07940381556,84.8842482817026,9.84479508560102,-36.5984083826438,0,0,0,0,0
