JMW9912/AVATAR/install/dynamixel_control/share/dynamixel_control/data/csv/poppy/.data/waist_test/5DoF (2P+3O)/0407_2014_13_29_waist_and_second_Waist_poppy_motor_degree.csv
theta1,theta2,theta3,theta4,theta5,theta6,theta7,theta8,theta9,theta10,theta11,theta12,theta13,theta14,theta15,frame
-95.22115145328934,22.096782884579707,95.27613377082073,28.298822862089924,0.0,7.049796516221304,-71.8619540033431,-28.29882286208962,11.949525018099951,4.227855492074081,2.8051766135533356,0.736096783755453,0.06106657397293583,-1.5574253403185632,-2.1207448039576726,0
-102.70373320286619,72.23525318987053,45.02230919884382,28.29882286208985,97.62409102281227,60.82573950223244,-22.81920700743326,-32.94932912789293,11.949525018099951,5.337556092539184,-6.3309324053182445,1.361414638279398,0.4701826157592827,7.569447575639802,-2.7692810731423383,1
-86.42458052403798,70.33587377194621,41.813926665891,28.298822862089825,93.78447991268199,61.4747274544297,-33.37882904403744,-37.70614007798186,-8.702794457675175,6.000000000000009,-6.183206202577901,1.3361708641701557,-5.482747019103492,-6.672359483164608,-2.9460520416559097,2
-86.20281600028531,68.79530494449055,41.95288372526032,28.29882286208985,93.8528117707566,60.03365592521176,-33.52888562631594,-38.45864919012048,-8.8227965306113,6.000000000000009,-6.0358412912571815,1.3462034182658573,-5.4441405293273,-6.645399678536349,-2.976000102553325,3
-85.98155955096708,67.23723749949734,42.07524732078274,28.298822862089825,94.07469423543513,58.59443606080203,-33.73751704323536,-39.44306698508173,-8.950047135853053,6.000000000000009,-5.958337355852773,1.3833357503991277,-5.386415722056819,-6.528069893934458,-3.036448707327591,4
-85.38737361998346,65.97449377172643,44.43054700205778,28.29882286208972,94.20046752696253,57.1016366503748,-33.91340715742391,-40.34420002259558,-9.354939352457459,6.000000000000009,-5.884290925277586,1.379497038346891,-5.325128010137137,-6.461881453041606,-3.009053693777865,5
-85.04230878838142,64.27136589561805,44.433007579249406,28.298822862089697,94.31373695384886,55.57742793777361,-34.119856161550196,-41.19804310813614,-9.789460937432365,6.000000000000009,-5.792385267034498,1.3506890022250593,-5.327524382773044,-6.410629841572633,-2.944847804679826,6
-84.21339825259874,62.975238570363125,46.54508371598612,28.298822862089647,94.60344346089741,54.06495442166887,-34.42383149209146,-42.2728036947793,-10.003660886026005,6.000000000000009,-5.678336706320956,1.338815744403698,-5.322239270601845,-6.3800227129799,-2.944927192646514,7
-83.83495558624833,61.314842881378226,46.460991411477835,28.298822862089697,95.01852487061167,52.5752620226924,-34.79815101569824,-43.442449330728586,-9.975044017988134,6.000000000000009,-5.573398631949128,1.3277188661852934,-5.3200714927197,-6.324769043999504,-2.9545164466446976,8
-83.44506605984374,59.603332602864114,46.36477405593386,28.298822862089825,94.71041682990847,51.715234023714544,-36.96923093771105,-44.63529756383548,-9.996061921087884,6.000000000000009,-5.470637220380599,1.315762185057984,-5.298797025029874,-6.270678724261461,-2.9385904367465603,9
-83.12557123690353,57.857638022167485,46.29225703006412,28.29882286208985,94.99998066373811,50.21993072874066,-37.20898345093734,-45.795270329847185,-10.115682713692,6.000000000000009,-5.348400401762459,1.2946109290096222,-5.276103136250268,-6.233998076389266,-2.894509785999553,10
-82.39943273637644,56.44814965555983,48.31773985106838,28.29882286208985,95.25652236998829,48.75077888033445,-37.36523620442754,-46.76193885985718,-10.487405172254773,6.000000000000009,-5.219242929110464,1.2950677123179488,-5.229811848984999,-6.157238898172758,-2.8411084652299423,11
-82.12759772452569,54.6890993293883,48.26195868549656,28.29882286208985,95.31204659361224,47.248697839858316,-37.29023266800836,-47.50372885038786,-10.937040192396111,6.000000000000009,-5.094902733071808,1.288314896585893,-5.087229798915184,-6.066658200917467,-2.769599654582476,12
-81.85395858937827,53.0006950878378,48.18209768644703,28.298822862089924,94.72505798413836,46.44957869946664,-39.009589281372804,-48.43752318219486,-10.90618867107177,6.000000000000009,-4.933402824919772,1.2817062569946445,-4.938832531108038,-6.014534215142231,-2.7330972232936808,13
-81.24364576817479,51.829686967826724,50.17115093508827,28.69942441276232,94.9037641327343,44.94496244968543,-38.976285490797665,-49.45542284341429,-10.970158570268817,6.000000000000009,-4.739813104525834,1.2685753327699216,-4.827588996808009,-5.9564152831617125,-2.682278369864298,14
-81.55298022837177,50.67631291704452,50.35573439502062,30.134930523503638,94.12221076666724,44.15613897509911,-40.431739579942985,-50.432576115978726,-11.206061198738702,6.000000000000009,-4.594318544282668,1.2390609302738715,-4.6924812820911574,-5.834266478949365,-2.599776355805035,15
-81.87848777728834,49.53524922450649,50.58842486984032,31.555948181692678,94.01692459552818,42.68498056411889,-40.0993294442329,-51.326732671372824,-11.431931968945122,6.000000000000009,-4.500847969761316,1.2536511784982323,-4.524032244205622,-5.691177160205506,-2.560418819009667,16
-82.22857615972181,48.42405181274208,50.847665757517895,32.9602262444332,93.81535742656455,41.16944894706635,-39.69732227827479,-52.07588048636188,-11.640697096073994,6.000000000000009,-4.327650508092064,1.274136780063315,-4.364675104494906,-5.647315349335128,-2.540724800412648,17
-81.77188575341323,47.639629955700116,52.8033432418974,34.03187396339645,92.82351896439059,40.4755381052376,-40.831740072136725,-53.01047836755606,-12.043058695334487,6.000000000000009,-4.135227478171134,1.2831361871893372,-4.223237855153542,-5.537199140066112,-2.5239659218257864,18
-81.92488457474234,46.439880573123176,52.82227993248515,35.05782393702059,92.78166791362739,39.18798364798967,-40.436274298857974,-53.98611980255641,-12.369096610024975,6.000000000000009,-4.045054600334569,1.2680922034790492,-4.064547938541247,-5.331756947643567,-2.4493562028537657,19
-82.07269591740395,45.28692126689998,52.88036942526395,36.2008783932524,91.67304081547637,38.63151066850031,-41.50595128814442,-54.88959180366592,-12.51123889755502,6.000000000000009,-3.963477527152299,1.2821823153722747,-3.9463061811128775,-5.215417084149871,-2.4076261612541527,20
-81.48507831427857,44.59175516305434,54.7194119217709,37.30633561963755,91.48454327133061,37.296685929713476,-41.02572503806835,-55.82451637372414,-12.788080077821414,6.000000000000009,-3.8721204106588694,1.3121983809581723,-3.816327459054772,-5.088012866554454,-2.417860263532047,21
-81.55145739217754,43.50861110853861,54.64189212347942,38.37209308283555,90.23576764949702,36.774902939188124,-41.880579928808594,-56.78460823531472,-13.305579840993095,6.000000000000009,-3.7278190164210248,1.3147236973388974,-3.7245638679740085,-5.003556933568709,-2.3932921101559343,22
-81.61968477683185,42.47780850440492,54.5165002385406,39.51213725793282,90.1108547200068,35.46346493511408,-41.41403048140435,-57.688861557399456,-13.782910658515183,6.000000000000009,-3.581559468559812,1.327567586219144,-3.6569334532003013,-4.897217632264286,-2.3786010735757404,23
-81.54546407123662,41.36770178290612,54.28377801541272,40.34909758872968,89.7699876853171,34.29499529244003,-41.23807273159634,-58.740367931340415,-13.850399697159142,6.000000000000009,-3.486565392535883,1.336671092012236,-3.587093185812851,-4.750393516151824,-2.4066023545759982,24
-80.42339206723975,40.58344439454562,55.59770904099677,41.20234591264942,88.10156423637373,33.92074739402132,-42.012913832656594,-59.66183425882263,-14.253554496099598,6.000000000000009,-3.373261650505071,1.3386490658287997,-3.5022028747969505,-4.697751351173185,-2.369692269092746,25
-80.33166333034099,39.39542423035993,55.3976793417292,42.19810640262585,87.58668154103971,32.732166088771024,-41.577786690720785,-60.51385856525814,-14.467651502622155,6.000000000000009,-3.2663352542037076,1.3738755366770725,-3.3863936583485654,-4.639442121549857,-2.374296612602968,26
-80.26586183016477,38.23634559006044,55.22700483498755,42.99674429766119,87.09142166514958,31.43087210707011,-41.17411476180317,-61.56162836911733,-14.242870795954143,6.000000000000009,-3.1528194819304276,1.3693554043206202,-3.247699655866875,-4.575653178420321,-2.4326217496503864,27
-79.13649495678362,37.42285338701495,56.43875758286682,43.754441544073195,86.49916563063864,30.138327120744602,-40.66351166321275,-62.5246771742044,-14.56115964953027,6.000000000000009,-3.0033826185086325,1.3550456720454456,-3.1296452213397665,-4.506716292460976,-2.4412639312833133,28
-78.9472494927705,36.045463624951054,56.01545813171021,44.4099789459407,84.55115764738018,29.76405824136331,-41.12648269674296,-63.48460878102324,-15.296944962498635,6.000000000000009,-2.822490099718914,1.3964536937346328,-3.08212816933014,-4.429746725014454,-2.481554184022783,29
-78.56201513228956,34.593721216794286,55.32822121638421,45.15339629810381,84.27471495952904,28.611471340045,-40.92331944002961,-64.47780445591316,-16.490991351197373,6.000000000000009,-2.677098279175108,1.4504685940245436,-3.087791232574198,-4.281019432893489,-2.507376101944897,30
-77.07400503636363,33.641811843315374,56.07423102742334,45.86741882398866,83.54394821208379,27.248191705759723,-40.32305536732845,-65.45824929413892,-17.35140281498654,6.000000000000009,-2.537580886371475,1.473717714778471,-2.980996268883291,-4.160487548811084,-2.5869312162680687,31
-76.96409361486458,32.15178636391308,55.740281167725875,46.44002321886585,80.2733404127948,26.56005739897435,-39.5022918172203,-66.20739640679986,-17.771816858677216,6.000000000000009,-2.335156270293143,1.492962094267306,-2.79471099141602,-4.103816911238813,-2.706402312040486,32
-75.93965049857815,30.737201384609335,55.51684822364384,46.93798710276096,78.61387432593698,25.01078231316656,-38.00782749605924,-66.86988059978998,-18.51943262020792,6.000000000000009,-2.1400897478420817,1.52547681285803,-2.668645623698578,-3.9852574460503827,-2.782072375403113,33
-75.3036412340794,29.113275799717595,54.9034144282449,47.4635243153484,76.91639245224223,23.48591398179086,-36.53176147574399,-67.63255165312134,-19.18727398762834,6.000000000000009,-1.953016577732718,1.5611709720476357,-2.5336133487136303,-3.876603654742209,-2.8673668367532175,34
-74.25341446910909,27.452967819861325,53.87744943433947,47.961811418132285,75.21999261892996,21.918293575178534,-35.137745335382355,-68.45979189618396,-19.992106322802748,6.000000000000009,-1.7600289958876243,1.588721277134995,-2.4953553098685948,-3.7847170888270085,-2.9478723235873967,35
-71.3758874119824,26.24686530274582,53.44822976038083,48.52067601660027,72.66100355281,20.32130875992786,-32.916914745438866,-69.06906784653238,-21.328069639972504,5.8784902923975,-1.5572287648996974,1.6378948804269673,-2.4711511625933094,-3.6967566069769244,-3.0093000928655522,36
-69.70250018026249,24.53465062282369,51.802783275067064,49.015026484593314,67.77678404279202,19.76752058749156,-30.599914113046577,-69.61156954539173,-22.26950338576839,5.751936293519315,-1.363833361197894,1.7016196725778387,-2.4364284341493514,-3.5938793534027536,-3.097638310416905,37
-67.64399958870305,22.775599872343772,49.80761196382944,49.517453649482555,64.66051218099233,18.222905581410636,-27.89819191544248,-70.15751278783372,-23.596772396751366,5.615183146245001,-1.2095180607572236,1.770108768948061,-2.391805236178771,-3.462189210273307,-3.18023098132343,38
-65.61801627185464,21.035679487292377,47.90737111703508,50.14101519161707,60.000617669422496,16.775097252517877,-23.677949474012603,-70.58422805696303,-25.091804558749594,5.4531539604372785,-1.070826800882822,1.8169131876664366,-2.2789756730094197,-3.341295873923098,-3.263219204595802,39
-63.455052165659595,19.371324498814314,45.91350221486166,50.8838998403075,51.98979474961966,16.71246530779205,-18.273168248917578,-70.961288400679,-25.552500061950692,5.345524910870693,-0.9134249964191538,1.844711217973503,-2.135585290355526,-3.270387569709991,-3.3561354210274317,40
-58.47291815508758,18.472601384271996,43.42946691405197,51.64023042961069,45.37964447891929,15.670676694266279,-12.173781952697391,-71.50446525727621,-25.9256094655022,5.271927435428027,-0.7343401204006008,1.8599805171837716,-2.041728985542692,-3.2271060239435307,-3.4325121245785857,41
-54.44498628861604,17.01674383532249,39.548786408924364,52.40134371600509,38.90758743084597,14.755533738332685,-6.242172646510212,-72.11295219009237,-27.583242031744643,5.160661792224522,-0.5680683490385586,1.8558837149596268,-2.0124883019924384,-3.1672802951164827,-3.4534878122374963,42
-49.81014580497742,15.629347446276205,35.10593466726628,53.216987004841535,31.51371962635121,15.367452931675416,-1.473578421656806,-72.62729642496778,-29.42950547062154,5.057975120471599,-0.4717434476079005,1.8054557023584628,-1.9782360634500313,-3.0587097946119424,-3.428813425644706,43
-44.29071518548481,14.468286086340362,29.856095760020796,54.15432754781968,24.403770248556867,14.83706770974472,4.980626631231994,-73.26916166146482,-29.687946687350035,5.080877993378213,-0.34464019927694656,1.7694094471569264,-2.004294337712527,-3.055592082991855,-3.436058704371111,44
-38.08670695899263,13.460461180584229,23.72343464775832,55.14538278891302,16.759866192532797,14.57740798985145,11.970393193943579,-73.91357719503603,-29.70433322043401,5.109130293960357,-0.21076431034993096,1.6915629479890701,-2.016776209463623,-3.034110176033709,-3.412678238824106,45
-30.006536971858132,13.362173421516546,17.43298349076409,56.27065172967264,10.715090222357865,15.904137677433797,15.378851295288163,-74.5573792733536,-29.842622435941596,5.098500612730334,-0.15428880268546452,1.5733866364312394,-2.0151449488558564,-2.941483183941102,-3.326743777497755,46
-22.681947042133217,12.584071356221587,9.721005990216348,57.45213293871718,4.013184072564406,16.13877677240013,21.371628259530585,-75.23653248060934,-29.394741875500596,5.168996130488931,-0.09508464211884687,1.4765341743512082,-2.048846727083188,-2.9315841025871623,-3.2816112173623213,47
-14.608926157556649,13.114647655899256,3.431291382027166,58.59965604203516,-2.5781708036844218,16.54603194455779,27.23011561192565,-76.02170371258744,-29.18291896878037,5.165115069239511,-0.036561325705885064,1.3819350086681137,-2.08771290809903,-2.9095042026026006,-3.277019511292326,48
-7.173013769728931,12.779227082596298,-4.4445576391663115,59.79394545191132,-6.584605590577467,18.415684725285885,28.60343822711492,-76.7828484610715,-29.167559848218424,5.084993206900794,0.03148578740966021,1.2566979116496817,-2.092564522572216,-2.8647581993657774,-3.2514535189883293,49
-0.030715354946697367,13.852461504515018,-9.952733377022478,61.06749292087671,-11.72634394662279,19.194380851426263,33.10621436598772,-77.58862604529833,-29.223518950497958,5.11345079748502,0.12850409982433472,1.1757584656470197,-2.153616885363848,-2.843473793335595,-3.2135882609547592,50
7.166853422817022,14.058357345212528,-17.672550799185178,62.41366416530301,-15.596931613713265,20.43348039274906,35.722843477701055,-78.48102590598201,-28.303778665588926,5.1918963480328815,0.21448228339279035,1.131694768421438,-2.2107925324481523,-2.813314106946129,-3.217721264894557,51
12.020091649421628,15.452989148662198,-20.96534424808355,63.80216599435598,-19.082018010530764,21.82040056196452,37.99743582168408,-79.3211397246807,-27.32730732843094,5.215318532294951,0.30740667541196,1.1074388155888777,-2.2537956191514104,-2.775555561991505,-3.285287135871809,52
17.29938925550596,15.874802172311904,-26.80097247851281,65.34831742888655,-22.609683132668682,23.4423712465106,40.399423796880534,-79.9324400127579,-27.0883750248523,5.128062395922884,0.38188222125168675,1.0146142459607292,-2.2927496912437295,-2.698934230179891,-3.3271354994143003,53
20.88291822834249,17.662979248568814,-28.93169305340526,66.74267558681497,-25.564758304307507,24.961226848059603,42.11967150863735,-80.66030432815737,-27.585440502560562,5.114129391535903,0.43859219765246965,0.9260668583898115,-2.395010507514004,-2.6483530733237846,-3.2886465882740086,54
26.180343256190582,18.57855411407843,-34.79740506221253,67.98320162687665,-27.95557951653291,26.504281088327858,43.22716943251741,-81.46235328046596,-27.891808974085706,5.18114190612175,0.49584670644804446,0.900038490470124,-2.474540859429168,-2.62670367344297,-3.270869726673339,55
31.00200818376294,19.559399463947937,-40.15904762430214,69.1829074241985,-32.08531353740632,27.166919096152743,47.823438423748925,-82.26800308613015,-27.557693350153247,5.2573354951254965,0.5320961753478832,0.8937649361780202,-2.5164482329424476,-2.5801581346950466,-3.2857878219816934,56
32.68486693203586,21.491794362439936,-40.421232102838694,70.5090361010657,-33.78102678756393,28.8990261551999,48.27141846679457,-83.0373290932101,-26.946090947411378,5.277058771818231,0.5317415859343848,0.825767021674823,-2.5772807859307614,-2.52147985185841,-3.2872761388337985,57
36.183820000156665,22.584736241675028,-44.432789506002685,71.9433900521058,-35.0944972274947,30.655621724377244,48.369632577214965,-83.77870706596218,-27.264627257496826,5.303210622281525,0.5006848986333108,0.7326086758350845,-2.6662954903936384,-2.475715129935431,-3.2081593154057626,58
39.210309175361665,23.8444515732452,-48.00461326234239,73.3569017529408,-37.18901800112537,31.76339437991949,50.15781284039235,-84.67538031272518,-28.473928101413865,5.3588148669290465,0.4032106410529292,0.6716963791938437,-2.7850749853693935,-2.3932273158528607,-3.0978774005358387,59
39.74443511578061,25.879550613176,-47.155886869333315,74.83802458467052,-36.6417535060553,33.91688983134029,47.40932607447911,-85.70377782857811,-28.99931819968614,5.4840819855820095,0.2737002446676627,0.6157795272258313,-2.840602611302498,-2.3805515117088785,-3.005111581110416,60
42.21304508468354,26.86447469508846,-49.96860466010685,76.42928439227369,-38.06009299840159,35.108502575626844,48.293317061794475,-86.72138063076589,-27.946223039876923,5.6014815182215,0.13520069815278876,0.5408731641422783,-2.8609310047448453,-2.4199285708469183,-2.9788186070273346,61
44.044227303972946,27.9377974232595,-52.1766734450418,78.0340614334732,-39.509188581988866,36.13976544961207,49.24705093335619,-87.85285228767479,-26.175657407178683,5.735326897167675,-0.01807725338344635,0.4729550732175914,-3.0087318561421275,-2.4357627398962896,-3.0022794432329865,62
45.660397673508484,28.930289525521324,-54.16100718842026,79.74597497536303,-40.71963390992551,37.113402529882315,50.06916903586972,-88.96730345838174,-25.610981593677625,5.8694100027404925,-0.15940821440283512,0.4187305467524031,-3.132758289495892,-2.4773450334093443,-3.0103578920572227,63
44.876681317173144,30.754316554439114,-52.097358054783705,81.46313393344066,-41.69343069026696,37.948570024942825,50.73628852363134,-90.06385919243317,-26.004113546455493,5.9751538560107,-0.2847579095984759,0.3349487893111843,-3.2632337931479594,-2.53680153666656,-2.9243449851950283,64
46.12280058201172,31.773813052057076,-53.80358949325175,83.00782659225834,-42.489607151846656,38.623225253985375,51.279559085383724,-91.22021543192986,-26.07348851016841,6.000000000000009,-0.36149159895676053,0.2659053002586105,-3.409003615972395,-2.615393663138137,-2.824884628633759,65
47.06626263398623,32.68758209262,-55.25616099649252,84.47749482207766,-42.97642697359368,39.18217226611642,51.7108502170272,-92.48966794603764,-25.843490285959174,6.000000000000009,-0.3410057754358553,0.24715672439006695,-3.527100463908269,-2.7496144966836704,-2.805622751076533,66
47.57820587861731,33.39022162904221,-56.378674674045286,85.93536752724734,-43.25326270127875,39.79415179774387,52.18129389325956,-93.59677616795297,-25.330390760253803,6.000000000000009,-0.2128020279235885,0.19029689527755753,-3.5910494741964603,-2.9047960032418043,-2.848391304640219,67
48.149321951886705,33.870485546215114,-57.95637894151506,87.22765171435942,-43.32629352523321,40.335584775983314,52.62785145153969,-94.58455253617484,-25.1008084971494,5.9006037084694025,-0.008713234312760512,0.11643779445584408,-3.644934886859706,-3.03632555236814,-2.913872081823728,68
47.69783336065843,34.479686496872894,-58.08772697352241,88.33872745307264,-43.307194910916714,40.8364331290767,53.11005877404491,-95.32276778833946,-25.49684887591916,5.5593465804836395,0.21995225363750603,0.05004504182126288,-3.7094227738776575,-3.0839300339111806,-3.0211335102818238,69
47.15981666609647,35.05795582131605,-58.172627551548715,89.23216195537825,-43.089086853709034,41.129006511723844,53.491354973541064,-95.94792578024128,-26.635080618426908,5.256422228462783,0.479354736022017,0.0030434451218304833,-3.8104894330454884,-3.0892811964729567,-3.0997559909264503,70
46.35446549969182,35.52778737461367,-58.09092329731786,89.90740159880158,-42.776035842490266,41.25981806278425,53.867273251534286,-96.448840548869,-27.753439752348903,4.980251547598436,0.6960233242144029,-0.003302222355914125,-3.953649671902084,-2.9812814781216606,-3.244872931435875,71
47.462434461565586,35.03545472883565,-61.44390795825975,90.4271541449693,-44.596032438955895,40.38112119872247,57.67972443544155,-96.69956414723532,-27.539336980712317,4.698306691068307,0.9233722153130625,-0.059383125849230174,-4.170731109853366,-2.888631396884656,-3.393337108025842,72
46.290106537962515,35.215246198613606,-61.09125809583816,90.62597412420689,-44.15733590061937,40.264115944850154,58.00771645330103,-96.85060368988015,-28.173771074680243,4.314642476058168,1.1788435662129884,-0.13254383801681852,-4.349385285963412,-2.791359273888794,-3.4939035832850776,73
44.96963653357478,35.13284287700131,-60.604697091065866,90.68269369782631,-43.52277507247445,39.99782367424683,58.23648602508301,-96.9406903629537,-29.644607715342584,3.8230510781721,1.453559806025315,-0.22375998757980056,-4.4955575883300884,-2.676436795401629,-3.6009472365555446,74
43.494751771253135,34.819300589295565,-59.96053231037196,90.64118639203774,-42.76403738569904,39.57768713976407,58.39977098403826,-96.82108257843056,-31.30400744768885,3.377210300561073,1.7373434366924696,-0.3293023949510956,-4.631463159439909,-2.526182472184016,-3.7050955384341355,75
41.86559524365538,34.430778194049836,-59.16045623988441,90.28188847917511,-42.049346736055455,38.92190153425902,58.52461107280021,-96.65252740464507,-32.9787405236631,3.000498499543085,2.0253953658214563,-0.4092875618790342,-4.824027894362689,-2.3570202326417267,-3.833965734808097,76
40.081889903532215,33.78059797850465,-58.18198972555154,89.8045846935475,-43.57422676954641,37.407677342208586,62.207926114770025,-96.30563120193634,-35.09004590342425,2.6341133085112527,2.2760736430374,-0.5047432905468718,-4.981530367866837,-2.171037642311258,-3.9694169948169096,77
38.36368273880131,32.926429314084395,-57.121688090434176,89.27434494983125,-42.62832208921214,36.49321091612281,62.16050162456605,-95.7899912794494,-37.61333467348093,2.288951142467995,2.4825868087452307,-0.6230929953836445,-5.10075847513783,-1.9838373248390422,-4.018264038537316,78
39.05647612401942,31.171734240658534,-59.86207818986229,88.49289902971613,-41.63671687919569,35.28103150326629,61.988559044054846,-95.29921419465883,-40.91124218245292,1.9899754306901876,2.645625643252825,-0.7301503578383429,-5.254177899675189,-1.7960850368253327,-4.043367255375243,79
37.26570595982261,29.99117009104754,-58.5090153922388,87.54799249594318,-40.725075511368004,33.99690695557611,61.72901043169616,-94.75835348786246,-40.9305561040012,1.8386249458662935,2.815942109780878,-0.8311992851456911,-5.348852206299721,-1.6915228916799392,-4.130009669579667,80
35.27106247129471,28.550674743643174,-56.93821741059431,86.45966088572779,-39.78514199304471,32.77425732069422,61.41859549313784,-93.97202724229979,-39.31899454964314,1.702908468152885,3.0368473153114026,-0.9650578453252406,-5.347680854673219,-1.662627535765051,-4.235356901510591,81
32.088098935307855,27.37377377682734,-53.374179515908004,85.1856682733891,-38.41844360798641,31.39170834408797,60.81192958235682,-93.11994051024605,-42.470796607167735,1.5539520278985877,3.2101023195951877,-1.1023204727967262,-5.26273798250465,-1.5630209235442654,-4.244030785813256,82
31.641175262537875,25.35920828996725,-54.14241560797529,83.75846363327605,-39.54710147953111,28.92081935304652,64.10916946560265,-92.42008622399477,-48.23059545458018,1.4835971980270937,3.3194401146494004,-1.2205374736053156,-5.188405736007488,-1.4434014095560057,-4.142250020185417,83
28.38705098539849,24.185389803336037,-50.3675545639314,82.1658489644744,-37.853024127836505,27.035338442804925,63.06576374650698,-91.7331245054065,-53.30663238000352,1.4231888569686773,3.446235586688335,-1.3089507414049197,-5.099517184372747,-1.3808013149893141,-4.072524791217868,84
27.39126577948173,22.091657778486596,-50.59391647949836,80.46910136218305,-35.999933427177716,25.19401834453714,61.99027120354353,-90.85287122250766,-57.872475270889986,1.3527981863701612,3.559069966873016,-1.40171507268532,-4.989224537691628,-1.3048391562778465,-4.034895639661932,85
23.15635926511482,20.948373134158977,-45.7723233811192,78.66692939299584,-33.21526487906386,23.39625431817469,59.600624992242665,-89.98682700417662,-60.473869219618635,1.313907638778326,3.6171785992327767,-1.484953343985947,-4.931444114823172,-1.2111591425599453,-3.9942580738060163,86
18.540510070208096,19.69704015224208,-40.47160474031487,76.92215024412259,-30.99104475786584,21.40526821835198,58.369355128258945,-89.0226138870354,-60.22582993383471,1.2951439156561226,3.664990825451786,-1.529514215453668,-4.789025693209215,-1.1537831062030988,-3.979641574836341,87
15.996946456765114,17.468842798117358,-39.14498099236233,75.14001921468297,-28.166225530539766,19.487695049885833,56.55156195540975,-87.91647451564687,-58.23610325715718,1.32736945593045,3.7069490716936926,-1.5783724593076967,-4.619624577508715,-1.0883053213478495,-3.957661378969142,88
10.532049660057528,16.479041282556704,-33.03159382242772,73.11035492823848,-24.57732827738184,17.54768954830577,53.97207715350598,-86.80392390417965,-57.036895598063744,1.346512011401059,3.74374373830983,-1.608740619625543,-4.49581972342979,-1.028829762121447,-3.921610595652108,89
4.485927282836348,15.652279771910594,-26.315422652113103,71.12900889166912,-16.42579459389358,16.647254701671624,45.025204452931916,-85.52851827719454,-55.71639449786432,1.369765949065307,3.7238781345434306,-1.6389208727436235,-4.413942601563873,-0.9474354767428341,-3.8667958445797184,90
-0.5283778746082003,13.827459769528293,-22.576746579472562,69.30982187596577,-11.091996020427636,14.784256689571105,40.487621638750014,-84.24107561207582,-52.9192489283552,1.5141532291782434,3.6240312056687505,-1.676846401085598,-4.389074902559828,-0.8674111158498863,-3.7920713241278228,91
-9.120877889678368,13.303311576259029,-13.238886857561624,67.6163687487754,-5.058602396297327,12.820919443725353,35.60796151950501,-82.99265050267572,-47.20375569584768,1.645410963267261,3.521092085866684,-1.6858483625062555,-4.3634733797280525,-0.837901904988026,-3.7919153240800068,92
-18.19313759817267,13.024668801848001,-3.4613582779864984,66.0231332243539,4.347399249992824,11.439254550678417,27.001874938233026,-81.72903743929325,-40.93724185843227,1.75176105012489,3.4950926399972118,-1.6456001877009234,-4.29603176154282,-0.8970257337039538,-3.8081034092576673,93
-28.41750983882309,11.924811529535548,5.2624812503557,64.65298786862844,15.87019976646918,10.500182541479756,16.263910129370736,-80.39199748244926,-38.50949435484179,1.8647415339831523,3.432560326075235,-1.577528601166131,-4.234706238992476,-0.8881809032408641,-3.8534801934294625,94
-38.526243517435,12.514015236728719,15.951937719704768,63.38102706185715,29.621754589134124,9.998767298880564,3.2256321724392,-79.05080429729784,-36.91531867599886,2.0842954995602927,3.2442641942514534,-1.5337228131867318,-4.270142676670098,-0.7833468297938938,-3.8704927194491274,95
-47.37126073597587,13.514959829843932,25.45513305905505,62.18517473494929,44.56143207839303,10.090527207786508,-11.179305687661001,-77.75812264339045,-33.18352257250239,2.427200573161244,3.0494004841763305,-1.475446354084377,-4.360134664634359,-0.7998513963555564,-3.8993483076701976,96
-57.69550703109699,13.887010121091793,34.20341838010339,61.154452786644356,57.84046232311495,10.918295595898302,-24.01850843234314,-76.42744409623509,-30.360586980088762,2.7508695272878843,2.8377298862820233,-1.3828124705143034,-4.392763919735619,-0.8465783670478713,-3.9476280942161397,97
-65.2601302424675,15.58662262831013,42.39788227288946,60.43062713015829,67.67420453520369,12.371977888630184,-33.454636564440335,-75.04433735826514,-27.957469371870385,3.0575402036640518,2.6151810729517906,-1.2831232318086512,-4.3274768863683315,-0.9215219283675288,-4.01040859365907,98
-73.9060355396008,16.913180683846655,49.32991550002063,59.835515340199706,75.45057689347509,14.157530757415627,-40.87677540245596,-73.73918783653896,-25.177629456550278,3.340458807826285,2.3800765344977353,-1.1582939088043387,-4.3042162782584255,-0.9850442641975182,-4.122035749739615,99
-78.22094799261272,19.230153300875227,54.15374375881237,59.27466085658692,81.37883471299583,16.189976868171527,-46.51885913562346,-72.45887922536748,-22.72325837329699,3.6802700055408053,2.0675536547481896,-0.9827638034975489,-4.278876430489218,-0.9970912649205238,-4.303616307184444,100
-82.40705056972264,21.584585955881327,58.40696374867225,58.79587491198124,84.9801377632252,18.394004081708864,-49.93700170155438,-71.10808723758544,-20.282908464336412,4.112721191843064,1.7360891441878255,-0.7683711427987624,-4.157832062603492,-1.1029377335539137,-4.527034902043017,101
-85.57707493435574,23.994768136486872,61.61498210829676,58.30775117776229,87.3797001829969,20.687115432836727,-52.22081858955361,-69.66520560381085,-18.35709122171255,4.524043541456566,1.4630742735240163,-0.5536411816015417,-4.057162303051343,-1.2971089978540307,-4.679447353633398,102
-87.69306188515812,26.39744073665213,63.738619889275164,57.752713961116996,89.16926138849274,23.0529956858082,-53.876783715635014,-68.15360713059313,-17.631779204035492,4.9544592693322915,1.1796371043953642,-0.3433071352576187,-4.007497251147926,-1.4224460456858596,-4.772334932229967,103
-91.32963458021558,28.405974373493528,65.0288156616312,57.30096851614811,88.21448158840337,26.225225252590032,-55.15781163173627,-66.61280992840591,-17.437592057972484,5.496477463715486,0.8475606008100045,-0.15269695548202397,-3.9421618586227245,-1.5300863187248255,-4.810882721876917,104
-92.29551512016566,30.849759012857028,66.1091162299066,56.86409232795709,89.66025085083389,28.848508109304486,-56.65970781514731,-65.17700569620959,-17.479333304768804,6.000000000000009,0.5401447108859818,0.04826977025884204,-3.9254362753248473,-1.7046168460095856,-4.8091338019434415,105
-93.00662324085309,33.354098605138525,66.84918397250769,56.358920612503496,92.53998382716559,30.780554995161154,-57.1903024367083,-63.683013307869565,-17.40396809198831,6.000000000000009,0.23461553816169897,0.2272558883016174,-3.883943125685426,-1.8348798698151354,-4.825795076135806,106
-93.35847525751747,35.94662985810338,67.46462505326785,55.847113575518364,93.11793586521593,33.336011669774706,-57.81250897500327,-62.22107674640402,-16.858483365021424,6.000000000000009,-0.05291935018025317,0.354134297010897,-3.86814106468512,-1.9841620200453804,-4.822841603033796,107
-95.02208940970391,38.06348337683042,66.81744837837431,55.22909615935415,93.64802579639372,35.87410621318155,-58.238036276269604,-60.78803651324403,-16.32931881616845,6.000000000000009,-0.33629124989218145,0.4054268522415911,-3.912753291707149,-2.1243601505119476,-4.724905658804822,108
-94.89612628421641,40.51849508150286,66.8405322559147,54.5765537666925,93.628868885337,38.64855580517423,-58.9075870345894,-59.39246739504686,-16.043582796250476,6.000000000000009,-0.6533343138839673,0.43692869771717474,-3.9806999988522533,-2.239182125170053,-4.566780643243227,109
-94.76440118846611,42.95913785330867,66.85827584930442,53.987376778113145,93.58980492914594,41.465040822894146,-59.502244211918104,-58.13777015437495,-15.560143620512203,6.000000000000009,-0.8861059361114019,0.4507811141878738,-4.007034394236604,-2.4561650847046095,-4.372002935340356,110
-94.57243806957379,45.403189533262854,66.67052737549537,53.497636809309796,94.96532224706398,43.745262207287354,-58.856480749109735,-56.89164158957828,-15.487491371008376,6.000000000000009,-1.1051453428201277,0.47883493205248184,-4.088317708996997,-2.594587553835113,-4.185312321521439,111
-94.35979775901188,47.88611020557244,66.4317382113342,52.8451710515378,94.87567867608405,46.347824401689515,-59.212336556919865,-55.668410493455625,-15.042429910461504,6.000000000000009,-1.4000818938899613,0.4753245372857638,-4.157376455252156,-2.6465830399607313,-4.062498289447912,112
-95.17279077959488,49.908900402209866,64.6376720687699,52.050062016655836,94.7763699278202,48.918532329563995,-59.58714563100123,-54.587933737174644,-14.141934302682243,6.000000000000009,-1.6894884533652539,0.4383810102939374,-4.252041658168154,-2.7710092194566704,-3.9241837051220125,113
-94.75052910325326,52.29432233923653,64.15946812689448,51.344741894497325,95.82729293660803,51.102453832319185,-58.42707854886873,-53.681427529921976,-13.375924857837374,6.000000000000009,-1.9302567072599461,0.3695097661031016,-4.368743549130551,-2.920479803954539,-3.7083394862443146,114
-94.24443362151057,54.65147620693111,63.54791382079413,50.660811632334095,95.91038676885867,53.89541691281828,-58.79275432762141,-52.950360675379734,-12.824223592496368,6.000000000000009,-2.1393100053870846,0.24525665629766707,-4.5086942380794035,-3.068622403587081,-3.423143502902361,115
-93.91206102272355,57.011785010887806,63.05813052239642,50.037142439079275,97.06590575844712,56.16892721169876,-57.44832693582268,-52.212909683309334,-12.45942079245335,6.000000000000009,-2.378025597967416,0.1645050318764013,-4.604498233284188,-3.144809276264802,-3.1968423046397723,116
-93.65897335808386,59.46680240093242,62.64782932228165,49.432465266408585,97.06934781855814,58.81969628495966,-57.51967070188664,-51.52422757875597,-11.776212797483797,6.000000000000009,-2.6335039603546933,0.07441844786633113,-4.639438824631072,-3.2055760112130756,-3.034448353775535,117
-94.13126500026804,61.51882279326852,60.296075089698554,48.80667733408702,97.72524072764708,60.83854806905258,-55.596229756639836,-50.82133863525935,-11.007612964251969,6.000000000000009,-2.9054499701923713,-0.10921646051884544,-4.677570665183978,-3.2829095286582892,-2.8143393080192,118
-93.56342302056476,63.99180698333113,59.625180376218786,48.24163317117437,97.40063856211269,63.31787853022959,-55.43849394681836,-50.013207173398676,-10.519912786825275,6.000000000000009,-3.238899927149017,-0.35204422011005204,-4.777802072744851,-3.3581952125910814,-2.5292712065799408,119
-93.0525705380916,66.52454264702021,59.06465110366653,47.58641895879111,97.81962299917217,65.18108108873075,-53.31903330100837,-49.25392060269183,-10.013686418875293,6.000000000000009,-3.555668224290887,-0.6210742811702036,-4.8422294533128705,-3.5136314751972777,-2.2762652064004425,120
-92.49507725606622,69.0439777376318,58.40999401937625,46.779130683659346,97.46627292806332,67.55348628993337,-53.065035482837,-48.62163368500326,-9.481560584560588,6.000000000000009,-3.8538396615467265,-0.9211855908019476,-4.945565124531533,-3.6357951178949857,-2.034529048840517,121
-91.78577539939269,71.51323948367681,57.59907311104813,45.908179775588714,97.22179844750566,69.94537117891741,-52.90615729896195,-48.07641786231668,-9.0408175605895,6.000000000000009,-4.210785417590486,-1.2346295767419986,-5.129382164777959,-3.685408007037687,-1.7877737810655188,122
-91.04656774305963,73.97578436049089,56.90028324747845,44.866672129737196,97.59103069058212,71.71785171377122,-50.614925947348326,-47.607741076713594,-8.465913599522578,6.000000000000009,-4.612235942208665,-1.532733057638647,-5.244328410613674,-3.770161452633968,-1.5940617668962909,123
-91.00597108809919,76.00862582533698,54.17416986592485,43.667412116437184,97.18359128995884,73.95398486481375,-50.25100757954682,-47.193208885166975,-8.189409887902503,6.000000000000009,-4.9957584319977855,-1.8079705706981506,-5.311298585215897,-3.9084562821337876,-1.4515985018212456,124
-90.2960979334673,78.45705894902329,53.518300289672474,42.34259101352629,96.8029820363306,76.08894494508395,-49.88893260818562,-46.65264522972897,-8.028103676901946,6.000000000000009,-5.361147771441786,-2.093362030768415,-5.40656288262788,-4.009756428952358,-1.3002225640335958,125
-89.48030764397677,80.7688853481914,52.79256954259243,40.612555618498696,96.46697216961887,78.06954995681828,-49.5965821804671,-46.095828658406774,-7.267485750287567,6.000000000000009,-5.681077806771447,-2.332806596906385,-5.56496398717666,-4.109526203082546,-1.2621818220353451,126
-89.1025749033994,82.3817313838256,49.84706314815484,38.44712766542986,96.71911385544038,79.36769998302282,-47.13061009235495,-45.53140371782696,-6.33808044857368,6.000000000000009,-5.948957147514008,-2.4280331434090576,-5.720523241896941,-4.222022199347546,-1.3915344880266762,127
-87.9318354729185,84.10978215242584,49.162679622935094,35.57566603692325,96.31038179548972,81.14263806644193,-46.77144309400651,-44.98263900647459,-5.510981010895816,6.000000000000009,-6.2223063875514315,-2.4374480392572675,-5.853194146877151,-4.308906679390079,-1.6037497328395345,128
-87.10605651854327,85.13253531556377,46.27359076447705,32.22382749327347,95.8421862474335,82.69954524350973,-46.43316849153984,-44.09291780513497,-4.881642114687678,6.000000000000009,-6.4272037458344915,-2.3643891378438475,-5.972026543560949,-4.478014905436195,-1.8590277395517154,129
-85.68062926413408,86.30328460980448,45.75333053681635,28.379749058311084,95.31695306530112,84.0287365801322,-46.071696152063154,-43.021126411080886,-4.491865882176962,6.000000000000009,-6.469899045620082,-2.21053494455977,-6.056653254076653,-4.7232276843821115,-2.180413124315411,130
-86.01000893506854,88.14772745970146,43.0698915022493,28.29882286208962,94.90701058774786,85.24337494631023,-45.70360372651416,-42.173781698635715,-3.975720868361379,6.000000000000009,-6.456629404838744,-2.095435393489688,-6.105981192247649,-4.8860252978833305,-2.4682987375170824,131
-86.48351445878825,89.69460956057526,40.427122151917516,28.29882286208985,94.56188035688956,86.34522699395008,-45.36054643159946,-41.331311989685,-4.506513213086785,6.000000000000009,-6.492537232329606,-2.074186070957117,-6.14219353312742,-4.947662106023194,-2.586120960957925,132
-86.77009430695328,90.81321116813369,37.799476186071054,28.29882286208972,93.53532750186777,87.76634950113841,-47.30248692023446,-40.10812387388746,-4.320637649530624,6.000000000000009,-6.511332009945545,-2.0417715914128514,-6.167532677441084,-5.026339515586992,-2.6004426817558226,133
-86.53291190870846,92.0285194553334,37.614551373811416,28.298822862089747,92.97110962164878,88.47628976385178,-46.96213736151753,-38.74150266192637,-4.669626224375524,6.000000000000009,-6.555423010030062,-1.9377310454906507,-6.129733825778825,-5.088582291772514,-2.6817317619472525,134
-86.14944810478164,92.99298281928834,37.52080722570839,28.298822862089594,92.8831537093415,89.02781590678794,-44.215204804443715,-40.49066233050741,-5.088949028012423,6.000000000000009,-6.565386817963729,-1.8267308102077155,-6.047269416035936,-5.210438129324669,-2.824170086099221,135
-85.50574315934391,94.11499464560116,39.886465863949745,28.298822862089697,92.41111034599194,89.50583059422041,-43.878662420531484,-40.381921813072594,-5.06175287466027,6.000000000000009,-6.448623238868644,-1.7700709940459942,-5.934028245677454,-5.379908928507942,-2.8567852199975783,136
-85.3584668871285,94.51411969268929,39.90434412876431,28.298822862089697,91.9914956207619,89.84222522517322,-43.57260660765659,-40.21633148182117,-5.278344997201542,6.000000000000009,-6.323590684838216,-1.72893229850696,-5.819218834130267,-5.374884308649674,-2.7793607204142545,137
-85.12666852949822,94.54618651923522,39.9391289764126,28.298822862089647,91.64543976315232,90.0697316460318,-43.335810119014496,-40.26181757348108,-5.1010242047978664,6.000000000000009,-6.22810616768977,-1.6243094815409316,-5.716347125106822,-5.309819789602823,-2.7091409328398117,138
-84.84829701911175,94.29286527708696,40.03996884297615,28.298822862089825,91.2921367516201,90.12375553334014,-43.11628693011097,-40.46007826012844,-5.350881210069602,6.000000000000009,-6.096581856617973,-1.4986748178944265,-5.585256698126031,-5.3246764914182325,-2.6487421605996158,139
-84.64933615265954,93.83894087805182,40.171566786432074,28.29882286208972,90.47315240051165,90.39652531734755,-45.24903416550154,-40.75911548528567,-5.19443932293775,6.000000000000009,-5.937039576954206,-1.3968956816389753,-5.446831823844327,-5.30377635086744,-2.590413154415926,140
-84.48782352398668,93.1030768482489,40.359113054596115,28.29882286208972,90.22542002322827,90.16395877875318,-45.02357667773492,-41.64303224648137,-5.076737999286199,6.000000000000009,-5.742966244393157,-1.3277345192764054,-5.2735156153389715,-5.253992407932766,-2.4748967243873534,141
-83.93024934219818,92.45500056095644,42.868570198783296,28.298822862089647,90.08033526826236,89.6887501226104,-44.9070495798622,-42.35875130664525,-5.425234237529169,6.000000000000009,-5.526920005558308,-1.2804453578199593,-5.153934644910583,-5.177836720009492,-2.273996462085778,142
-83.77017526268833,91.17199928037121,42.97426940734548,28.29882286208962,89.95734315685245,88.99229456171183,-44.841725877475504,-43.00323165194829,-6.026428903001716,6.000000000000009,-5.252272436785784,-1.1856260966852843,-5.058758306568237,-5.118238250983185,-2.108415056152172,143
-83.72160773232673,89.73471710800682,43.08641926535541,28.29882286208972,89.71016349616905,87.93972162628283,-44.76822359386404,-43.499876165091486,-6.112754307919245,6.000000000000009,-5.0147539911683,-1.0860194649197357,-4.961997329956091,-4.969785242410719,-2.0178667902768095,144
-83.54833790851416,88.1423173391663,43.053201967220375,28.298822862089697,89.41286692367137,86.70821887270337,-44.808272216742075,-44.03346311521385,-5.854423599167242,6.000000000000009,-4.845664679015534,-0.9971117935663215,-4.990991699620654,-4.788169041737904,-1.9427443753213467,145
-82.84780347468484,86.71655162138748,45.27893434346272,28.29882286208985,89.27555574015395,85.42994998710209,-44.9329371973689,-44.74093757141803,-5.9742214220788,6.000000000000009,-4.650468562662269,-0.8387993338659626,-5.06376999626169,-4.710588606373764,-1.894058080788124,146
-82.57112473072355,84.78888176212273,45.20289408176535,28.298822862089825,89.25587771565066,83.98702817242054,-45.012624549555184,-45.52350112393313,-6.1830300613280595,6.000000000000009,-4.406554517303675,-0.6693491417383965,-5.074541285118439,-4.656090804048091,-1.8829586359407402,147
-81.97814030575843,83.12813003397261,47.401047561624274,28.29882286208972,89.18264726893636,82.31521532266972,-45.056864234922955,-46.13122071569317,-6.28201541023239,6.000000000000009,-4.164404506947547,-0.5344428477553238,-5.095464416730489,-4.525236126955571,-1.8682665016398825,148
-81.70360035202206,81.03307766581307,47.104940417114214,28.29882286208962,89.17421495078578,80.5314190354351,-45.2262382556741,-46.823611438236355,-6.260651068370192,6.000000000000009,-3.9417529140851464,-0.4038632858849545,-5.249691909162475,-4.385926967083379,-1.8873974646202847,149
-81.41143021582639,78.87087228454975,46.78035767014557,28.29882286208962,89.2207877399171,78.68797287437404,-45.405378216597114,-47.693583650551346,-6.635943463117013,6.000000000000009,-3.7639119692107226,-0.2857663199106561,-5.414418647351483,-4.251118704847745,-1.8939115792180428,150
-80.65179791032783,76.92739219754269,48.68570293376755,28.298822862089825,89.18558535957425,76.67145650647267,-45.53934836929373,-48.251663440234196,-7.267483185891312,6.000000000000009,-3.566972530709892,-0.1658191023094843,-5.566205697899742,-4.163530265523707,-1.8440673357705852,151
-80.20094405013856,74.63013145808875,48.17631533931403,28.298822862089647,89.22799979886634,74.4696756125467,-45.74189922214972,-48.84540747095465,-7.4477155927620045,6.000000000000009,-3.3466834367631924,-0.03399334493963912,-5.792435675731189,-4.09271008196852,-1.900691769873177,152
-80.1593040605582,72.71215135926084,47.75870604002856,29.550226630979807,88.68573150652777,72.76388040397464,-47.980905744227314,-49.582650604965025,-7.499757054407508,6.000000000000009,-3.148271583050623,0.07810471686135645,-6.019271540672821,-3.988148402756246,-2.0008177462420713,153
-79.87332014108954,71.26404444349248,49.62921900329028,31.352641425797515,88.86120317098018,70.38460846645506,-48.11166537932988,-50.28776060050778,-7.817611339930933,6.000000000000009,-2.9840569257751453,0.17023653796192606,-6.215463818875678,-3.8466348409618254,-2.0462789579925507,154
-80.01790843155015,69.36464581955208,49.358743274710385,33.243329415032896,88.91123145431229,67.91737890984811,-48.12023678146302,-50.81711073638702,-8.226834447306592,6.000000000000009,-2.833529134031589,0.2361438813975027,-6.346995407302024,-3.753119261689182,-2.0271218407805116,155
-80.00946796885539,67.28882263259177,49.05941614945773,34.82798743659589,89.00989189135774,65.36951624160844,-48.128608828846396,-51.41731401573443,-8.488572749426806,6.000000000000009,-2.6775995013946075,0.3039097121770494,-6.468438780241218,-3.699720283869071,-2.048884933152469,156
-79.48943717606521,65.51891455678869,50.91978201092838,36.24385086302732,88.32612861734496,63.325357101714815,-49.91667390362701,-52.05787400301372,-8.616633844435606,6.000000000000009,-2.4707423929079466,0.3334893052812251,-6.544481859702692,-3.6759428630300373,-2.054143787647034,157
-79.57712298783981,63.28669231556683,50.62447213478293,37.80136370816033,88.51394238834838,60.56404292325421,-49.8282329342377,-52.52066735876464,-8.785512502664814,6.000000000000009,-2.2643105714736493,0.37234289654712055,-6.657895283825972,-3.5917381484319657,-2.0391565101714506,158
-79.60080233599463,60.92155537171213,50.35462211890438,39.03905733578032,88.7977213028582,57.75871206542367,-49.7135268323212,-53.19480011152617,-8.652953559188095,6.000000000000009,-2.111564628209087,0.409438849091963,-6.715573880973587,-3.445860596681173,-2.081733607713245,159
-79.73534878215216,58.46251282951287,50.28180448468278,40.38972733805797,88.00015626708327,55.51865201483515,-51.07428057356557,-53.80451678744759,-9.018518340114515,6.000000000000009,-1.9426698363722976,0.43488702337998714,-6.64678869259572,-3.3608693735678474,-2.0792812749273293,160
-79.2389935446139,56.380399533322056,52.23188444104724,41.72363487793921,87.88765152737798,52.506160767814215,-50.43752360164596,-54.22200979926173,-9.483651565918008,6.000000000000009,-1.7920096507659862,0.4609942824341804,-6.483739966492306,-3.249395804990834,-2.076060747465582,161
-79.32720673300538,53.74130634531815,52.184510349099696,42.89581205345093,86.77091655968816,50.028751704283266,-51.35429070526592,-54.6215517733744,-9.43847786069024,6.000000000000009,-1.7076932042804451,0.5189808679259753,-6.338516585926794,-3.096772102374849,-2.1211382595433803,162
-79.21255463075015,51.02227408938419,52.005577468488134,43.95980240258957,86.6861116252532,46.907165794508785,-50.79089937097421,-55.03920140556309,-9.268255339546684,6.000000000000009,-1.5963303693137652,0.6209005890301355,-6.264857808531972,-3.055288835598183,-2.208625254050518,163
-79.0322826246507,48.200526310127,51.786036208152076,44.81411966585753,86.65135312178077,43.75511243770973,-50.2510566361256,-55.509999414850924,-9.164649720484055,6.000000000000009,-1.4432640875878373,0.7447945928559566,-6.201400469266198,-3.058335377399677,-2.3309450918061807,164
-78.00192191920854,45.7764013286749,53.23028325429097,45.54032820622026,85.13744967052348,41.130647167102325,-50.65552897836175,-55.75070656599534,-9.604451864123456,6.000000000000009,-1.345441109138043,0.8494825259423597,-6.1039454411953535,-2.9561138770165223,-2.3817001316361446,165
-77.74813723251815,42.692790390268286,52.91825029733526,46.299283589030466,83.15008879341406,38.50353949934629,-50.60692660966777,-55.700180463345006,-10.58614205290933,6.000000000000009,-1.2964778283034426,0.9063867657793052,-6.036931549425079,-2.8559872411133314,-2.282650077323514,166
-77.3806725037639,39.58891664149591,52.58210859637016,47.14547130024991,81.83741677292508,35.71083504947616,-50.03828465545713,-55.75506509245124,-11.240962434641576,6.000000000000009,-1.2389212732212065,0.980317288024413,-5.975275060579799,-2.8554636966493336,-2.1877870838268203,167
-75.72406133426412,37.038462787111115,53.49893727527184,47.76647627231252,80.66937898917678,32.92967940020707,-49.648098600828995,-56.07174437547336,-11.254971855029787,6.000000000000009,-1.1975565701457302,1.0496385521211173,-5.910932216161905,-2.8618834890587443,-2.1770629179880303,168
-74.94235001692321,33.943202753902945,52.79457215015871,48.30840089489107,79.21532715364347,30.06875526944794,-48.99178434204101,-56.219156141378285,-11.551090734647094,6.000000000000009,-1.1801061964442523,1.1158776877164172,-5.8711604114065015,-2.8512466335379605,-2.160227231843251,169
-73.22050679465087,31.162696757172128,52.619187156566746,48.7360703982742,77.37391871254012,27.16601338931381,-47.955113175814915,-56.35763844527624,-11.787892083598656,6.000000000000009,-1.1038260930031558,1.1655262134411952,-5.8213888560837335,-2.9197035324794247,-2.1548480909695917,170
-71.87090253567892,28.23134767582867,51.918296464823875,49.19593956942854,75.17944119867231,24.339071730537892,-46.49679965012947,-56.490682130361876,-11.937801973641275,6.000000000000009,-1.0403457826364206,1.2044589290521805,-5.737087141237169,-2.9309659165088355,-2.1364171569668358,171
-70.12642632153397,25.393782371829122,50.797328110668055,49.635987119002614,72.61895317169399,21.54310904545617,-44.697162754919454,-56.694996231818536,-11.786016806255194,6.000000000000009,-1.0501807299881476,1.2166667615606366,-5.686676200117385,-2.8900737761651167,-2.1073410102354737,172
-67.77647624352791,22.55722623660624,49.1262563269881,49.985308116856956,69.45759098320542,18.77557205339421,-42.37612214685521,-56.90432898550679,-11.734276125948586,6.000000000000009,-1.0417507750091537,1.18252471608729,-5.694788765375297,-2.937960644143893,-2.0325303745845402,173
-64.91085471817927,19.666180620118556,46.92645942313667,50.26100583630213,63.01437162287831,16.920096766246143,-39.01658516259522,-57.1098041849376,-11.786927521461065,6.000000000000009,-0.9740431517098096,1.131605138719451,-5.677971803962771,-3.023135662664822,-1.9292810962811546,174
-61.10941798817539,16.847458811685616,43.699675437790695,50.57171026353969,57.761162676385645,14.516076541200354,-34.45220305043999,-57.38665744416963,-12.251384209788856,6.000000000000009,-0.917268861324619,1.1047919371001795,-5.6699372104781,-3.0278732866075444,-1.838967770619901,175
-55.476463236051345,14.380545495432116,38.8408935938996,50.798967793985945,50.526133725201696,12.223633029953845,-27.904136322429864,-57.800345346480654,-11.851471510671454,6.000000000000009,-0.9033440114741805,1.1290989149930664,-5.7100832435706925,-2.994416292061047,-1.8878882918262017,176
-46.3383955257359,12.68755046901348,32.13699460760964,51.049316952758076,38.280067584678335,11.240288135447006,-18.61365976498989,-58.28197837123411,-10.692190969801354,6.000000000000009,-0.9143142548424823,1.1565270507404948,-5.717758339574124,-3.0046129549611704,-1.9698210760708879,177
-36.68166711972324,10.580930885559745,22.637607880446815,51.2536693951686,25.12141606889994,9.70538224403586,-6.204383316244662,-58.89876496602631,-8.84497888516114,6.000000000000009,-0.9317750399759989,1.1553485599002218,-5.7658922962783,-3.0219762110994366,-2.052393250646025,178
-22.690565048704045,8.892177883150053,8.807921178937534,51.45919460805521,10.11736034599402,9.855951597968623,5.916471017286496,-59.5998884958716,-7.707787065075173,6.000000000000009,-0.9732704136570077,1.1354095145346352,-5.8546681689111955,-2.9995137630197495,-2.082122833782274,179
-4.789581954802316,8.868991067267116,-6.709346135457991,51.6563069706406,-4.810675561184603,9.97500654025435,19.582325846688782,-60.28172639417072,-7.596507503387143,6.000000000000009,-1.0059047470482008,1.1046622031888649,-5.922765438715056,-2.991393585398777,-2.078717059661113,180
14.460991951244356,8.933222524585291,-25.83401541145782,51.83982164686,-17.662418671069116,10.814788442703966,30.766074623974824,-60.989258097555926,-8.387065230187897,6.000000000000009,-0.9800324701766806,1.0956257448684883,-6.03915341523204,-3.0380173790302996,-2.044343427705114,181
27.713815689677308,10.721377906012165,-36.851753458314555,51.96881624706678,-28.185123751143003,12.12148228568782,39.72041111677345,-61.74173712013204,-8.570368518121066,6.000000000000009,-0.9429595754115393,1.105201594806613,-6.198676160427867,-3.0448335464850325,-2.0412305523535514,182
39.908736922405026,12.194050152975255,-48.97129085620819,52.114649798707866,-36.09432245194276,13.817920909092244,46.09598746513004,-62.56015739367207,-8.592903612288357,6.000000000000009,-0.9038863511558995,1.1247326087873406,-6.328457231748566,-3.0726846049532703,-2.062905086395936,183
49.52416965434706,13.966524707790708,-58.483070682903765,52.410116733905,-41.53752332197459,15.72480935167693,50.036867727222884,-63.47795870971451,-9.12113962221328,6.000000000000009,-0.8873184152126874,1.1411196655836124,-6.390383835721121,-3.0788435364215303,-2.030602532690254,184
53.79382472926762,16.48626130502244,-60.55425139370452,52.77566845748818,-45.33288466622635,17.6418224947564,52.357953738218214,-64.56151750128785,-9.97615873967948,6.000000000000009,-0.8982154195693697,1.1531794428991144,-6.460849274426225,-3.0512537515331704,-1.9525605410777194,185
59.3576803678277,18.62758206509376,-66.04334750777,53.259368505168304,-47.86032567653952,19.49267111841163,53.41464637411754,-65.86770495909266,-11.082825279599227,6.000000000000009,-0.9036545673827276,1.2083511383830283,-6.530749525521865,-3.0493577221802477,-1.8866019897276058,186
61.163017883820686,21.077138433893754,-65.74796429095136,53.92304097417409,-49.52423429195973,21.449452394357266,53.67854404273939,-67.2036034603591,-11.814294311916907,5.954313094683807,-0.9303037643705394,1.2577837598181374,-6.534747332711482,-3.012471248635909,-1.8371605351563693,187
64.84116874942333,23.110775213896297,-69.35152805678501,54.71014628399068,-50.67602626980448,23.418581204297364,53.43679324180648,-68.55108715466179,-12.988887639679323,6.000000000000009,-1.0139953418905536,1.2928892495714541,-6.531996171738076,-2.9531471341827378,-1.7762850010242237,188
65.39298976537127,25.399395721597525,-67.77922436044615,55.67649660335339,-54.01752006235553,24.632141878462118,57.204744369908006,-69.93622797235511,-13.700321530496659,5.931787948353221,-1.1405234397807025,1.332338920999582,-6.587239612683501,-2.922344353519317,-1.7535709565814503,189
67.80059566738367,27.25925398780803,-70.03694516376012,56.7914434217555,-54.333940774239565,26.500906833114037,56.09097698659887,-71.37687612480828,-14.27126991065589,5.974381786382201,-1.2930157736695032,1.3321169169738267,-6.635066077017336,-2.92683109445569,-1.6757270167387472,190
69.89228595582969,29.024730322940954,-71.9200416105723,58.07197762748319,-54.409109451841644,28.368011736740318,54.761181174080015,-72.88342254809362,-14.810692877142666,6.000000000000009,-1.4696342671364042,1.3857556481666873,-6.6756585256627385,-2.969328919668488,-1.6513292335349878,191
69.46249408746489,30.929236167057837,-69.37010096739446,59.532200788753244,-56.83940012284818,29.523252802542395,57.51024593106149,-74.34443042711388,-15.493935026734588,6.000000000000009,-1.6630823794316973,1.4792277466273303,-6.768009586188417,-3.0427957374510903,-1.7229423838465643,192
70.87373273666951,32.40923326651093,-70.6103950695085,61.12723617463538,-56.53415173232413,31.218223184829856,55.77181584133332,-75.94488790580237,-16.561845754371216,6.000000000000009,-1.8986529885803083,1.568930141735208,-6.825903806362355,-3.0856019354975626,-1.7290324448554137,193
72.25402297442639,33.73380519631877,-71.7735493166307,62.884483776316706,-55.86294600015784,32.89512771049648,53.722966423808494,-77.72141557442664,-16.58739720529671,6.000000000000009,-2.171730392267135,1.6277400828961914,-6.8180062252911675,-3.161803222834609,-1.712971989193637,194
71.61248837455625,35.20661698515292,-69.08011039936933,64.74594096273943,-56.983914058024794,33.818124209023836,55.20271382415692,-79.57463477658338,-15.90526803804248,6.000000000000009,-2.4229609835410675,1.6551806842669494,-6.7808935898394935,-3.331171535063921,-1.7468259595604556,195
72.67737417019316,36.04689935580023,-69.92567340883119,66.81131847493064,-57.998816245282605,34.73067844057345,56.58473890596014,-81.40907025560176,-15.337583272020982,6.000000000000009,-2.5979856732261144,1.7069106413185893,-6.7323400952094,-3.5595266244511916,-1.837573421014205,196
73.55797436715991,36.78106722560796,-70.72294502318354,68.96672614994556,-56.58462610542207,36.28769825638756,54.046005585109754,-83.28535984313193,-15.694864882404936,6.000000000000009,-2.647531794995211,1.7951852356254232,-6.64743674097602,-3.8163509828615076,-1.8695630956258578,197
74.05290156324587,37.56137631120028,-71.40874018312849,70.89417829994579,-56.51146336904379,36.89821778858316,54.53742435103345,-85.10124462861289,-16.74656557271465,6.000000000000009,-2.568173923874364,1.9096275782168863,-6.562626059047507,-4.0328820021276135,-1.841718083050376,198
72.31987890199264,38.74573689586248,-68.4318041672083,72.59852625600186,-55.85216678808456,37.43052214541597,54.43713970752837,-86.82030582519108,-17.60336697437341,6.000000000000009,-2.432527569828323,2.0251013522001156,-6.480386668957546,-4.171175699569806,-1.8114618253307755,199
72.11701742672635,39.28256112668892,-68.77037835263147,74.19812509477616,-57.24739756999531,37.0768803511804,57.957771188132426,-88.30779207899744,-18.67719254284318,6.000000000000009,-2.2527422252540985,2.12449429895586,-6.443564087894479,-4.268706162006323,-1.8164943945648746,200
71.57890966075425,39.72968292750459,-68.88441883612285,75.5957204139549,-56.55521222860162,37.441641257022084,58.01902811175775,-89.49733923770164,-20.73717010633158,6.000000000000009,-2.0598422334641997,2.1728379308118857,-6.48023317491469,-4.290366151090403,-1.7584883080889262,201
70.83069995887608,40.29444280193691,-68.86240875537212,76.54656574659028,-55.600455838393906,37.48363850055129,58.01560582330165,-90.60894856625094,-23.296299022453415,6.000000000000009,-1.8525608090775987,2.192141600469853,-6.608776109842966,-4.265707927111473,-1.6247222771479073,202
69.8156020409918,40.6240990497169,-68.60286785682624,77.28601658334685,-56.84267020208507,36.84931818149741,61.80925272984068,-91.30095367439124,-24.394106532012817,5.749739354612366,-1.6407026209702258,2.101576325586609,-6.780652919308765,-4.192355204688762,-1.4741950797130792,203
68.5762885522482,40.97750005170387,-68.08242674065492,77.6324313276394,-55.990582335391416,36.752319196575876,62.074567989569665,-91.7621872044836,-25.103524842085037,5.540196147473362,-1.4528429964738907,1.9355463962532755,-7.094538286939691,-4.07078564795517,-1.1888070505241977,204
67.19291060776472,41.56503638998916,-67.43469446491365,77.31833873083994,-55.054289972504435,36.16411130982252,62.20772822975459,-92.31451155985367,-27.83804399579047,5.374054993595025,-1.2321201282252434,1.874176397374262,-7.516003171731391,-3.9746966135445203,-0.9220708180075563,205
65.74858943413011,41.79784611046728,-66.72122099990631,76.74157575504847,-56.4055548321941,34.93659758739672,66.08726581386661,-92.67697121370398,-30.329121118062755,5.098873002620075,-0.9968003931721365,1.85724514107229,-7.815218310254427,-3.856227344830274,-0.8707017608430496,206
64.29152357429363,41.51037158331172,-65.91659957473028,76.20876733893205,-55.321686282435614,34.632219702797734,66.14251852181253,-92.61948102089669,-30.553979421893267,4.786888177192383,-0.7086621296619104,1.7865817665657457,-7.949392396281086,-3.7977604105418665,-0.9375808426422555,207
62.74660515307139,41.2264911685913,-65.04872910289579,75.38217468929479,-56.69338113090511,33.576685039529124,70.0880740628456,-92.30916927320357,-31.440838432669512,4.5046793305475195,-0.40205504198602815,1.6970393520469647,-8.0673363238035,-3.7241261924894102,-0.9563146306644491,208
62.95436061541142,40.25467822923457,-67.41846447504022,74.37744001256712,-55.522580370606,32.87190050012958,70.02988605647579,-91.85788645647423,-33.526652027638555,4.208483868676147,-0.16441552357827285,1.622018105335509,-8.203652105932457,-3.564898891586458,-0.9742360073242294,209
61.21683996323735,39.54550903634238,-66.11704881806776,73.37006068353881,-54.45021207123979,31.99512961378395,69.94513161963748,-91.22936021929104,-35.4464360534589,3.81973347825991,0.04226852715379276,1.535135997246718,-8.339563328145859,-3.433696680026177,-0.9976912251891934,210
59.42752850859549,38.65590853882707,-64.66650779812488,72.35543771243277,-53.21135402522379,30.921415722973595,69.69413838032636,-90.60722337253267,-37.04706983543826,3.6822411354053792,0.2639834091910391,1.4603577663553606,-8.429445839330294,-3.3656011840337428,-1.0289815170854744,211
59.595150482453626,36.98010219556011,-66.73837150278312,71.3948706525366,-54.5999283284433,29.259596517363292,73.61727652327689,-89.93053030701272,-40.789823671143445,3.5662934685869536,0.4783759254666389,1.393503326848225,-8.417548816134387,-3.2867285342380113,-1.0513646239716088,212
57.7141898899608,35.85697659942447,-65.09617831249965,70.25584724813207,-53.110428528354426,27.79987955519519,73.15002777320252,-89.22533303374516,-46.27313828647817,3.4760362578934063,0.7101462134466163,1.3131116200929565,-8.446967574412934,-3.21016978295965,-1.0057159046904502,213
57.60933984818181,34.084889699487135,-67.00247939019815,69.12366556674603,-51.29491099607353,26.200149492409228,72.45793883244063,-88.43513026518488,-51.075524412088534,3.3859749365680414,0.9456806427218938,1.2009603790674697,-8.410124732016763,-3.1039819225162484,-0.9208874154381389,214
55.501532353046365,32.659695856812064,-65.15069176485203,67.974019590859,-49.097052394526024,24.491761531607803,71.46733668682631,-87.62877844909666,-55.686145792353265,3.339855071007316,1.1331312437849055,1.1177434532718022,-8.284914445391173,-2.9586639427810875,-0.8694992099199681,215
55.446805296714736,30.600062770321816,-67.03212075959848,66.85278336592725,-46.624183000348516,22.713359606549727,70.25503596860662,-86.75747608285627,-59.978019970226185,3.305663790262955,1.2861865994872859,1.049220405981272,-8.129894364449065,-2.8233930264927323,-0.8293643388593271,216
53.01398245400472,28.908920332042083,-64.69180378770872,65.73860716954697,-43.989000033848,20.92156547895505,68.97085623684681,-85.73105328355467,-63.93858100244577,3.2591181916228975,1.464237731094076,0.9859604783168191,-8.003425934624177,-2.7270707936350824,-0.810376208682896,217
52.54557836405342,26.78476994771974,-66.20369051427262,64.5182662480927,-36.83881599522525,19.573242668836656,61.60060414837901,-84.68076299893373,-68.32991710992957,3.2991009015115855,1.62907286018653,0.9352244826589569,-7.897363458858163,-2.599326412448273,-0.7373053359968854,218
49.7705567320117,25.133914796953768,-63.50693500395028,63.15908490246827,-31.788839331054035,17.837814426263655,57.70771614347075,-83.54003171629459,-71.44820648679053,3.3796724018817033,1.7471842948454626,0.9180220008645352,-7.726786639394303,-2.460679595643454,-0.6738578056729659,219
49.09392157615291,22.806682163831073,-64.76328875825453,61.85005349122996,-26.583473309029557,16.31486143688706,53.77472399134799,-82.23332945966716,-72.77415619656453,3.3749244682572885,1.787418042507767,0.8959804815404087,-7.4859379547320675,-2.312969503398214,-0.6924004832322899,220
45.538486566982606,20.941439008190116,-61.08930805168104,60.628116893894614,-20.526567528477184,14.915702212499083,48.842688446803386,-80.846679631576,-73.52810203395003,3.406523641879377,1.8156788132687716,0.8614940989771585,-7.263342721311523,-2.2645797722847574,-0.7024919019519859,221
44.4173307894749,18.627126633945966,-61.80392910226024,59.42506886102557,-11.567613623840248,13.911056771976092,40.32150587919463,-79.45334567195162,-73.89011648430778,3.516238947631911,1.81658052836428,0.8627885362287498,-7.081082512572285,-2.2010497625546925,-0.6896174027404539,222
39.93767058744988,16.925990139185437,-57.15047647011937,58.15180454405419,-2.4288767002636247,12.647876264118121,32.452230351283646,-78.0447296310921,-73.26325175915574,3.587736173268996,1.8250346354414377,0.9083120556119341,-6.928180540755419,-2.1510557147816685,-0.7007783010497849,223
37.27801282784136,14.726422655162127,-56.379405636955504,56.816521126334365,9.886743075078334,12.962135123024087,19.347159453947015,-76.57933679428548,-71.70569785604047,3.5970275574292603,1.809822059415889,0.9425908586392125,-6.837188769893827,-2.0834399517334155,-0.7726157004052253,224
30.603015409884666,13.269886883005,-49.49210994601695,55.40542347797234,20.124329489583786,12.528267918801259,10.115098535878312,-75.0712004814549,-69.78095139391985,3.6928505048144804,1.7407775696478136,1.0047800833582,-6.732965483692759,-2.0185615108257946,-0.8441638211061911,225
25.514586026071218,11.202880720480191,-46.27986804215976,54.080369151121594,29.982787015829413,13.9243069700588,-0.8731285496234094,-73.42191506952501,-67.98891405376382,3.7673829747639553,1.6689766637331325,1.0569040838158166,-6.588064169869839,-2.001206222700467,-0.9541981951757568,226
14.254215369899201,10.092282935059666,-34.788049485368745,52.74537513042481,38.90490895958659,14.243648799552926,-8.978913232082306,-71.821658149629,-65.28602873688956,3.78612696492685,1.597334779755976,1.1074782339898044,-6.503093225527529,-1.9819510182734148,-1.0877129707549253,227
4.187322763771394,8.556353977582166,-26.69675293048725,51.38689337953881,47.14609687701272,14.975911398068044,-16.45290262455913,-70.18929562751144,-61.713296166511945,3.912129945990707,1.5519324610830896,1.21397699844985,-6.378088908681426,-1.9908222691832398,-1.2377725906237562,228
-11.056579468192085,8.356295646176598,-11.28551474338711,49.953452002863116,54.018145678614715,15.957659019408334,-22.60479717721873,-68.52637032319764,-58.898888728854466,3.9922502891236644,1.5866651343152787,1.3916856455592814,-6.170131524649601,-2.0921438127812557,-1.5538756880261222,229
-32.00615045325384,8.526126120065587,9.918500121101086,49.01563994364336,57.66523967074535,16.951824067047212,-25.583210313654174,-66.70004967693203,-53.934665079237185,3.6571066245538013,1.3801321465150285,1.292118640295477,-5.749242211367022,-1.9313143669794592,-1.8030416971480494,230
-42.59784315933484,8.899634078761153,18.42755005072293,47.78906431183951,65.4244999464863,18.423687242505284,-32.88247249558385,-65.27736545487394,-52.91505385116429,3.869780827348004,1.2132070448323966,1.3847603357371212,-5.964107627292267,-1.931700298815083,-1.699960834696161,231
-54.46803671674277,10.460718661966785,30.59914875066843,46.79213038623576,67.69061369409191,20.752820794323927,-36.997333648671585,-63.811491444897484,-46.96065106481664,3.938878321726643,0.9877642907433355,1.480161597314795,-5.800484119147599,-1.9303242208856202,-1.9948221838475986,232
-66.50864616259693,11.846391348203545,40.67511226162314,45.9820978070452,70.79391013220463,22.106781839846015,-39.82543410733074,-62.38982397075239,-39.18281903699589,4.087273285055336,0.7532653788094705,1.4782119150444972,-5.596130144714015,-1.9793651637318885,-2.270491855793623,233
-72.71493371936639,13.799724527833899,46.09399398282236,45.12195278312159,75.98721012330728,22.941154657340103,-42.47721672885585,-61.09224907053705,-34.41816216793146,4.375934994567297,0.5368172156767983,1.5132120234315138,-5.536396829512589,-2.038438219216914,-2.435119604428605,234
-76.74211798032086,15.963649174109365,50.04087392871236,44.186837559777075,78.61730014850342,24.721809827109166,-44.92128318419927,-59.848845487612806,-29.89753496544953,4.756031525090611,0.3282417954600552,1.5298886776762533,-5.4669434594323345,-2.142442859312118,-2.564879032440638,235
-79.60728245996285,18.237105044215145,52.85236242174618,43.43333223432754,80.9574366568628,26.627058126103083,-47.137817096450384,-58.68837601766465,-26.387148583905013,5.254120649854301,0.13411326188193198,1.535801792159374,-5.454481807379634,-2.277544995081792,-2.6408844253823167,236
-81.49959360480193,20.673620975112748,54.642684573053906,42.915084533770845,83.1577788072817,28.63446179469523,-49.23369388107857,-57.69292677828073,-23.51049303758561,5.750737720350967,-0.10222355390299197,1.55317357789547,-5.52517099603156,-2.3397902420334593,-2.7171846334789573,237
-82.71850581269096,23.19307290398297,55.763423634050255,42.423746484372536,85.24181185934471,30.704546316928212,-51.29494533254373,-56.838972552463524,-20.94230880467391,6.000000000000009,-0.3474140436249533,1.5940966973811066,-5.643421699610859,-2.4051727016863365,-2.8272855545051083,238
-83.54240279658802,25.714295502961633,56.58543945052277,41.911597974083975,86.9076338383093,32.83023263643092,-52.94552763061663,-56.027473766869576,-18.939447741989635,6.000000000000009,-0.5334519053047129,1.6083062995417856,-5.736945268172672,-2.51066125401705,-2.891298785817448,239
-85.44009063456805,27.768254219113622,56.05870592163296,41.40951486480723,89.88282534790949,34.4811492089496,-53.45781294236317,-55.28208944498338,-17.700965079229746,6.000000000000009,-0.7368253586165426,1.5935134043084478,-5.8545373793959445,-2.550490846763396,-2.88105804600429,240
-85.67238015671425,30.244375624342627,56.26959308354661,40.91786614243263,90.89042976003073,36.9770957389712,-55.29811119121503,-54.57308141585247,-16.814095836920632,6.000000000000009,-0.902557918167033,1.6038345080248055,-6.0310764152682435,-2.631282312656535,-2.894447360582181,241
-85.98986479110016,32.7684744732073,56.49512190232964,40.48155894240026,92.94788175757851,38.769839745548765,-55.35086956795078,-53.75173444610053,-15.648753569742707,6.000000000000009,-0.9803164184053451,1.622835486439824,-6.163384860718751,-2.7447455495629205,-2.9382869946227155,242
-86.21935180747161,35.277971661455666,56.561904521693144,39.85495747572401,93.58218402107762,41.09054638827938,-56.30929547882657,-53.07664410372455,-14.131168141245862,6.000000000000009,-1.0795557274117407,1.6282268185103108,-6.250442206960052,-2.760409762736879,-2.9978820591057627,243
-86.36937792990926,37.71339207294068,56.58142620766094,39.21022455863736,95.39948070321245,42.99096399847516,-55.88736247601419,-52.53115298411704,-13.406247861644704,6.000000000000009,-1.2387646937907764,1.6404798479354055,-6.316255801508013,-2.7517620068199005,-3.0251444215422185,244
-87.6088532994279,39.79905379597059,55.20075560702645,38.78321311333567,95.53197236346938,45.302334737966724,-56.30114568972136,-51.740855445034086,-13.003484713614734,6.000000000000009,-1.3373371942912793,1.662720541203455,-6.314401803216502,-2.8455675662162156,-3.06352188275643,245
-87.75963753979114,42.29854787386472,55.19103274558531,38.08504456257162,95.51957437484084,47.47461179020554,-56.47536323253428,-51.037328767813456,-12.09221788132763,6.000000000000009,-1.4163152895393245,1.6366992142553443,-6.298622787913632,-2.889663973609862,-3.1342424846981256,246
-87.72273576961702,44.66416829335773,55.00159023763132,37.20765715059186,95.59747708915862,49.790076585703474,-56.70682755633548,-50.553931285442985,-11.463989420431439,6.000000000000009,-1.4955821314035427,1.564721865022144,-6.32416054778767,-2.935543104766586,-3.1198260395647095,247
-87.77107862210639,47.02966335846558,54.88788793505988,36.53188149632108,96.6555376968994,51.69495594241333,-55.278505490980486,-50.05476768382861,-10.975790070518977,6.000000000000009,-1.5954246450596175,1.4957403251852626,-6.336571608940822,-2.9759147425689045,-3.0353092509522934,248
-87.84017065392982,49.42998684258082,54.76439674268591,35.94643680934672,96.79130766791296,54.118402890291534,-55.451707243446236,-49.60643565679393,-10.728664436993155,6.000000000000009,-1.675515495166079,1.4459957643806225,-6.352586001448026,-3.023411357236764,-2.9650731706666837,249
-88.8052172520299,51.458213381020315,52.93291357365971,35.39457851712651,96.7358523665964,56.4848312750998,-55.32074924550824,-49.166274404315416,-10.788645430446604,6.000000000000009,-1.7392098960876141,1.3922831953508739,-6.255167514783351,-3.0398968836394213,-2.892367248585329,250
-89.06841170172012,53.92511991604404,52.938473328197524,35.07958921815657,96.63696363699769,58.85607287959807,-55.135009557704706,-48.55864297626735,-10.805729936076908,6.000000000000009,-1.8012220053293246,1.3413732267935756,-6.164447261516122,-3.0574883925887435,-2.794112720050944,251
-89.23350448517408,56.40696675394938,52.91369957463256,34.41539992920938,97.48476209246294,60.69610927270585,-53.14200003541845,-48.307391903996574,-10.390104554163685,6.000000000000009,-1.8603527845377836,1.2969153545290621,-6.042450067308195,-3.0990903936008936,-2.8230273739929137,252
-89.28129913187234,58.78808172329022,52.78311788135074,33.54110591523631,97.60321239506088,63.075333150770646,-52.9856443849129,-48.21066621468499,-9.95787834734578,6.000000000000009,-1.9067387993688951,1.2657583263186434,-5.9386528872776605,-3.1259506385284372,-2.879177085373672,253
-89.38440268032771,61.2362932922069,52.694891432566486,32.98957421612854,97.57068708966445,65.39990615317235,-52.665701359701195,-47.95415739852095,-9.786861706069738,6.000000000000009,-2.0062454981624827,1.2223220389382041,-5.798452081384167,-3.0959213066478504,-2.870383327638467,254
-89.95327135786218,63.40453004662095,50.51012901185033,32.63672118812324,97.46746656152636,67.70243512286493,-52.34094796134795,-47.73739960558006,-9.401159511599246,6.000000000000009,-2.1469295959336994,1.1221015772517378,-5.666695198451665,-3.1310638574602536,-2.8043773740609734,255
-89.87793775722915,65.89006173516209,50.35942741977141,32.217907738633265,98.13709166707409,69.48640850681905,-50.03273903559718,-47.593589728009285,-8.918928782683812,6.000000000000009,-2.292927472695417,1.0249913248001294,-5.544176342428527,-3.1983285095928564,-2.7268711067844538,256
-89.74616175231534,68.21580246189457,50.247506666907704,31.530297006993585,98.00861633134538,71.80091368142588,-49.54141936107851,-47.47725367575945,-8.681391726714404,6.000000000000009,-2.515477649288661,0.930514610241643,-5.343348888483223,-3.163301009536963,-2.629184336125364,257
-89.34089501326551,70.4492623197105,49.98798747556997,30.79391033120455,97.72150886912691,74.01477561040112,-49.06428268395313,-47.122535272733906,-8.742975364864021,6.000000000000009,-2.8043017179143326,0.8648509316711191,-5.216935095292343,-3.140786093649765,-2.530414215993635,258
-88.79992304114876,72.70681515785603,49.71783189381165,30.08226092408135,97.94563160968106,75.52169531452138,-46.497439071811975,-46.68115826437727,-8.736124806632846,6.000000000000009,-3.156206818770133,0.8068798748191227,-5.113934668868254,-3.1711763180757218,-2.464984054839238,259
-88.00791654272282,74.80930593539584,49.38553318105015,29.033016765846618,97.56086160657107,77.60877730187981,-46.10052788068333,-46.3448931886988,-8.5491724845651,6.000000000000009,-3.5485083366978816,0.7274944865161622,-5.061017561982275,-3.26403954201147,-2.396182061564873,260
-87.25378673663651,76.94028775341049,49.1528115291532,28.29882286208972,97.03169891020627,79.65891596997625,-45.60209003949092,-45.874726203213434,-8.45689693761645,6.000000000000009,-3.982092982792958,0.6104961082805741,-4.96309455028282,-3.3695551481303805,-2.2381753408693053,261
-86.73689153490253,79.28462074285137,49.05518181767428,28.298822862089594,96.91344538079686,80.9587422359331,-42.84403656752826,-45.12985280023274,-8.357080360262035,6.000000000000009,-4.3685748312694335,0.5074623222142178,-4.821568064553782,-3.569119868238233,-2.069185099641926,262
-86.26977002503064,81.63221275079019,48.942853493733246,28.298822862089647,96.22395723519705,82.65936895251312,-42.278173959156156,-44.01917073794391,-8.503948415213035,6.000000000000009,-4.616539612469972,0.4104377039740475,-4.697951022011196,-3.8354411803267934,-1.9308914833339779,263
-86.29060335439144,83.51107881318049,46.52131566576759,28.29882286208972,95.56059814399346,84.23337208834019,-41.70023092190911,-43.031152897066235,-8.132678298432115,6.000000000000009,-4.813841742092823,0.29057299462382785,-4.576193962496359,-4.012737494593059,-1.7908607477368097,264
-85.98178413243942,85.56642427494504,46.41813841229968,28.29882286208962,94.8913751540381,85.62818193162164,-41.16293909331249,-41.6208059283768,-7.716930877672234,6.000000000000009,-5.030707294841555,0.1530823894829802,-4.461974748839383,-4.114557214953287,-1.601590659044343,265
-85.7040821559665,87.42093935832163,46.37159156234423,28.29882286208962,94.24429509270065,86.95551981994089,-40.62768864698547,-40.312487392428466,-7.814880412498432,6.000000000000009,-5.140011572890088,0.04125870605635627,-4.318602791535132,-4.31711350706621,-1.3761796774885495,266
-85.78939086420644,88.74404429195307,43.933393886310256,28.298822862089825,93.7144452958001,88.21257637305094,-40.16089890237403,-39.33055120818935,-8.092332126723187,6.000000000000009,-5.157479744633259,-0.036273992988044595,-4.212540946463239,-4.504154876277534,-1.1950970700333499,267
-85.49662045953605,90.30771962734879,43.84485637546332,28.29882286208972,93.19226656268074,89.2632328770637,-39.738726786607835,-38.60639553270633,-7.968698072437011,6.000000000000009,-5.157808102953531,-0.07825590444221395,-4.110165480603863,-4.633007754006388,-1.126786746653806,268
-85.30328296443206,91.70523445013743,43.83057135882605,28.298822862089594,92.28721112853405,90.4627488591444,-41.69367258986589,-37.908236639338924,-7.568426183934197,6.000000000000009,-5.083211942012197,-0.14287771125934537,-3.9804123412698607,-4.791916246417724,-1.1232008750922817,269
-85.60337037342055,92.4513716347469,41.455031870384246,28.2988228620898,91.94903134282166,91.06243268005448,-41.375737599270025,-37.86366208941925,-7.288509656742901,6.000000000000009,-4.938961866424886,-0.19690663236774686,-3.871036036061804,-4.885112408774365,-1.1545711884881056,270
-85.51482022688852,93.29979475505304,41.41324256389857,28.298822862089875,91.68050683497373,91.48572293957314,-41.14830099703614,-37.749804850395904,-7.124621827032451,6.000000000000009,-4.690697194223392,-0.21160906154112558,-3.8077026948956676,-4.970634001673694,-1.1783613643947357,271
-85.10916220944335,94.31545505132317,43.777699675109176,28.298822862089697,91.63704846017907,91.74111052700091,-40.96946679329799,-37.78297347739634,-7.050245086816671,6.000000000000009,-4.357026740329779,-0.17930311502893925,-3.7366805530508764,-5.002648072127685,-1.2436054279725417,272
-85.12625547960862,94.62488081151066,43.81732916254028,28.29882286208985,91.64342988851269,91.7458558730951,-40.79722209958379,-37.88487812628391,-6.906249543709899,6.000000000000009,-4.026403059117152,-0.1161871336477773,-3.6293411679131533,-4.901002795211791,-1.2879378875398717,273
-84.80228124800898,95.06334662845286,46.33344516411433,28.29882286208972,91.22330463972838,92.09241851871113,-42.92035644169231,-38.26096049508287,-7.325772799017906,6.000000000000009,-3.7423338403002924,-0.04327818685164105,-3.4596581462365457,-4.744314590414986,-1.357886996386669,274
-84.91817344970195,94.89456370439495,46.44589110325719,28.298822862089825,91.30114942178736,91.73334950423403,-42.778733108779385,-38.707940603048286,-7.602594563918312,6.000000000000009,-3.4077090159678005,0.04121174502374117,-3.325036732878612,-4.639902490504009,-1.4399453951951893,275
-85.10617460098578,94.43131218268697,46.511015648157375,28.29882286208972,91.52339795588256,91.16153051648317,-42.72193581319021,-39.295153152591354,-7.66892072808839,6.000000000000009,-2.9659639704950007,0.16536222730596983,-3.246795710834201,-4.523867335337709,-1.5791616524698207,276
-84.93094528584913,94.08050214110432,48.98791552652012,28.29882286208962,91.79112669873022,90.39648159100291,-42.641344569289664,-40.04294150731313,-7.698734111328636,6.000000000000009,-2.4987758744956348,0.3059514122492753,-3.139761108019555,-4.3434373749172845,-1.7351908447554834,277
-85.11115692743714,93.15546320763801,49.05212241749268,28.29882286208962,91.5955382702035,90.10732655337708,-44.87172375800041,-41.027765653621785,-8.043380440896367,6.000000000000009,-2.0107895259472266,0.41510759472437847,-3.0495955182341503,-4.188992431005441,-1.8233103143427665,278
-85.27218517536986,91.95644517331596,49.08771820692311,28.298822862089647,91.82444921727544,89.10079321375996,-44.79005245521294,-41.656071014973406,-9.226665370795889,6.000000000000009,-1.6195865539490337,0.523870925571567,-2.958176276291053,-3.889156465097634,-1.7896167568296768,279
-84.94803089224949,90.86937929560177,51.48592189076338,28.29882286208972,91.91247098851738,87.85464052754207,-44.688517634393776,-42.147949268052805,-10.666696738933702,6.000000000000009,-1.325054140359434,0.5960536910853018,-2.8524542970918314,-3.584637550706245,-1.7172455617911357,280
-84.92202948105148,89.30769879080914,51.452103372807116,28.29882286208972,91.45396651361838,87.07319555133247,-46.89689159515715,-42.96490987516236,-11.719256481009985,6.000000000000009,-0.961236895927795,0.6594461330619985,-2.7997382024987525,-3.493132804195215,-1.709573857406564,281
-84.53582023348865,87.89519792654143,53.73777865909249,28.298822862089697,91.59426432032686,85.68601892818945,-46.804331144656,-43.86913284363205,-12.538838763302254,6.000000000000009,-0.5395648637798984,0.7743764574921339,-2.743738053126387,-3.4021238722848968,-1.7492568500861647,282
-84.58640573513051,85.94758627781628,53.60271626135445,28.298822862089825,91.75838414958272,84.1355944913674,-46.7145148915622,-44.512985837875505,-13.687588466790055,6.000000000000009,-0.18827863686576948,0.8810114393371414,-2.702876198585853,-3.1700267202550876,-1.7045718917750705,283
-84.16949656227001,84.20211789135305,55.762295828465724,28.29882286208962,91.8846268421286,82.4060431217344,-46.61724592065585,-45.17718839147958,-14.529973028818707,6.000000000000009,0.15695119624054957,0.9384814002479132,-2.662477146844541,-3.0103648103547545,-1.6520527311576614,284
-84.20268483379351,82.13318285171849,55.54305012886631,28.298822862089825,91.44098166152774,81.15701580923455,-48.72115771016956,-46.023568862072224,-15.434537093253871,6.000000000000009,0.5415306907262365,0.9882956868970062,-2.6638325720080522,-2.918316756513179,-1.649617057757536,285
-84.22196055860414,79.94685448358511,55.2465121887722,28.29882286208985,91.73939533238365,79.29987466650046,-48.65420473140077,-47.024849107548945,-16.204625714151216,6.000000000000009,0.8461256966689202,1.022050252367983,-2.686733492614633,-2.69628167604009,-1.6434416940234355,286
-83.67603140271905,77.91372672428152,57.184563951163106,28.298822862089747,92.00003622375061,77.38871120714401,-48.549632390105366,-48.106438249172996,-16.98249108713668,6.000000000000009,1.1224734365738147,1.0473087387501865,-2.6790685687431908,-2.522014312999348,-1.5968933564954553,287
-83.50099745164292,75.49501563496695,56.78685064801618,28.298822862089594,92.21632581806799,75.37745413434104,-48.45506476903966,-49.067206323503754,-17.719671514208432,6.000000000000009,1.4489299438563954,1.0558856230323923,-2.682311827313736,-2.4651471763494883,-1.5073372980179605,288
-83.40641198122724,73.02898089379619,56.36272182764557,28.298822862089747,91.76287248860093,73.7982038910538,-50.396826143001796,-50.05886392589974,-17.6665300043718,6.000000000000009,1.7788587741959692,1.0563733537912336,-2.70081843585539,-2.3788565543910214,-1.457755661650245,289
-82.85040023716914,70.74946022503256,58.07035835860794,28.298822862089594,91.9217465250674,71.50518012225055,-50.217396320932714,-50.953694253512786,-18.11885107602437,6.000000000000009,2.0361089439444124,1.0685892207571892,-2.7496442364282103,-2.2030933557819425,-1.4103179057812065,290
-82.84469438864956,68.5348185095824,57.4808884421349,29.51461856969499,91.99556490736181,69.06108635936924,-50.05751360885061,-51.669435919402886,-19.191435258795654,6.000000000000009,2.2928545588567872,1.097676608723922,-2.865859438239482,-2.0849176065714965,-1.3695962613258192,291
-83.12143431546525,66.66131794870797,57.027060913258,31.739206517903053,91.40619774087104,67.13405414511665,-51.841586008399226,-52.54536778995901,-19.51310797806296,6.000000000000009,2.552343825015169,1.0874913520476195,-2.9586160964070065,-1.9932102309136122,-1.3544527364435064,292
-82.83693133885039,64.9211517183076,58.7543450223955,33.58355162068409,91.70109057695423,64.50440289279194,-51.626735223512576,-53.56710523439798,-19.449837422331356,6.000000000000009,2.781629816500073,1.056114024699667,-2.963652604864436,-1.851443480807421,-1.3610302226950277,293
-83.12174590854615,62.709406201761524,58.44102874485143,35.417886580901495,90.88942102744933,62.313639001953625,-52.985500159137835,-54.29087729072556,-19.87292355246257,5.958654821836202,2.9845915891340455,1.046071629755854,-2.8766530045304797,-1.6999808587969567,-1.3486157031917727,294
-83.35680051034679,60.38086434829808,58.141943794357545,37.129246755042566,90.72679597808818,59.4009013462909,-52.35019087756604,-54.987122125673444,-20.026352744391424,5.845215784693987,3.2111532854188636,1.0030078264532116,-2.786555829038036,-1.6313675825679126,-1.3206843858750479,295
-82.67273774026415,58.324298221360685,59.51445643470328,38.797724533417885,89.74731968128384,57.07869425941213,-53.579263535731094,-55.65228460306685,-20.73003052963884,5.769811104263405,3.382792331558872,0.9281547565579279,-2.844880175482789,-1.5161637877103455,-1.202499455412872,296
-82.59610286405186,55.83304803078983,58.880183226490644,40.41284528799667,89.66814883463778,54.06159164113204,-53.108975519220664,-56.07487464476294,-22.03358346359841,5.753541553178309,3.497049217810971,0.8369114039438263,-2.9241601613541524,-1.4034993898949446,-1.0463903442282894,297
-82.53330348982266,53.3130118961961,58.37870395907084,41.984248356947454,88.35602901902934,51.54868148766325,-54.02503992640062,-56.38849281992333,-22.486914603136814,5.733300317145494,3.5556987220323175,0.7423433251543209,-2.9418090610175147,-1.3185709012961344,-0.9407346117272205,298
-82.36318590905368,50.77985085517361,57.868584619090505,43.59631314493168,88.0220682616994,48.37774523873328,-53.365822712860194,-56.61490813284643,-22.777663792024935,5.689510096342079,3.563444810788386,0.6847920935504691,-2.9542048760392614,-1.2663023136708633,-0.9001381714785687,299
-82.0635215242372,48.169092185838565,57.35397386097,44.79380110055367,86.47877402053967,45.63068990398521,-54.026519508276735,-56.8558910762959,-22.439502709094484,5.6841685691650135,3.5694226509937557,0.6246244463254584,-2.9293812154228016,-1.2579192976061946,-0.9358318749473074,300
-80.66425656455354,45.85683627788189,58.3293630888459,45.83772895268604,85.6728931649036,42.46222268496964,-53.50677398217556,-57.06745392570924,-22.17594995612856,5.776918428902352,3.543851998814593,0.5449576728554516,-2.9082979928378334,-1.2285159315555672,-0.8990578303841591,301
-80.0663479598986,43.00794055843222,57.57628206665902,46.93484697717844,84.38038805674441,39.495235341507964,-53.139117718765206,-57.187297287392255,-22.142470317075546,5.952656598221731,3.54373595745957,0.4711124468704938,-2.8782616987174254,-1.279471495725926,-0.8282987864353365,302
-79.4058921898065,40.139434332496634,56.79353521647195,47.7806348155552,82.85091477791404,36.45842997669065,-52.466510854150336,-57.292241645458745,-21.840059584498036,6.000000000000009,3.582336336310383,0.41760812696935257,-2.8088480932264117,-1.3503971030791664,-0.849033738730481,303
-77.64516061649671,37.80297775052137,57.40527575332767,48.647427599707406,81.06659620049003,33.47688564245396,-51.47435043185437,-57.35206513942782,-21.51773788486224,6.000000000000009,3.58262645013549,0.36068369113540394,-2.711209036063196,-1.3619973834395303,-0.8637009855262122,304
-76.7525652524324,35.060779319798165,56.619539576600744,49.65228615348629,79.13122330216876,30.50411740845933,-50.3856224487829,-57.30604156119314,-21.400863532798652,6.000000000000009,3.597589311074215,0.2873901134858475,-2.6732254744646804,-1.4202805870102975,-0.8353507327037293,305
-76.54762656741798,31.901097400843284,54.58619357264243,50.41971441330261,77.15243855657326,27.478555425695294,-49.219456837092864,-57.3115915245537,-21.178347215113085,6.000000000000009,3.6222815673139004,0.22588199747846924,-2.703487076131341,-1.447305158500135,-0.8785042401184279,306
-74.90782491447389,29.23170377319837,53.59641319016121,51.001401018979315,74.68169131102083,24.495327024261144,-47.496677140718155,-57.358288550333455,-21.191902941504026,6.000000000000009,3.645275091884719,0.17616946355854818,-2.6977238758487965,-1.4567161840744522,-0.9718240138422084,307
-72.97494080472522,26.46496610643543,52.31428325285544,51.438004024541776,71.30818911364787,21.606401569230254,-44.83275790036795,-57.265591284666435,-21.347848041249083,6.000000000000009,3.686704995258453,0.08979886406954422,-2.659763760102028,-1.4809487435451296,-0.997476943387335,308
-68.60854024409818,24.234495109938525,50.979269898754445,51.75156145202626,67.281781998282,18.833060709749212,-41.53380897425614,-57.131109683224736,-21.16276742221999,6.000000000000009,3.7254440150043275,0.011119854305965904,-2.651167301264935,-1.5225063398159508,-0.9883691584509627,309
-67.4205106438341,20.91100714311665,48.04934177752461,52.14594025163896,62.273463201679554,16.20183136833085,-37.232759937351744,-57.06724727149937,-21.31153120152984,6.000000000000009,3.723593499443831,-0.033589838012971086,-2.6254004073337587,-1.5290085629956356,-1.0298203287389134,310
-63.761220712183714,18.286481330112327,45.04552001406616,52.525282523082275,55.580912327177344,13.7362233203609,-31.26004173601847,-57.09078453906558,-21.782134793677255,6.000000000000009,3.695255130015798,-0.07355635608473511,-2.570215371097124,-1.5436213027251928,-1.1045462788214113,311
-56.460196085364544,16.403885277056098,40.71762691932652,52.771149967841325,46.23582770262311,11.614725873634859,-22.628737362254554,-57.08490983270571,-22.32093780421689,6.000000000000009,3.6350474442987166,-0.10714128153184707,-2.5368877620236776,-1.5459019262253648,-1.1640004573572431,312
-50.32924263547333,13.589819793121503,34.142023951369396,52.938244605184586,34.31872263224502,9.921363166465106,-11.438978624350854,-57.21255477459188,-23.007555796190513,6.000000000000009,3.565979388193961,-0.1381692478223356,-2.546343235178062,-1.5684783616139188,-1.1847634780895113,313
-38.72310275706927,12.060713389877439,24.905504891262805,53.03007159331829,19.942437980293008,8.608135174898603,2.524312863966686,-57.616217276074465,-23.073195710141604,6.000000000000009,3.517128164719326,-0.18328046974615272,-2.548167322360792,-1.6319670391373788,-1.2018469671116419,314
-24.9367667655268,10.266428948796504,11.186783549063371,52.93593425941649,4.28880265121573,8.740873427152929,16.12832712483821,-58.060445075353506,-22.636079038095524,6.000000000000009,3.4771425308759585,-0.2568846476587707,-2.5947363701848007,-1.6769374697097328,-1.1939020929791766,315
-7.073782734492882,10.229676689849452,-4.386071382189539,52.77546664694132,-12.87135477938823,8.654685723905718,33.41220367631189,-58.47529580341872,-22.76184633968785,6.000000000000009,3.4536694683471274,-0.30343496897101885,-2.6329861867978335,-1.7426733200324787,-1.1572254409135,316
11.461988426090029,10.113013390460376,-22.792528307340284,52.663226159916526,-23.824489165375063,10.010159379755995,42.31616753492034,-59.03475869950211,-23.42127427207123,6.000000000000009,3.413825275398252,-0.35492454006468144,-2.61465597559632,-1.822068904654682,-1.092456662955123,317
25.297828833389794,11.681717532169424,-34.268719453985355,52.556897011903374,-32.05443070760833,11.555013422275344,48.46671667827069,-59.79535809550268,-23.91277424777632,6.000000000000009,3.303931582309228,-0.39204424880040845,-2.608378259944382,-1.8545621151074392,-1.0784507905142326,318
38.48703742833261,13.12603328882697,-47.237099639597304,52.40157875104043,-42.21597721737189,12.577140775577899,58.572263050973646,-60.67194512716227,-24.23503983460103,6.000000000000009,3.194779063949348,-0.3876102222114794,-2.6265584130014297,-1.9138924903780261,-1.083199209637572,319
45.86896672560903,15.53386995394558,-52.242424985275,52.35654457050243,-50.3125569736253,14.010617721453555,66.62917411663808,-61.491570694016005,-24.23927331041152,6.000000000000009,3.1245503997407744,-0.3602817844443933,-2.606569316465813,-2.0098903598030216,-1.0841165435411462,320
53.80386630410722,17.76718284837804,-59.94045147121919,52.29313743395037,-52.68567281167279,15.816242720804002,66.95015057964295,-62.49227439985691,-24.634409407690267,6.000000000000009,2.9798787505316136,-0.31739309228150653,-2.648636212705537,-2.0264020099713167,-1.0229025958339304,321
57.22670766017474,20.52197826253518,-60.95315504716443,52.33859901634783,-54.499696844533744,17.588493451431464,66.62140855588676,-63.63115522564298,-24.46196835451394,6.000000000000009,2.7921080419708226,-0.2578235468921808,-2.6855439284423532,-2.103559479138017,-1.0360032937929589,322
62.14871116735679,22.534690191825963,-65.46950292769927,52.761297432784325,-58.97631201616044,19.15260134795567,70.89723497197912,-64.67620792496557,-23.852870395361563,6.000000000000009,2.6179072319824157,-0.23774169180879384,-2.6105956019026224,-2.2440557693445924,-1.0700334454402074,323
63.846626068958386,24.93497322370268,-64.77253536645533,53.38785428005669,-59.70118116720437,21.084203526994465,69.51747062765094,-65.77076250172986,-23.460142404402763,6.000000000000009,2.4135586984703927,-0.26059488515695967,-2.57306402320456,-2.323345864606619,-1.0220775480142348,324
67.10268415806473,27.004607842222708,-67.67636252120568,54.0723823249764,-62.90787080308485,22.404588231116513,72.50727973095657,-67.08481727484197,-23.32238316175564,6.000000000000009,2.15008778233496,-0.30834204842884544,-2.545317965814945,-2.3635228755322926,-0.8888294889523162,325
68.03155574443285,29.257220092280395,-66.21236635712107,55.00089792741122,-62.65260565701549,24.118024144712464,70.15466005737687,-68.49158740522388,-22.733333688449722,6.000000000000009,1.9029034664754283,-0.3970455270972165,-2.474022907379681,-2.486592446760489,-0.7717466913499561,326
70.22307926477536,30.927847859422485,-68.00312703428284,56.19151439149717,-65.17963728881074,25.29720538811433,72.44181914263655,-70.12538411611204,-22.06145090763935,6.000000000000009,1.6879250782252186,-0.45703073185864307,-2.48353015517238,-2.6351459779484574,-0.7221865490968618,327
70.17687688916835,32.6813937766733,-65.72683513729173,57.72409515424368,-64.60675698672266,26.86529227330531,69.89992575785153,-71.79220773544033,-21.08746274775039,6.000000000000009,1.4738694515966195,-0.5233119931426072,-2.458401094911225,-2.729904180847215,-0.7165268040099851,328
71.61259541264255,33.89908346701239,-66.88754014084239,59.377131637496895,-66.37783043620912,27.907469816117544,71.5499224621019,-73.46509680869293,-20.4587737481341,6.000000000000009,1.3334653499328497,-0.6184415556942807,-2.4571861368077097,-2.8774087846602483,-0.6777822019739412,329
72.53915745453884,35.044643234191234,-67.63921090085049,60.959235736112895,-65.50138485942381,29.20573058496581,68.89380925020137,-75.21778667619064,-19.478322820677597,6.000000000000009,1.2187195440817635,-0.6654630834479924,-2.5514458546573398,-2.9688964422931545,-0.7172160388666482,330
71.62453023302024,36.57584787608331,-64.83556737096579,62.38855334254848,-66.77878922027055,29.95474824257227,70.13186223238358,-76.94614921010525,-18.69953229804122,6.000000000000009,1.0839443699341889,-0.6761563072655252,-2.570901056602493,-3.0087252952737784,-0.8002813100248656,331
72.39034749785726,37.47689608612619,-65.52495050322011,63.7153806677885,-67.6753054607212,30.680192942198076,71.01442449167533,-78.51292525763783,-17.534480899757327,6.000000000000009,1.0012899423047386,-0.6709523835147262,-2.5426716364931337,-3.130224832692094,-0.9269439337888113,332
72.96885589045691,38.25615278653174,-66.03668050121192,64.84552731334024,-68.32009910182083,31.236319332950124,71.72562321807143,-80.01473842911933,-17.123684497208192,6.000000000000009,0.9567625802191627,-0.6280674077535241,-2.557379826952498,-3.241547705684488,-1.08202089067455,333
73.30039232120222,38.920103130196864,-66.35413699187828,65.82067639749484,-68.79968929696851,31.656735561822753,72.33153967834151,-81.4021307555691,-16.557655144819666,6.000000000000009,0.8950039613573912,-0.5768305853802488,-2.6112711361607706,-3.291156228438826,-1.2406478352709478,334
73.43806201275802,39.5306791784053,-66.50262964932426,66.52325867867641,-66.52315465046215,32.31163465457477,68.6487293486814,-82.6812514461531,-16.15050192523525,6.000000000000009,0.8141658960898894,-0.5758299163294934,-2.7062788482131457,-3.319424604118408,-1.3051495753862588,335
73.57031500219266,40.14220281458593,-66.64175379742146,66.84146106726931,-66.42006097204161,32.28694741380674,68.76127747056788,-83.81995425205963,-17.112592351222368,6.000000000000009,0.788534116050152,-0.5865890267077409,-2.792074087633097,-3.399293608979401,-1.2842954067158547,336
73.52591846738576,40.79985819212106,-66.75240166299143,66.73393895805103,-65.83814321980827,31.98123575702038,68.49884759633248,-84.90537189828798,-17.841352678800863,6.000000000000009,0.838404994399936,-0.5880291002229997,-2.8590934050279158,-3.472096673356077,-1.2025574833254713,337
74.90762604200398,40.80832783195709,-70.08424062542834,66.40815066896765,-64.94603585944317,31.618160093405276,68.05657366671983,-85.76437628263693,-18.271684918660803,6.000000000000009,0.8853458113785176,-0.6217966731984577,-2.924122921304008,-3.454530501404637,-1.1329200703938935,338
74.41040557075843,40.97184076412189,-69.80757184147164,66.03181097258563,-63.84056893118876,31.13306444709874,67.44696357860015,-86.36342900608821,-18.350788919851823,6.000000000000009,0.9373455063327566,-0.681347382997119,-3.036469290212965,-3.4366020198062186,-1.0537210379218722,339
73.69325776187925,41.056959115704736,-69.32776767356603,65.49062362693154,-65.17371949288689,29.750858177154978,70.80078728689413,-86.88524538041163,-18.60842132316334,6.000000000000009,1.0599238238894202,-0.7143346985232855,-3.219452193983607,-3.478915376181018,-0.9368632812147526,340
72.69098301705723,40.98474730959521,-68.68018827383388,64.76805209866022,-63.52417453868071,28.773659759860475,69.68376032346247,-87.20832299240573,-18.394786879614376,6.000000000000009,1.2341682238968692,-0.7488976596432437,-3.413703394404228,-3.4912187594688704,-0.8599796917596674,341
73.21695213221345,40.21011636932931,-71.3240790971766,64.01958852002058,-61.392277412679995,27.743864591946735,68.12843728119421,-87.32693804073394,-18.11690118577994,6.000000000000009,1.4492262241330058,-0.7689520757416086,-3.5600186412143295,-3.4883048988140386,-0.8439563392592262,342
71.94828228329224,39.591725381556316,-70.45581029014654,63.374449956453134,-61.783935686862655,25.929945469068233,70.69133053663066,-87.39045055826466,-17.685214662938865,6.000000000000009,1.632142926624808,-0.7965286961073041,-3.706359221851809,-3.400102446635664,-0.7694620230695685,343
72.26752088432183,38.389385900549826,-72.9362722659784,62.774465650332274,-58.358334833125596,24.42293671164503,67.83918313265997,-87.40313319448887,-18.13370539960073,6.000000000000009,1.7248771065555453,-0.7811701676742605,-3.822165722804208,-3.219235147876105,-0.709686185562096,344
70.73205810226905,37.18798688334502,-71.776728045881,62.31189456937272,-54.317521645062314,22.9693880104129,64.24195336133506,-87.2121800272356,-17.656894591324864,6.000000000000009,1.836848549125455,-0.7977432237695355,-3.8854607067229394,-3.1188761928723654,-0.6851804366557136,345
70.85297036769492,35.52961248909134,-74.05191414617545,61.85578353452749,-53.13485317506132,20.792903291246606,65.08301663495901,-86.91113170993151,-17.14092626063918,6.000000000000009,1.9962098009994402,-0.8580758075519874,-3.9538352908018113,-3.0578610395917516,-0.5979276240292659,346
69.06332102068532,34.01659209228538,-72.60555486950634,61.4274472865404,-51.050092636091584,18.441308540389297,65.02770199020974,-86.62999807880436,-17.188823614357215,6.000000000000009,2.086703789006804,-0.9140323687495491,-4.000976003429093,-2.902669603135064,-0.48431014151052615,347
68.984186511497,31.95748065112652,-74.64554563054243,61.083951261685854,-43.583391947376136,16.76098286134351,57.787386232020864,-86.19819334691516,-17.12628615570197,6.000000000000009,2.160418549078764,-0.9569205257554857,-4.058313339786237,-2.77421001772766,-0.42260370818239373,348
