JMW9912/AVATAR/install/dynamixel_control/share/dynamixel_control/data/csv/poppy/.data/waist_test/5DoF (2P+3O)/0407_1933_13_16_waist_and_second_Waist_poppy_motor_degree.csv
theta1,theta2,theta3,theta4,theta5,theta6,theta7,theta8,theta9,theta10,theta11,theta12,theta13,theta14,theta15,frame
-95.22115145328938,22.096782884579632,95.27613377082079,28.298822862089697,0.0,7.049796516221278,-71.861954003343,-28.298822862089594,11.949525018099925,4.227855492074081,2.8051766135533356,0.736096783755453,0.06106657397293583,-1.5574253403185632,-2.1207448039576726,0
1.3800627231837925,27.860966417600444,95.27613377082079,79.62177301237465,-17.75628783910932,51.25318006475693,-71.861954003343,-49.02178377374983,4.9309605596658495,6.000000000000009,21.604019580428652,-2.7119876779886165,0.6861814414248294,-20.352149877967115,1.415702820916039,1
-4.638526766704247,59.2890473042255,95.27613377082079,47.46880949702642,6.368088327056064,29.628185824557008,-71.861954003343,-59.63558722825852,90.0,5.301791802132262,21.3986603552554,-2.7236719433169934,-15.822110120286853,3.223359162038755,5.687973516863878,2
-2.377704754035965,58.47349334227086,95.27613377082079,50.38432259912166,4.658653347408713,28.972555963587364,-71.861954003343,-62.45652230293345,90.0,5.52588688656807,21.14183626249486,-2.7338137004207814,-16.114137957489866,3.298645394981569,5.863745471216113,3
-0.3904405806946161,58.712086030421084,95.27613377082079,52.47240881968644,2.084473041025441,27.1819309463064,-71.861954003343,-65.47384185677305,90.0,5.635244172300167,20.755750646683882,-2.7525937807859777,-16.429884276955647,3.4705942638075924,6.091420964545566,4
1.6008352334338554,58.631374489425845,95.27613377082079,54.69945256095044,0.004530861546335422,26.71879795904074,-71.861954003343,-68.43714940759965,90.0,5.543198047718559,20.29909705214489,-2.732159695147574,-16.57134214540196,3.492863131193539,6.007383427626306,5
3.4379027409956953,58.14802817543806,95.27613377082079,57.406670957677335,-4.158644574497513,25.473486273809716,-71.861954003343,-71.30136437134007,90.0,5.373559575965806,19.81584546969757,-2.70139599294307,-16.557318244362772,3.3732132926299627,5.705662281013963,6
5.283592956350842,57.683504539679305,95.27613377082079,60.035800601229376,-6.603913272925355,25.15897539173076,-71.861954003343,-74.26988072061172,90.0,5.206227249689139,19.275312280468217,-2.6324286382335083,-16.58486488152356,3.2719251295425202,5.384469234935852,7
7.235208015753227,57.22335617713572,95.27613377082079,62.62890484583474,-8.916122863137646,24.90794052157079,-71.861954003343,-77.13863829028449,90.0,5.032823930914524,18.70458394443331,-2.575975218433173,-16.578056794626075,3.1723264099419906,5.120151004758744,8
9.544376418977183,56.271748346073004,95.27613377082079,65.18296358445613,-12.03246696427237,24.21198378290908,-71.861954003343,-79.92852052656413,90.0,4.843239996631555,18.137097433288606,-2.497360378596834,-16.521749243479714,3.048110827816474,4.836796975139192,9
11.286681510732775,55.991914550850964,95.27613377082079,67.64901007809918,-15.296943735208892,23.502689574208524,-71.861954003343,-82.7171803600502,90.0,4.6669106854372275,17.57581099898309,-2.3504895018283563,-16.462795593424765,2.881782429027588,4.467814029868318,10
13.819766644101682,54.75240213571141,95.27613377082079,70.0717752273667,-18.403694535853823,22.8030525174112,-71.861954003343,-85.47303597564955,90.0,4.442077809703217,16.947654908422216,-2.1837549160031586,-16.377122902202952,2.774114420983269,4.145785757281949,11
15.65032549399778,54.62967094418774,95.27613377082079,72.55503517897236,-21.233775244511826,22.071875401123705,-71.861954003343,-88.20328140717604,90.0,4.134321616552112,16.27636409345274,-2.018398897415261,-16.26808800678835,2.6477791482962214,3.8898249138871,12
18.208261365488003,53.515868874329165,95.27613377082079,74.99010322889576,-21.299072044081157,22.372946484405528,-71.861954003343,-90.98935076256326,90.0,3.8354185651703836,15.64414800865552,-1.8616405784910486,-16.223079081911262,2.4394337151019947,3.668220819475217,13
19.907253589906826,53.60314254776437,95.27613377082079,77.32807130501646,-23.138301629662053,21.495445501568653,-71.861954003343,-93.84122536287563,90.0,3.5266062589294895,15.042735298249168,-1.6637812207238412,-16.168555244394277,2.224325040631094,3.432523215404228,14
22.285486083079626,52.37145801665172,95.27613377082079,79.73708275355925,-24.76226165022033,20.765262553742634,-71.861954003343,-96.59736544369639,90.0,3.2326083635330334,14.456195653864548,-1.4716289818544914,-16.010990447083948,1.998968948360308,3.150898176067183,15
23.834140311296995,52.31357014404653,95.27613377082079,82.20033589156739,-25.8852136029981,20.11673998865764,-71.861954003343,-99.14548160315174,90.0,2.940445403428476,13.872463595911622,-1.3088973887599975,-15.75900756854853,1.8055036456261828,2.9035261723161128,16
26.05114561185237,51.1170949189147,95.27613377082079,84.4555913198274,-26.688245022630564,19.337140838247993,-71.861954003343,-101.68473690853983,90.0,2.6791063869042615,13.316838776833231,-1.1287265608994503,-15.57700216943769,1.5784956859263426,2.6787384610022498,17
27.39338441853481,51.08586946363679,95.27613377082079,86.75716482072104,-27.079105944808695,18.678981023039352,-71.861954003343,-104.136268765555,90.0,2.4191819096285325,12.76756264154813,-0.9309974847331399,-15.30445216456387,1.3496352476871203,2.398221926837671,18
29.639014478515655,49.723398834449725,95.27613377082079,88.98967673283735,-23.798338239839918,19.38185423518817,27.99382883710951,-106.62336338988726,90.0,2.2601242884752852,12.250224245429788,-0.7477344557788556,-14.998534154679547,1.12282244861222,2.179055010294153,19
30.734597494802284,49.74168414921845,95.27613377082079,91.18559870465823,-23.046747516166906,18.528440687900652,25.61541484417628,-109.13233818000548,90.0,2.479288125016951,11.847354257284605,-0.6174575311416985,-14.745605356505957,0.9099128486593677,1.9402318448416602,20
31.880787915421177,48.18688968954952,95.27613377082079,93.27373746811891,-21.831039579532153,18.21558296492833,23.428737848663143,-111.33676742116191,90.0,2.656376446186921,11.38271426724122,-0.47868855215319683,-14.360057613755295,1.0157169696557766,1.5360745754630039,21
33.62605138911581,45.943476653367604,95.27613377082079,96.04952791689882,-21.233434762257684,18.337541487116862,21.71909063057111,-113.16207992678761,90.0,2.971788535938491,11.06990553342289,-0.40541517020406326,-13.752708940543025,0.6799477354400941,1.114014938515227,22
33.8997477544323,47.00767073300847,95.27613377082079,97.2470227100318,-17.30524216727281,17.11981673263035,16.64878515446174,-115.62472301471722,90.0,3.017456043698437,10.535899444786628,-0.18409738516922328,-13.799163432079732,0.9386048509925633,1.131272530917014,23
35.32722530927361,44.38139890266973,95.27613377082079,99.60275736146815,-17.17749832518386,17.816842970544855,15.493970890932781,-117.13992673174404,90.0,3.180093603594769,10.113092282478313,-0.08365068779037,-12.956077182645457,0.568286124907895,0.2916006491621752,24
35.69582092656965,44.19632065791069,95.27613377082079,101.60892300161204,-15.172551732089856,17.81106049955871,12.589105035600843,-118.7209323978268,90.0,3.325510728371248,9.71661089401401,-0.019105537760625242,-12.521772840515586,0.4198717260465886,-0.03199154230193452,25
36.06893636105528,42.761121975597995,95.27613377082079,103.61000764506261,-12.07418278090048,17.639665831493932,8.702609523596248,-120.30788980460932,90.0,3.437677422151705,9.331943843332397,0.08002134841134531,-12.267156726162364,0.31851426051318577,-0.24703292676244426,26
35.77817887568997,42.95469740112896,95.27613377082079,105.5185005614523,-8.823420089701155,17.623121654133485,4.807327976204312,-121.71865845678785,90.0,3.5784283795314415,8.908568593870847,0.2128536442890033,-12.056947334298588,0.24602115827712476,-0.5219804703670009,27
35.82400879938838,43.26720014609123,95.27613377082079,107.05621705770272,-5.72449529868252,15.85566434934514,2.6624704025708548,-122.95172500330109,90.0,3.680032372817647,8.405575259419521,0.3303921414233158,-11.895049723371427,0.20618131022501945,-0.7446995577962504,28
36.35409176763847,42.11146193149643,95.27613377082079,108.25323539414647,-1.6144211582053718,15.960551468082935,-2.1166957934223727,-124.06198475259002,90.0,3.7343914141109478,7.995115387661102,0.39710773312168235,-11.777397827389946,-0.0034442168799420987,-0.8290061103339382,29
36.071508772042456,42.76264688676144,-2.889979059274564,109.47658862727546,2.755960480047389,16.29808554751614,-6.929114944578721,-125.11341937901781,90.0,3.9054985558384394,7.691253090638529,0.4814904511193005,-11.651848669760714,-0.21286904584462515,-0.9805138619282914,30
35.40491667131226,41.56184210898819,-1.5034434490323476,110.86022164237536,6.817008822410104,17.080959881476055,-10.990139130894729,-126.00054656654447,90.0,4.107551789259564,7.397970665062926,0.587561093616842,-11.44789876940738,-0.33240046935557765,-1.206647321600845,31
34.74184719069698,42.42787505143405,1.3877185108187347,112.0156950573017,13.129894681724961,16.191344398175683,-15.683152092420672,-126.80745166259248,90.0,4.232123465847182,7.122339023408656,0.7223895232269054,-11.31678976852825,-0.4768053719172541,-1.3387468816252766,32
33.811886830773744,41.59945123915186,2.7701662580343815,113.03133332261744,17.530467570032844,17.309323620990998,-19.95150092876981,-127.49068754944973,90.0,4.418106781978626,6.849710312499425,0.8022165293011013,-11.201314354870384,-0.5959427520271913,-1.4486289379192214,33
32.35210084966038,41.036626780028605,4.273324322537508,113.89193268770461,21.787407090789436,18.770423107084948,-23.855289873125454,-128.10102161417188,90.0,4.543843170275425,6.878690708773522,0.917607026627499,-11.084919777808167,-0.9704714791698451,-1.5586575373003766,34
31.206238954706006,41.765438824108614,7.2232491675703026,114.79901789785109,26.815547864813745,18.995109263002192,-26.332123940076407,-128.29635176537104,90.0,4.726903051457257,6.71368798448685,0.9737517413153273,-10.694783693122865,-0.986644740248812,-1.7574520072517854,35
29.64707606368916,41.31125185685742,8.752119176257457,115.52041142504827,29.68019496474095,20.75608972299892,-28.548884639556515,-128.35891357665986,90.0,4.661358992236973,6.4329478717913675,0.9781633103205662,-10.569140518043797,-0.9652145263643422,-1.7660349819087129,36
27.864405087679355,41.16044307456419,10.395691658362553,116.0556149237765,34.7831279122384,20.86253002160803,-31.40558488034423,-128.34122121589476,90.0,4.492485858121037,6.148715288811573,0.9852715021520468,-10.553819376677433,-0.999508712610836,-1.7859317639636447,37
25.889303428631226,41.0936599849584,12.18206601286418,116.43581522757927,36.39208032176194,22.57290760610069,-32.46939547896211,-128.15582214566388,90.0,4.379359366559708,5.919497639589633,0.9678226876705055,-10.531198604109631,-1.1175994006713976,-1.8559107393415604,38
23.719588379061687,41.02533937881041,14.056461918401618,116.75935322259153,39.769934864471416,22.73632793857931,-33.38199774898457,-127.70061519554469,90.0,4.29162692570472,5.680551384392774,0.9228731155485137,-10.418752817789375,-1.165363441850991,-1.9855497102828572,39
22.26228805477371,42.98449253552607,16.879147761930962,116.99725287313267,40.236133666147936,24.531236605551914,-32.9708391769572,-127.13373971535258,90.0,4.135503380538255,5.473743473397684,0.8878715359972014,-10.369318316372157,-1.2392289679522261,-2.1056450170838046,40
19.25503165718172,41.7704734851807,17.496004519538015,117.04840554241207,43.13467686880292,24.812231402772188,-33.17685540461315,-126.49290382236327,90.0,4.022458980385603,5.302645777302809,0.8786460711899341,-10.386771637109906,-1.326992854255114,-2.2182288460088744,41
17.002929130605906,42.3445930792365,19.079958083151908,116.96219966267729,43.064535118296725,26.686942076523216,-32.06275309000589,-125.64295384165264,90.0,3.875463173039718,5.128358323489492,0.8840330113711335,-10.3342845606687,-1.3923268684924406,-2.3854429562343467,42
14.73162691531218,43.011421092862825,20.59896479784198,116.8615060985082,44.97803832358152,27.03111287924955,-31.12849437741019,-124.60553919693707,90.0,3.674380227332733,4.973504571695298,0.8442573249257073,-10.236129763686252,-1.45539824843036,-2.48832285715374,43
12.45478976411612,43.97530296492058,21.891700039690974,116.71466838242567,45.950806064088354,28.22347831923343,-29.975846470756245,-123.48315213006224,90.0,3.5264279272467784,4.86382092221134,0.7759366360691962,-10.17270155639257,-1.5126172258951556,-2.500995927207705,44
9.043858300715552,43.416169204629725,22.33915042559695,116.38931452899995,45.50840794017423,30.61030902898305,-28.670476301795656,-122.31257285993554,90.0,3.42382346617575,4.771050638405707,0.7063325610200571,-10.128427456120288,-1.5453976213971283,-2.5296943443670585,45
6.527017589292828,44.50801590084152,23.795910231958267,116.07783400009724,46.70822100202638,31.33399276451738,-27.115644049414566,-120.97416412493067,90.0,3.279597629710728,4.688159559409963,0.623530801113814,-10.016196373010475,-1.5720056278057888,-2.572520090420659,46
4.073528155678669,45.643251870176925,25.20285636220025,115.88310800160646,46.4371692463096,33.65110517505527,-25.801362857496642,-119.48984971283373,90.0,3.096042122190126,4.6314153698901785,0.5320293174063807,-9.888473740599881,-1.6054987196403545,-2.56327677648942,47
0.6699723762311214,45.32580691693789,25.482687480760262,115.21495523450487,47.75426153231093,34.29171623991216,-24.12923672421849,-117.88455833105773,90.0,2.985471574270671,4.554214281160365,0.4583584573662749,-9.774946664793324,-1.5574632431526152,-2.5426356426538783,48
-2.80625211291434,45.12954119473957,25.82685167104031,114.52303104409826,47.77080308287821,36.475618488753824,-22.91600621386198,-116.2487930435014,90.0,2.8245488005567796,4.524998038930057,0.3783399382042426,-9.660211988654385,-1.5573457729051328,-2.5425960555600717,49
-5.409660946571798,46.73714705718529,27.085865591307233,113.94778894379351,47.40158668800888,38.637086243375094,-21.241923684750063,-114.35264729447725,90.0,2.577386788005182,4.519155181333871,0.26462106855282214,-9.457168391032475,-1.5465527124294502,-2.561337782505622,50
-9.122084644598578,46.90952083999713,27.48653305231015,113.37127769041716,46.9709674345064,40.76621702107236,-19.463448937321303,-112.13886163732022,90.0,2.3847125508679086,4.449161851789992,0.11970133637277218,-9.26185847712384,-1.4697149034108574,-2.5609979279482697,51
-11.402430678073387,48.84136816795754,28.512077100114475,112.49750906745354,47.762435264920526,41.01203549713461,-17.092462209454684,-109.83954957922954,90.0,2.184510753625473,4.382873571911001,0.008275839299601283,-9.179450531153295,-1.4271059652521292,-2.5689376562613666,52
-14.70811990506993,49.35374458953284,28.52707398001926,111.4177902650624,47.850140309197315,42.833480675772634,-15.811259783051698,-107.51747217480963,90.0,2.0142542367821985,4.385607541377494,-0.05477076988705402,-9.091804112715502,-1.4349454664600974,-2.6524707283609747,53
-18.24466601832227,50.00448342910373,28.813257705016756,110.37586798192865,47.730974645661675,44.59623026938222,-14.253990021071154,-105.06160132601131,90.0,1.9130615583280544,4.420980402978759,-0.14480524413918253,-8.902462019665544,-1.4315336596626569,-2.7814832351772525,54
-21.57779638290191,50.78739247762885,28.886856059172995,109.18558108602234,48.01189437450164,46.34425749110195,-13.057171267908412,-102.54994765462091,90.0,1.8064690126977632,4.42890834389619,-0.266667876693166,-8.714119496920672,-1.372272656136363,-2.7677749144191477,55
-24.44036194568021,51.60328003224944,28.579512871681246,107.6228703020232,48.57718872930484,48.04390962810988,-12.130567772893603,-99.9921170325526,90.0,1.5855111330587477,4.432864107860198,-0.3703247116114126,-8.570039746758798,-1.323931270651327,-2.7164844782463433,56
-27.0238361292537,52.39785359502502,28.25832456350204,105.77957419472372,49.433320338916985,48.09445789211165,-9.538102025066836,-97.3775563579708,90.0,1.3588590885821465,4.446475906026453,-0.4858715809828951,-8.374910716652339,-1.292967469697036,-2.70609157437563,57
-29.641779560692886,53.128412272619876,27.95761841863238,103.90793609736109,49.52656471585327,49.72710906614949,-8.098639781921982,-94.58416041464922,90.0,1.1993351711791762,4.483613510969862,-0.5818925288035147,-8.105897209558647,-1.262805540322166,-2.76044102626102,58
-31.224506002722094,55.31099059472186,28.65760228972658,101.93782307696483,49.71797968025086,51.23804104025756,-6.796517973822083,-91.7493716640822,90.0,1.1825607130955227,4.570197400877836,-0.6970016424661999,-7.897066469880893,-1.2867597563014566,-2.7992633035298145,59
-33.64612215596481,56.06280483277554,27.840734287817046,99.48196106668398,50.09191836433151,52.60743183380071,-5.643410314110438,-88.80021678009744,90.0,1.1777509524011323,4.560089886919853,-0.8304238896014676,-7.756468099205805,-1.0955580319472478,-2.8073790689478564,60
-35.913844838566206,56.63946192426468,26.965674398820305,96.78259820857939,50.261690788552016,53.90247845329457,-4.4396357058434885,-85.83196320342745,90.0,1.0684221013532391,4.600328958923362,-0.9488725688773025,-7.571103945441326,-1.0902432782662226,-2.872790180962634,61
-37.93585652475395,57.07878104912247,25.883905222198756,93.80640932311255,50.30964851722522,55.249522713673386,-3.069363355904158,-82.65603343627922,90.0,0.9743080305818496,4.789912660421967,-0.9772228510983395,-7.272524703858493,-1.2541323613575,-3.0636291497988957,62
-39.69452456401178,58.67123760104407,26.69188630162935,91.24201951940651,50.04745052436262,56.6033850265291,-1.3236426713895149,-79.31764719553455,90.0,0.9828885500861276,4.777953056040183,-1.1204419893131823,-6.792531366632785,-1.1725736061802368,-3.255846049065183,63
-41.45156500648579,59.1280403525293,25.045085647942905,88.27729179152892,50.575533093202296,57.76785899865249,-0.5438809469019316,-76.52616077786092,90.0,0.965308046177214,4.946091162878074,-1.3095202040602971,-6.725272353282499,-1.2715965439136,-3.1277949146713335,64
-43.38312839408065,59.50517190270684,23.422729305934826,85.34914154983792,51.16257704128641,58.933596304313966,0.3936989954041968,-73.86633299453828,90.0,1.049152949061122,5.121141190202559,-1.5077582924102972,-6.54237444209631,-1.236908261322069,-3.0594275861244857,65
-44.58833450217628,61.057930643784445,23.394219365135374,82.41464851710228,51.71432060310072,60.09825984254368,1.3774853803551503,-71.25670787564243,90.0,1.0603418518804375,5.230870888711159,-1.6227673602978403,-6.330319403062079,-1.158398883669441,-3.086932007993744,66
-46.30393861497126,61.16117324654977,21.694493566437785,79.61757417845168,52.1276994530404,61.339248284296076,2.42313601161705,-68.43697472261654,90.0,1.033783046348833,5.3014460398282734,-1.7367458572664278,-6.102958451171675,-1.1388107604625404,-3.0785599178839735,67
-47.995716098071235,61.255810297071676,19.93410828761437,77.04365600568805,52.612476990794846,62.8762488354058,2.9021631994075228,-65.70860098817651,90.0,0.9788165988900654,5.3001452568034955,-1.8750336725278431,-5.871054590630797,-1.0758292652120838,-3.0285226247566848,68
-49.46280876583376,61.4278697079903,17.950534949177083,74.51681835696294,53.4280253980148,63.86871950736717,3.8035680373499448,-63.56564331975145,90.0,0.8689364052916846,5.328769330987595,-2.0051639852716296,-5.726303673454655,-1.0861296019566336,-2.984469703033959,69
-50.61566329572279,62.90712966235354,17.906060608117933,72.11615420803149,54.25043376890066,64.8450790441008,4.766884788800565,-61.74824012836321,90.0,0.7709529928573956,5.342010172610033,-2.156248142330475,-5.5231592931583,-1.0662640528927978,-3.0378756091390273,70
-52.390373960504334,63.19142883112111,16.221332173404843,69.95961063510035,54.868953395848685,65.92312630329258,5.901079479357356,-60.05670485147416,90.0,0.6911144383953276,5.283474509160876,-2.348199259349054,-5.227498978527937,-1.0184835568924733,-3.150342495972426,71
-53.98597578208022,63.492502433439924,14.417045152364995,67.83209613691005,55.63832576203756,66.97905033885026,6.882799943302956,-58.608584716252125,90.0,0.5528706675061825,5.239922464861732,-2.5352215979873356,-4.9651948859738875,-1.0853560106398374,-3.241872104917491,72
-55.337181208270394,64.93749347655006,14.606442741310133,65.88988312412376,56.53932515940522,68.05609109209092,7.829527744634804,-57.26951491307312,90.0,0.41904165533840576,5.165783402397876,-2.7165443581057835,-4.652142813159019,-1.1263859922040185,-3.3318233601662706,73
-57.23983701182924,65.31216822553779,13.04653962241634,64.20202281682515,57.2498582123349,69.11759694363647,8.94068394583972,-55.88808272821164,90.0,0.2753749476325896,5.089173487423034,-2.9128644135796353,-4.225953039112852,-1.1876745430821454,-3.52100281695481,74
-59.016616619814684,65.79880255871524,11.378073607088622,62.493478428695816,57.96582223984397,70.13405280093055,10.033067116151773,-54.59892115003307,90.0,0.2303819827996315,5.036970452139456,-3.0628673971901126,-3.8245805973620195,-1.2999559911772935,-3.8093529566970825,75
-60.2831702007741,67.43982460624801,11.50936137227025,60.536101230747185,58.73569084443209,70.11376696318172,13.257536922164038,-53.62396388022092,-8.706469655899049,0.34461164148334367,4.876224512135797,-3.169716737941944,-3.4900786569742706,-1.2885797950237639,-4.14964748601476,76
-61.65370662778667,67.97259981215679,9.547694059105808,58.62447952554686,59.7752550641818,70.95623190204098,14.08011771461384,-53.02279218687439,2.09683664164989,0.6195977730733778,4.735782216043679,-3.3153256451304145,-3.162601219252414,-1.3828275803814591,-4.428313941132288,77
-62.785539874075646,69.5125147221895,9.566897346635841,56.79833773424203,60.91935051942158,71.8078933593436,14.795157309534488,-52.62334091057676,-0.49732179066679694,0.8591946820344221,4.643753071403627,-3.45020354743565,-2.8556604128021967,-1.5027243590785075,-4.644053808659857,78
-63.98387808072895,69.83137239261755,6.8632279982426,54.88354079866191,61.95658119762746,71.75830162768419,17.682928866720125,-52.47437156555493,-3.0595849839339504,1.1168492910640242,4.534986520799716,-3.5563455204527705,-2.6078398069683697,-1.573660071513396,-4.817915808501305,79
-64.88558902800698,70.97585704041914,5.944461480941487,52.92806014731935,63.30632293058414,72.66665263355067,18.21630066022945,-52.401451419769366,-6.410867452463624,1.4103172134006348,4.393534492480177,-3.678101243663233,-2.3560319476376277,-1.636047484003191,-4.919291321538094,80
-65.66996958772363,71.19530622640019,2.8521391244358796,50.906071411116514,64.63838686535273,73.58718657080094,18.71743934575421,-52.3079720334948,-9.32550566829804,1.6680712780408373,4.223746752775229,-3.8160128910977593,-2.1162032114021767,-1.6914607355222961,-4.975079772466789,81
-66.32467932082571,72.39983334235018,2.0053451522730175,48.90882595567602,65.59656800353521,73.57134510240883,21.508497869441385,-52.29742078327498,-9.23464264498623,1.8847269199823322,4.077840647877038,-3.995517236706054,-1.9138147033820854,-1.819607037523662,-5.013267854250384,82
-66.8423431309152,72.76294821302588,-1.1440868412463872,46.78467727598117,67.00971491841584,74.39993633255891,21.85767257312773,-52.49521006855524,-10.037433690248443,2.028610461781809,3.876132729044007,-4.214339269592618,-1.7857003354862668,-1.8656527144007162,-4.981688628290312,83
-67.24605938567407,73.98893875496002,-2.0197603541608644,44.70767152779307,68.45894892584046,75.20562425904458,22.12678041078575,-52.6393017322868,-12.956173682493413,2.3017912778570406,3.6329825972035548,-4.441847531523641,-1.6765837712827012,-1.9213673551159207,-4.886702585945181,84
-67.63830515461278,74.3990368945389,-5.03568797232433,42.66182907421526,69.38940043097979,75.10540587756637,24.795497402090113,-52.693463530694565,-14.774492095672203,2.714747630520464,3.3980281573727575,-4.693398989709449,-1.4961244943000285,-2.040754451525287,-4.80102726888615,85
-67.80148388678806,74.89213827039201,-8.108498577410383,40.42274871843176,70.6507615640318,75.88531771128758,25.086316826906515,-52.85029872811869,-16.418544539300797,3.177342849496568,3.115707950803216,-4.9546811148935,-1.3670319959255424,-2.113995796750541,-4.674282221636597,86
-67.95400594183053,76.13079907562019,-8.796514888829435,38.19481094463197,71.86326213733139,76.63670147721899,25.358047876148607,-52.999625840718494,-17.365487848073972,3.63028371367393,2.7249912430292094,-5.225586024120723,-1.238206349305873,-2.1353763842432745,-4.528716118019199,87
-67.96632678825102,76.71222650962461,-11.678326761334038,36.09250286558561,72.61094096651328,76.43557573706195,27.989157176368032,-53.16556432105651,-17.329187555370094,4.094755754305104,2.3786565587181006,-5.466120931489144,-1.0850993632385992,-2.3160830633531795,-4.4872815815600084,88
-67.93294523274322,77.4396615429777,-14.484159627762512,33.727061628291956,73.65276390352608,77.02463516514547,28.38791522207143,-53.28269366153083,-16.60070336482371,4.554278499139349,2.097070627847513,-5.707327472428795,-0.8812141893717906,-2.5191702937014995,-4.517002776806845,89
-67.86094108351045,78.25428078004431,-17.284395484871382,31.050436660992233,74.1390864210426,76.74766026161092,31.1102948304417,-53.33696806997188,-16.402865948463596,4.966542670173213,1.8098058724095918,-5.923122394588613,-0.6568627802583499,-2.6650186109150984,-4.5548076527309345,90
-67.98722363153809,79.63173910346092,-17.634975650788533,28.298822862089697,75.03515637950231,77.28294080390606,31.529475708597136,-53.38878332412654,-17.398721215990648,5.316394302885485,1.5152530665443948,-6.13287200592131,-0.39251768550431904,-2.8210932525393737,-4.582869577292089,91
-69.0363353413054,80.11922084342282,-20.097401144444355,28.298822862089697,75.8277155508068,77.86056440701546,31.982248386244937,-53.23912496929459,-18.996157243982825,5.665516735341401,1.1843339000222814,-6.320620139411215,-0.0822404948285319,-2.9555741065463677,-4.594699801396348,92
-70.06164302250542,80.64735493060688,-22.453161478690102,28.298822862089697,76.50340463990521,78.35289012931885,32.533592608591064,-53.09159360210452,-19.780823920866876,5.981564035606143,0.8555721384726437,-6.493594287058994,0.3045754522889009,-3.132736797969301,-4.688935990279772,93
-71.19825471051087,81.20123403650176,-24.702678651182943,28.298822862089825,77.04697126089714,78.72526289495606,33.2004542298873,-53.01520122872757,-19.864025269191256,6.000000000000009,0.5310640344681558,-6.651534499055647,0.7757624884321215,-3.3074878160691985,-4.890327886147567,94
-72.0226558387276,81.29856186976772,-29.344739111302154,28.29882286208962,77.54565178828902,78.99266809334678,33.85165554520123,-53.14681667323145,-19.444420063121626,6.000000000000009,0.19203557070233995,-6.823186317317158,1.2444459659611407,-3.4981362636087683,-5.081594938706524,95
-72.90631826465741,81.84114203285155,-31.63186501588225,28.29882286208972,78.09276867398155,79.20158704938129,34.42579623274743,-53.57805544688676,-19.101485670675856,6.000000000000009,-0.16522698090183455,-6.981735306799499,1.6627895257983931,-3.731033747057905,-5.239340722909588,96
-73.76474849981497,82.29191464554096,-33.8541662145469,28.298822862089825,78.5268931640117,79.43628376638985,35.062018243685955,-53.9301697488022,-19.844089994908085,6.000000000000009,-0.5661089707757647,-7.117403059986127,2.156546817715926,-3.941451460422079,-5.362896049532049,97
-74.28550383277523,82.29859938146332,-38.40061605350095,28.298822862089672,78.8905768030369,79.5856080662929,35.749941689200995,-54.29684677830967,-20.53032526507601,6.000000000000009,-0.979495079066379,-7.318355122403786,2.7170125403562926,-4.161477238526903,-5.423224858258375,98
-75.08449786512018,82.73644642295167,-40.514845298132954,28.298822862089697,79.29288726747757,79.55411769417235,36.426414740126084,-54.955639048943674,-20.57626237464926,6.000000000000009,-1.3378807321170043,-7.5494655762755025,3.2771611598370405,-4.472189219691808,-5.496818117613785,99
-75.85462023172504,83.09704327513137,-42.60509051554229,28.298822862089697,80.24951892834551,80.27385494427224,34.800105661424695,-55.69437372282386,-20.61248885790873,6.000000000000009,-1.6769235899498092,-7.72031515994025,3.8512961863629473,-4.790249632728149,-5.606943735235575,100
-76.27847030822622,82.96451998603186,-47.10801599613281,28.298822862089647,80.43213079298023,80.17098812090182,35.484083839288424,-56.39292689132266,-20.4634627347149,6.000000000000009,-2.0457644087602245,-7.893828771449176,4.414494222046903,-5.0605648619998655,-5.69190446608754,101
-76.71548617018016,83.27647108741826,-49.15818118932799,28.298822862089697,80.44025452668934,80.08793836996715,36.19533233389687,-57.07603506083646,-20.653320165445926,6.000000000000009,-2.3774776874815027,-8.116396212282536,4.975841993306934,-5.416305178681006,-5.684130132700219,102
-77.16379209533794,83.50466859843996,-51.185334223323125,28.29882286208962,80.39075926712793,80.03013341060091,36.934244373393284,-57.75397164944166,-21.34739410909615,6.000000000000009,-2.693421873382988,-8.325176383639345,5.5619470694320166,-5.750444415460768,-5.644226596298685,103
-78.00452518529457,83.93138753519558,-50.83332239969456,28.298822862089672,80.99962737747258,80.78042625364935,35.32244180551086,-58.522187477213876,-22.276734821824185,6.000000000000009,-3.050660039941841,-8.5013433065256,6.127653205443281,-5.979676344090268,-5.566033098219242,104
-78.27748723323612,83.92334225537,-52.77697459894595,28.298822862089594,80.88978409684944,80.62081966529752,36.04276112396192,-59.3843611957758,-22.98822136219781,6.000000000000009,-3.397346891890438,-8.727786725675905,6.751808441858265,-6.252371578387843,-5.3994768783837195,105
-78.72389616911396,84.14730049564218,-52.25554539930197,28.298822862089594,80.78957537882975,80.4236457238449,36.73201964103339,-60.29959065423811,-23.848487149380972,6.000000000000009,-3.661495427531671,-8.943766342340794,7.376514225611991,-6.592821714347982,-5.186323438064995,106
-79.33910352488166,84.71769545654017,-49.153507680086555,28.298822862089825,80.67471030902114,80.15987921557469,37.52227824858929,-61.16189111394643,-24.556124824667286,6.000000000000009,-3.87515982624959,-9.134778354264,8.114012192393474,-6.864377471213359,-5.036489760353659,107
-79.47078961228746,85.00868251951698,-48.19949978401022,28.298822862089697,80.88892253968041,80.63845209393817,36.32634024648941,-62.127339373656746,-24.452063293237163,6.000000000000009,-4.094928499152659,-9.419898469789583,9.041888709789028,-7.106294409311249,-4.920003783228064,108
-79.67918312839177,85.52280509231312,-45.10789024015706,28.298822862089953,80.24819484685304,80.31485443553981,37.08165330953975,-63.060181874129015,-24.96631879826688,6.000000000000009,-4.328745376326344,-9.730103582132044,9.676843865323608,-7.372694915061806,-4.638449188018074,109
-79.135266841923,85.5617114699705,-44.72052143201649,28.298822862089697,79.75623444645426,79.98976901136052,37.39671464707326,-64.13314296142218,-25.63851093271511,6.000000000000009,-4.538595489134415,-10.0081794189526,9.9375534427735,-7.621611917431958,-4.308068379115381,110
-78.48703791193621,85.51891409167047,-44.3197686160542,28.298822862089825,79.19780901894784,79.64013324761547,37.69502974333543,-65.26643812181094,-26.035741517208102,6.000000000000009,-4.72144056786634,-10.29920249166515,10.16128328037003,-7.8068160826887,-4.006620841135851,111
-77.69431786490863,85.34017474161305,-43.96365599802899,28.298822862089672,79.39893222848993,80.225494221439,35.634635171023774,-66.44819944770313,-26.822236638543167,6.000000000000009,-4.881007425055881,-10.539186546034033,10.30312498589822,-7.987866741909743,-3.7165448405751804,112
-76.84521456539927,85.15988536174797,-43.62220837301414,28.298822862089697,78.86598483370493,79.80398404127082,35.7483464051122,-67.63464240103788,-27.437163489785398,6.000000000000009,-5.033182582933059,-10.678226002127873,10.428093315021197,-8.134111781154788,-3.5360819049379915,113
-75.95383013344174,85.0240180152996,-43.25922369601433,28.29882286208962,78.24165517211021,79.23552015241681,35.852847520261086,-68.9200302927666,-27.496845994500354,6.000000000000009,-5.1881447154775024,-10.78152050250812,10.542947862398247,-8.211481005659074,-3.508381282864026,114
-74.9147315552049,84.83513853596537,-42.91538764701966,28.298822862089594,77.46495160280995,78.62988454583345,35.89061884473706,-70.13856942032082,-27.61643157347586,6.000000000000009,-5.346993034611347,-10.869121740060924,10.59123275532931,-8.246170634296128,-3.533736475897948,115
-73.67690491188216,84.62242942312963,-42.58887805419191,28.298822862089697,76.55179468204196,78.0517821078291,35.86650177761072,-71.20508082373345,-27.65723128028043,6.000000000000009,-5.450736607548335,-10.929925163182826,10.59126573945463,-8.351779506197518,-3.555330511043501,116
-72.78902731400588,84.80486733657662,-39.851936030043404,28.29882286208962,76.37655565373943,78.45150370389473,33.61904744072276,-72.33109135388271,-27.86530550411576,6.000000000000009,-5.495467791891888,-11.000098721615348,10.599260410215274,-8.445249285604143,-3.6005623526047277,117
-71.63594981586013,84.48732344962337,-39.50339355662968,28.298822862089697,75.51672013003837,77.84077098479513,33.55351846576391,-73.42953413429214,-28.278063738785626,6.000000000000009,-5.560511926844264,-11.08976473208685,10.626061210103241,-8.45491410987394,-3.581709382561082,118
-70.39427753793106,84.14768643933269,-39.10336695815135,28.298822862089697,74.42820138786823,77.2901296257032,33.55270941015878,-74.36140614548034,-28.292733246351226,6.000000000000009,-5.611370853116828,-11.161659344286356,10.688226122103407,-8.517664408063032,-3.57591790735016,119
-68.93559423413298,83.81407149168105,-38.7172692501409,28.298822862089697,73.29156771481438,76.7127441734713,33.4788478209421,-75.23902349179448,-29.00136061175482,5.675397974944607,-5.673732544900111,-11.235094607157103,10.70769082521529,-8.572883555059208,-3.5678935562793153,120
-67.70309020499168,83.91021389360195,-35.990966597870035,28.298822862089924,73.0674524486332,77.22934351784683,31.10680787985121,-76.11728239919799,-30.78903827648229,5.285486827468464,-5.802281578292378,-11.328197159469529,10.686056339062013,-8.543367086476849,-3.5140533341529485,121
-67.75438428831914,82.41605506685578,-35.443230643603236,32.870735283166816,71.88333193630825,76.6514672974389,30.941779223791507,-76.84631837016155,-31.596653355240317,4.9769928255812195,-5.903519088142748,-11.384748272424865,10.678703355558033,-8.584593563395817,-3.4953442303267606,122
-67.87444834991153,80.87594100234976,-34.84189995428546,37.765352008964975,70.49517415240744,76.0720872018849,30.760958943042827,-77.46311598355196,-31.791524775343536,4.623413855870753,-5.93977952689573,-11.398714989333348,10.640099201603565,-8.660546405205967,-3.551038901850698,123
-67.92376653846175,79.41183441911444,-34.222823879170654,42.5090354024205,69.94497125470468,76.66918318924704,28.36133727800751,-78.02168874008579,-32.50569281284497,4.224458796473751,-5.990275020905381,-11.416447706665586,10.580717212993974,-8.65257806660762,-3.608645088637851,124
-67.93406979759672,77.96205320978429,-33.61439384399447,47.31568373039992,68.95221364422406,76.08422997313865,28.024338704710452,-78.54671000114095,-33.886365376814034,3.8433289535912016,-6.078573611122498,-11.39519218465275,10.459384134250392,-8.614992801940444,-3.6981797966293066,125
-68.32502387811799,77.44032832975542,-30.70568232803757,51.86380092626362,68.05437627045497,75.39530056297724,27.578864555430926,-79.18123696757644,-36.46037187688273,3.3772730788887984,-6.165230417800835,-11.353651017593037,10.250653763988405,-8.567603190166574,-3.8616831362753716,126
-68.05810453131882,76.21080479461565,-30.195268850804453,56.25554654860294,67.14756326520738,74.69269815475695,27.01202104130617,-79.80576224126115,-40.98491600390968,2.9089713854032806,-6.235172410721552,-11.29271214672163,9.968503219278661,-8.513034302450539,-4.003919502800384,127
-67.65503761231854,75.03154418551841,-29.700876133193375,60.526472624037034,67.00020267357822,75.22566504191512,24.22656594405748,-80.45534098637582,-46.56660721228136,2.4712567733375237,-6.2569295516617,-11.210252391281424,9.65669981423603,-8.480713622918506,-4.141488762776707,128
-67.21737152481374,73.9520395577939,-29.1701799640311,64.57980514030304,66.21476780164878,74.51968743469374,23.626722128858184,-80.98167014060019,-56.88564827683809,1.9839065646279226,-6.297555622745702,-11.099286863915033,9.376697672760208,-8.377275303809204,-4.341563694919603,129
-66.7342430804627,72.86487033511109,-28.676797323357864,68.48807725743112,65.24320279881744,73.8688082588879,22.986028033182105,-81.19882369776711,-72.9397809384406,1.6967710353626808,-6.357073567178128,-11.014044199964895,9.02970316836207,-8.24265004598435,-4.495865858021835,130
-66.52514920716536,72.92723145260358,-26.30218553533494,72.18845126625746,64.42036343977117,73.23029842906169,21.957764156574555,-81.37770464085756,-85.0555673967831,1.8450113779312216,-6.386720903164319,-10.918757305628333,8.355850946945392,-8.132777080840556,-4.550681384309035,131
-65.2638863542768,71.97811322595153,-26.49655571076504,75.62517137818031,64.50878184416364,73.8435963094949,18.434934339269887,-81.84216438937324,-90.0,2.2182462141428028,-6.360111093616821,-10.777993688259432,7.4221822321958335,-8.05422500878825,-4.556037004009484,132
-64.03552550045633,71.0785830122591,-26.50910907514795,78.98180742720133,64.08481258607087,73.11120817410517,17.176560234231985,-82.23752061994385,-90.0,2.6061640910306685,-6.375330503605051,-10.643507079038105,6.653256885210979,-7.9012810685929304,-4.5949367399937,133
-63.49683056291421,71.55249794296755,-24.20151154997054,82.19964153437961,63.604480255425024,72.3390406167208,16.080490509886523,-82.59200295814831,-90.0,3.0417811838463233,-6.408157561003179,-10.493088888718228,6.01318377851854,-7.746954886770698,-4.724092650873223,134
-62.34995841626262,70.8483697888371,-24.003330462130545,85.31145170991583,63.24941784567875,71.56593867844208,15.059390890957266,-83.00916979295798,-90.0,3.584362632125882,-6.306952901751447,-10.365786795384357,5.411535274864714,-7.746128747087445,-4.871462509741883,135
-61.23520695889325,70.13268974982175,-23.78136830993336,88.34849819795896,63.509490345507665,72.2033264003896,11.958920083037691,-83.37110247875027,-90.0,4.347383070621766,-6.18633603154567,-10.275024797842514,4.829693577847157,-7.656728516163945,-4.958969071581937,136
-60.59356802590326,70.86348290202139,-21.51316277162686,91.12824220237916,63.4757013214356,71.45658102441355,10.866199073114636,-83.71509592697059,-90.0,5.209022274891277,-6.132595465005727,-10.179045353150311,4.233148375333285,-7.482195695240649,-5.025920230130069,137
-59.494810997087406,70.17982249052643,-21.051999478327694,93.84866769796744,63.07359826963473,72.18783030783429,8.09649496226347,-83.82580665216128,-90.0,6.000000000000009,-6.130312410426524,-10.101255094909439,3.8015497216266225,-7.352290165270448,-5.1572423338197675,138
-58.54105767028389,69.4430746499839,-20.519810360810833,96.7210270236124,62.364045479990054,71.56086711196156,7.404660378188029,-83.88814674626371,-90.0,6.000000000000009,-6.1742416039729315,-10.041786310942527,3.427590767170936,-7.249273061506668,-5.223166910522152,139
-58.14219489011738,70.27356165933384,-17.990858701300738,99.51050597578207,62.10966118296536,72.31751443888304,4.6432696024580125,-84.12062985647019,-90.0,6.000000000000009,-6.1951540574211945,-10.00564548023869,3.015116797442961,-7.212334918317306,-5.2832895220291265,140
-57.70708582985529,71.15376077500042,-15.440131554151645,102.10561689320446,61.720899567467896,71.64555341233023,3.90316885355263,-84.31759470761587,-90.0,6.000000000000009,-6.173421143854416,-10.01775531404282,2.6068534528958875,-7.221311542624335,-5.313633889599811,141
-56.87931262262773,70.48054899506856,-14.824206184015173,104.36822315964419,61.31083759838175,72.49224099401995,1.2732279169076914,-84.50395243018099,-90.0,6.000000000000009,-6.160402938267178,-10.04328800454347,2.214975986341702,-7.225204286227251,-5.316909980049037,142
-56.60010779670348,71.49987844844442,-12.338705144131227,106.51575561703302,60.8111350511753,71.9705106491057,0.6875127970892584,-84.75909246225771,-90.0,6.000000000000009,-6.101313949742841,-10.069913059556901,1.8694294886335443,-7.297492006178861,-5.310721920506468,143
-56.02633697377711,70.85269641652904,-11.703889975237114,108.69220600882885,60.51645682803887,71.49192761733579,0.08630611728544085,-85.0332455792875,-90.0,6.000000000000009,-6.046325312045062,-10.089122816534463,1.5740858786456846,-7.3262029615396145,-5.2579982859382275,144
-55.66663875584746,70.25311290682153,-11.022079994798656,110.2838041272091,60.24077369114003,72.50114615649053,-2.314988426066405,-85.43609315816883,-90.0,6.000000000000009,-6.042048121419927,-10.122607269694482,1.3880408088152596,-7.324744128094812,-5.217731101243509,145
-55.95631732755169,71.4008081588834,-8.365925225375205,111.78672833288398,59.85968046533408,72.0576219741878,-2.5683038559120224,-85.81690111574915,-90.0,6.000000000000009,-6.055808660784351,-10.127082997824397,1.3725621857577717,-7.365015940625926,-5.279844882435402,146
-56.24746712826373,70.8500629033608,-7.373595823727115,113.17334275575543,59.18306942898587,73.1757505881544,-4.476365987004898,-85.89407316760452,-90.0,6.000000000000009,-6.141364396188998,-10.151612316269516,1.4450034040677664,-7.358256823220652,-5.36679615443603,147
-56.221972851367006,70.40612790728856,-6.800647102490421,114.32465057271229,59.01430321256444,72.8910240567376,-4.813917720516927,-86.25389957460702,-90.0,6.000000000000009,-6.189819163804844,-10.16850536561394,1.296141782501007,-7.48891569976488,-5.346826690261042,148
-56.85355080353584,71.8272916133396,-4.407952649969427,115.25722411891424,58.59842672042745,74.09280539409515,-6.764850456447182,-86.65533932046239,-90.0,6.000000000000009,-6.267357237680637,-10.194823389849507,1.327155770853905,-7.557008691110832,-5.410847569872486,149
-57.360955642675684,71.53757390057001,-3.8472479809905864,115.91713722171822,58.41588767064736,73.85546206904242,-6.864772388106492,-87.13113518196826,-90.0,6.000000000000009,-6.372312232539989,-10.155684304302966,1.3908382575162261,-7.637409818906998,-5.502576534859475,150
-58.1264755383927,71.3119956264868,-3.244127987028567,116.543461387755,58.124413060979954,73.66229757545125,-6.769442540311961,-87.38923240161176,-90.0,6.000000000000009,-6.424843002974987,-10.11932257226794,1.5786323506381277,-7.826300471140702,-5.6202716842570375,151
-59.04732141132064,71.15143008380976,-2.8230206318622852,117.05100002541684,57.95613934533606,73.5043129599683,-6.732651699061582,-87.57908645379841,-90.0,6.000000000000009,-6.529487805258771,-10.124651050332151,1.717241694810466,-7.930389720049338,-5.661233918601309,152
-59.98389552270792,71.06751138794895,-2.684340258024404,117.30564683305614,57.7359617229266,74.84416657358943,-8.715808275045012,-87.97460178282446,-90.0,6.000000000000009,-6.734025309651807,-10.115474177233482,1.7159190872892194,-7.965072815220813,-5.679958908928321,153
-60.79205627033277,71.07694177902191,-2.855407926675834,117.2733648805413,58.063169036174806,74.71472634615115,-9.043105054852772,-88.71774862725242,-90.0,6.000000000000009,-6.9530048108411915,-10.098608667123685,1.6371865427441938,-8.045000735244178,-5.6513644269749665,154
-62.108290533761206,72.90000218610234,-1.1605296772799947,117.25779934052026,58.18875873643847,74.64848496241589,-9.005997552169303,-89.1573837585983,-90.0,6.000000000000009,-7.133061701508541,-10.108563873035491,1.8375606817428716,-8.195215829136952,-5.638215877722455,155
-63.278165286927155,72.89967044356185,-1.3437615170532629,116.97476935304677,58.45825901072594,74.65886196802526,-9.109537423516498,-89.53728358957937,-90.0,6.000000000000009,-7.3127089523999995,-10.147274320255232,1.9354892034484106,-8.310693839505332,-5.49347777438392,156
-64.31337988280211,72.93146983866278,-1.8253503433368812,116.44051181365866,58.99582182098114,74.7031167482039,-9.410725738997266,-90.03999060296522,-90.0,6.000000000000009,-7.456738439014198,-10.164686684073786,1.909867069503686,-8.477309951254139,-5.291282235268868,157
-65.51162239392404,73.03366189197627,-2.3419022863934242,115.73081303412995,59.66682491693052,74.75680265274708,-9.619562446541694,-90.48018497967138,-90.0,6.000000000000009,-7.596339736090006,-10.16083262994342,1.9973026382487231,-8.617670876384613,-5.115316070166207,158
-66.81318250856043,73.19638130385898,-2.82278473931942,114.87909788360867,60.36637730093259,74.82475514611893,-9.686805113771007,-90.8292280669158,-90.0,6.000000000000009,-7.761130324356545,-10.126269790807683,2.214235048900308,-8.72022055513882,-4.988120928252025,159
-68.19545370928344,73.42909068761676,-3.3309546644660166,113.93663542528371,61.13908083195126,74.90691683131287,-9.680545171764203,-91.14347857094735,-90.0,6.000000000000009,-7.926503401622715,-10.05818334979804,2.4929541876140497,-8.842930384742024,-4.904310159942456,160
-69.57816836255482,73.74050806472792,-3.9242588069506423,112.67511693901581,61.90244012676108,74.97220439285756,-9.655211063982637,-91.44441995811609,-90.0,6.000000000000009,-8.09394157813463,-9.994661001072837,2.754208729517751,-8.932082723024115,-4.8507006331527895,161
-70.81757008584258,74.02053261277273,-4.646295735517873,111.23672371211407,62.908569626524816,75.11967886260572,-9.727588909057166,-91.81323347537437,-90.0,6.000000000000009,-8.307323766875541,-9.941621091401574,2.993856629182948,-8.97862710449984,-4.677956924823852,162
-71.96992093359384,74.32974414098652,-5.4108892543294145,109.72498429114636,64.05601702560716,75.33057798284906,-9.778070781258021,-92.1705889291799,-90.0,6.000000000000009,-8.54779510163591,-9.887980722034154,3.2591249285074424,-9.055846766976954,-4.459847437916893,163
-72.90469235007993,74.75636873981159,-6.241890390727948,107.32089036002118,65.06387097611677,75.56630435875331,-9.669434041462814,-92.22433215133981,-90.0,6.000000000000009,-8.768090912230683,-9.806545137242693,3.6101641099735216,-9.17463303145229,-4.27061090186153,164
-73.7809431775353,75.2294221621197,-7.04016324309425,104.97404458735059,66.01656577728903,75.81622803267551,-9.502368397490146,-92.1753256076251,-90.0,6.000000000000009,-8.907627940817806,-9.734709151024058,3.9761227569179103,-9.372497136558977,-4.067856579078829,165
-74.50538455058445,75.67655948817217,-7.920730907843994,102.33521218473567,67.49796989509353,76.0749557902698,-9.51680153222312,-92.28020910991411,-90.0,6.000000000000009,-9.109291847967011,-9.618984169761053,4.2700329694571,-9.4032816918514,-3.8560436355930316,166
-75.13338396643462,76.17227450156145,-8.730756653848614,99.3242468149503,68.87530302500065,76.37881104796372,-9.390086229956989,-92.26726138158152,-90.0,6.000000000000009,-9.302200693171516,-9.495705695643194,4.626410230748958,-9.473117787145917,-3.657190819540888,167
-75.77141371650208,78.28697665322534,-7.714033923260799,95.8613959572694,69.99698468211876,75.22475846620799,-7.36530353056329,-91.96445014781699,-90.0,6.000000000000009,-9.422230051815015,-9.400562779759628,4.959228585209897,-9.624792481821494,-3.391758981217223,168
-75.98131354076118,78.8049106004928,-8.529678285045614,92.1343188899424,71.04929715144077,75.56490947992629,-7.204020366678951,-91.52278137353233,-90.0,6.000000000000009,-9.528400747450249,-9.297749277246242,5.2892426930781635,-9.747837195915885,-3.086034984017288,169
-76.1236222604885,79.42709440556648,-9.165614783938945,88.07261118862942,72.369401886577,75.74978065420703,-6.979341354983248,-91.14295477722315,-90.0,6.000000000000009,-9.679639657484143,-9.19854534336931,5.713087488251065,-9.779208253379576,-2.8924508875722728,170
-76.16058440731591,80.10874090425364,-9.714381868274382,83.69117969354834,73.54235662556545,75.91856468842255,-6.663413726448946,-90.74217203557029,-90.0,6.000000000000009,-9.805124725192123,-9.104370339084046,6.1599746299803,-9.855059520961525,-2.7443793759185815,171
-76.09445458935879,80.79301330761719,-10.390201789819226,79.04321386103052,74.7525789881246,76.2077829898038,-6.4297164793056245,-90.30684187924389,-90.0,6.000000000000009,-9.839705284950833,-8.85294445276651,6.529616515069161,-9.977461810982364,-2.6562327430755843,172
-75.64801231116604,80.15471663467706,-13.204256309325306,74.18698223484945,76.15690124517775,76.55101097924485,-6.320487818916605,-89.73651102437688,-90.0,6.000000000000009,-9.87855894275266,-8.707953082328038,6.802734498902602,-9.941164990225895,-2.3724956058449034,173
-75.2002108418859,80.88315236695179,-13.877738036992765,68.95148401859979,77.60293768785316,75.32962413897913,-4.357144818522351,-89.25976706537514,-90.0,6.000000000000009,-9.894105885856353,-8.562533682348205,7.055858098098512,-9.949060953638625,-2.156062481983413,174
-74.38172894406213,81.73023602783506,-14.578230362614462,62.979259154726606,78.94511374892532,75.5456802287482,-4.327928139435299,-88.88974101318077,-90.0,6.000000000000009,-9.88845661724747,-8.402767773292444,7.231708191659303,-9.94351355232649,-2.0285123610100246,175
-72.83591063974467,81.68210076558034,-17.530273388340856,56.2571843650619,80.55750216118412,75.7403032112179,-4.42120617712251,-88.67734743814587,-90.0,6.000000000000009,-9.796030103635603,-8.248183296806067,7.329805047900038,-10.005403650313516,-1.9092039036544501,176
-71.46394562538421,82.73874533792171,-18.10276761624633,49.10345181390286,82.12761310471336,75.93959924917242,-4.374614783073511,-88.40625376243932,-90.0,6.000000000000009,-9.711429910051203,-8.104723390994522,7.561393556513408,-9.999255482433831,-1.7429374215473372,177
-69.62994907531129,83.14850070570553,-20.802762579609535,41.45279516196453,83.52970359861872,76.10073641288476,-4.180374459989576,-88.12434831407631,-90.0,6.000000000000009,-9.68563521118046,-7.971912541781426,7.919825063830716,-9.941570260879978,-1.572103211768276,178
-67.42270873330934,84.03039164282802,-23.53102027588892,32.452724582472,84.90607322691484,76.2227059466052,-3.991098315091417,-88.0004484913649,-90.0,6.000000000000009,-9.680918519474984,-7.833271101172991,8.269100594815733,-9.923451670981445,-1.4534538358062867,179
-66.85204544101313,83.79848329186333,-28.45192700264502,28.298822862089672,86.3272591522331,76.37279658844729,-3.8588190668905518,-88.04899033900725,-90.0,6.000000000000009,-9.651932850431256,-7.649713980835628,8.575304696691223,-9.946930304496194,-1.358558150238299,180
-68.17712910356637,83.21312402005724,-30.77579455155279,28.298822862089697,87.74396450368988,76.53391432340254,-3.6783122119292053,-87.99208722166101,-90.0,6.000000000000009,-9.618715409468319,-7.443111490591864,8.942401764363604,-9.932285601782645,-1.2146473071914865,181
-69.26760082685084,82.15209175082548,-35.311031768790876,28.29882286208985,89.1023928820389,76.57998374408174,-3.3563593094354522,-87.92154392431698,-90.0,6.000000000000009,-9.590460868709684,-7.244591381972499,9.477636577139952,-9.899405712097806,-1.072751673121954,182
-69.5302819640988,81.80051434818992,-37.240183820432534,28.298822862089697,90.42924332131633,76.53869432775652,-2.900551651296419,-88.00687763028348,-90.0,6.000000000000009,-9.586038309461962,-7.037536150867573,10.16298871839971,-9.8802687306995,-0.9587686256191567,183
-69.83651967707553,82.07270206314524,-36.707426187090256,28.29882286208972,91.44073235628136,77.99199488550488,-4.207056867313451,-88.14428495930031,-90.0,6.000000000000009,-9.569202299941741,-6.857967196747644,10.924932665806267,-9.928324127745611,-0.7843967501728336,184
-70.38651221761721,82.65031752600207,-33.71631347484815,28.298822862089697,91.91502442983894,77.98443271831118,-3.4925021912441645,-87.76501845070543,-90.0,6.000000000000009,-9.579843324437473,-6.720236276889657,11.753948345108956,-9.940883317344625,-0.443803207250233,185
-70.75583832989216,83.14514321851813,-30.643808582498,28.29882286208985,92.31777266437268,77.98126267912048,-2.7077739024805156,-87.54692233003138,-90.0,6.000000000000009,-9.624546598412762,-6.622371142310058,12.65032597495455,-9.936797940115655,-0.00841961418002686,186
-70.89993945024409,83.40115205336357,-27.520626798296732,28.298822862089594,93.09181817154214,78.1117282835635,-1.8793879037634966,-87.7916807123834,-90.0,6.000000000000009,-9.585158110946173,-6.569603448087847,13.60795864993519,-10.082557987514793,0.6828859990600777,187
-70.46141843886562,82.62295884033816,-29.310094709623552,28.29882286208985,93.90232368802748,79.83687580999701,-3.007177128886863,-87.72793165097453,-90.0,6.000000000000009,-9.577182969476493,-6.448256606509774,14.50491523188939,-10.133162871165545,1.5172560847051142,188
-70.29211921718333,82.57949281999501,-28.830919622159836,28.298822862089697,94.79313076596638,79.86688920125721,-2.431712481068287,-87.6847652203024,-90.0,5.785511084767819,-9.61705816030261,-6.227904370259873,15.271547117256748,-10.073929761409445,2.010094612589887,189
-70.03679179202655,82.75984362583063,-28.44834548949292,28.298822862089594,95.82497852914973,79.68182976663684,-2.0717344123133534,-87.90435974709636,-90.0,5.525589538594952,-9.629713583638804,-5.974806970449146,15.89386523852353,-9.991632592330504,2.1880678077065245,190
-69.75186187175763,82.98898321232926,-28.122530057848905,28.29882286208972,96.71210856282819,80.94388429584497,-3.788754113140577,-88.11283953907105,-90.0,5.220313301521441,-9.540717718795488,-5.665553526875678,16.443621359149112,-9.947541405712943,2.188179124173426,191
-69.4699171154256,83.26862258447355,-27.997645922969912,28.298822862089697,97.79439113337267,80.70227780265785,-3.8779586125521655,-88.24764276387933,-90.0,4.9577040026079295,-9.430590235973613,-5.350298226271765,16.785354313503635,-9.808112913813959,2.105241939310652,192
-69.1313808726495,83.62253166433156,-27.90426310053706,28.29882286208985,98.83050200221652,80.35496527857812,-4.05099711315434,-88.39661649890456,-90.0,4.66829536123098,-9.37798068326274,-5.096721211525817,17.0585929112116,-9.588201198943695,1.9674423505245213,193
-68.67951250824119,83.95650814653136,-27.778314749710987,28.29882286208962,99.71575235420225,81.46488834729165,-6.112876747539532,-88.74363766727343,-90.0,4.261593212547745,-9.305463095156858,-4.825911456273743,17.34496626621971,-9.47322526158294,1.7663780721574684,194
-68.16799219660253,84.2074278454711,-27.701409820200887,28.298822862089825,100.90391054739042,81.11111681358327,-6.388943978004818,-89.13386459435426,-90.0,3.9073247117019987,-9.206360029167056,-4.591161889742341,17.57848315909466,-9.33633521137902,1.6232270480293403,195
-67.75387774646221,84.46828698736613,-27.565595295969672,28.298822862089594,101.90742725193229,80.72708113287507,-6.5731672001832235,-89.32942278420288,-90.0,3.5345448107669872,-9.122224137563578,-4.409666385996272,17.86449401538492,-9.170721617394838,1.5282717777522465,196
-67.40082222918873,84.7434542059028,-27.436858250282953,28.298822862089825,102.61509854806334,81.8166001550697,-8.634860595011837,-89.53925811566319,-90.0,3.111060462549928,-9.03541664783852,-4.214930654120912,18.132902661441754,-9.046177199399908,1.3909664925559064,197
-66.99243101901192,84.99515465046218,-27.407306582713606,28.298822862089697,103.64413996502535,81.46126165516903,-8.967666016957939,-89.84889374408431,-90.0,2.731028228714147,-8.928217399618404,-3.994037851443027,18.2894277793188,-8.904891772452011,1.184427402715347,198
-66.29094156281339,84.72771154790591,-29.75547800598256,28.298822862089594,104.59971897768537,81.14735010139414,-9.259532042108424,-90.1181159294469,-90.0,2.4332141272276453,-8.735955485102858,-3.7721184035508624,18.444914191906058,-8.827476127886598,0.9755866283228947,199
-65.91402573697007,84.87272512521709,-29.694183750008087,28.29882286208962,105.25825838486941,82.31383998658492,-11.329475803628403,-90.29386608521108,-90.0,2.2615966007273545,-8.539618455001063,-3.581929961671852,18.654998211459436,-8.671023954453691,0.8714592083748695,200
-65.53454316008252,84.95521267753932,-29.64675025201205,28.298822862089924,106.19309509899628,81.93815624557824,-11.612280079761668,-90.4892756850823,-90.0,2.1412590250396017,-8.388469933849391,-3.4085550654838834,18.87463655784991,-8.486552639983616,0.8624967415676914,201
-65.12177408177662,85.02570115446558,-29.55854979685254,28.298822862089697,106.57986287992422,83.00074430465324,-13.676270414608812,-90.55313162739188,-90.0,1.9999301428967045,-8.214754341110588,-3.257386118025494,19.115436031548533,-8.372210458697968,0.8337401886109168,202
-64.66204701157936,85.12489587427946,-29.534575737603245,28.298822862089647,107.25337527583875,82.63216748690104,-13.938499586614373,-90.51533525887213,-90.0,1.8939843060801322,-8.022889579637779,-3.099037228751212,19.26604165426154,-8.246449544928632,0.7096432034947074,203
-64.18128774850838,85.22144134970709,-29.583622157333554,28.298822862089825,107.81653264017801,82.28472983807353,-14.2212859588408,-90.413090502806,-90.0,1.7641585963496222,-7.79641443241813,-2.96272122873131,19.349161343976665,-8.110454813904063,0.6100818224453123,204
-63.842234463348426,85.17397034524221,-29.64099718753012,28.704856431215315,107.83229709989334,83.41491545047786,-16.28390998085738,-90.21361803633629,-90.0,1.6667017220653315,-7.508508898579743,-2.853030579395893,19.429956657434104,-8.019640686746396,0.5868628461347916,205
-63.90871438679692,84.9109128429697,-29.64194563269448,30.12053345560823,108.18408680536042,83.07931617087641,-16.446664899570436,-89.92463354978578,-90.0,1.6323141862797088,-7.247535065480069,-2.71841811559254,19.54800390241061,-7.882350176695739,0.5446502889024093,206
-64.06204559391364,84.6381824206132,-29.553750826202016,31.60691892768123,108.46974779702839,82.6872937178002,-16.540843076784686,-89.68101599219887,-90.0,1.551172704438445,-7.0091828318620095,-2.5685783798024704,19.72691727013549,-7.73125329271573,0.4286828364621704,207
-64.22581953815632,84.34760986543593,-29.47334531306095,33.05214343761865,108.23300051375351,83.68777142890997,-18.48936723716677,-89.41365723411084,-90.0,1.4594389890394333,-6.739664016048858,-2.434073499731245,19.884626870217986,-7.5930051411390584,0.3094828066206953,208
-64.28390658225258,84.09616500996846,-29.449762007310365,34.27860752196716,108.50684473694521,83.30718433400838,-18.631044282259055,-89.31110282931279,-90.0,1.3961803927969754,-6.427207965949272,-2.327443237349986,19.985503452890946,-7.475838159805162,0.20355855404054998,209
-64.65668976856492,84.35730517036994,-27.153641446288727,35.61869466396557,108.93515007786299,83.02169622338431,-18.84427225186443,-89.28852148065592,-90.0,1.4318572203792619,-6.135031361543315,-2.230798759130658,20.023970753246974,-7.324764355573862,0.16902184766465184,210
-64.88628153251746,84.05715194909749,-27.138957721629655,37.092529431010384,108.64459589775709,84.06825595428371,-20.791817190878024,-89.15433835638726,-90.0,1.4385399623608222,-5.805303957145156,-2.1998843691643253,20.108092105676814,-7.199176756772691,0.15743402663398676,211
-65.04993083555733,83.85227682273313,-27.14206228530858,38.363525622774155,108.73605969773295,83.62508671850043,-20.91308176186749,-88.91449024237939,-90.0,1.4153016611491105,-5.418668472732884,-2.1869044505408763,20.16990910718519,-7.1156735828235975,0.11971201148803506,212
-65.20083536032163,83.64786596345746,-27.167620837639475,39.62373153335574,108.85952341874814,83.17501021900493,-21.05213656878601,-88.6475717773558,-90.0,1.3887497963944857,-5.032529204371801,-2.1056353149974165,20.22391818080508,-6.9994496726935305,0.01734883130350672,213
-65.39756487176575,83.49513374047451,-27.160122768954068,40.75192308926314,108.48250626231332,84.15350159137512,-22.971063821452773,-88.57540105377382,-90.0,1.3445437318894398,-4.630747388002374,-2.0205372365278143,20.28620573953753,-6.857772635233409,-0.1479988994769328,214
-65.71793131600741,83.32590422641056,-27.122110721897965,41.91378834840448,108.61648083240219,83.73216280920322,-23.02169962428952,-88.5179241367553,-90.0,1.2815670060421729,-4.257898874025025,-1.966131044769512,20.345683595628362,-6.674415840753645,-0.3101819402498332,215
-66.05838696613607,83.16627505526438,-27.066266879049174,43.17284809076384,108.641923725423,83.20830689372175,-23.0988414689514,-88.40444708712538,-90.0,1.2169054155752201,-3.894587254346981,-1.889790453432922,20.40654526170617,-6.522885198008774,-0.5221368252683106,216
-66.28384554841605,83.11135585084398,-27.074238321348396,44.241355765564485,108.71068259264996,82.85246389667269,-23.120428034084682,-88.46119903909847,-90.0,1.153538567467187,-3.5121075759860827,-1.782124535430674,20.408909249478576,-6.372066813515317,-0.8069860994417889,217
-66.56342631814853,83.06321777501171,-27.076003790943535,45.24721330768699,109.03287557122337,82.40339403426266,-23.322472842114117,-88.82800211194257,-90.0,1.039242757307516,-3.1553928826480244,-1.638417370618765,20.382435506529173,-6.173133172318655,-1.1757721851688425,218
-66.7509141559906,83.02182066502054,-27.11280923255196,46.21188222016495,109.18904236695134,81.93175513528084,-23.50716931042279,-89.08476148705624,-90.0,0.9075416779487834,-2.8199077235815246,-1.5054465519668083,20.31901442188931,-5.9729260374071425,-1.541669101382282,219
-66.58653318203233,83.08269041551979,-27.38488101430727,46.830217434587134,108.64014682619114,83.02622107422526,-25.566690173139605,-89.19649583259206,-90.0,0.836552380941755,-2.509809710648665,-1.317285941309276,20.059531793993827,-5.762493206437879,-1.9467398710743238,220
-65.99838319680259,82.35183010544687,-30.03506784395263,47.35136945241312,108.71615270519203,82.86600234559317,-25.83963455529902,-89.21677716029109,-90.0,0.7846703586268985,-2.253889109418176,-1.1321819717292787,19.718331027237493,-5.502721054145722,-2.321561794158421,221
-66.03371617383162,82.33144488764633,-30.230268346499138,47.939237637311564,108.46456605994375,82.62199222631935,-25.911920155983537,-89.16385635578919,-90.0,0.5980607989609608,-2.033951405745651,-0.9574505115783633,19.47184729301174,-5.264915318718192,-2.70389514073661,222
-66.07892697185797,82.25260769058751,-30.510092276981776,48.60406931424202,108.18884104746687,82.4740584594334,-26.02133760836732,-89.17261362288835,-90.0,0.4787886987746186,-1.7793769330736955,-0.7546552585931802,19.149343041238847,-5.100510196856763,-3.0440386126615735,223
-65.99582608547726,82.16850026093209,-30.98397906016672,49.18344099927635,108.19277496862563,82.53685843212807,-26.306693919233503,-89.20993405389933,-90.0,0.4847285641924513,-1.5087998693555316,-0.5104774138618124,18.670230135267136,-4.899484276728965,-3.354770380524413,224
-65.8949523576882,82.1085781968597,-31.40825043484277,49.57966285648751,108.17295115399679,82.61586915281748,-26.515275566988855,-89.34994641715065,-90.0,0.482333688005054,-1.2361771063439801,-0.2681561666753342,18.201202685155938,-4.652663562094936,-3.729010692542476,225
-65.79668997645192,81.96343679838563,-31.819024524862016,50.01720218801243,108.08154416442724,82.75583175888566,-26.642782644091742,-89.58733317292057,-90.0,0.4647268541056525,-0.9874741861063926,-0.0802387970072536,17.749112606197404,-4.392417106105591,-4.000745165509017,226
-65.81899999638667,81.76490315228406,-32.25104327819142,50.69037750910436,108.00124417582155,82.87840620000681,-26.84310534020355,-89.83746107812972,-90.0,0.4070417238723169,-0.756630716861211,0.13472150527292434,17.279673988575553,-4.1784324232773296,-4.2375571768650735,227
-65.30913610477124,80.77850265367863,-34.96034201600663,51.32814286132356,107.87165987237951,82.94909085771437,-27.06923381559904,-90.03764952722189,-90.0,0.33781644265572774,-0.6129063390906924,0.3495093433635703,16.795449013502772,-3.906624204800059,-4.524836405050902,228
-65.08606675216117,80.45750118104343,-35.35194662674362,51.79964136529048,107.42164779414594,83.03272698954737,-27.204954433971174,-90.02672839033036,-90.0,0.20822741165339023,-0.47158568319121547,0.4884519848680721,16.279689613400652,-3.725736702095087,-4.735816198308608,229
-64.77582755899085,80.01570615716497,-35.80029599447771,52.320845956781646,106.65877289893591,83.14239383970984,-27.262878569443167,-89.82169547145503,-90.0,0.13645319409855186,-0.23135354477244607,0.5725480239429754,15.706612376272675,-3.6890240095327664,-4.811499697144742,230
-64.46181864685009,79.52083581255377,-36.35125153380182,52.943361704458404,106.63690410571976,81.91583968190899,-25.605465411938766,-89.53004529070907,-90.0,0.18036373699441513,0.026833822265437603,0.6041286303135742,15.074420304165834,-3.614894907505929,-4.740127484928769,231
-64.03736501548978,79.06328425101877,-36.93001077188142,53.42638411235112,106.24159684381073,82.03726832558354,-25.92780745353445,-89.572119700149,-90.0,0.29902138097900555,0.2311991479488891,0.5842492541885272,14.392885414547955,-3.482599000953031,-4.651426787871618,232
-62.8197760303148,77.87959974020531,-39.821150055101235,53.69166546866721,106.56228615098038,80.73007296833478,-24.544742233254652,-89.81645361378958,-90.0,0.44531114481910833,0.40866025006298906,0.5737676829015517,13.706335480936227,-3.4078058857718982,-4.607621214393432,233
-62.26450786412646,77.3879440175563,-40.31871635497153,54.019628497060346,105.94221141052395,80.69640786860555,-24.822487704336602,-89.86794661409043,-90.0,0.5161198614974485,0.650981744776339,0.574902530297479,13.048884909021375,-3.4308114219295507,-4.5687300480589315,234
-61.78276466827129,76.85301158278365,-40.75616857664568,54.34201629988113,105.01404796925748,80.5498442320762,-24.91028964128819,-89.6142056416474,-90.0,0.5423541990613119,0.9246219544041533,0.5584755773507649,12.428992998213499,-3.394327299603038,-4.529557818417661,235
-61.214296310231965,76.33736024794096,-41.14571766882319,54.49471325745436,104.44151677056063,78.87034753625231,-23.09820664479799,-89.21204911100571,-90.0,0.5979186219593253,1.152825727489244,0.526970941542372,11.837290884187992,-3.2937359500797574,-4.513735115036271,236
-59.81052159382159,75.11597446174592,-43.90192761573313,54.543264060352826,103.30744031239361,78.56339298789054,-23.087648299451363,-89.10068007967898,-90.0,0.6915883930265384,1.3334830692306248,0.4799243921044302,11.252119796092654,-3.226547775379271,-4.485389486550963,237
-59.04559760994312,74.63214902154265,-44.19955026923014,54.44070874751174,102.96246570794767,76.8514939901041,-21.3356198719281,-89.46371262333896,-90.0,0.8447165539366447,1.4596030925748973,0.4167155966019713,10.716746584569492,-3.139467539897974,-4.4913415772310685,238
-58.21230669277708,74.03474635511765,-44.4434011447779,54.31975239874784,102.40414874314425,75.08084401332525,-19.483824620294588,-89.67378474171299,-90.0,1.0041961337819822,1.5144285214448514,0.354507565518513,10.241312782833583,-3.036071159912972,-4.458203409590199,239
-57.340338400418105,73.35526086005073,-44.57712030076402,54.1913898537017,101.00465455143375,74.58467732982126,-19.198765764139868,-89.66043323942787,-90.0,1.2029135468593746,1.5440320798939255,0.3547398470471948,9.862383878264636,-2.97944278347204,-4.489202937238093,240
-55.78612692083242,71.89458679152253,-46.9727180898731,54.09283454960728,99.82839077430853,72.4819755514827,-16.911554239782912,-89.58411851491041,-90.0,1.4087318735428636,1.6378681270182676,0.36325419177413437,9.616953129104541,-2.9938659117466675,-4.56789926311913,241
-54.956925854193955,71.11514615746803,-46.986926948889824,53.900021057432895,98.4719111536911,70.34931788020576,-14.53115316057345,-89.43186168660527,-90.0,1.4961365987754704,1.7829422465041536,0.3468456367461278,9.34565863972538,-3.009427088383966,-4.589306648657052,242
-53.947173023901534,70.41717589262939,-47.11826298070487,53.446946560535636,96.79918938552883,69.65093977919713,-13.83795550176793,-89.18127765336946,-90.0,1.570484827465914,1.8118391199244517,0.38364525185136994,9.025426036784925,-2.8560510357753457,-4.613709851792036,243
-52.976409286792865,69.60492878272218,-47.013120039133646,53.001683189953894,94.93860927656604,68.23711361697569,-12.153753192816179,-88.91835817786338,-90.0,1.734872854854726,1.7587759526800508,0.4250796392376057,8.88452998533943,-2.715613163159723,-4.722201953300263,244
-51.09688897339313,68.06512200501906,-49.41324997700841,52.491731533263085,92.70248084386351,66.89660089789038,-10.38453914542959,-88.49286342525787,-90.0,1.8881958017476057,1.776837767797226,0.46181910864992454,8.747161501681164,-2.721566972895615,-4.785168640717484,245
-49.88484171236948,67.20248019066588,-49.434690298957484,51.74109588705214,90.43030500571028,65.64330621208293,-8.605085901613137,-87.9254546202589,-90.0,2.029229638067467,1.8184230710467086,0.4748876019301329,8.572510381673002,-2.7189577967220084,-4.753842287626782,246
-48.7877660962723,66.27313836740932,-49.363599916657016,51.016919524640215,88.09672307238944,64.41400104574292,-6.668716251051795,-87.27603421385412,-90.0,2.1816114837592124,1.7860036073834413,0.4853630866889751,8.49318302134162,-2.656831751510723,-4.729892846261421,247
-47.49643183842165,65.41291615265835,-49.28504992343632,50.088133972286315,85.65785286003279,63.17458916278602,-4.665033367292967,-86.59309867222936,-90.0,2.344577988748996,1.7689741195652242,0.440498822396897,8.440072985709607,-2.658846735450859,-4.681260951886236,248
-46.088733946029485,64.58411403370725,-49.20923850416884,49.00014645660618,83.08854219534963,61.93060515268244,-2.5829211693559775,-85.77438979130407,-90.0,2.501148914094756,1.7839032699583866,0.3796388479851084,8.420858357766061,-2.7096121782871654,-4.619664496943896,249
-44.0454152298597,63.123699408344685,-51.653421597556665,47.97453069894932,80.26863981707227,62.20146788860858,-2.280118952409638,-84.91472514281969,-90.0,2.6718331487139158,1.731680907583793,0.28116564608450323,8.458902247127996,-2.6749588686407786,-4.541235046506829,250
-42.63056188172866,62.24347376180449,-51.55613369802244,46.88239178665046,77.43742874825956,61.114978301157926,-0.030426394516845562,-84.07509513766416,-90.0,2.9009653619129474,1.630850446199561,0.14270049218804395,8.49380071390824,-2.642633270442964,-4.412309171017052,251
-41.14001898062766,61.336708352110264,-51.432840192953456,45.77049150767122,74.46700696075017,60.07140283110146,2.318091549332674,-83.19855929251493,-90.0,3.165338201622073,1.6826669342134664,0.019325716039294685,8.555166054034364,-2.826515230734498,-4.308070208345276,252
-39.54266232425475,60.619091412706524,-51.46570829752642,44.2615542153929,71.66160679488556,60.48394842955507,2.63574473838618,-82.21750823834181,-90.0,3.24724771915665,1.8379832962478566,-0.07024872544730698,8.565433985268982,-2.9783494352807436,-4.209789523053156,253
-37.8994866641312,60.05841436991496,-51.59956352419498,42.40313901532033,68.75031088906366,59.55128344127171,5.018348603832581,-80.99238300538941,-90.0,3.2287151424928298,1.9164555248861865,-0.15594294312901472,8.576083901809827,-2.9204240076687182,-4.110047177149091,254
-36.33786311545312,59.44738482344012,-51.63790057748673,40.665238527909445,65.83038140605687,60.05083931186958,5.511400003654281,-79.63371116127261,-90.0,3.3102214512437462,2.0107995208305423,-0.20331363489141857,8.64305772398854,-2.919274321786743,-4.100880011168371,255
-34.776052517349974,58.96562007837185,-51.667057061463616,38.64784462396449,63.01130045532602,60.48779249070043,5.992922855611839,-78.34518327135197,-90.0,3.36330459591583,2.0871474956597926,-0.20020316713420608,8.704359810010871,-2.876136242492448,-4.215116542062996,256
-33.17236119269018,58.559998595431146,-51.731125288452425,36.41485645558984,59.916773795769366,59.98389726257982,8.127245020380892,-76.787931116791,-90.0,3.4232102632608075,2.1682449513464435,-0.20011761704347772,8.799361610263082,-2.8413736076484684,-4.32791670021643,257
-32.105412831993604,58.58674323176416,-49.23376995547441,34.081161138765744,56.7696910751473,59.87398744484923,9.818015552310305,-74.97189711958397,-90.0,3.472232669689359,2.3325370327145123,-0.17792996975831632,8.885191838744811,-2.8754273152185235,-4.433936703884048,258
-30.330727854017248,58.22703942533707,-49.48667642671544,31.57976730577653,53.73868286224537,59.833802851728535,11.387595591555014,-73.0656905986037,-90.0,3.387729312849582,2.488671558279847,-0.1462693016433186,8.928733403019338,-2.826386883133562,-4.519833612820752,259
-28.75765663767512,58.375877493663445,-47.262828060416595,28.703940726119974,50.90036992060682,59.86233080655879,12.79538783390258,-71.11134112537425,-90.0,3.353313795171866,2.623621603761013,-0.08411806944969463,8.988601236446751,-2.7721602568140122,-4.617715028589284,260
-28.184177634720072,57.68921498800956,-44.4930416694102,28.298822862089697,47.92237888275782,59.990684087368095,14.355484272640433,-68.87827401556845,-90.0,3.3440701699707835,2.7790696056259945,-0.009612009264820455,9.119196970013805,-2.7387255195019082,-4.793408160658949,261
-27.295861948240702,56.54873591909324,-44.51302836866455,28.29882286208962,45.25329468076677,61.45191923441968,13.650105406652719,-66.18915848885274,-90.0,3.219196194207218,2.905091792835212,0.08259441191078462,9.179212322900066,-2.6249917734916925,-4.92289941789701,262
-27.14167598452172,56.26041073977336,-39.408221454325705,28.298822862089594,42.283840542353744,61.76301238568579,15.156450245167365,-63.4101966949879,-90.0,3.169557934815615,3.0419524187917237,0.16169754630052774,9.204216929004213,-2.552032472394875,-5.083318109669449,263
-26.505835089343712,55.66365116607748,-36.96845204462555,28.29882286208972,39.43427913256599,62.12047324148666,16.58155764192027,-60.74956933271578,-90.0,3.1095935568447746,3.211526077678796,0.0938056358294971,9.260678043861649,-2.5202596785752367,-5.102605813287408,264
-25.87050380971782,54.95019914473538,-34.57447913042764,28.29882286208985,36.185257468997605,61.71923762042972,20.332661859651154,-57.78868873981897,-90.0,3.0324141318336792,3.4332134200972524,-0.018387691778131387,9.403511320232484,-2.5757341324556187,-4.992381132471752,265
-25.477815510793217,54.8006162083705,-29.83940852552389,28.298822862089825,33.640768562846176,62.32243904679455,21.473626188333643,-54.73900559519474,-90.0,2.9165480527280097,3.6573143442389813,-0.05962963087607918,9.425119270239351,-2.5656476788798876,-4.885136235505295,266
-24.99226061732068,54.84940528959262,-25.23489668496907,28.29882286208972,31.338596688989877,62.81679399276076,22.45913110451272,-51.729605693846885,-90.0,2.784640844201659,3.8113651132577915,0.05175874760411191,9.369532487411872,-2.441015447209722,-4.954157440354103,267
-24.43987190657096,54.97848929626602,-20.615017374428593,28.298822862089594,28.679754609225036,62.39882913675898,25.837779740592683,-48.91912214229771,-90.0,2.69260511185846,3.9502170394008402,0.11946002024750758,9.323956249648885,-2.356947543300692,-5.0483495027880405,268
-23.662933484338275,54.582187239352095,-18.447915620102872,28.29882286208962,25.935019300209795,62.130075064879314,29.304171147928272,-46.04782911617645,-90.0,2.6226367732040696,4.155194127891452,0.0430493836253944,9.310772624074094,-2.363443685314684,-5.034398011836196,269
-22.886383842638676,54.855462827952294,-14.10188468423121,28.29882286208985,23.543067379265192,61.786797896411045,32.50733678063067,-43.47133051949349,-90.0,2.4994978641304924,4.365000822107213,-0.0316433366395826,9.169884808309412,-2.3275091920064273,-4.9181136461682,270
-21.8915965220857,54.69113434278773,-12.283620304698271,28.298822862089697,21.242879055887776,61.45582003630484,35.67759591478546,-41.11621177443007,-90.0,2.4093901369934954,4.546675407856093,-0.08430732294423772,8.972094072233666,-2.2554439303235245,-4.8184253248803905,271
-20.79969462389523,54.64354887969292,-10.576389231453087,28.29882286208985,19.69054469558877,61.51293967878094,36.14933121733581,-39.26604914386913,-90.0,2.41204156073854,4.6925587232747255,-0.1263240568540546,8.704814959557007,-2.1552725220321243,-4.708808570783545,272
-19.571565475949814,54.09489457773581,-11.251547173040695,28.298822862089924,17.66159742960915,60.78070146736997,39.15379722012292,-37.778840911380755,-90.0,2.426427877322672,4.8248683398532775,-0.1807282875472744,8.46667691618419,-2.0922458140048747,-4.637535804451452,273
-18.2538588024644,53.628524560708215,-11.975610460003331,28.298822862089697,15.734392787668083,59.87950245385925,42.1196246518608,-36.83808284147833,-90.0,2.426073851972023,4.984263136204717,-0.21493923106096183,8.142112774266199,-2.093558406522973,-4.598015328807506,274
-17.029164605532788,53.20836278006568,-12.66608172300219,28.298822862089825,13.828040904714902,58.941748836589376,45.15905157092013,-36.19822152303112,-90.0,2.4262198275760407,5.13107105411487,-0.270350080544309,7.751000277871665,-2.0383269798093053,-4.56817232639223,275
-15.691511154543544,52.85117154495344,-13.520866545485879,28.298822862089594,12.55294373011955,58.37209248776265,45.49844247277481,-35.75427822003269,-90.0,2.404716685501337,5.250660708634981,-0.32967481340626337,7.292996747275158,-1.9443262008473847,-4.444713157679422,276
-14.066848384325374,52.07023388913805,-16.979381233618746,28.298822862089697,11.315958375154624,57.79922343536407,45.774537178898875,-35.31810888541331,-90.0,2.370469879466627,5.3697349909353855,-0.36008974367121316,6.777793314596462,-1.8662054441639702,-4.269487266711872,277
-12.441495547015684,51.911855103225754,-18.12305001259224,28.298822862089924,10.477112974858523,56.87888655320237,45.80644856270137,-35.74554808031681,-90.0,2.3813017289130936,5.382516051221048,-0.3643163361426164,6.18553573622485,-1.7057451880189125,-4.060302689227497,278
-10.771708802760681,51.62675070380212,-19.233864089822312,28.29882286208962,9.466683947358247,56.21134147796429,45.97298345858347,-35.938727557511015,9.967766601020601,2.4112374761615367,5.51593906440978,-0.3838221218017588,5.723361197473473,-1.7193253603390828,-3.86048768056441,279
-8.991860900232163,51.38786908645018,-20.533151367410003,28.298822862089697,8.648735983089562,55.611675355486156,46.0733767938622,-35.75392270598314,5.361437801405259,2.3788037870079557,5.614195269870858,-0.32566388354059067,5.255594033173248,-1.598958325272787,-3.6619859123771095,280
-7.470829738123476,51.424361617237956,-21.518840331174395,28.298822862089825,8.477402888781542,54.98206597554313,43.619095110116014,-36.58367517159201,7.336710099990808,2.332164903425631,5.860085676658629,-0.2968212779733613,4.580988553027045,-1.6466485468332008,-3.6374596706821976,281
-6.190581009584236,51.75296479622963,-20.07353349987849,28.29882286208972,7.811359471234368,54.09294732714322,43.80360351604033,-37.23813774066209,7.67269491444196,2.2284720461863383,5.974382127721086,-0.2764293660443232,4.124421153126812,-1.499881615213034,-3.551862128583482,282
-5.860326787221642,51.11749813789028,-20.265883373774148,30.563974964219064,7.511803139018809,53.7863269246795,41.47952231419039,-37.96994759278086,9.18585713903728,2.2103925358821295,6.050025874958255,-0.26076391075977,3.720129586903683,-1.4223586447182286,-3.5498431492261275,283
-6.047571377754524,50.19252957551041,-20.064808156056795,33.767543939022374,7.308250253683107,53.45691109950124,39.0930338832454,-39.20625220979167,10.121865637471478,2.293232634420297,6.041171358924838,-0.2636289810164981,3.3541316590294983,-1.3372297604854615,-3.5547238969618196,284
-6.593439235633691,49.823899530234875,-17.32875262309798,37.27359601108379,6.668155744000516,52.52969877577135,39.19698945655688,-40.66620662742973,9.085154420037556,2.3639144999082227,6.037194456746994,-0.27651755069983913,3.0115629144468583,-1.3060157051314802,-3.473648133573409,285
-6.680648437525584,48.950253940900865,-17.24698148638909,40.60867847004113,6.8942209640091,51.964709437460506,36.44544699223523,-42.52929792337018,8.100282783868133,2.4484971711959624,6.052639058792306,-0.31920468705414834,2.625628151683049,-1.2836962270241057,-3.3067122400464095,286
-6.6913675743291465,48.0306670522412,-17.1667053270584,43.69575874202732,6.599369173009804,50.76592617771664,36.34671450745901,-44.698561813511745,8.358314259229521,2.6081623214682543,6.065250251353538,-0.3773124186864973,2.2859486918229504,-1.2554514449568523,-3.1776535022116326,287
-7.08194567371588,47.79792347284193,-14.49821107523573,46.725738199686226,6.752936847680715,50.47611411845176,33.73211995507021,-46.74232092352769,8.636494777915866,2.917866653763606,6.002366476924251,-0.4156704574239928,2.076023450105124,-1.1839493701924635,-3.1325123165408044,288
-7.301990271817846,46.548016783457584,-14.098866499161222,50.17798455139546,6.786116572105144,50.21560933323017,31.11019577273396,-48.925805767675996,9.454529021753993,3.1889336472041103,5.898554321464155,-0.48690815579553515,1.8997560634506776,-1.2271712963814987,-3.0617250854519775,289
-7.452612131070243,46.46273873489344,-11.628406214585151,53.246755186761014,6.610018178572717,48.90641921089833,30.790610498316624,-51.48644166205928,9.151204980110462,3.3678207040748096,5.775967674639213,-0.5478760284251412,1.5740026755981857,-1.2160043686148643,-2.873300458098924,290
-7.44065585603842,45.383927777018705,-11.484522624061892,56.37053202975663,7.040956040685766,48.55033310442759,27.877769142301556,-53.91048338165359,8.991818151229587,3.545691344315596,5.643143413100534,-0.6231845408962043,1.320078338272954,-1.1944840325693606,-2.690852102246992,291
-7.8201069975295106,45.23888981969621,-8.851303835431562,59.542995516522105,6.743179743049722,47.46623415467312,27.696776274254834,-56.1815911548451,9.679805906284146,3.784979429661475,5.5400621061334325,-0.7221260298285805,1.1176351711178303,-1.2122158292702776,-2.5305463451896366,292
-7.9179033696412855,44.01501666909909,-8.617324502003257,62.617098968859395,7.089915835886625,47.27498097881436,24.886624363720205,-58.51842367294245,9.77423879985428,3.948293537864546,5.485964084534853,-0.7816872830319188,0.8755574683056707,-1.2610349286561067,-2.3935241595521384,293
-8.18179745411772,43.96211375247939,-6.205737678408939,65.553758279834,6.943932810263863,46.00956861632006,24.599337738652093,-60.93048764322825,9.76386605956909,3.9787293551062017,5.4927569196512245,-0.881487340360569,0.5910990861454849,-1.3078970079630912,-2.182991761774638,294
-8.292329754132279,42.808739766507685,-6.050042755395877,68.27780411479374,7.457738638536154,45.752803039946,21.78962528699655,-63.36289813824435,10.6160766891758,3.95686295399742,5.441154546065007,-0.9357452839267547,0.32882397363746224,-1.2349851738403825,-2.0685441669060616,295
-8.604519698578256,42.762829135772336,-3.588202859494162,70.96267420553183,7.136931240161359,44.82296406468709,21.725616566461053,-65.55116301296461,10.862494311800004,4.095116560424753,5.323307798161772,-0.9763918116016737,0.14870270227766738,-1.164106632882857,-2.0215623094238446,296
-8.605071036695128,42.74724920773055,-1.3996352222812025,73.56042488190914,7.566047546882083,45.11892946956906,18.944086933432562,-67.82461286036889,9.742974348151234,4.221783955511035,5.206225745627322,-1.014752893293488,0.030641105504864655,-1.1624731346439598,-1.8931690093400635,297
-8.5779983261899,41.25178037640513,-1.2531220710932365,76.08024489605498,7.77150000715363,45.502727750878464,16.388559222176603,-70.00727807082849,9.635911525092073,4.334431636762517,5.076398058283253,-1.1006955677784571,0.004856258011191294,-1.1448577742330874,-1.7760157994519705,298
-8.345869398619927,41.06118630435984,0.7751517654429654,78.36461934501561,7.523830573154192,44.6369626282058,16.25030209436859,-72.34325132213897,9.937219221943241,4.50746202261615,4.9883958408501465,-1.1730364517888088,-0.06182802999178894,-1.1869722221993144,-1.7064615385778241,299
-8.271813765953253,40.09455895961386,1.7499590424172347,80.72953247002319,7.764805415030675,45.18410171039749,13.798419021437462,-74.51370066437677,10.915733722714164,4.504468152299698,4.912583869351631,-1.2337468887285556,-0.0386140546075927,-1.2022493794542075,-1.6767537541591142,300
-8.13033813015834,40.362298754009096,4.16180947680494,83.01579187871026,7.541711584651914,44.512861519677436,13.722881736111473,-76.6156845105253,12.545125396038108,4.415716774718274,4.835601072148658,-1.2740351544575803,-0.029765941513328637,-1.1923177070286584,-1.6405777061544258,301
-7.998176745546062,39.27158598313254,4.675778167800021,85.1826482298496,7.401362007722528,43.777480264972986,13.544399201324518,-78.8189324059425,12.810382819035045,4.37399619641763,4.778609908533617,-1.290522431114848,-0.06739364572699243,-1.2189240129007322,-1.5905774224258986,302
-7.569741524587439,39.6548773229764,6.833604645691285,87.26757601934978,7.7960986500619835,44.44143540585136,11.036773271284789,-81.01004212956144,12.701902692454755,4.312414525823131,4.6989620366072735,-1.3244611049037263,-0.06921628995562369,-1.195179081593311,-1.519446141305205,303
-7.136557399727647,40.091293364118954,9.05426312668972,89.33253419449574,7.641846375366422,43.866003378197995,10.930841932748091,-83.03223399507611,13.747280015950246,4.235781827713327,4.579892326306158,-1.3937674872030907,-0.04524884795759309,-1.1552054224856232,-1.4498750381180325,304
-6.874130444561369,39.12956497812856,9.521714391566613,91.2316735601825,7.551393774152226,43.285313263731716,10.718415022071484,-85.05312866757376,14.006698433496616,4.178893505594935,4.544626756195342,-1.4547917062132358,-0.06719096648680872,-1.2393737540463245,-1.3387102270476683,305
-6.101011420890363,39.70649674359336,11.317113563288363,93.02945300290098,7.9579409012812965,43.84098241828298,8.791641648043806,-87.08645081942723,13.1527370320345,4.074080976682901,4.481472223227658,-1.5027981286209477,-0.04430487516938347,-1.2265676226515034,-1.1976696192604805,306
-5.877728143540839,38.81926684608144,11.737653546680725,94.84765574892518,8.145406126682134,43.822816441372225,7.891269932228056,-89.1951003633911,13.039336689053329,3.9878919426189174,4.2521210252188775,-1.5717423695927657,0.008485161298867621,-1.0953392219819034,-1.0873657569751658,307
-5.324704326250358,39.56328343701563,13.945658484097677,96.78377795630794,8.030010014170387,43.891565701323934,7.216349492237044,-91.32120257255218,13.721874677021436,4.099329194944967,4.0445197125963395,-1.6295933760401038,0.06803668802938545,-1.1397048674568815,-1.0770057797123171,308
-5.256232722087909,38.828101759304985,14.646461957808095,98.5998351948503,8.160221356546016,43.9533263062759,6.451737904879159,-93.55795828189896,13.858771450751114,4.12966878469763,3.9610170135232443,-1.6556055342250213,0.10673843689811068,-1.297528651802818,-1.0535392743569467,309
-4.657733968233497,39.65933252768138,16.63626942988727,100.36636606019914,8.430874396915954,44.125052763821024,5.808626674158061,-95.6582146157572,13.872033825662964,3.9490877247165197,3.9001644718361,-1.6975928088587091,0.20711404562874658,-1.3637758202278603,-0.997641762692381,310
-4.848717142355006,38.93009712610202,17.44286375980971,102.15504630213134,8.79890480571379,44.32828889062802,5.242115180005549,-97.65734204432951,14.782897328500411,3.744444788341404,3.8541324207004584,-1.731659595361379,0.32914351408882914,-1.4106157737027272,-0.9539810215842189,311
-4.519400062585421,39.910547754262396,19.61673578204457,104.13016654901725,9.250846239632706,44.53426070581534,4.768593339981034,-99.66213441277898,15.357486124396857,3.660312785680147,3.799184570971622,-1.803286322169229,0.4412767849137268,-1.4365194033596378,-0.9058385341223033,312
-5.0310761460729,39.5341794726651,20.604424197148134,106.03094934515754,9.894135262705735,44.652213093684935,4.123176789642862,-101.82134045057975,14.709216726535306,3.65904316639322,3.7039044482243915,-1.902989271422502,0.48589632194811216,-1.4670487957538323,-0.7729351171877971,313
-4.524448168422944,40.80656001493926,22.506704739137444,107.76852539722748,10.535182765003107,44.77189879574505,3.444835946463252,-104.02241024772093,14.991114381407346,3.613103936627538,3.573934185694538,-1.9771475142884356,0.5491663174211652,-1.5043428652548907,-0.6687793593150133,314
-5.2301149431950416,40.39422924850489,23.75847531062882,109.53581248077563,11.094528597119206,45.02009525776166,3.087269639555682,-106.11396394144498,17.28056745705036,3.4722859814931093,3.439155589176007,-2.0187786131548418,0.7022524986369624,-1.515877902174197,-0.7021036996379638,315
-6.225795281670414,40.11974426484637,25.210033127342324,111.40804068441183,11.811591373927111,47.04603377697311,1.20382901524608,-108.08927149161097,19.930551276668993,3.3217579615917763,3.2996931240425287,-2.0771302357106767,0.8647141417920651,-1.5026252258831017,-0.7559554270561956,316
-6.03514846205468,41.612449436809975,27.369944755261496,113.26405879705219,12.583949876056229,47.293441594783296,0.9779522710691173,-110.0972907493428,21.233568993794222,3.2660501620642526,3.1451939730755476,-2.1588565970802365,0.9951698824804379,-1.5367208981079967,-0.7464191909608768,317
-6.967173824266817,41.58471813852739,28.756960132606974,115.03298441022196,13.380771124241068,47.504617822407354,0.6712579271900515,-112.08988717466606,21.341217876432808,3.239191283789479,2.992822480268012,-2.245721461907187,1.104274285135111,-1.6248584586395718,-0.6861584144039163,318
-7.957740499781659,41.804159605962006,29.972286419530022,116.68936133870415,14.438902399239204,47.70116922013194,0.3784046074949275,-114.0578419285746,21.11016720978629,3.1542713532886606,2.8722259648124013,-2.308826398784763,1.170396130001475,-1.7062034920270963,-0.5996640983766,319
-9.158657563881937,42.25866480999405,31.19051064409507,118.28421464122871,15.559761611273421,47.96560882380105,0.3781029420940144,-115.90143289522231,22.48008080994737,3.038532432847423,2.763884961135784,-2.351401938231341,1.245398901237644,-1.7644424254914242,-0.5806163269303176,320
-10.458213612679199,42.7392416791265,32.55263012514997,119.86452986757577,16.612056400013653,48.29832190291268,0.625603649673971,-117.57420172894142,24.452420069527214,2.8940853688313375,2.6219952595289264,-2.432578423147933,1.369116261980617,-1.8102307155982982,-0.5725588227112326,321
-11.701338607526205,43.42438834630393,33.7355398329342,121.38007403216794,18.002552748694395,48.57017712253982,0.7344353720119602,-119.32105981960474,23.868464917992377,2.7769696946934506,2.5150294748449658,-2.5349382012779467,1.452901254492802,-1.9143384213969936,-0.4733235722771081,322
-13.152423044202214,44.45683559962752,34.867267842260674,122.85354284572023,19.660537595934663,48.77917814935658,0.8801924940257037,-121.02866605791814,24.612967544021153,2.626411790410581,2.4516699960367876,-2.6432184661422626,1.4951656771675204,-2.0050074688721344,-0.38121881584869555,323
-14.66445216508244,45.792260275469346,35.86331161290512,124.19957657825198,21.406976217818347,48.93514266994246,1.1468536918838494,-122.6492437824163,28.32872417488637,2.4276614827112213,2.364237086099693,-2.780878104099571,1.4648299682956711,-2.032059553157134,-0.28688098321505795,324
-17.6431832948871,45.76454022978245,36.236878322121164,125.50783800164766,23.260048479870324,49.12070707976925,1.4504631524068727,-124.28751120029173,32.40478620864122,2.1903328359475083,2.2763693925978528,-2.889530484210339,1.4350698308909857,-2.0901646977570674,-0.19340495473044422,325
-19.156272350743983,47.39946009820973,37.06311618836407,126.7413949927805,25.30995286083223,51.27550147668501,0.4542950106148934,-125.79695676090904,35.54715575195297,2.0252071253249793,2.1595996431683937,-2.974351163536816,1.4591864460691284,-2.120634665254469,-0.15341056652087157,326
-22.206552464579474,47.82316523138632,37.25961326997626,127.95405974006889,27.432117653412057,51.53937778133308,1.1621037264559142,-127.08920750809554,38.527912167362146,1.9775127803785437,2.0626007165789444,-3.0689674960489,1.4328402211978541,-2.18229979369803,-0.12433767261741076,327
-25.272645787929047,48.54727978810307,37.32922035220856,129.04694261248918,29.611584252082057,51.71103300053065,1.8570763367589636,-128.25736079808996,44.190158324844795,1.9497883793154522,1.9636245695393917,-3.1733677729195566,1.3639315116434285,-2.227942421525419,-0.12769749889404172,328
-28.37281397557871,49.52999703198838,37.37063950076986,129.9723934584033,31.758215232620653,51.288777120116514,3.333027013060229,-129.1666557836518,50.140196404090894,1.9474515277064912,1.8315044887658438,-3.2586331607586834,1.332978326707659,-2.246264077820487,-0.17742635798543827,329
-31.25781478923202,50.74353196568342,37.036606338457304,130.8565433749183,34.096024325615616,52.96891315342819,3.322916473801659,-129.8809199767755,55.30368015940494,1.9428951589091155,1.7104142200665517,-3.322881813666129,1.2580307575210488,-2.2997448128262845,-0.21932657423929372,330
-33.242207670705106,52.6788203081017,36.176502980244486,131.5288016386849,36.5352325531069,52.710927328311264,4.830815539783483,-130.41611649173817,60.630487705151225,1.848774730952913,1.6416580054029644,-3.3661111854109294,1.0930460348473447,-2.359801286852759,-0.19087558125714396,331
-35.34371669875489,54.65667283674407,34.99682194765554,131.95510838200144,39.062759230601266,52.40091085988472,6.446157985850557,-130.68125912048626,69.78210093487793,1.7688806493427467,1.6399453128281996,-3.4019532338790905,0.902290593347403,-2.4397199215831322,-0.1587218954062637,332
-38.69393801169102,55.12600885341506,32.691125993129646,132.13219011260847,41.94237638337093,53.92316744930809,6.501031404573408,-130.79166229264465,80.98175820454018,1.7282669752242796,1.6202442027085295,-3.409068676589673,0.7082277032169186,-2.4462202332003966,-0.13134780359194867,333
-40.79815309928845,57.107152121924344,30.9274281830831,132.13800607953374,44.360210378023126,53.480852377176376,8.413810828494025,-130.74240123520792,88.95243524747606,1.766421334859013,1.498068431973805,-3.407072111055521,0.5863282539025082,-2.369535972120278,-0.13965595902570793,334
-42.87777133808621,59.12068438934696,28.902102169723634,131.95935485421137,46.97368720759135,54.730738454282466,8.676833101362742,-130.58904992678123,90.0,1.835397418153585,1.3679603058086696,-3.4002925561321757,0.4100500204253636,-2.3650754525210727,-0.1783881435976435,335
-45.88973166532568,59.45894920443802,25.45618063710411,131.5737377638234,49.57418804860126,55.890258147233666,8.997153982133597,-130.12658465490668,90.0,1.8903439245729126,1.3174346711615401,-3.3676547741959952,0.1036729333498617,-2.421762845443313,-0.23584747631882708,336
-47.60039056841622,61.24417918996096,22.41964433961006,130.96046503520816,51.89274200259074,55.155720157565035,11.03767731645967,-129.32997642966967,90.0,1.8981452407813755,1.248538010450355,-3.312190919200461,-0.3048133810835583,-2.390965207381532,-0.25294859846557305,337
-49.237557510481444,62.71481127727687,19.25066746918165,130.12255040748738,54.66557022300823,56.19049957026071,11.350735390261018,-128.39427739882368,90.0,1.9450682016135754,1.1557915886873673,-3.259963112528617,-0.737696887039326,-2.364560540900672,-0.27978370222330956,338
-51.12095894412542,63.9942050591546,16.198126182146936,129.188103273521,56.95523580513959,57.06664846695773,11.866912531639871,-127.20311592476557,90.0,2.0475411101868275,1.0553141263521457,-3.212822618696221,-1.1247841210224638,-2.3852807309447384,-0.3880549348679854,339
-53.08371458887673,65.01518495899353,13.144316267906126,128.48165007845208,59.10450181261844,58.931861700602866,11.443656140391978,-125.81937547392698,90.0,2.216300586346746,0.9476000823450371,-3.2092804060983173,-1.4592596030053386,-2.4569871220606503,-0.47043817461428183,340
-54.66472447104245,67.77180315193046,11.178409141629755,127.77050456348722,60.8360937481644,59.43893496815975,12.175801721697823,-124.14313767722251,90.0,2.3894886216209805,0.8211036732702574,-3.2117462086173774,-1.7898614939245197,-2.4192479230939647,-0.5718619031949573,341
-56.41856300711558,68.47054606358263,7.603411687982437,126.84771027629763,62.53256014686954,59.93248859730456,12.784822271692473,-122.35618572701425,90.0,2.518153272304177,0.7165245807477862,-3.2033323841338572,-2.1718933360366925,-2.415913031141319,-0.6802951186099113,342
-58.05727266820508,68.91150393866016,4.094152179430158,125.91252521203444,63.69309159740516,60.42112631777261,13.545164621399099,-120.36776861750113,90.0,2.7044297995276234,0.5933078038454123,-3.2488667361362724,-2.4483241116450407,-2.428583327347137,-0.8166584619080293,343
-59.42312677394041,70.97101900568933,2.1604640683946688,125.21612183360689,64.90376379292192,62.5956104278145,12.495814404910664,-118.31476948213158,90.0,2.8317932869912883,0.43095516938851447,-3.309615534217467,-2.6143049403271865,-2.496888389218631,-0.9886507158005428,344
-61.00903669016594,72.83672098686613,0.4449656034906961,124.7992887016466,65.52133073280811,62.85840087474169,13.19516985956134,-116.44012918838622,90.0,2.9975077404005166,0.24776349685965623,-3.3302025708257323,-2.7003743685967088,-2.5935695893269943,-1.2649741328628339,345
-62.65875662467238,73.66704053530145,-1.81472450358785,124.42114727092472,65.84131925224249,63.190792133993526,13.935347812931681,-114.31169982365911,90.0,3.1267470007853637,0.0535728430231668,-3.37936543609967,-2.74229418129553,-2.612453587436791,-1.462705791246582,346
-63.80720733730998,73.06987467916699,-5.122726038480974,124.11709780191143,65.45241852962947,63.67822017772323,14.753919194405576,-111.86807242519353,90.0,3.104984431558827,-0.08620139603728552,-3.3906164477321896,-2.706794256348437,-2.7309758496788943,-1.5656087764225477,347
-64.82431973465614,74.27947450921445,-6.8595294317503,124.1855704134921,65.00098418862434,64.15683551813292,15.397359522983134,-109.5245288121345,90.0,2.9369583192556084,-0.29985304833271204,-3.2993713310819053,-2.610833098419951,-2.8355386599309926,-1.6496311732131002,348
-65.91774647476753,75.46023497238212,-8.368395830887218,124.21927504245731,64.33285903123178,64.50212565272065,16.023852191488945,-107.39084400443633,90.0,2.9062715342896106,-0.5387202739020099,-3.211685425731544,-2.523303110297848,-2.935372740330732,-1.824741031599378,349
-66.34407234872727,74.56497924086774,-11.33518945429088,124.42501892097107,63.39739983043901,65.01286573484572,16.651573877296972,-105.01236183812856,90.0,2.7749251269658997,-0.8034467577626122,-3.1146352188106783,-2.33230147740759,-2.9900703454442823,-1.8315619641628649,350
-66.90501835213787,75.43467052618546,-12.536147768701278,124.83977807933978,62.24062046742348,65.52002116837231,17.267592293196905,-102.60837039530102,90.0,2.5986375003964093,-1.0880600680801258,-3.0154128060503558,-2.1201331299967627,-3.03033236235205,-1.8265774102890502,351
-67.33562546650302,76.31028250099214,-13.812393804913281,125.16834384374847,61.075861081025735,65.95462842412137,17.69106793110068,-100.37436934476806,90.0,2.4394650251062275,-1.2206492281717682,-2.9627903464267367,-2.054224890022921,-3.221068645247451,-1.7625901768596839,352
-67.0701375247733,75.30392478637513,-16.763416735025725,125.41552163683204,59.19462770329915,64.94057605660183,20.081294758201285,-98.02149227019085,90.0,2.3152427450431516,-1.2578579907142322,-2.9464064249121895,-2.0247867297839153,-3.3991166188828212,-1.5685903481073094,353
-66.92501435246243,75.91555649974299,-17.881837977862524,125.83274283549193,57.853428591729156,65.53432862552773,20.399662643343355,-95.6237444163867,90.0,2.1783270238148407,-1.4099970767647758,-2.918169706574378,-1.980379350745236,-3.407050666609536,-1.3123019844795936,354
-65.9105797906479,74.72530958251446,-20.669165991302478,126.3975588423102,56.559082191540355,66.02209478340507,20.5591134200169,-93.39913106120645,90.0,2.0504344464093585,-1.5532297268011703,-2.878771157159323,-2.016792902112112,-3.45500346564089,-1.0669582377692777,355
-65.53548410221535,75.3623892471667,-21.784578845994268,126.79506557479972,54.5206095738137,65.0105125245033,22.81158649180214,-91.14955997846818,90.0,1.9822486529449632,-1.623498218530839,-2.8551308397212742,-2.1559863332598668,-3.49038326866153,-0.871092402343693,356
-65.04124541826573,75.97873255559861,-22.82440919650048,127.07200082902582,52.94300832922817,65.44879715247762,22.987498873864954,-88.77008757862079,90.0,1.9699005464593349,-1.6573135330966222,-2.7987904218759514,-2.3123048193771534,-3.5195563957220792,-0.7334775218630085,357
-64.5677883488683,76.54592369507048,-23.69844024965786,127.47423878057465,51.13964986402835,65.85135362340317,23.238750234458504,-86.38327866221225,90.0,2.063472747013914,-1.624691286197684,-2.7507000634956027,-2.4429140395656135,-3.603640126918606,-0.6507294916453005,358
-63.11487731452787,75.38259830448257,-26.357535280576766,127.82815167746526,48.96965814024852,64.76622352340276,25.441480751474025,-84.29497258657199,90.0,2.1446396151790355,-1.5723059845899965,-2.6673331218144307,-2.740801643636505,-3.6059063368401034,-0.5778706127892159,359
-62.66492840174845,75.89327963506749,-27.207168465768657,128.22119894845247,47.4182918650988,64.98755385614669,25.48897666254248,-82.36235672423169,90.0,2.279160502846532,-1.5097489314803259,-2.577220767273034,-3.048391950191055,-3.574595339164131,-0.5585467631822045,360
