JMW9912/AVATAR/install/dynamixel_control/share/dynamixel_control/data/csv/poppy/.data/waist_test/2DoF (2P+Ori)/0422_2123_13_29_2_dof_waist_with_adj_poppy_bvh_motor_degree.csv
theta1,theta2,theta3,theta4,theta5,theta6,theta7,theta8,theta9,theta10,theta11,theta12,theta13,theta14,theta15,frame
-94.32656916508857,24.25396923394635,94.35497390174723,28.29882286208972,-77.12420071719117,8.438882592095434,-88.25723540928215,-28.29882286208972,26.292119648224524,6.000000000000009,2.8051766135533356,0.736096783755453,0.06106657397293583,-1.5574253403185632,-2.1207448039576726,0
-110.35690797826506,75.16582579416549,45.1753225805346,28.298822862089697,-77.12420071719117,57.91954684635389,-23.261582237330828,-32.898774722789625,90.0,6.000000000000009,-6.3309324053182445,1.361414638279398,0.4701826157592827,7.569447575639802,-2.7692810731423383,1
-77.76668504457865,73.0960830405377,35.13064086607541,28.298822862089697,-77.12420071719117,59.04660003254525,-38.73134137823672,-36.98503065980913,5.665693603618055,6.000000000000009,-6.183206202577901,1.3361708641701557,-5.482747019103492,-6.672359483164608,-2.9460520416559097,2
-77.46806575522281,71.58293524654057,35.038714842913315,28.298822862089747,-77.12420071719117,57.55286918470041,-38.91425573298496,-37.716367197203276,5.760603620151387,6.000000000000009,-6.0358412912571815,1.3462034182658573,-5.4441405293273,-6.645399678536349,-2.976000102553325,3
-76.93723668541257,70.50932386561212,37.219897931066136,28.29882286208985,-77.12420071719117,56.066031960334115,-39.2284564780201,-38.68361938112915,5.9758260224264665,6.000000000000009,-5.958337355852773,1.3833357503991277,-5.386415722056819,-6.528069893934458,-3.036448707327591,4
-76.69659922505134,68.819940530838,37.14509685879832,28.298822862089875,-77.12420071719117,54.60400667009374,-39.47059972902534,-39.57863138482197,5.619822809461665,6.000000000000009,-5.884290925277586,1.379497038346891,-5.325128010137137,-6.461881453041606,-3.009053693777865,5
-75.90650170751039,67.4757160275964,39.11855816212387,28.29882286208962,-77.12420071719117,53.71639739330041,-41.71228549590323,-40.43382366445549,5.108939710545041,6.000000000000009,-5.792385267034498,1.3506890022250593,-5.327524382773044,-6.410629841572633,-2.944847804679826,6
-75.4001572868256,65.82302299864956,38.80715289256157,28.29882286208972,-77.12420071719117,52.229089570904264,-42.09482341053006,-41.502732722875656,4.977669048907913,6.000000000000009,-5.678336706320956,1.338815744403698,-5.322239270601845,-6.3800227129799,-2.944927192646514,7
-74.57251633489392,64.59234440212589,40.68324470467506,28.298822862089697,-77.12420071719117,50.77549204670045,-42.58613564834631,-42.669470423238074,5.0370758299005844,6.000000000000009,-5.573398631949128,1.3277188661852934,-5.3200714927197,-6.324769043999504,-2.9545164466446976,8
-74.10598906695543,62.87549768439363,40.3354822256598,28.298822862089697,-77.12420071719117,49.30622704031249,-42.98007281738083,-43.86139907791756,4.982666309840531,6.000000000000009,-5.470637220380599,1.315762185057984,-5.298797025029874,-6.270678724261461,-2.9385904367465603,9
-73.2873280819558,61.48674341907061,42.1550556403816,28.298822862089697,-77.12420071719117,47.87869675442549,-43.36504133137579,-45.0249302393243,4.817531469511053,6.000000000000009,-5.348400401762459,1.2946109290096222,-5.276103136250268,-6.233998076389266,-2.894509785999553,10
-72.96550676053275,59.66530941413667,41.819693235850856,28.298822862089647,-77.12420071719117,46.49348564268198,-43.68311639222535,-45.99706852977242,4.448237562432068,6.000000000000009,-5.219242929110464,1.2950677123179488,-5.229811848984999,-6.157238898172758,-2.8411084652299423,11
-72.72138348430936,57.81479439285045,41.57941563826314,28.29882286208972,-77.12420071719117,45.68229702539404,-45.35462870484334,-46.74221827069086,3.8765683084733524,6.000000000000009,-5.094902733071808,1.288314896585893,-5.087229798915184,-6.066658200917467,-2.769599654582476,12
-72.03471061880136,56.45741320783797,43.441805489721894,28.298822862089825,-77.12420071719117,44.23841970190364,-45.36535353483642,-47.673839005600854,3.774847078501611,6.000000000000009,-4.933402824919772,1.2817062569946445,-4.938832531108038,-6.014534215142231,-2.7330972232936808,13
-72.01231197929728,54.919742971746516,43.23797531758074,28.88948694933785,-77.12420071719117,42.79551030098674,-45.427670167199594,-48.694227412066375,3.6819521022166497,6.000000000000009,-4.739813104525834,1.2685753327699216,-4.827588996808009,-5.9564152831617125,-2.682278369864298,14
-72.44319321380048,53.61001468754613,43.31204407332397,30.321036718975705,-77.12420071719117,42.032548761092315,-46.866575896124566,-49.68208799149166,3.3786963039164295,6.000000000000009,-4.594318544282668,1.2390609302738715,-4.6924812820911574,-5.834266478949365,-2.599776355805035,15
-72.43494279079917,52.77373814574436,45.52384116031712,31.751607340953708,-77.12420071719117,40.617492090805854,-46.60608960692589,-50.578620347367966,3.1642011609482066,6.000000000000009,-4.500847969761316,1.2536511784982323,-4.524032244205622,-5.691177160205506,-2.560418819009667,16
-72.86375629739561,51.57498186850605,45.656812003908954,33.16500686636421,-77.12420071719117,39.100188619888215,-46.21717620695905,-51.318965025019814,3.0084181655208697,6.000000000000009,-4.327650508092064,1.274136780063315,-4.364675104494906,-5.647315349335128,-2.540724800412648,17
-72.6111519102746,50.77750441901701,47.623363247828266,34.24985095657645,-77.12420071719117,38.352604139736265,-47.27909315030974,-52.25255877317047,2.8569017601352775,6.000000000000009,-4.135227478171134,1.2831361871893372,-4.223237855153542,-5.537199140066112,-2.5239659218257864,18
-72.97462079970008,49.46434991083035,47.65666264182468,35.27599126000098,-77.12420071719117,37.19526043938972,-46.95031000964986,-53.246965367942344,2.52028364068289,6.000000000000009,-4.045054600334569,1.2680922034790492,-4.064547938541247,-5.331756947643567,-2.4493562028537657,19
-73.23393486228638,48.22826355540513,47.6548136705062,36.41970071141605,-77.12420071719117,35.96158472597502,-46.714512325061264,-54.158848656882846,2.3493393158449707,6.000000000000009,-3.963477527152299,1.2821823153722747,-3.9463061811128775,-5.215417084149871,-2.4076261612541527,20
-72.88916436880189,47.556084427944654,49.57370701572675,37.541471502937775,-77.12420071719117,35.31123747160002,-47.50749255666376,-55.09250745303836,2.36321545230113,6.000000000000009,-3.8721204106588694,1.3121983809581723,-3.816327459054772,-5.088012866554454,-2.417860263532047,21
-73.0402079791459,46.41777230391539,49.44031432143347,38.608597079944225,-77.12420071719117,34.067213489009994,-47.15922178314789,-56.05720475579901,2.1067341590880964,6.000000000000009,-3.7278190164210248,1.3147236973388974,-3.7245638679740085,-5.003556933568709,-2.3932921101559343,22
-73.1930300224848,45.35175552202055,49.266752981360625,39.751674981523294,-77.12420071719117,33.43112036275738,-47.814680156532965,-56.96650674190282,1.9445432716319198,6.000000000000009,-3.581559468559812,1.327567586219144,-3.6569334532003013,-4.897217632264286,-2.3786010735757404,23
-72.42896283375102,44.74932196340177,50.75331211348139,40.60515827352827,-77.12420071719117,32.22156395707033,-47.67710770008983,-58.02033472494645,2.213676442154601,6.000000000000009,-3.486565392535883,1.336671092012236,-3.587093185812851,-4.750393516151824,-2.4066023545759982,24
-72.2826425940585,43.47606947464745,50.395718833886,41.452018179848366,-77.12420071719117,31.09014992583769,-47.384484241810014,-58.949135579448374,1.8917813214115677,6.000000000000009,-3.373261650505071,1.3386490658287997,-3.5022028747969505,-4.697751351173185,-2.369692269092746,25
-72.30300722078326,42.25679526137248,50.189484588936466,42.453023570415716,-77.12420071719117,29.889051395863273,-46.980228194557824,-59.80067928293421,1.874887684471979,6.000000000000009,-3.2663352542037076,1.3738755366770725,-3.3863936583485654,-4.639442121549857,-2.374296612602968,26
-71.47592963997454,41.62195976648268,51.66817444705943,43.27269601699697,-77.12420071719117,29.274657403140345,-47.288223898884276,-60.83991759367418,2.450626705434237,6.000000000000009,-3.1528194819304276,1.3693554043206202,-3.247699655866875,-4.575653178420321,-2.4326217496503864,27
-71.5377358165288,40.339270100330495,51.46077710698775,44.03991210705113,-77.12420071719117,27.988763990660097,-46.69309953757092,-61.803469577796406,2.5229321187521276,6.000000000000009,-3.0033826185086325,1.3550456720454456,-3.1296452213397665,-4.506716292460976,-2.4412639312833133,28
-71.40930996996484,38.995557726821126,51.00449737757502,44.712265594668146,-77.12420071719117,26.742885530386218,-46.40583601563926,-62.761387437813454,2.5563865278257496,6.000000000000009,-2.822490099718914,1.3964536937346328,-3.08212816933014,-4.429746725014454,-2.481554184022783,29
-69.99804665879957,38.120658266538655,51.686310093085226,45.468588586790744,-77.12420071719117,25.615249082115994,-46.50968017993723,-63.763443221568636,2.3124765499840882,6.000000000000009,-2.677098279175108,1.4504685940245436,-3.087791232574198,-4.281019432893489,-2.507376101944897,30
-69.91506424658147,36.76962923945204,51.27028438086071,46.210235385197905,-77.12420071719117,24.19730186617161,-45.92589802306773,-64.73874747539672,2.5585344248293334,6.000000000000009,-2.537580886371475,1.473717714778471,-2.980996268883291,-4.160487548811084,-2.5869312162680687,31
-69.17142306336221,35.77375988272722,52.21913973012883,46.82087210427502,-77.12420071719117,23.29109906747058,-44.387000128039446,-65.46653268260454,3.2336747784647786,6.000000000000009,-2.335156270293143,1.492962094267306,-2.79471099141602,-4.103816911238813,-2.706402312040486,32
-68.75484506295996,34.30573132368886,51.87871544619983,47.346388593023505,-77.12420071719117,21.68095419484361,-42.642100266804874,-66.12207611600401,3.5426285166416625,6.000000000000009,-2.1400897478420817,1.52547681285803,-2.668645623698578,-3.9852574460503827,-2.782072375403113,33
-68.3150420591559,32.78888795702679,51.55139596960827,47.90058032998901,-77.12420071719117,20.098316915969754,-40.798945309398846,-66.87829042950833,4.032770943135925,6.000000000000009,-1.953016577732718,1.5611709720476357,-2.5336133487136303,-3.876603654742209,-2.8673668367532175,34
-67.36068910615906,31.258055432178942,50.67844237219202,48.42127937487802,-77.12420071719117,18.470558435486065,-39.24977528033979,-67.70203536513034,4.474255362926766,6.000000000000009,-1.7600289958876243,1.588721277134995,-2.4953553098685948,-3.7847170888270085,-2.9478723235873967,35
-66.18723494272042,29.633480316500798,49.59211317155378,48.99613672101154,-77.12420071719117,16.818921713872324,-36.70369455489813,-68.30918359402605,4.428612752729116,6.000000000000009,-1.5572287648996974,1.6378948804269673,-2.4711511625933094,-3.6967566069769244,-3.0093000928655522,36
-64.80120452103223,28.03849833595431,48.28778753680954,49.51251797062171,-77.12420071719117,15.143106249960319,-33.49668938740992,-68.84747691982105,4.786650563510341,6.000000000000009,-1.363833361197894,1.7016196725778387,-2.4364284341493514,-3.5938793534027536,-3.097638310416905,37
-61.65275144715728,27.009950948351108,47.64706639722522,50.03574004282288,-77.12420071719117,13.540760742356449,-29.98199638434405,-69.39474975694243,4.961554915314182,6.000000000000009,-1.2095180607572236,1.770108768948061,-2.391805236178771,-3.462189210273307,-3.18023098132343,38
-60.14419492959595,25.361333959988247,46.30088547364994,50.67926921948106,-77.12420071719117,13.217146846015108,-23.62354414095137,-69.8208727496606,5.144517980291846,6.000000000000009,-1.070826800882822,1.8169131876664366,-2.2789756730094197,-3.341295873923098,-3.263219204595802,39
-58.66350498133646,23.75541765149339,45.02051180449025,51.4392697205685,-77.12420071719117,12.127622442538124,-14.63862863079997,-70.19210796974001,5.851905465732152,6.000000000000009,-0.9134249964191538,1.844711217973503,-2.135585290355526,-3.270387569709991,-3.3561354210274317,40
-56.554661962383456,22.214599724080713,43.09748567662766,52.203529581790974,-77.12420071719117,12.542603946303407,-6.610664498543347,-70.73410741376954,6.420716436463742,6.000000000000009,-0.7343401204006008,1.8599805171837716,-2.041728985542692,-3.2271060239435307,-3.4325121245785857,41
-53.484715450922124,20.71848841075422,40.20027909610713,52.95764304276175,-77.12420071719117,11.934725828606505,1.50134314617178,-71.35422636223022,6.079935254689329,6.000000000000009,-0.5680683490385586,1.8558837149596268,-2.0124883019924384,-3.1672802951164827,-3.4534878122374963,42
-48.217136104620735,20.017100428835164,37.4613405377326,53.75865044203692,17.971465080427215,11.69948211815618,10.127471789706187,-71.89120635055069,5.330264723962157,6.000000000000009,-0.4717434476079005,1.8054557023584628,-1.9782360634500313,-3.0587097946119424,-3.428813425644706,43
-44.017545793405645,18.803347306667636,33.52178441911781,54.67920375397455,8.51491027217078,11.555513357264239,18.93921743576131,-72.54515088158848,5.165328692474649,6.000000000000009,-0.34464019927694656,1.7694094471569264,-2.004294337712527,-3.055592082991855,-3.436058704371111,44
-39.26475818130292,17.748673444303602,29.01308987301379,55.646904136025576,1.7128335992410828,12.944863427176408,23.125099090216302,-73.20817034453533,4.911388934742698,6.000000000000009,-0.21076431034993096,1.6915629479890701,-2.016776209463623,-3.034110176033709,-3.412678238824106,45
-33.84410097592245,16.806574120033893,23.861610205142696,56.73977504558349,-5.016244774806226,13.75550482941232,28.7819775767142,-73.88515382726624,4.3303415959468765,6.000000000000009,-0.15428880268546452,1.5733866364312394,-2.0151449488558564,-2.941483183941102,-3.326743777497755,46
-27.358568952007662,16.500614120071845,18.58934077895219,57.891542132394584,-10.709183914838919,14.84061529790544,32.9699464562938,-74.58598592213549,4.016072614289119,6.000000000000009,-0.09508464211884687,1.4765341743512082,-2.048846727083188,-2.9315841025871623,-3.2816112173623213,47
-21.616297644255795,15.73738937117724,12.419560131961017,59.0183716926273,-15.968030359207338,16.037949035174826,36.76151034188321,-75.3900941900318,4.171089083337556,6.000000000000009,-0.036561325705885064,1.3819350086681137,-2.08771290809903,-2.9095042026026006,-3.277019511292326,48
-15.11587804806738,16.14207352915404,7.662315567619956,60.19030261994974,-20.42339957771644,17.474988782327966,39.855427839190774,-76.17462452434631,4.374546199427566,6.000000000000009,0.03148578740966021,1.2566979116496817,-2.092564522572216,-2.8647581993657774,-3.2514535189883293,49
-8.573190585444568,15.801281326332886,0.5860916616908173,61.43581354021432,-26.85141274119646,17.947261072550244,46.786271654132875,-77.00361380210362,4.013655621697863,6.000000000000009,0.12850409982433472,1.1757584656470197,-2.153616885363848,-2.843473793335595,-3.2135882609547592,50
-2.4581383523654,16.779973365584247,-3.9310902131341035,62.76150368866793,-29.727515572334152,19.4607837464799,48.300839989904574,-77.91592036423903,4.356981668719082,6.000000000000009,0.21448228339279035,1.131694768421438,-2.2107925324481523,-2.813314106946129,-3.217721264894557,51
3.014254329748172,16.777968795493855,-9.935666943042916,64.14039104036848,-32.3291013437597,21.138620019874875,49.61175035365729,-78.7697291904721,5.415381022892767,6.000000000000009,0.30740667541196,1.1074388155888777,-2.2537956191514104,-2.775555561991505,-3.285287135871809,52
7.040606282399566,18.044583850107358,-12.446577385191702,65.67438401358405,-34.79070147410317,23.05776766666621,50.887175971613544,-79.40069223543875,6.317598252838609,6.000000000000009,0.38188222125168675,1.0146142459607292,-2.2927496912437295,-2.698934230179891,-3.3271354994143003,53
12.586280177190028,18.513761407338045,-18.60960902025435,67.04200301583958,-36.755456747733646,24.747932405637542,51.5097287252604,-80.15557679987963,5.908077398737151,6.000000000000009,0.43859219765246965,0.9260668583898115,-2.395010507514004,-2.6483530733237846,-3.2886465882740086,54
16.83424351938255,20.24889612938008,-21.414805247852517,68.25790470092502,-40.90345675680248,25.615501703489468,55.9917319372382,-80.98055294166159,5.384382354472611,6.000000000000009,0.49584670644804446,0.900038490470124,-2.474540859429168,-2.62670367344297,-3.270869726673339,55
21.71005778614655,20.90253926528949,-26.845400898837106,69.43986175135346,-41.93604522163382,27.41532922528261,55.7133999043678,-81.80778673572955,5.455760551138977,6.000000000000009,0.5320961753478832,0.8937649361780202,-2.5164482329424476,-2.5801581346950466,-3.2857878219816934,56
25.930862677529404,21.65550163268199,-31.589024271673342,70.74745582589928,-42.84386342227773,29.270287538389898,55.336808966052075,-82.60095021012937,5.860304719790616,6.000000000000009,0.5317415859343848,0.825767021674823,-2.5772807859307614,-2.52147985185841,-3.2872761388337985,57
28.18450629806055,23.65665666305887,-32.45610526098518,72.15308689238994,-43.38361273803675,31.059107116269203,54.601232660658255,-83.37081593111843,5.063497390503263,6.000000000000009,0.5006848986333108,0.7326086758350845,-2.6662954903936384,-2.475715129935431,-3.2081593154057626,58
31.675041088024344,24.819653773346282,-36.57355875643685,73.53722714929515,-45.792047221445,31.86468187216752,57.32784743864908,-84.300077674559,3.340986390695293,6.000000000000009,0.4032106410529292,0.6716963791938437,-2.7850749853693935,-2.3932273158528607,-3.0978774005358387,59
35.00771241388817,25.863986637625548,-40.34684757594752,74.98963464022978,-45.60405972989456,33.49244851392378,55.67833395617789,-85.35405238160065,1.819766619314101,6.000000000000009,0.2737002446676627,0.6157795272258313,-2.840602611302498,-2.3805515117088785,-3.005111581110416,60
35.98104818207357,27.712620622451226,-39.789952593435046,76.55826745260089,-46.82008051300001,34.70581434649694,56.398350707721804,-86.38842442639111,1.8764251568886674,6.000000000000009,0.13520069815278876,0.5408731641422783,-2.8609310047448453,-2.4199285708469183,-2.9788186070273346,61
38.05462183936083,28.70379185219515,-42.26092334442143,78.14567945101254,-48.14176065184099,35.757214916689996,57.21845499627791,-87.5353247343417,2.833880847674106,6.000000000000009,-0.01807725338344635,0.4729550732175914,-3.0087318561421275,-2.4357627398962896,-3.0022794432329865,62
39.9525567300755,29.621280261970163,-44.52155615838045,79.83845844014554,-49.247824721763614,36.73770271888525,57.915362460135775,-88.66332392321718,2.848931348119977,6.000000000000009,-0.15940821440283512,0.4187305467524031,-3.132758289495892,-2.4773450334093443,-3.0103578920572227,63
41.84565622889797,30.611428115608863,-46.786267868008395,81.52968845640976,-50.119458209853896,37.488364301078335,58.437288922381256,-89.77547635220647,1.6938900672117452,6.000000000000009,-0.2847579095984759,0.3349487893111843,-3.2632337931479594,-2.53680153666656,-2.9243449851950283,64
41.59835807187552,32.6412181942216,-45.295291446993694,83.0482118653791,-50.86251791600366,38.05699451290744,58.85446855914015,-90.94515145540467,0.9056721814210327,6.000000000000009,-0.36149159895676053,0.2659053002586105,-3.409003615972395,-2.615393663138137,-2.824884628633759,65
42.92096471184185,33.51943942364014,-47.04540182683438,84.4957193905699,-51.39897937409299,38.577968427566795,59.21273002282451,-92.21886757852133,0.8674417888915066,6.000000000000009,-0.3410057754358553,0.24715672439006695,-3.527100463908269,-2.7496144966836704,-2.805622751076533,66
43.73700017620194,34.14947983752449,-48.34119267489974,85.93508792315644,-51.74778280810233,39.22280352791693,59.62579053152086,-93.32400479285735,1.5254773367007803,6.000000000000009,-0.2128020279235885,0.19029689527755753,-3.5910494741964603,-2.9047960032418043,-2.848391304640219,67
44.14235669823249,34.7077448278212,-49.350929398758524,87.21129669952708,-51.886479110466134,39.81423641258031,60.02661963903402,-94.30806403499246,2.623731130317996,6.000000000000009,-0.008713234312760512,0.11643779445584408,-3.644934886859706,-3.03632555236814,-2.913872081823728,68
44.06679991946421,35.153247838842944,-49.99881500101611,88.31347657691786,-51.87395033766537,40.39241012966861,60.475751472300075,-95.04383096645043,4.173162256785598,6.000000000000009,0.21995225363750603,0.05004504182126288,-3.7094227738776575,-3.0839300339111806,-3.0211335102818238,69
43.61502164090321,35.73479011623429,-50.15946728380266,89.19937780456523,-51.650380260937865,40.71332818753323,60.83156307063852,-95.66763413810011,5.154535076692947,6.000000000000009,0.479354736022017,0.0030434451218304833,-3.8104894330454884,-3.0892811964729567,-3.0997559909264503,70
42.72793542384465,36.19426709970486,-50.11804957036142,89.87702852104474,-51.278570854083725,40.90039655411233,61.215864060757234,-96.16980371787089,6.775510937022138,6.000000000000009,0.6960233242144029,-0.003302222355914125,-3.953649671902084,-2.9812814781216606,-3.244872931435875,71
41.47642617680404,36.51806088785383,-49.80086532485594,90.39966095825156,-53.24725516066712,40.2482333178208,65.16880257020003,-96.41914619907473,9.474539101525448,6.000000000000009,0.9233722153130625,-0.059383125849230174,-4.170731109853366,-2.888631396884656,-3.393337108025842,72
40.246440248432194,36.77270881039742,-49.533453314168185,90.60149712197408,-52.79095990661703,40.13498930974822,65.50347761988887,-96.56833060305249,12.080221993398668,6.000000000000009,1.1788435662129884,-0.13254383801681852,-4.349385285963412,-2.791359273888794,-3.4939035832850776,73
38.79058589450332,36.7631911409361,-49.075631218006265,90.66580041790864,-52.15000546905503,39.87579481358596,65.75851115661675,-96.65511200607993,15.395710922139381,6.000000000000009,1.453559806025315,-0.22375998757980056,-4.4955575883300884,-2.676436795401629,-3.6009472365555446,74
39.09208139943189,35.55883034179012,-51.907613037850815,90.63739450625641,-53.734161054205615,38.84817988862133,69.59408110803314,-96.53172128855613,19.155875030644648,5.616371086914848,1.7373434366924696,-0.3293023949510956,-4.631463159439909,-2.526182472184016,-3.7050955384341355,75
37.187495751460666,35.26687731983733,-51.105687418522216,90.29654160597019,-53.100274860464076,38.202062529373556,69.84091012116974,-96.35805481299664,23.517026661103746,5.226442953859934,2.0253953658214563,-0.4092875618790342,-4.824027894362689,-2.3570202326417267,-3.833965734808097,76
35.04721560219425,34.71337031186066,-50.0837420512265,89.84375743059675,-52.44163851877688,37.500965906563785,70.05808992474833,-96.0050823561111,28.57547680709962,4.8637357874290705,2.2760736430374,-0.5047432905468718,-4.981530367866837,-2.171037642311258,-3.9694169948169096,77
32.974394205780776,34.001575606698125,-48.99435051028677,89.33883384984873,-51.575239585637085,36.52317832631434,70.11273907417443,-95.48367097771772,33.39873812568087,4.5134646436017345,2.4825868087452307,-0.6230929953836445,-5.10075847513783,-1.9838373248390422,-4.018264038537316,78
30.874667056075463,33.22215329408931,-47.77433415241851,88.58569346899297,-53.38042955572074,34.723180919048836,74.06726997033185,-94.98624753006374,38.23494071944682,4.200643695468042,2.645625643252825,-0.7301503578383429,-5.254177899675189,-1.7960850368253327,-4.043367255375243,79
28.659875843448738,32.17250567307559,-46.2738636147454,87.67061138134173,-52.83301139284964,33.4371186267476,74.09741347263036,-94.42959596228204,41.97902292433157,4.164720305929827,2.815942109780878,-0.8311992851456911,-5.348852206299721,-1.6915228916799392,-4.130009669579667,80
26.190474225558134,30.815028442002447,-44.43586546008713,86.61273668755102,-52.30378522409087,32.281292034909335,74.07388399634293,-93.61939349653771,45.14868689457455,4.252538117934789,3.0368473153114026,-0.9650578453252406,-5.347680854673219,-1.662627535765051,-4.235356901510591,81
23.597621245399935,29.38745196704984,-42.418607789303465,85.37272939272019,-51.31242243227318,30.86902527840866,73.80481763707475,-92.75094460346767,47.98093265026037,4.100573393779463,3.2101023195951877,-1.1023204727967262,-5.26273798250465,-1.5630209235442654,-4.244030785813256,82
20.182698686308306,28.624724539125268,-38.63045479309457,83.9748874688428,-53.25442249383574,28.58633968937536,77.85707855784155,-92.04128485228125,49.255633301454445,3.8162648776102013,3.3194401146494004,-1.2205374736053156,-5.188405736007488,-1.4434014095560057,-4.142250020185417,83
18.540886364723857,26.70887350541463,-38.203701688298615,82.41092790573998,-52.27900090288876,26.59403985235292,77.43593593568214,-91.33878199627696,50.44986381172677,3.6160221627371,3.446235586688335,-1.3089507414049197,-5.099517184372747,-1.3808013149893141,-4.072524791217868,84
14.465371131047995,25.916399265988442,-33.58428307553213,80.74769030403883,-51.07141232490339,24.686269133514212,76.86962841081358,-90.4417831230501,52.46972900195053,3.4574429333933376,3.559069966873016,-1.40171507268532,-4.989224537691628,-1.3048391562778465,-4.034895639661932,85
11.803247190648497,24.101172234569475,-32.14050661633588,78.98125346135103,-51.128788573422575,22.505410348859996,78.04193088380518,-89.56044538384263,54.14839931337821,3.336466550654054,3.6171785992327767,-1.484953343985947,-4.931444114823172,-1.2111591425599453,-3.9942580738060163,86
6.925106474739809,23.279045858938655,-26.51337292509576,77.27379734717012,-46.68379936680368,20.779912310906205,73.12293075944181,-88.57680575598766,55.00064981812109,3.3014484811727836,3.664990825451786,-1.529514215453668,-4.789025693209215,-1.1537831062030988,-3.979641574836341,87
3.1335530949003596,21.314531523321698,-23.870082604341885,75.52945357429803,-45.64381742049245,18.709064289306912,73.24552685305768,-87.4523295642856,54.82634232328129,3.27451607788384,3.7069490716936926,-1.5783724593076967,-4.619624577508715,-1.0883053213478495,-3.957661378969142,88
-2.047287695757924,20.784669065399374,-17.948815039771258,73.53614871922554,-44.278343579569814,16.528129761070677,73.02986582834075,-86.32219280624223,54.793160841056135,3.2316033933544186,3.74374373830983,-1.608740619625543,-4.49581972342979,-1.028829762121447,-3.921610595652108,89
-6.475706558897192,19.221583480609752,-14.782926631226127,71.5897928788457,-37.25949165139833,14.84475868680267,65.36805882038999,-85.03265019959589,54.7589247609343,3.1673096638634917,3.7238781345434306,-1.6389208727436235,-4.413942601563873,-0.9474354767428341,-3.8667958445797184,90
-12.284237040048765,19.056741294620938,-8.203406883768547,69.80130850935282,-34.67084141560575,12.5001200115531,63.688358404170515,-83.73348932099249,52.123166959646795,3.1010777141027117,3.6240312056687505,-1.676846401085598,-4.389074902559828,-0.8674111158498863,-3.7920713241278228,91
-18.607969065511334,17.847387581973475,-3.12731329836157,68.14470373860121,-31.482393673164903,10.209551238262838,61.39529683133926,-82.462738100163,49.6968273728197,3.218405977993931,3.521092085866684,-1.6858483625062555,-4.3634733797280525,-0.837901904988026,-3.7919153240800068,92
-25.53845990576083,17.966374681897275,4.603375932022116,66.58422152507865,-25.844326862645996,8.031866514849778,56.73697229782273,-81.16878015198745,47.4192562335758,3.442353739877582,3.4950926399972118,-1.6456001877009234,-4.29603176154282,-0.8970257337039538,-3.8081034092576673,93
-32.69730602629918,18.388262384128996,12.479915729914177,65.254689229504,-8.031857232700014,7.037845252952056,38.09392629120861,-79.80302666768006,46.267412735848595,3.5458685821351223,3.432560326075235,-1.577528601166131,-4.234706238992476,-0.8881809032408641,-3.8534801934294625,94
-40.318741376039085,18.19404280866294,18.561771072930597,64.02313236296338,10.259988830439724,5.414028197006145,20.811588383605425,-78.44313661972217,44.12080670614177,3.5816789915797527,3.2442641942514534,-1.5337228131867318,-4.270142676670098,-0.7833468297938938,-3.8704927194491274,95
-46.22160038942146,19.405797932085886,25.164651810195423,62.86039726281445,39.29237388577661,4.798440117694387,-7.751088664203991,-77.12188345005579,39.793235522201876,3.8479931774497285,3.0494004841763305,-1.475446354084377,-4.360134664634359,-0.7998513963555564,-3.8993483076701976,96
-53.027287980764896,20.04932555374826,30.981666402309536,61.862169949461546,65.87555713979886,5.610407849263786,-33.9661641309372,-75.75956921295798,36.329112137962724,4.14632963409305,2.8377298862820233,-1.3828124705143034,-4.392763919735619,-0.8465783670478713,-3.9476280942161397,97
-59.695247407937494,21.256380413909028,37.32345923046684,61.168782498888504,80.17254305843046,7.336399127111211,-47.937396968789095,-74.34270690728249,33.538840616455076,4.4722303961198575,2.6151810729517906,-1.2831232318086512,-4.3274768863683315,-0.9215219283675288,-4.01040859365907,98
-65.40908728046378,22.944304594360652,42.72598239640035,60.61173609831246,89.00075152845487,9.358860399934064,-56.49996109213146,-72.99815221996474,32.26180100516331,4.845251963710006,2.3800765344977353,-1.1582939088043387,-4.3042162782584255,-0.9850442641975182,-4.122035749739615,99
-70.16129809141398,25.00735993154125,47.20351858634804,60.10298808346715,94.42281271524854,11.521894617810105,-61.73514184317438,-71.67192512583013,31.60625319654824,5.247106937943271,2.0675536547481896,-0.9827638034975489,-4.278876430489218,-0.9970912649205238,-4.303616307184444,100
-74.5348401067159,27.292137969847975,51.461324649300465,59.678759912652794,96.4117504170665,13.650292467500877,-63.64399976163478,-70.26328682339215,30.42021628082647,5.80880966156155,1.7360891441878255,-0.7683711427987624,-4.157832062603492,-1.1029377335539137,-4.527034902043017,101
-77.88826837286997,29.62538485113799,54.78006880393651,59.22716514659852,97.3338113374119,15.836794111788357,-64.53589394766756,-68.7682512337142,28.78018792563163,6.000000000000009,1.4630742735240163,-0.5536411816015417,-4.057162303051343,-1.2971089978540307,-4.679447353633398,102
-80.23195263212502,31.971035573921263,57.048871270209396,58.69844082757376,97.9493876370875,18.144511646114715,-65.0847489591263,-67.21887785358253,26.73187541537281,6.000000000000009,1.1796371043953642,-0.3433071352576187,-4.007497251147926,-1.4224460456858596,-4.772334932229967,103
-83.77631548718345,33.77279881924072,58.14326605536917,58.25898971999757,95.10353083781902,21.10751845293767,-64.49941561825551,-65.65267615827901,23.856207075312945,6.000000000000009,0.8475606008100045,-0.15269695548202397,-3.9421618586227245,-1.5300863187248255,-4.810882721876917,104
-85.01510511903659,36.10424508453867,59.405999274188545,57.8212255342423,95.81098536012692,23.75049329171433,-65.29826243881732,-64.19893122742744,20.946250896123495,6.000000000000009,0.5401447108859818,0.04826977025884204,-3.9254362753248473,-1.7046168460095856,-4.8091338019434415,105
-85.33907333027217,38.79281155376747,60.91291395376832,57.319019801518515,96.10493123110054,26.282478397950413,-65.6632323958685,-62.687901434694695,19.064552308569215,6.000000000000009,0.23461553816169897,0.2272558883016174,-3.883943125685426,-1.8348798698151354,-4.825795076135806,106
-87.29823934151767,40.85020134281317,60.7143753549462,56.80305696541778,96.1858000592628,28.80397208376237,-65.83717774943248,-61.214518808979435,17.74087924528204,6.000000000000009,-0.05291935018025317,0.354134297010897,-3.86814106468512,-1.9841620200453804,-4.822841603033796,107
-87.52763703174848,43.23990871603151,61.23911583726788,56.15981984587212,96.2178875075874,31.45284406987185,-65.97452076902705,-59.791839716642976,16.165358628349317,6.000000000000009,-0.33629124989218145,0.4054268522415911,-3.912753291707149,-2.1243601505119476,-4.724905658804822,108
-87.5225721060765,45.524958715053174,61.51055085948615,55.46683983966288,95.88324006655225,34.32253881686279,-66.24552395993427,-58.42368837938217,14.308114001682512,6.000000000000009,-0.6533343138839673,0.43692869771717474,-3.9806999988522533,-2.239182125170053,-4.566780643243227,109
-88.66683192776628,47.25778240784794,60.36310823217447,54.82500966377686,96.9127929236876,36.84260841342766,-65.39773401813797,-57.20348741108835,12.545320694012656,6.000000000000009,-0.8861059361114019,0.4507811141878738,-4.007034394236604,-2.4561650847046095,-4.372002935340356,110
-88.48661780085875,49.51254297888679,60.3181208344886,54.2821565769224,96.54510325199469,39.81437035193791,-65.5247395876786,-55.997636894199765,11.03158277402696,6.000000000000009,-1.1051453428201277,0.47883493205248184,-4.088317708996997,-2.594587553835113,-4.185312321521439,111
-88.34440464058515,51.89045489595797,60.29038283690673,53.591082907470295,96.1601026032264,42.521737450366516,-65.59311736400248,-54.80743472141721,10.349478908061709,6.000000000000009,-1.4000818938899613,0.4753245372857638,-4.157376455252156,-2.6465830399607313,-4.062498289447912,112
-88.02613061887602,54.180955718966494,60.15353738827732,52.751845512342136,95.75214229369341,45.20939617805403,-65.67932346632472,-53.763684859549635,9.751543468399854,6.000000000000009,-1.6894884533652539,0.4383810102939374,-4.252041658168154,-2.7710092194566704,-3.9241837051220125,113
-88.58216815243571,55.872743954473336,58.20788300017576,51.98279852516896,96.57909186731328,47.69513183501753,-64.3386572721524,-52.91219156263985,8.713672835718766,6.000000000000009,-1.9302567072599461,0.3695097661031016,-4.368743549130551,-2.920479803954539,-3.7083394862443146,114
-88.00376197860136,57.96139739839573,57.7464943587883,51.218929533218905,96.31920109431121,50.78555053700043,-64.41002790066189,-52.25317751430271,7.492039793664891,6.000000000000009,-2.1393100053870846,0.24525665629766707,-4.5086942380794035,-3.068622403587081,-3.423143502902361,115
-87.68511082468822,60.11476085321806,57.4791942976816,50.529817679273485,97.23371993439301,53.401585336302205,-62.895231816016775,-51.58021247723927,6.611183326754634,6.000000000000009,-2.378025597967416,0.1645050318764013,-4.604498233284188,-3.144809276264802,-3.1968423046397723,116
-87.51476864153061,62.425120770354134,57.35297045481722,49.8728836533684,96.8869101257382,56.22741183013299,-62.701983000770426,-50.94282985353442,6.1920271548085335,6.000000000000009,-2.6335039603546933,0.07441844786633113,-4.639438824631072,-3.2055760112130756,-3.034448353775535,117
-87.9879134352274,64.20721672163774,55.22986732209216,49.180825857792875,96.30255926020773,58.977513372660155,-62.31662232706103,-50.29706257542785,5.529164576673101,6.000000000000009,-2.9054499701923713,-0.10921646051884544,-4.677570665183978,-3.2829095286582892,-2.8143393080192,118
-87.43366504895332,66.42375781011411,54.83125417450479,48.53484827441479,96.60825596325779,61.31352352828033,-60.18560609511848,-49.55511791178806,4.426315666353674,6.000000000000009,-3.238899927149017,-0.35204422011005204,-4.777802072744851,-3.3581952125910814,-2.5292712065799408,119
-86.89898785929678,68.71871333418936,54.52926832912835,47.806160665459046,95.82655285006481,63.94410395569862,-59.70919971644945,-48.85082131185634,3.47917217111114,6.000000000000009,-3.555668224290887,-0.6210742811702036,-4.8422294533128705,-3.5136314751972777,-2.2762652064004425,120
-87.04389493461626,70.51264347763426,52.13073594570047,46.92932252195599,95.15837957240348,66.5571177374227,-59.297862907603665,-48.27060988765395,2.7304810912154602,6.000000000000009,-3.8538396615467265,-0.9211855908019476,-4.945565124531533,-3.6357951178949857,-2.034529048840517,121
-86.29139907368864,72.79735261862986,51.57043487938849,45.987486088812965,95.49848887737112,68.76565710552067,-57.10095570018155,-47.779842155153275,1.9820772410171648,6.000000000000009,-4.210785417590486,-1.2346295767419986,-5.129382164777959,-3.685408007037687,-1.7877737810655188,122
-85.53051194850343,75.12353897089042,51.142429407144164,44.88497127353131,94.84432308027367,71.28817263485006,-56.70372870726236,-47.35166597519417,1.4804503305337335,6.000000000000009,-4.612235942208665,-1.532733057638647,-5.244328410613674,-3.770161452633968,-1.5940617668962909,123
-85.40494965471584,77.00525580494525,48.66709164629851,43.63329274217004,94.08307091383807,73.66429692053708,-56.22836034002897,-46.964535384368276,0.9708961669070333,6.000000000000009,-4.9957584319977855,-1.8079705706981506,-5.311298585215897,-3.9084562821337876,-1.4515985018212456,124
-84.68298578670336,79.36468570064274,48.30658074423609,42.25755672770287,93.40072122857961,75.95814704919206,-55.80084801531789,-46.45033644088271,0.42491584122423987,6.000000000000009,-5.361147771441786,-2.093362030768415,-5.40656288262788,-4.009756428952358,-1.3002225640335958,125
-84.38578467820165,81.21661062726758,45.64988464961181,40.48921972464271,93.50669079483596,77.4909044400603,-53.38059624150909,-45.90456874801429,0.765040111782028,6.000000000000009,-5.681077806771447,-2.332806596906385,-5.56496398717666,-4.109526203082546,-1.2621818220353451,126
-83.38668515758211,83.5424068939901,45.17610557527821,38.30107836677853,92.85408303105316,79.20260105155235,-53.071405882275684,-45.32999257637134,1.7922894730922505,6.000000000000009,-5.948957147514008,-2.4280331434090576,-5.720523241896941,-4.222022199347546,-1.3915344880266762,127
-82.67808751844633,85.1380069689627,42.48599135637482,35.408772329764275,92.21083256463862,80.74568012683322,-52.78064023415553,-44.76358145577486,2.98914634436209,6.000000000000009,-6.2223063875514315,-2.4374480392572675,-5.853194146877151,-4.308906679390079,-1.6037497328395345,128
-81.29333220044975,86.99152903316723,42.130597299219886,32.027385180612306,91.44496280059465,82.00563644103366,-52.50036421513382,-43.851120510210556,4.1350818688649325,6.000000000000009,-6.4272037458344915,-2.3643891378438475,-5.972026543560949,-4.478014905436195,-1.8590277395517154,129
-80.12892670919761,88.26829589281499,39.523535262702715,28.298822862089697,90.56027516743708,82.9383438935278,-52.18870294775725,-42.748330148534194,5.291919117159072,6.000000000000009,-6.469899045620082,-2.21053494455977,-6.056653254076653,-4.7232276843821115,-2.180413124315411,130
-80.47554417850378,90.43217569699678,37.03558131325761,28.298822862089697,89.86402538933187,83.804600643867,-51.891311488738275,-41.87761453803105,6.475006750455519,6.000000000000009,-6.456629404838744,-2.095435393489688,-6.105981192247649,-4.8860252978833305,-2.4682987375170824,131
-81.01135346147284,92.07947005839281,34.5697315474661,28.29882286208972,89.33096534167626,84.75826661270652,-51.621589620288155,-41.029767513725645,6.378434620358185,6.000000000000009,-6.492537232329606,-2.074186070957117,-6.14219353312742,-4.947662106023194,-2.586120960957925,132
-81.31262237700189,93.20693584238067,32.08497011212226,28.29882286208985,88.07100513293034,86.05645938598332,-53.59708353529287,-39.80478663445474,6.533909369623137,6.000000000000009,-6.511332009945545,-2.0417715914128514,-6.167532677441084,-5.026339515586992,-2.6004426817558226,133
-81.13978370373633,94.53819345965609,32.02588134188293,28.29882286208962,87.35596298390823,86.63192186200862,-53.318477837860335,-38.42829514366464,6.433589797293839,6.000000000000009,-6.555423010030062,-1.9377310454906507,-6.129733825778825,-5.088582291772514,-2.6817317619472525,134
-80.7122110171267,95.73389130735042,32.27364375847813,28.298822862089697,87.05944728855891,87.03298596612565,-50.59916218679098,-40.15276226162861,6.389747013064295,6.000000000000009,-6.565386817963729,-1.8267308102077155,-6.047269416035936,-5.210438129324669,-2.824170086099221,135
-80.31148073570564,96.50023668606744,32.281330787711404,28.298822862089697,86.33882992674575,87.41529098288137,-50.24492482265715,-40.02823094565883,6.406184460627759,6.000000000000009,-6.448623238868644,-1.7700709940459942,-5.934028245677454,-5.379908928507942,-2.8567852199975783,136
-80.22169632641175,96.83140243218205,32.32102893448973,28.298822862089697,85.8684978823796,87.78586106532353,-49.940407806562995,-39.85722221453828,6.030875740332681,6.000000000000009,-6.323590684838216,-1.72893229850696,-5.819218834130267,-5.374884308649674,-2.7793607204142545,137
-79.78308556249054,97.25553005734885,34.787583387249434,28.298822862089647,85.55758948636557,88.05205127863731,-49.71096749765187,-39.89943565075438,6.006705486603602,6.000000000000009,-6.22810616768977,-1.6243094815409316,-5.716347125106822,-5.309819789602823,-2.7091409328398117,138
-79.48374827391324,96.96892341058103,34.94416990430761,28.29882286208972,85.17413664069014,88.12723578531441,-49.46166539067224,-40.08869217486875,5.634326128298245,6.000000000000009,-6.096581856617973,-1.4986748178944265,-5.585256698126031,-5.3246764914182325,-2.6487421605996158,139
-79.27975977401204,96.47999953445346,35.14445786602076,28.29882286208972,84.91577634699205,87.88145242109991,-49.24572910472004,-40.37779103847843,5.605531775076796,6.000000000000009,-5.937039576954206,-1.3968956816389753,-5.446831823844327,-5.30377635086744,-2.590413154415926,140
-79.11648449773666,95.64885878359837,35.43298770043088,28.29882286208985,84.72894870665303,87.728408726869,-48.96136551155284,-41.2560859127453,5.383311744517099,6.000000000000009,-5.742966244393157,-1.3277345192764054,-5.2735156153389715,-5.253992407932766,-2.4748967243873534,141
-78.58178055755907,94.86799270637992,38.10304473649438,28.29882286208972,84.70502778425016,87.42917245265068,-48.77798136061765,-41.97420865315953,4.6146470200169825,6.000000000000009,-5.526920005558308,-1.2804453578199593,-5.153934644910583,-5.177836720009492,-2.273996462085778,142
-78.37447327478863,93.47038828572,38.379923400369066,28.29882286208962,84.71586727776638,86.86403501401917,-48.63633989682289,-42.618857400895,3.7922162729192523,6.000000000000009,-5.252272436785784,-1.1856260966852843,-5.058758306568237,-5.118238250983185,-2.108415056152172,143
-78.36029471308379,91.98613518907328,38.67273557494738,28.298822862089672,84.7206835593989,85.86038393765644,-48.49772688348099,-43.11101030225395,3.593649610428015,6.000000000000009,-5.0147539911683,-1.0860194649197357,-4.961997329956091,-4.969785242410719,-2.0178667902768095,144
-78.10759750606412,90.53408285798773,39.63760276186336,28.29882286208985,84.75661543353107,84.65041564788734,-48.493289161891646,-43.641331569412905,3.7250319491518074,6.000000000000009,-4.845664679015534,-0.9971117935663215,-4.990991699620654,-4.788169041737904,-1.9427443753213467,145
-77.72960900985208,88.72264134796237,39.36720489756875,28.298822862089697,84.25164126387195,83.89151731540761,-50.7706871566305,-44.343995112053214,3.640521598128932,6.000000000000009,-4.650468562662269,-0.8387993338659626,-5.06376999626169,-4.710588606373764,-1.894058080788124,146
-77.04452367802152,87.21439913111318,41.463425993144966,28.298822862089697,84.45435766821244,82.4204152276124,-50.7725538964405,-45.118918108013354,3.5922303073065613,6.000000000000009,-4.406554517303675,-0.6693491417383965,-5.074541285118439,-4.656090804048091,-1.8829586359407402,147
-76.83368535714614,85.20072674349029,41.17471301390693,28.29882286208962,84.70142153285397,80.7251759268632,-50.77208293662647,-45.72086060779621,3.6816599139087196,6.000000000000009,-4.164404506947547,-0.5344428477553238,-5.095464416730489,-4.525236126955571,-1.8682665016398825,148
-76.16403464701885,83.58135711560872,43.020098235737805,28.298822862089747,85.08683183903752,78.87322522445238,-50.94262758265616,-46.407266023645306,4.060453017134907,6.000000000000009,-3.9417529140851464,-0.4038632858849545,-5.249691909162475,-4.385926967083379,-1.8873974646202847,149
-75.80775849671758,81.49347769428577,42.489734901734316,28.298822862089825,85.54261149764429,76.98724945303819,-51.15351359213803,-47.27370502922968,4.078859171458861,6.000000000000009,-3.7639119692107226,-0.2857663199106561,-5.414418647351483,-4.251118704847745,-1.8939115792180428,150
-75.31711131755966,79.2135897754991,41.87999742621199,28.29882286208985,85.89591697551703,74.98008291890538,-51.32805059685331,-47.82942705114991,3.671743868717594,6.000000000000009,-3.566972530709892,-0.1658191023094843,-5.566205697899742,-4.163530265523707,-1.8440673357705852,151
-74.32091014515854,77.46624530720794,43.398963545840125,28.298822862089647,86.38323197045675,72.67084692232609,-51.62441114458128,-48.409034619370466,4.030833395231668,6.000000000000009,-3.3466834367631924,-0.03399334493963912,-5.792435675731189,-4.09271008196852,-1.900691769873177,152
-74.10151502868227,75.68500897620554,42.69299564389238,29.421224299196847,86.28375393022542,70.75937516446157,-53.98559146261819,-49.12910256235177,4.712961549622841,6.000000000000009,-3.148271583050623,0.07810471686135645,-6.019271540672821,-3.988148402756246,-2.0008177462420713,153
-74.1906579019906,73.95478857580831,42.072598839897516,31.270591040941966,87.00589370613612,68.33632768470669,-54.341432644777306,-49.82551341404176,5.015178825565012,6.000000000000009,-2.9840569257751453,0.17023653796192606,-6.215463818875678,-3.8466348409618254,-2.0462789579925507,154
-73.7895502997629,72.4889200930938,43.69167198107628,33.18910084689655,87.54233281548248,65.89385258604777,-54.57313714238944,-50.34936395265798,4.887319246916013,6.000000000000009,-2.833529134031589,0.2361438813975027,-6.346995407302024,-3.753119261689182,-2.0271218407805116,155
-73.5985437037747,70.46627513799795,43.01769536496355,34.802571482951286,87.25489343653464,63.85771587989169,-56.682507221760076,-50.936774745437695,5.013782520935175,6.000000000000009,-2.6775995013946075,0.3039097121770494,-6.468438780241218,-3.699720283869071,-2.048884933152469,156
-72.93489208163766,68.76010266607456,44.521267177939215,36.24366863273106,87.78049567499913,61.20650935525175,-56.819743366705005,-51.56378633549059,5.196178568045777,6.000000000000009,-2.4707423929079466,0.3334893052812251,-6.544481859702692,-3.6759428630300373,-2.054143787647034,157
-72.8340984153214,66.528957962427,43.80660607862699,37.826445444427485,88.51612266919051,58.50336925015026,-57.111391150819145,-52.02019470078212,5.365070744472123,6.000000000000009,-2.2643105714736493,0.37234289654712055,-6.657895283825972,-3.5917381484319657,-2.0391565101714506,158
-72.74359347140654,64.21278967219001,43.16880892581441,39.10515529923509,89.37600427710622,55.73888838480012,-57.44598964913801,-52.68424971360926,6.024517311157512,6.000000000000009,-2.111564628209087,0.409438849091963,-6.715573880973587,-3.445860596681173,-2.081733607713245,159
-72.17953946435061,62.22229240541732,44.730086290273704,40.484378968311304,88.8915997634604,53.45664089270509,-59.07609338199885,-53.28491200501925,6.095270083749578,6.000000000000009,-1.9426698363722976,0.43488702337998714,-6.64678869259572,-3.3608693735678474,-2.0792812749273293,160
-72.34048465970086,59.55986301277998,44.41119411380355,41.849196803656625,89.14425641111293,50.51234824875234,-58.76488492947595,-53.692333201071115,6.0831328989093265,6.000000000000009,-1.7920096507659862,0.4609942824341804,-6.483739966492306,-3.249395804990834,-2.076060747465582,161
-72.43475514167916,56.8729473176738,44.079970876614595,43.06216673951472,89.4611867865364,47.44734618644281,-58.53528093675326,-54.07810778274089,6.590812384194113,6.000000000000009,-1.7076932042804451,0.5189808679259753,-6.338516585926794,-3.096772102374849,-2.1211382595433803,162
-71.49005327713176,54.749918999549294,45.38687204657996,44.16496804607619,88.67174549318977,44.8035869652389,-59.849333909377044,-54.469666507091,7.260862873528458,6.000000000000009,-1.5963303693137652,0.6209005890301355,-6.264857808531972,-3.055288835598183,-2.208625254050518,163
-71.1043672410724,51.99767814853094,44.703174899655586,45.06385662042268,89.08970249810285,41.58878703756578,-59.78347094011133,-54.90559005532072,8.091754377208336,6.000000000000009,-1.4432640875878373,0.7447945928559566,-6.201400469266198,-3.058335377399677,-2.3309450918061807,164
-70.07059659346999,49.64868569549106,45.87460528851502,45.82647910252217,89.28304904300101,38.34294096691293,-59.443823648030275,-55.12937950699466,8.374510517411425,6.000000000000009,-1.345441109138043,0.8494825259423597,-6.1039454411953535,-2.9561138770165223,-2.3817001316361446,165
-69.55364442188952,46.415383979364464,45.04048300912928,46.5835597365065,87.47122096662507,35.81831980743172,-60.091318528365804,-55.0906659794112,7.435978774206748,6.000000000000009,-1.2964778283034426,0.9063867657793052,-6.036931549425079,-2.8559872411133314,-2.282650077323514,166
-67.92229328893347,43.765715675317715,45.690980569852314,47.41858876409749,86.82992668407407,33.034451163814744,-59.99684509374904,-55.15513344556454,6.549203425586641,6.000000000000009,-1.2389212732212065,0.980317288024413,-5.975275060579799,-2.8554636966493336,-2.1877870838268203,167
-67.01427660506029,40.63607544559695,44.62313549423535,48.04635852710721,86.4062244775149,30.195864933428894,-60.17761583974893,-55.46943542458997,6.596260137237771,6.000000000000009,-1.1975565701457302,1.0496385521211173,-5.910932216161905,-2.8618834890587443,-2.1770629179880303,168
-65.29130634309932,37.84999805282019,44.116146483689015,48.59237014836365,85.89120863372612,27.270661110277082,-60.28558788652985,-55.61734054626756,6.435026762437411,6.000000000000009,-1.1801061964442523,1.1158776877164172,-5.8711604114065015,-2.8512466335379605,-2.160227231843251,169
-63.42232050464323,34.99803227076504,43.20295473814195,49.022197887881674,85.09854388943093,24.241963115144294,-60.1243554101669,-55.748532543755964,6.352357281292296,6.000000000000009,-1.1038260930031558,1.1655262134411952,-5.8213888560837335,-2.9197035324794247,-2.1548480909695917,170
-61.529012999521804,32.16081438074618,42.192131938621735,49.484097907766305,84.06660346291649,21.29666093506666,-59.647090471422274,-55.882279165474934,6.329685764029298,6.000000000000009,-1.0403457826364206,1.2044589290521805,-5.737087141237169,-2.9309659165088355,-2.1364171569668358,171
-59.210739866825094,29.448765171741687,40.702545738610446,49.92285548821837,83.03704513502622,18.394684747271853,-59.19936519954326,-56.09716143844462,6.433840363053549,6.000000000000009,-1.0501807299881476,1.2166667615606366,-5.686676200117385,-2.8900737761651167,-2.1073410102354737,172
-56.07848289770538,26.736769858730362,38.446395397198835,50.2533069930955,82.01524878095368,15.50813882323207,-58.84124142279098,-56.32227442040747,6.053666268798902,6.000000000000009,-1.0417507750091537,1.18252471608729,-5.694788765375297,-2.937960644143893,-2.0325303745845402,173
-52.36038877243672,23.95696193458371,35.595871466660356,50.503210469523545,76.6395752409633,13.238737692789906,-56.373374878768395,-56.546500674994945,5.48279932224295,6.000000000000009,-0.9740431517098096,1.131605138719451,-5.677971803962771,-3.023135662664822,-1.9292810962811546,174
-47.83290791810985,21.330755082784272,31.81925132026595,50.794684513920785,73.93573100727123,10.59625173322575,-54.176212973288735,-56.84695802407996,4.835892247711492,6.000000000000009,-0.917268861324619,1.1047919371001795,-5.6699372104781,-3.0278732866075444,-1.838967770619901,175
-41.105746298953704,20.00246192625046,28.071115852344118,51.033857505039094,69.46171829949832,7.814588683245787,-50.23567623564051,-57.262545363096564,5.572105617759683,6.000000000000009,-0.9033440114741805,1.1290989149930664,-5.7100832435706925,-2.994416292061047,-1.8878882918262017,176
-34.88800027044536,18.09112999984378,22.5593046709521,51.29968102424015,56.64473770104999,5.4140102758972395,-38.79725781599784,-57.73897000187576,6.877990204982954,6.000000000000009,-0.9143142548424823,1.1565270507404948,-5.717758339574124,-3.0046129549611704,-1.9698210760708879,177
-27.182940942424622,16.7124740346558,16.103506911820435,51.51753654706648,28.52602389469986,3.7852009382592247,-12.617991072379041,-58.35389940452168,8.526254304494577,6.000000000000009,-0.9317750399759989,1.1553485599002218,-5.7658922962783,-3.0219762110994366,-2.052393250646025,178
-18.194048096883222,15.195994009637317,7.159354720487824,51.7251645372339,-11.142311382946135,3.69765140956809,25.121422230479876,-59.06850983604826,9.442399779054318,6.000000000000009,-0.9732704136570077,1.1354095145346352,-5.8546681689111955,-2.9995137630197495,-2.082122833782274,179
-7.548988588798284,15.036251394923436,-1.1940126457465041,51.9155571425469,-38.090090277521995,5.129328592265133,50.175307554392894,-59.76887888289815,9.539903751732231,6.000000000000009,-1.0059047470482008,1.1046622031888649,-5.922765438715056,-2.991393585398777,-2.078717059661113,180
4.261018627853829,14.588401769731327,-12.97090723925171,52.08181350045538,-51.877803128344816,7.029933298083503,62.047095224719264,-60.49775252928912,8.888891824946649,6.000000000000009,-0.9800324701766806,1.0956257448684883,-6.03915341523204,-3.0380173790302996,-2.044343427705114,181
14.430342842223675,15.767252866244688,-20.997016840951506,52.20055278021322,-59.556397054847864,9.193318025443729,67.9084095975227,-61.26920863533091,8.924680728824397,6.000000000000009,-0.9429595754115393,1.105201594806613,-6.198676160427867,-3.0448335464850325,-2.0412305523535514,182
22.800878254110817,17.265541867543003,-27.203413232739834,52.339997703865926,-69.1263156185937,11.224776831396632,77.75658337371222,-62.101687798224326,9.222516979271118,6.000000000000009,-0.9038863511558995,1.1247326087873406,-6.328457231748566,-3.0726846049532703,-2.062905086395936,183
31.7590454893348,18.133314129551692,-36.113204944763964,52.62012235157954,-69.96751598642084,13.519450438330471,76.88367376716408,-63.04319572041827,8.800269081977303,6.000000000000009,-0.8873184152126874,1.1411196655836124,-6.390383835721121,-3.0788435364215303,-2.030602532690254,184
37.912458515467264,20.159350112027017,-40.11441810541591,52.96270300005235,-70.11051343536963,15.63453375917963,75.35810072344806,-64.15943183115053,7.898981678493439,6.000000000000009,-0.8982154195693697,1.1531794428991144,-6.460849274426225,-3.0512537515331704,-1.9525605410777194,185
44.51222574933807,21.675661396446593,-46.67522381887163,53.42433142067928,-69.87554783753568,17.59097329495004,73.47040006071303,-65.49486816354946,6.924617747989913,6.000000000000009,-0.9036545673827276,1.2083511383830283,-6.530749525521865,-3.0493577221802477,-1.8866019897276058,186
48.11940395521852,23.84092178005482,-48.1794338727021,54.07116762608237,-69.01123104927554,19.618307995732792,71.08790373449438,-66.85748471370043,6.296469414150048,6.000000000000009,-0.9303037643705394,1.2577837598181374,-6.534747332711482,-3.012471248635909,-1.8371605351563693,187
52.80543396061764,25.430518750727245,-52.79357349569029,54.84052451700846,-71.13148284522076,21.224158620000136,73.60371996431617,-68.23338859739623,5.024413040696228,6.000000000000009,-1.0139953418905536,1.2928892495714541,-6.531996171738076,-2.9531471341827378,-1.7762850010242237,188
56.4864322941355,27.033648694746187,-56.34196050575773,55.79302823888409,-70.19034409738481,23.1321659488348,71.1064845035651,-69.64125121806748,4.488343165024798,6.000000000000009,-1.1405234397807025,1.332338920999582,-6.587239612683501,-2.922344353519317,-1.7535709565814503,189
57.98562604231045,29.23479553816109,-55.67985183935087,56.885572870028135,-71.87079953015214,24.51572124153751,73.0589319883931,-71.10746328798642,3.4884227525910227,6.000000000000009,-1.2930157736695032,1.3321169169738267,-6.635066077017336,-2.92683109445569,-1.6757270167387472,190
60.86433485432362,30.75029293765254,-58.30215595463767,58.15090059396761,-70.57484359944579,26.285072193499932,70.22727515236332,-72.63162510069415,2.754772747413069,6.000000000000009,-1.4696342671364042,1.3857556481666873,-6.6756585256627385,-2.969328919668488,-1.6513292335349878,191
61.31226345113102,32.62966249828004,-56.562631539626636,59.60617800201847,-69.79186028857892,28.190678716755666,67.87651805195665,-74.10098001972618,2.543569741075485,6.000000000000009,-1.6630823794316973,1.4792277466273303,-6.768009586188417,-3.0427957374510903,-1.7229423838465643,192
63.27775360289478,33.93934278843154,-58.300921243806144,61.189793456560714,-71.08668538456092,29.33976529707604,69.36643999854904,-75.71654159312861,1.5833394043769438,6.000000000000009,-1.8986529885803083,1.568930141735208,-6.825903806362355,-3.0856019354975626,-1.7290324448554137,193
63.576732943124604,35.69671861445865,-56.445070918583376,62.93407924198807,-69.49983504277854,30.87452916743746,66.30423761031062,-77.50749568164625,0.9822243896935492,6.000000000000009,-2.171730392267135,1.6277400828961914,-6.8180062252911675,-3.161803222834609,-1.712971989193637,194
65.3793862767245,36.58279252999701,-57.82893432970904,64.7867343461733,-70.28211002646013,31.94085577966692,67.29067897999029,-79.36629129222267,1.1695657853159862,6.000000000000009,-2.4229609835410675,1.6551806842669494,-6.7808935898394935,-3.331171535063921,-1.7468259595604556,195
66.9395115186106,37.18969051162059,-58.941682488049125,66.84807962102292,-71.08823276838348,33.04088002089741,68.28625021478764,-81.19936889775256,1.7271978740853604,6.000000000000009,-2.5979856732261144,1.7069106413185893,-6.7323400952094,-3.5595266244511916,-1.837573421014205,196
68.34867554930301,37.74804500949963,-60.01183405452321,68.99500309520728,-71.54601223193275,33.90310547824417,68.98818202017166,-83.07459940701588,1.4426672947468604,6.000000000000009,-2.647531794995211,1.7951852356254232,-6.64743674097602,-3.8163509828615076,-1.8695630956258578,197
67.6382136894815,39.08623394170357,-57.57255900789185,70.90963171018377,-69.12587395678653,35.03194267605738,65.50406305806258,-84.88995599705189,0.5801190424576843,6.000000000000009,-2.568173923874364,1.9096275782168863,-6.562626059047507,-4.0328820021276135,-1.841718083050376,198
68.20882137506605,39.79770737747816,-58.38609255662028,72.60199509666997,-68.62043179069018,35.40904623331687,65.66146342464069,-86.60773539935474,0.02705861602926382,6.000000000000009,-2.432527569828323,2.0251013522001156,-6.480386668957546,-4.171175699569806,-1.8114618253307755,199
68.25868292150099,40.32295930441614,-58.85129707953154,74.1918464552509,-68.09783444844545,35.774805602942386,65.87949561473002,-88.09171309644499,-0.33859342036071993,6.000000000000009,-2.2527422252540985,2.12449429895586,-6.443564087894479,-4.268706162006323,-1.8164943945648746,200
67.88230173837927,40.87046767869459,-59.093431273007,75.57704318443047,-69.81028307896061,35.41246949453646,69.8685398250634,-89.28127410580657,-1.5001025052185972,6.000000000000009,-2.0598422334641997,2.1728379308118857,-6.48023317491469,-4.290366151090403,-1.7584883080889262,201
67.29364332553278,41.642228399008076,-59.26427544067243,76.51204366673518,-68.6850006890588,35.23246622734145,69.61330548601696,-90.39511664796116,-3.2653405410558576,6.000000000000009,-1.8525608090775987,2.192141600469853,-6.608776109842966,-4.265707927111473,-1.6247222771479073,202
66.35593969068914,42.232162789019554,-59.182130464776755,77.2368905689255,-67.61885815029477,35.0917236035633,69.70885628721797,-91.08896150506463,-4.225860156717896,6.000000000000009,-1.6407026209702258,2.101576325586609,-6.780652919308765,-4.192355204688762,-1.4741950797130792,203
63.55261085137887,43.74662825350464,-55.74698358623866,77.56405050976596,-69.26291375272662,34.088282133388894,73.90046204906326,-91.5592316835646,-5.785547456136244,6.000000000000009,-1.4528429964738907,1.9355463962532755,-7.094538286939691,-4.07078564795517,-1.1888070505241977,204
62.35946344416586,44.790440360268576,-55.510501171367245,77.23023548941812,-68.49398381374716,33.060533218496445,74.14724435191108,-92.11951869541109,-8.547073929723695,6.000000000000009,-1.2321201282252434,1.874176397374262,-7.516003171731391,-3.9746966135445203,-0.9220708180075563,205
60.92428476521374,45.28787961471442,-55.004207252227054,76.64576411146527,-70.4063135709746,31.918371799820036,78.58449045421587,-92.48116477947812,-9.795876949575087,6.000000000000009,-0.9968003931721365,1.85724514107229,-7.815218310254427,-3.856227344830274,-0.8707017608430496,206
59.39564417216011,45.129525347890976,-54.245219995243176,76.11094726028414,-69.43369129870565,31.540185438389305,78.72121002299052,-92.4127591194542,-8.725397164812179,6.000000000000009,-0.7086621296619104,1.7865817665657457,-7.949392396281086,-3.7977604105418665,-0.9375808426422555,207
57.80424965442712,45.01997355151789,-53.465413660039836,75.28073063846128,-71.35843612026187,30.698016045645353,83.20872841741775,-92.09307242559197,-8.314087201197864,6.000000000000009,-0.40205504198602815,1.6970393520469647,-8.0673363238035,-3.7241261924894102,-0.9563146306644491,208
57.50881970563366,44.029525064460955,-55.559975268272034,74.27767818899954,-70.3812524016119,29.863324072828483,83.36403427158056,-91.63782342826288,-8.606300349500772,6.000000000000009,-0.16441552357827285,1.622018105335509,-8.203652105932457,-3.564898891586458,-0.9742360073242294,209
55.54492064800679,43.55631447167755,-54.245969372844215,73.27339840120679,-72.79767252640787,28.766736666435754,88.20974318497942,-91.00421039812532,-8.340144032036328,6.000000000000009,0.04226852715379276,1.535135997246718,-8.339563328145859,-3.433696680026177,-0.9976912251891934,210
53.55197611848666,42.89132982495,-52.75510543873216,72.2615436355962,-72.1351859282095,27.599383398859946,88.45962161316244,-90.37245865992101,-8.33066787980316,6.000000000000009,0.2639834091910391,1.4603577663553606,-8.429445839330294,-3.3656011840337428,-1.0289815170854744,211
53.06142136275178,41.18743963356889,-54.316425708254535,71.30690790698891,-71.202042494182,26.31638595990855,88.51800328198682,-89.68616505772451,-9.674979763272491,5.841560991909745,0.4783759254666389,1.393503326848225,-8.417548816134387,-3.2867285342380113,-1.0513646239716088,212
50.93561188036152,40.355106866111164,-52.58441329247842,70.16956631035916,-72.33276755039545,24.697301963591208,91.37182648155176,-88.97526221366951,-12.589825092096524,5.565109010074199,0.7101462134466163,1.3131116200929565,-8.446967574412934,-3.21016978295965,-1.0057159046904502,213
50.14863553996384,38.673641654937285,-53.9586315336006,69.03809140497162,-69.36371823322357,22.89708955197078,88.60421853263611,-88.18300460654653,-15.56318971606928,5.287002531490946,0.9456806427218938,1.2009603790674697,-8.410124732016763,-3.1039819225162484,-0.9208874154381389,214
49.267887738319615,36.81740120604783,-55.22154195251891,67.89504091604437,-69.56555005894138,21.004851945184456,90.60460832823274,-87.37593057151004,-18.653520556969458,5.008576811952112,1.1331312437849055,1.1177434532718022,-8.284914445391173,-2.9586639427810875,-0.8694992099199681,215
46.6816115700024,35.50419726738156,-52.87819188958615,66.78227290876055,-69.58522403599996,19.058929899331044,92.38532175783092,-86.50357600602392,-21.71075300090839,4.753327128483351,1.2861865994872859,1.049220405981272,-8.129894364449065,-2.8233930264927323,-0.8293643388593271,216
45.46043208328855,33.392919302025064,-53.626058492353636,65.67757999408812,-64.73823250149752,17.10081037730401,87.56261419822795,-85.47202062630126,-24.20873834045392,4.519742345137633,1.464237731094076,0.9859604783168191,-8.003425934624177,-2.7270707936350824,-0.810376208682896,217
42.317671104435846,32.11959152636076,-50.67180732072377,64.4630676192401,-63.86690983558455,14.861889237201753,88.37074965141743,-84.42426617240638,-28.436557017816156,4.3404869203175656,1.62907286018653,0.9352244826589569,-7.897363458858163,-2.599326412448273,-0.7373053359968854,218
40.84357141670816,30.084482021132597,-51.16707614110443,63.11141385750406,-55.61160459956538,12.778417627408118,80.00457805736728,-83.2880101525054,-32.494928772233294,4.2267262180226695,1.7471842948454626,0.9180220008645352,-7.726786639394303,-2.460679595643454,-0.6738578056729659,219
38.94463403027455,27.808783465587936,-51.15040252706365,61.82032455608256,-52.13186492990992,10.891718380590067,78.15915055219078,-81.98046292059371,-34.292005151591056,4.060574342137185,1.787418042507767,0.8959804815404087,-7.4859379547320675,-2.312969503398214,-0.6924004832322899,220
36.9205324537714,25.51753651221517,-50.87682271400785,60.609481654320305,-39.726264024888536,9.503689975101732,65.35442723910589,-80.58717429189822,-35.42276909221315,4.023854038513186,1.8156788132687716,0.8614940989771585,-7.263342721311523,-2.2645797722847574,-0.7024919019519859,221
32.70381059574476,24.040967031724442,-46.421701058499764,59.415979193283654,-31.257522966653834,7.650289505088093,58.24301066639347,-79.19223213218513,-37.228624702461104,4.066990089545014,1.81658052836428,0.8627885362287498,-7.081082512572285,-2.2010497625546925,-0.6896174027404539,222
30.020159717410554,21.946515643951482,-45.485924070644074,58.155795551909016,-9.394608779073947,6.981962060056781,35.74914396272618,-77.77915849287022,-37.67131421178382,4.101734148297062,1.8250346354414377,0.9083120556119341,-6.928180540755419,-2.1510557147816685,-0.7007783010497849,223
24.261780425456063,20.743238048054913,-39.46394029869988,56.84505995503595,8.127713826911513,5.933261930612826,19.51880769891989,-76.3037758863563,-36.440760516735736,4.068548821264622,1.809822059415889,0.9425908586392125,-6.837188769893827,-2.0834399517334155,-0.7726157004052253,224
20.036197637034952,18.920789553105084,-36.98937475018212,55.45916672638268,29.37310219508976,6.913125603653216,-2.4788728168021064,-74.78613282183589,-35.52862478141061,4.126116973497239,1.7407775696478136,1.0047800833582,-6.732965483692759,-2.0185615108257946,-0.8441638211061911,225
14.648389509671187,17.09695241154758,-33.318748631492056,54.16486672489273,45.01054537080707,7.314034160234131,-16.87892478025313,-73.1170005070257,-33.841135400839214,4.1786296123353415,1.6689766637331325,1.0569040838158166,-6.588064169869839,-2.001206222700467,-0.9541981951757568,226
6.164219890737965,16.43421559429282,-24.463548985221532,52.867802687129455,58.01314642933573,8.32804719531975,-29.194507512501758,-71.4930889570246,-30.751924464151266,4.2015944818680655,1.597334779755976,1.1074782339898044,-6.503093225527529,-1.9819510182734148,-1.0877129707549253,227
-1.3513732772558995,15.143455696445573,-18.746733042423497,51.55215789244406,63.05884537473777,10.719385207629795,-35.74421463152395,-69.83102586936613,-27.338212819914002,4.3622831053947815,1.5519324610830896,1.21397699844985,-6.378088908681426,-1.9908222691832398,-1.2377725906237562,228
-11.346119443722216,15.047634687086031,-8.36686852659245,50.19580876096715,68.61336975799094,11.990551943816149,-40.78396420259355,-68.10234541558376,-22.124616895546573,4.477467363982867,1.5866651343152787,1.3916856455592814,-6.170131524649601,-2.0921438127812557,-1.5538756880261222,229
-25.091129887269062,14.108914146474637,3.6570384962131386,49.339926510155166,69.61529836858072,13.228588411626248,-41.23206714995693,-66.23753900768136,-14.395747887171732,4.178397806415001,1.3801321465150285,1.292118640295477,-5.749242211367022,-1.9313143669794592,-1.8030416971480494,230
-30.51932518636273,15.012870797933699,8.441188737604955,48.101290799126396,78.45736078738005,15.278386159717808,-49.71909653033854,-64.82844304549666,-16.357967970952227,4.416859587381406,1.2132070448323966,1.3847603357371212,-5.964107627292267,-1.931700298815083,-1.699960834696161,231
-40.45952857094818,15.971545635344118,18.00941136600145,47.18832181714734,81.17538964091214,16.756914685097087,-52.19694229476712,-63.306228024472844,-9.594237303993447,4.6244175097208355,0.9877642907433355,1.480161597314795,-5.800484119147599,-1.9303242208856202,-1.9948221838475986,232
-49.790444684038924,17.40769407930431,27.06887183695343,46.45714376792069,82.7169877780248,18.122585836995494,-53.58457406720488,-61.82478979963119,-2.4862249878469296,5.055616000338141,0.7532653788094705,1.4782119150444972,-5.596130144714015,-1.9793651637318885,-2.270491855793623,233
-55.77761726975939,19.196192412925697,32.796634187000755,45.648082814635174,85.05175714329351,19.865146929737303,-55.791756301997474,-60.48764307897869,0.5549267892582864,5.53091528466447,0.5368172156767983,1.5132120234315138,-5.536396829512589,-2.038438219216914,-2.435119604428605,234
-60.63656835971225,21.05553778294605,37.48413064750165,44.755232622105034,86.76031022387309,21.665752065207908,-57.43481913759679,-59.20821222587328,2.7587263523570704,6.000000000000009,0.3282417954600552,1.5298886776762533,-5.4669434594323345,-2.142442859312118,-2.564879032440638,235
-64.34327441259416,23.072800251955368,41.03661242418005,44.0259324634067,88.35954672087205,23.613368213632302,-59.02287141031788,-58.02143574909584,3.6334744669151466,6.000000000000009,0.13411326188193198,1.535801792159374,-5.454481807379634,-2.277544995081792,-2.6408844253823167,236
-68.38706192124917,24.780929689417867,42.438454386694026,43.52949414560004,90.05235203288723,25.683126899705307,-60.73433559963031,-57.00840611601755,4.459823036379861,6.000000000000009,-0.10222355390299197,1.55317357789547,-5.52517099603156,-2.3397902420334593,-2.7171846334789573,237
-70.35235975993015,27.275332922377242,44.11311301639141,43.06586882552184,93.68076472304078,27.31334918905117,-62.0656258494352,-56.13349904160223,5.580378973311718,6.000000000000009,-0.3474140436249533,1.5940966973811066,-5.643421699610859,-2.4051727016863365,-2.8272855545051083,238
-71.90068304121137,29.71751686458792,45.36118619136928,42.566460941830734,94.73034303325392,29.502234483532604,-63.19508560836995,-55.30851800335781,6.260160882463918,6.000000000000009,-0.5334519053047129,1.6083062995417856,-5.736945268172672,-2.51066125401705,-2.891298785817448,239
-73.24929711203012,31.968242476899484,45.92357421461075,42.05702203383999,95.74219622194062,31.89866981913576,-64.27715910054391,-54.572146345772246,6.227290834607666,6.000000000000009,-0.7368253586165426,1.5935134043084478,-5.8545373793959445,-2.550490846763396,-2.88105804600429,240
-73.83590935325542,34.47671908466801,46.6542275234065,41.5603960810343,98.00452040122816,34.008347858764346,-64.81732027089006,-53.86800668056671,6.3049186570425695,6.000000000000009,-0.902557918167033,1.6038345080248055,-6.0310764152682435,-2.631282312656535,-2.894447360582181,241
-75.45239775023701,36.52614409363608,45.88040570638999,41.126316552855286,98.29378227709795,36.33056451535263,-65.5238706996855,-53.041182650035275,6.892229311414814,6.000000000000009,-0.9803164184053451,1.622835486439824,-6.163384860718751,-2.7447455495629205,-2.9382869946227155,242
-76.09736477030155,39.12970048711815,46.5414960558645,40.511650306747335,98.52634406137852,38.61069044828544,-66.04127184188746,-52.36492765551727,7.893550492761311,6.000000000000009,-1.0795557274117407,1.6282268185103108,-6.250442206960052,-2.760409762736879,-2.9978820591057627,243
-76.64193189956114,41.62419167089121,47.13876983869195,39.86794860847982,98.75890672100483,41.05022971488962,-66.54464677438911,-51.8309816533919,8.104477232097642,6.000000000000009,-1.2387646937907764,1.6404798479354055,-6.316255801508013,-2.7517620068199005,-3.0251444215422185,244
-78.09838094094249,43.63532190231568,46.159662189086,39.43814437332639,99.66368744942669,42.88374575788674,-65.16292761718411,-51.04065657811533,8.099600639840405,6.000000000000009,-1.3373371942912793,1.662720541203455,-6.314401803216502,-2.8455675662162156,-3.06352188275643,245
-78.67580513263334,46.21862935953003,46.765846302366384,38.75074308241592,99.1721775566917,44.92162347013966,-64.84467910024237,-50.3322353670223,8.739859342113355,6.000000000000009,-1.4163152895393245,1.6366992142553443,-6.298622787913632,-2.889663973609862,-3.1342424846981256,246
-78.94786886013736,48.60149220314071,47.09151241881913,37.860111255876326,98.7950384632177,47.21493918681141,-64.62131277079747,-49.86610087534239,8.793230240146546,6.000000000000009,-1.4955821314035427,1.564721865022144,-6.32416054778767,-2.935543104766586,-3.1198260395647095,247
-79.275373157042,50.891681300322475,47.45842960420661,37.14756646298673,98.41840760128872,49.69129959224573,-64.37917877641586,-49.40028156692751,8.476388950683747,6.000000000000009,-1.5954246450596175,1.4957403251852626,-6.336571608940822,-2.9759147425689045,-3.0353092509522934,248
-80.22539732367623,52.76612797908516,45.85101292464883,36.52660076766037,98.14484482092536,52.165799150868075,-64.19645592123543,-48.983713032032085,8.081633004970469,6.000000000000009,-1.675515495166079,1.4459957643806225,-6.352586001448026,-3.023411357236764,-2.9650731706666837,249
-80.8551930453779,55.08825680307129,46.424198790669784,35.94295462877623,97.61888361810881,54.55933378306823,-63.67041003506101,-48.57400447884873,7.473583934438989,6.000000000000009,-1.7392098960876141,1.3922831953508739,-6.255167514783351,-3.0398968836394213,-2.892367248585329,250
-82.02712141925917,56.966549925473515,44.91787350586795,35.5846932206374,98.00901568256002,56.577389137310064,-61.389496676449774,-48.00058333559166,6.840407991504222,6.000000000000009,-1.8012220053293246,1.3413732267935756,-6.164447261516122,-3.0574883925887435,-2.794112720050944,251
-82.52816614552617,59.47196802996994,45.37496666221759,34.91230076824767,97.55410955998268,58.86394708098177,-60.87822619767497,-47.76350625605389,7.155601609971227,6.000000000000009,-1.8603527845377836,1.2969153545290621,-6.042450067308195,-3.0990903936008936,-2.8230273739929137,252
-82.88422253877472,61.92478320896979,45.69627946440765,34.03757197543481,97.26259102339493,61.163086991551914,-60.46470537467983,-47.680189882213476,7.71788600397838,6.000000000000009,-1.9067387993688951,1.2657583263186434,-5.9386528872776605,-3.1259506385284372,-2.879177085373672,253
-83.34569859035992,64.35837221660987,46.073090526307745,33.464069773665486,96.86069012312035,63.47883209470723,-59.92685538459979,-47.44821874290923,7.596164161661521,6.000000000000009,-2.0062454981624827,1.2223220389382041,-5.798452081384167,-3.0959213066478504,-2.870383327638467,254
-84.13134635078801,66.38508314402743,44.24125770441623,33.065508904637895,97.16041354993128,65.37502636694688,-57.455489570874235,-47.26327258330108,7.175908555980336,6.000000000000009,-2.1469295959336994,1.1221015772517378,-5.666695198451665,-3.1310638574602536,-2.8043773740609734,255
-84.27332688112331,68.78068478521061,44.44682929617754,32.59679737153361,96.67168586937613,67.7694197537298,-56.90866402661733,-47.152789381429294,6.8749639138540815,6.000000000000009,-2.292927472695417,1.0249913248001294,-5.544176342428527,-3.1983285095928564,-2.7268711067844538,256
-84.46376818614384,70.99222808987689,44.73516043084014,31.863096415211675,96.94219943891665,69.6976679886429,-54.271345570648336,-47.07312238424454,6.362967144097893,6.000000000000009,-2.515477649288661,0.930514610241643,-5.343348888483223,-3.163301009536963,-2.629184336125364,257
-84.31012145510475,73.13368050472744,44.823073059338945,31.074102579631194,96.34671177794974,72.01096691410145,-53.66376575426256,-46.75177534633748,5.543900609632831,6.000000000000009,-2.8043017179143326,0.8648509316711191,-5.216935095292343,-3.140786093649765,-2.530414215993635,258
-83.95230745406383,75.33596540328446,44.854825923434895,30.30925982831391,95.60409336056608,74.15152853077453,-53.08417921249277,-46.33513739924842,4.834370143523402,6.000000000000009,-3.156206818770133,0.8068798748191227,-5.113934668868254,-3.1711763180757218,-2.464984054839238,259
-83.23885298002743,77.39478430073922,44.77647729386908,29.200136811692026,95.5742671923847,75.78092653939868,-50.516555027857564,-46.022843960204455,4.2511317046996835,6.000000000000009,-3.5485083366978816,0.7274944865161622,-5.061017561982275,-3.26403954201147,-2.396182061564873,260
-82.52203367770704,79.33931501458243,44.77748142593757,28.298822862089697,94.67279311279091,77.98428389996396,-49.90838724255677,-45.581339966948995,3.2912938588537273,6.000000000000009,-3.982092982792958,0.6104961082805741,-4.96309455028282,-3.3695551481303805,-2.2381753408693053,261
-82.02136508233869,81.51105395400614,44.88019144787622,28.29882286208962,93.5144323126893,80.02286206760728,-49.20491801073832,-44.85624828745394,2.3875516418067395,6.000000000000009,-4.3685748312694335,0.5074623222142178,-4.821568064553782,-3.569119868238233,-2.069185099641926,262
-81.85349363216818,83.34410653855839,42.62854104880755,28.29882286208962,92.3566469450243,81.8175369266214,-48.55845222903125,-43.75605556782178,1.4904948399003497,6.000000000000009,-4.616539612469972,0.4104377039740475,-4.697951022011196,-3.8354411803267934,-1.9308914833339779,263
-81.47660657405449,85.44479717359324,42.698774729970864,28.298822862089697,91.90682558907686,82.96107542592058,-45.738367562601994,-42.776786365448025,1.1554098260141399,6.000000000000009,-4.813841742092823,0.29057299462382785,-4.576193962496359,-4.012737494593059,-1.7908607477368097,264
-81.21468211922651,87.31149400071486,42.785405593569934,28.298822862089697,90.39576934117312,85.06375942473787,-47.43137792145519,-41.378080002934695,0.7635002342248768,6.000000000000009,-5.030707294841555,0.1530823894829802,-4.461974748839383,-4.114557214953287,-1.601590659044343,265
-81.21899557075514,88.54191637189024,40.538220099377504,28.29882286208985,89.3929929177453,86.58858849053193,-46.89314737029507,-40.0769986734126,-0.1104475280166607,6.000000000000009,-5.140011572890088,0.04125870605635627,-4.318602791535132,-4.31711350706621,-1.3761796774885495,266
-80.85380326719365,90.06811019224861,40.581248921276966,28.298822862089594,88.54473831743523,88.00242975534839,-46.44988070391949,-39.097507438000825,-0.9134605410468909,6.000000000000009,-5.157479744633259,-0.036273992988044595,-4.212540946463239,-4.504154876277534,-1.1950970700333499,267
-80.7753767107827,91.29206203532846,38.94279247749242,28.298822862089697,88.28542862616072,88.59222676635372,-43.77707934040464,-38.36659110325784,-1.0604495358129886,6.000000000000009,-5.157808102953531,-0.07825590444221395,-4.110165480603863,-4.633007754006388,-1.126786746653806,268
-80.53451196928818,92.66846969486237,38.87458124037517,28.29882286208962,87.09178919347772,89.7329085263897,-45.74644701350988,-37.655566402572624,-0.8119445483956684,6.000000000000009,-5.083211942012197,-0.14287771125934537,-3.9804123412698607,-4.791916246417724,-1.1232008750922817,269
-80.47148343067914,93.81897438235323,38.82387448987855,28.29882286208972,86.58029402847386,90.277383183412,-45.45223636590326,-37.59799635506012,-0.5191136485457318,6.000000000000009,-4.938961866424886,-0.19690663236774686,-3.871036036061804,-4.885112408774365,-1.1545711884881056,270
-80.35880556652515,94.69668848966816,38.76185625379663,28.29882286208962,86.17458060554817,90.64700180931513,-45.24013571498537,-37.47316631012012,-0.2863668279228758,6.000000000000009,-4.690697194223392,-0.21160906154112558,-3.8077026948956676,-4.970634001673694,-1.1783613643947357,271
-80.32945691508834,95.39950297792238,38.73196433157508,28.298822862089875,86.06646144896503,90.81636701325773,-45.07499532570424,-37.49994482713074,0.01170588167659976,6.000000000000009,-4.357026740329779,-0.17930311502893925,-3.7366805530508764,-5.002648072127685,-1.2436054279725417,272
-80.14287342993606,96.16221909092378,41.169119191702855,28.29882286208972,86.16393180760994,90.76716874884201,-44.91315257323226,-37.60103790681454,0.3396889877335125,6.000000000000009,-4.026403059117152,-0.1161871336477773,-3.6293411679131533,-4.901002795211791,-1.2879378875398717,273
-80.3756433098449,96.28791344849087,41.31581929833301,28.29882286208972,86.36699187736629,90.5184766187962,-44.71010699397619,-37.97632803738685,0.29276475788358175,6.000000000000009,-3.7423338403002924,-0.04327818685164105,-3.4596581462365457,-4.744314590414986,-1.357886996386669,274
-80.24008206353696,96.58850344611666,43.861594721350066,28.29882286208985,86.0549377391575,90.56041938837917,-46.8607097622117,-38.41951554114995,0.44107450008904026,6.000000000000009,-3.4077090159678005,0.04121174502374117,-3.325036732878612,-4.639902490504009,-1.4399453951951893,275
-80.52721864148837,96.28135175475411,43.99234211669983,28.298822862089875,86.42912929407787,89.83328226062947,-46.76756424461288,-39.00214183111284,1.0146271690037487,6.000000000000009,-2.9659639704950007,0.16536222730596983,-3.246795710834201,-4.523867335337709,-1.5791616524698207,276
-80.51883843490496,96.11958696851495,46.58333587706723,28.298822862089594,86.91976925808854,88.90204795789772,-46.648379072740966,-39.7449370857575,1.7321078039679714,6.000000000000009,-2.4987758744956348,0.3059514122492753,-3.139761108019555,-4.3434373749172845,-1.7351908447554834,277
-80.80465838261124,95.30807469267677,46.794611550273345,28.29882286208972,87.44667426869218,87.97113994381228,-46.534521816279074,-40.726358633147946,2.0676313137954025,6.000000000000009,-2.0107895259472266,0.41510759472437847,-3.0495955182341503,-4.188992431005441,-1.8233103143427665,278
-81.20300783419576,94.10119041812403,47.02623138148678,28.29882286208962,87.47461726900589,87.51452256692198,-48.71169942349256,-41.3610463119782,1.4441102223953541,6.000000000000009,-1.6195865539490337,0.523870925571567,-2.958176276291053,-3.889156465097634,-1.7896167568296768,279
-81.51120135347273,92.63151557330211,47.30906307678782,28.29882286208985,87.92443214073755,86.35480729028303,-48.5894618241919,-41.8586682520232,0.41368382646495405,6.000000000000009,-1.325054140359434,0.5960536910853018,-2.8524542970918314,-3.584637550706245,-1.7172455617911357,280
-81.07464531751083,91.46312424613916,49.94178537722112,28.298822862089594,88.19190021085204,85.01619903056931,-48.47478242836282,-42.66862170162058,-0.15702266052260527,6.000000000000009,-0.961236895927795,0.6594461330619985,-2.7997382024987525,-3.493132804195215,-1.709573857406564,281
-81.08521828973642,89.82584482739948,50.21403213672634,28.298822862089697,88.50176447276095,83.562379712481,-48.334549611913346,-43.562386729281094,-0.32630816628956294,6.000000000000009,-0.5395648637798984,0.7743764574921339,-2.743738053126387,-3.4021238722848968,-1.7492568500861647,282
-81.23654180744731,87.89606327048018,50.47618672734283,28.29882286208962,88.361369402663,82.58389705882064,-50.44673654368566,-44.20824335505944,-1.0287130264910813,6.000000000000009,-0.18827863686576948,0.8810114393371414,-2.702876198585853,-3.1700267202550876,-1.7045718917750705,283
-80.942294766277,86.11518369554227,52.567686909885445,28.298822862089647,88.72550891309885,80.90813392035194,-50.319835480830946,-44.87115410422486,-1.535685844959609,6.000000000000009,0.15695119624054957,0.9384814002479132,-2.662477146844541,-3.0103648103547545,-1.6520527311576614,284
-81.00271430372175,84.0473216594885,52.252125509335436,28.298822862089647,89.10129814621,79.07961393984306,-50.22120250779293,-45.709465245583225,-1.729999740197988,6.000000000000009,0.5415306907262365,0.9882956868970062,-2.6638325720080522,-2.918316756513179,-1.649617057757536,285
-81.16443218729421,81.86602153938667,51.895988063211306,28.298822862089697,89.05191915937915,77.7643033571892,-52.333012330595174,-46.710605222833394,-1.8497051973771483,6.000000000000009,0.8461256966689202,1.022050252367983,-2.686733492614633,-2.69628167604009,-1.6434416940234355,286
-80.73637467035961,79.81596214572237,53.77630501406017,28.298822862089697,89.57075003097421,75.91891826489055,-52.25591088362513,-47.7944132079497,-2.432667463593872,6.000000000000009,1.1224734365738147,1.0473087387501865,-2.6790685687431908,-2.522014312999348,-1.5968933564954553,287
-80.09371457381596,77.62050606661305,55.51141055195385,28.29882286208972,89.94434709791368,74.00146381761795,-52.15083366334488,-48.75690849460733,-3.2445477244709098,6.000000000000009,1.4489299438563954,1.0558856230323923,-2.682311827313736,-2.4651471763494883,-1.5073372980179605,288
-79.98871270884676,75.1170482184156,54.94675966769657,28.29882286208962,90.41231953281167,71.8840238743405,-52.08336720353229,-49.747561259704334,-3.117716828139939,6.000000000000009,1.7788587741959692,1.0563733537912336,-2.70081843585539,-2.3788565543910214,-1.457755661650245,289
-79.9533912336376,72.52532052561244,54.339319557838,28.298822862089672,90.10799140973556,70.20071229142081,-54.00535107248037,-50.64483941742361,-3.3400140883688367,6.000000000000009,2.0361089439444124,1.0685892207571892,-2.7496442364282103,-2.2030933557819425,-1.4103179057812065,290
-79.49482384391372,70.66892785081541,55.81766375301503,29.665763101225707,90.48572532249932,67.79235894199961,-53.96476813747444,-51.35881882317342,-4.011493432280922,6.000000000000009,2.2928545588567872,1.097676608723922,-2.865859438239482,-2.0849176065714965,-1.3695962613258192,291
-79.7235529174691,68.81207351408437,55.17817016347091,31.905028737934675,90.97604383136523,65.28376204344885,-53.973871897194165,-52.229849194903906,-3.9370432438130742,6.000000000000009,2.552343825015169,1.0874913520476195,-2.9586160964070065,-1.9932102309136122,-1.3544527364435064,292
-80.05921261508217,66.75165360197637,54.68670071474645,33.77285861630645,90.66784693591653,63.23523942391737,-55.7632811382229,-53.24742132492025,-3.4497389824679177,6.000000000000009,2.781629816500073,1.056114024699667,-2.963652604864436,-1.851443480807421,-1.3610302226950277,293
-79.87267792271842,64.85571313130659,56.38555563719172,35.62487861819846,90.92763938377148,60.50872541636842,-55.434330164208866,-53.969414452514336,-3.5425807416925346,6.000000000000009,2.9845915891340455,1.046071629755854,-2.8766530045304797,-1.6999808587969567,-1.3486157031917727,294
-80.12550733975765,62.46113781888894,55.94046878627271,37.34325539054019,90.9083277724507,57.64714140221329,-54.91087302311086,-54.66198208499443,-3.7046253645309717,6.000000000000009,3.2111532854188636,1.0030078264532116,-2.786555829038036,-1.6313675825679126,-1.3206843858750479,295
-80.09239221873592,59.92379323977398,55.173270527825856,39.000028304956444,90.19897192076292,55.43362558655435,-56.37216809173188,-55.342076523389565,-4.9171404757717845,6.000000000000009,3.382792331558872,0.9281547565579279,-2.844880175482789,-1.5161637877103455,-1.202499455412872,296
-79.21084938020215,57.69680090916816,56.246869095108735,40.593086469624936,90.46967055757698,52.61170547918973,-56.23635004710372,-55.78738984095555,-7.062466610524009,6.000000000000009,3.497049217810971,0.8369114039438263,-2.9241601613541524,-1.4034993898949446,-1.0463903442282894,297
-79.05100324233645,55.064402148888774,55.507964930582006,42.1498014805252,89.38043310493204,50.19130393405321,-57.38843490027764,-56.11565314989057,-8.2313673086177,6.000000000000009,3.5556987220323175,0.7423433251543209,-2.9418090610175147,-1.3185709012961344,-0.9407346117272205,298
-78.76733692937529,52.48227767150391,54.75118114573207,43.757663204230155,89.30983441226778,47.09038281941812,-57.01638459795188,-56.345168404663,-8.745172575990065,6.000000000000009,3.563444810788386,0.6847920935504691,-2.9542048760392614,-1.2663023136708633,-0.9001381714785687,299
-78.36674242737156,49.88672684445247,54.01455943915912,44.96537290600471,87.90144871214181,44.2703237923134,-57.85257486718089,-56.573720355178644,-8.211443319247264,6.000000000000009,3.5694226509937557,0.6246244463254584,-2.9293812154228016,-1.2579192976061946,-0.9358318749473074,300
-76.90555648889544,47.56231834950021,54.804488594498736,46.004043640018615,87.64923067561831,41.015532070709796,-57.298517700524634,-56.788712253295536,-8.4847674379391,6.000000000000009,3.543851998814593,0.5449576728554516,-2.9082979928378334,-1.2285159315555672,-0.8990578303841591,301
-76.11854551415169,44.60683879901118,53.73623439725518,47.082046084181215,86.89790797449028,37.95206249235871,-56.886502772954465,-56.9145049851032,-9.232099637364701,6.000000000000009,3.54373595745957,0.4711124468704938,-2.8782616987174254,-1.279471495725926,-0.8282987864353365,302
-74.27805256911314,42.23267482389748,54.181854816877625,47.92850178422242,85.59488849221094,34.82270378855609,-56.35837081759715,-57.00705481611966,-9.031900570203817,6.000000000000009,3.582336336310383,0.41760812696935257,-2.8088480932264117,-1.3503971030791664,-0.849033738730481,303
-74.35055015951954,39.03342161215019,52.36404316400327,48.79760754126361,84.03868241003903,31.767816451149034,-55.507963705211175,-57.06036333086002,-8.941330803264474,6.000000000000009,3.58262645013549,0.36068369113540394,-2.711209036063196,-1.3619973834395303,-0.8637009855262122,304
-72.95958339046368,36.39722253085151,51.808720314955124,49.79167009353044,82.46216995804095,28.741572735674435,-54.69913123508098,-57.01334714500879,-9.150882986170384,6.000000000000009,3.597589311074215,0.2873901134858475,-2.6732254744646804,-1.4202805870102975,-0.8353507327037293,305
-71.11076860614652,33.86690951082425,50.67912395229392,50.566920683771876,81.03152880617671,25.588416335928642,-54.03508532677024,-57.006113996027125,-8.556469317363007,6.000000000000009,3.6222815673139004,0.22588199747846924,-2.703487076131341,-1.447305158500135,-0.8785042401184279,306
-69.2335049841546,31.359828062572745,49.51962828809437,51.168958884709426,79.06563136188929,22.42154841952625,-52.77295848077083,-57.032180902426674,-7.775651006983637,6.000000000000009,3.645275091884719,0.17616946355854818,-2.6977238758487965,-1.4567161840744522,-0.9718240138422084,307
-67.02996752236938,28.68209998062244,48.05399854438709,51.60938914115556,76.1676988955126,19.386109318598834,-50.51922010920674,-56.93166169656013,-7.623502949229461,6.000000000000009,3.686704995258453,0.08979886406954422,-2.659763760102028,-1.4809487435451296,-0.997476943387335,308
-64.10105851047275,25.937230518884395,45.85989858420981,51.917756980338254,72.76038678160646,16.468774665258792,-47.77123221782781,-56.79599320508139,-7.566750013775325,6.000000000000009,3.7254440150043275,0.011119854305965904,-2.651167301264935,-1.5225063398159508,-0.9883691584509627,309
-60.89650697614804,23.34347089172571,43.357374039489436,52.31932401627729,68.17730775045075,13.639540757180104,-43.833476581267256,-56.72503707116652,-7.579059674210323,6.000000000000009,3.723593499443831,-0.033589838012971086,-2.6254004073337587,-1.5290085629956356,-1.0298203287389134,310
-57.2345271239831,20.86365126106327,40.40623959143745,52.7115811418908,61.24770864211328,10.931416077300081,-37.567195905832435,-56.736378154017174,-7.530558494433772,6.000000000000009,3.695255130015798,-0.07355635608473511,-2.570215371097124,-1.5436213027251928,-1.1045462788214113,311
-52.37268678329254,18.410477267994814,36.260191419768745,52.96735066243775,47.33994100144509,9.480703482814869,-26.541031838719427,-56.722807331480425,-7.46797023520284,6.000000000000009,3.6350474442987166,-0.10714128153184707,-2.5368877620236776,-1.5459019262253648,-1.1640004573572431,312
-43.94132585390559,16.90241495705399,30.841702934512718,53.13453818380292,33.61937713461133,7.12117400409139,-12.195730417448734,-56.850661344257915,-7.877565274223388,6.000000000000009,3.565979388193961,-0.1381692478223356,-2.546343235178062,-1.5684783616139188,-1.1847634780895113,313
-35.29190464610329,14.920792571790875,23.069014262017284,53.222932478573775,13.453446847455147,6.724717157001405,5.793360859985294,-57.25518549561863,-7.985894225509429,6.000000000000009,3.517128164719326,-0.18328046974615272,-2.548167322360792,-1.6319670391373788,-1.2018469671116419,314
-24.11354541674757,13.123158464824751,11.917303931760282,53.120921916358824,-9.77087266697335,6.2172085331250315,29.034880827431056,-57.70650819080041,-7.795393677372756,6.000000000000009,3.4771425308759585,-0.2568846476587707,-2.5947363701848007,-1.6769374697097328,-1.1939020929791766,315
-9.777197518600573,12.894903720576199,-0.15033399659185848,52.94499364453573,-25.565922683782816,7.512310337613707,42.71257421548735,-58.132473742510086,-8.244828884171355,6.000000000000009,3.4536694683471274,-0.30343496897101885,-2.6329861867978335,-1.7426733200324787,-1.1572254409135,316
5.501971909495943,12.344984446424597,-15.291930300389867,52.810778551355355,-40.97286440737447,8.57461865432688,58.10584609784894,-58.70877811962882,-9.348844554041621,6.000000000000009,3.413825275398252,-0.35492454006468144,-2.61465597559632,-1.822068904654682,-1.092456662955123,317
18.28281574199157,13.46867799320111,-25.695555297673238,52.69548723880426,-47.2740399329046,10.459840206892832,62.24007809055482,-59.482021967979264,-9.976432059990074,6.000000000000009,3.303931582309228,-0.39204424880040845,-2.608378259944382,-1.8545621151074392,-1.0784507905142326,318
31.010197187803225,14.407670720893169,-38.18061271551727,52.53343136425238,-56.594461442551335,11.942381934046262,71.40068562420413,-60.3675916778734,-10.255879985843292,6.000000000000009,3.194779063949348,-0.3876102222114794,-2.6265584130014297,-1.9138924903780261,-1.083199209637572,319
39.476344922191736,16.44197032228667,-44.20732015365034,52.479228829314714,-63.30106588703863,13.742662664267854,77.97102739867108,-61.19454863596926,-10.392404964050403,6.000000000000009,3.1245503997407744,-0.3602817844443933,-2.606569316465813,-2.0098903598030216,-1.0841165435411462,320
45.94570725014135,18.99109141485466,-48.32042373633893,52.398834721941604,-64.14518665308185,15.554336791511611,76.66172177108918,-62.217075154839,-11.390195278177456,6.000000000000009,2.9798787505316136,-0.31739309228150653,-2.648636212705537,-2.0264020099713167,-1.0229025958339304,321
52.69469859299018,20.956387304701295,-54.69764600029349,52.43740319967098,-64.96465634662735,17.38401916768335,75.22897111937704,-63.364711550538956,-11.471754706695753,6.000000000000009,2.7921080419708226,-0.2578235468921808,-2.6855439284423532,-2.103559479138017,-1.0360032937929589,322
56.393846838033916,23.17833752390086,-55.80573047272681,52.85446311731156,-68.6269081126276,19.185604636329426,78.60523479575828,-64.41279011940843,-10.975021465012524,6.000000000000009,2.6179072319824157,-0.23774169180879384,-2.6105956019026224,-2.2440557693445924,-1.0700334454402074,323
61.027307080523585,24.996381223277343,-59.98692145970902,53.46518382259118,-68.45553978841657,21.096585638683056,76.24571124113618,-65.52443436691422,-11.019853104530055,6.000000000000009,2.4135586984703927,-0.26059488515695967,-2.57306402320456,-2.323345864606619,-1.0220775480142348,324
63.0603935035704,27.51080361469167,-59.5826005671067,54.123970949770744,-70.95532294634614,22.419186735096687,78.44817024157656,-66.86738837633479,-11.819221217735203,6.000000000000009,2.15008778233496,-0.30834204842884544,-2.545317965814945,-2.3635228755322926,-0.8888294889523162,325
66.6117774685808,29.323115198197343,-62.583193774435095,55.02956678041408,-70.10795693284724,24.01955470643183,75.40960791064053,-68.29528132433204,-12.126447403905642,6.000000000000009,1.9029034664754283,-0.3970455270972165,-2.474022907379681,-2.486592446760489,-0.7717466913499561,326
67.53773772896844,31.411847384684634,-61.02771136247235,56.20773302198515,-72.40094617478802,25.238674704832906,77.31991873172096,-69.9412072484488,-11.847396720715635,6.000000000000009,1.6879250782252186,-0.45703073185864307,-2.48353015517238,-2.6351459779484574,-0.7221865490968618,327
69.62498450180446,32.68295894423101,-62.68332226431033,57.73633686396922,-71.47317826224776,26.78445466568276,74.32900746930974,-71.61696913682812,-11.194083316059661,6.000000000000009,1.4738694515966195,-0.5233119931426072,-2.458401094911225,-2.729904180847215,-0.7165268040099851,328
69.74179419809086,34.370779412276015,-60.49230408661541,59.38114214186466,-73.09429500643611,27.853758203538323,75.6901746225,-73.29843693921553,-10.990656830356853,6.000000000000009,1.3334653499328497,-0.6184415556942807,-2.4571861368077097,-2.8774087846602483,-0.6777822019739412,329
70.82670838763342,35.45477941621008,-61.33458272966031,60.96388048798935,-74.71740947818978,28.80516402092945,77.10218737523101,-75.05477863403858,-9.955155442174954,6.000000000000009,1.2187195440817635,-0.6654630834479924,-2.5514458546573398,-2.9688964422931545,-0.7172160388666482,330
71.7576632699146,36.436785678195385,-62.11144299023695,62.39822158506883,-73.23660957750275,30.019405438379394,73.81670723161321,-76.78481439999287,-9.004564850865124,6.000000000000009,1.0839443699341889,-0.6761563072655252,-2.570901056602493,-3.0087252952737784,-0.8002813100248656,331
72.72949914987433,37.18276887398674,-62.84035199286459,63.731614306497406,-74.10789032047846,30.901008048620685,74.58580424155086,-78.34619585794898,-7.486729667470961,6.000000000000009,1.0012899423047386,-0.6709523835147262,-2.5426716364931337,-3.130224832692094,-0.9269439337888113,332
73.4480009145865,37.79450002218599,-63.34957291756836,64.8697067985584,-74.79010101280389,31.623111145074848,75.24222932724003,-79.84048713770441,-6.464453759807013,6.000000000000009,0.9567625802191627,-0.6280674077535241,-2.557379826952498,-3.241547705684488,-1.08202089067455,333
73.81080915004493,38.308132018535154,-63.61445459556402,65.85261272326035,-75.2769306216807,32.20022677936473,75.79395729751225,-81.22189725839138,-5.299173172001383,6.000000000000009,0.8950039613573912,-0.5768305853802488,-2.6112711361607706,-3.291156228438826,-1.2406478352709478,334
73.96760748775547,38.87055415049672,-63.738405041610186,66.55548727749208,-75.54332269739481,32.437256606097094,76.15636966681048,-82.50074204367084,-4.66100029823761,6.000000000000009,0.8141658960898894,-0.5758299163294934,-2.7062788482131457,-3.319424604118408,-1.3051495753862588,335
74.21839907203216,39.506034212800536,-63.92673024872608,66.8674461947628,-75.56696053919576,32.372191075047134,76.28059767539317,-83.64057484673343,-5.4542760558237005,6.000000000000009,0.788534116050152,-0.5865890267077409,-2.792074087633097,-3.399293608979401,-1.2842954067158547,336
74.31509648496625,40.24865261714567,-64.11824760996616,66.7487642188353,-75.15251470104278,31.948055575462483,76.08634942141794,-84.72799944899405,-6.151875466286194,6.000000000000009,0.838404994399936,-0.5880291002229997,-2.8590934050279158,-3.472096673356077,-1.2025574833254713,337
74.03696179890566,40.78152920686363,-64.11038646796288,66.41434169513575,-74.33901597350281,31.463298683054845,75.69445109135835,-85.58869945321538,-6.628780322784169,6.000000000000009,0.8853458113785176,-0.6217966731984577,-2.924122921304008,-3.454530501404637,-1.1329200703938935,338
73.53288583536239,41.05753675678013,-63.87254833843173,66.02946634218935,-73.37755868607758,30.82589121990093,75.19140546899614,-86.18813880734415,-6.8863698147187735,6.000000000000009,0.9373455063327566,-0.681347382997119,-3.036469290212965,-3.4366020198062186,-1.0537210379218722,339
72.85911778459591,41.305529820290374,-63.472565008018364,65.47504646795166,-72.32286412890713,29.76023781401773,74.51897727127312,-86.70900956874658,-7.319650529096459,6.000000000000009,1.0599238238894202,-0.7143346985232855,-3.219452193983607,-3.478915376181018,-0.9368632812147526,340
71.83643851010109,41.378629317206965,-62.87379490072128,64.74109356453366,-71.02169429225378,28.60486800595737,73.66703364100557,-87.02831981213141,-7.174852492923954,6.000000000000009,1.2341682238968692,-0.7488976596432437,-3.413703394404228,-3.4912187594688704,-0.8599796917596674,341
72.19906498274997,40.58873068711458,-65.4468999001311,63.98625886820029,-72.40982164689511,27.047262942121527,77.14506168232518,-87.1381167908413,-6.770339112322412,6.000000000000009,1.4492262241330058,-0.7689520757416086,-3.5600186412143295,-3.4883048988140386,-0.8439563392592262,342
70.73242432354306,40.1365879644761,-64.53929521637475,63.33382766668143,-70.14572034380853,25.51487580114911,75.49222601371271,-87.19911970416736,-6.382269346684327,6.000000000000009,1.632142926624808,-0.7965286961073041,-3.706359221851809,-3.400102446635664,-0.7694620230695685,343
70.6159456222426,38.995523356161236,-66.81768325824368,62.73139036255083,-70.63387179886831,23.398985857922618,78.23314390073584,-87.21246198690768,-6.795286123302035,6.000000000000009,1.7248771065555453,-0.7811701676742605,-3.822165722804208,-3.219235147876105,-0.709686185562096,344
68.7811270496138,37.931529715005915,-65.5215037611867,62.26749179726992,-67.26005803468847,21.639589518039696,75.38146522745816,-87.01664568860055,-6.376243071800884,6.000000000000009,1.836848549125455,-0.7977432237695355,-3.8854607067229394,-3.1188761928723654,-0.6851804366557136,345
68.54100613781722,36.361006882175296,-67.58956613756848,61.80359661990282,-67.4322245376849,19.33366559016035,77.63339171259193,-86.71402290549997,-6.2112323095448705,6.000000000000009,1.9962098009994402,-0.8580758075519874,-3.9538352908018113,-3.0578610395917516,-0.5979276240292659,346
66.35268314134665,35.09262566537247,-65.94719301516447,61.368863459607866,-62.0301331197087,17.13906205824986,72.68462031379862,-86.43920297685888,-6.724431714140709,6.000000000000009,2.086703789006804,-0.9140323687495491,-4.000976003429093,-2.902669603135064,-0.48431014151052615,347
65.6698791253738,33.12950041600605,-67.57320786813165,61.02315666510633,-60.54764175569894,14.514499026472818,73.2461148064805,-86.00954682797722,-6.870132316272977,6.000000000000009,2.160418549078764,-0.9569205257554857,-4.058313339786237,-2.77421001772766,-0.42260370818239373,348
