JMW9912/AVATAR/install/dynamixel_control/share/dynamixel_control/data/csv/poppy/.data/waist_test/2DoF (2P+Ori)/0422_2047_gymnast_2_2_dof_waist_with_adj_poppy_smpl_motor_degree.csv
theta1,theta2,theta3,theta4,theta5,theta6,theta7,theta8,theta9,theta10,theta11,theta12,theta13,theta14,theta15,frame
-97.09880523310753,83.00699438130749,-4.328719194495788,28.29882286208985,95.59269668964062,88.26543100173616,5.997371647180381,-28.298822862089697,-55.32579890711414,3.522780921514942,-5.394260697766086,-0.9407846655431922,-0.4842099347013817,-1.1274062683576,2.010044993930206,0
-101.68637410753128,83.17671304300514,-4.099337108731662,28.29882286208985,100.10307262771862,88.66303162994741,5.452797176493415,-28.298822862089697,-51.93092198996839,3.7657184281081912,-4.020756019123267,-0.8047609780248834,-0.5179197766218969,-1.2472175636260563,2.0428798970250526,1
-102.68871396236275,83.87683901277678,-2.874862138807969,28.298822862089697,101.3040590707081,89.74948300924343,3.091999232056096,-28.298822862089825,-50.50533271596324,3.78599101064045,-3.7221333760196615,-0.707577401539882,-0.6535739816617054,-1.1721718953051132,1.9984517651289004,2
-102.96294594883871,84.12926619057477,-0.3834925350170749,28.29882286208972,101.56355085544584,89.48110060764732,3.1018018524180757,-28.29882286208985,-50.51526230503622,3.760506420399775,-3.3344578240063125,-0.6967825822656778,-0.5770117790159068,-1.1155049823344296,1.9929192873651445,3
-103.92669080453322,84.19366089296258,-0.45464190841336455,28.298822862089697,102.5209245121478,89.59435606581143,3.0701855059953664,-28.298822862089697,-52.40490426178565,3.638249260578367,-2.980662532835211,-0.6745033936388342,-0.6414804672862394,-0.906925555753508,1.9769875347936532,4
-103.93881342492425,84.14718828938761,-0.5222505639536253,28.298822862089953,102.50651926226247,89.64495906526082,3.002633976035131,-28.29882286208972,-55.13359551523161,3.50551717601245,-2.635578092853734,-0.6598041457471353,-0.7059671608074591,-0.7173667019269666,1.978409360483124,5
-103.93816830615407,84.11963483707663,-0.5692782600782413,28.298822862089747,102.5233553550707,89.6468281270886,2.950619273497525,-28.298822862089647,-57.59872985438301,3.3907071192486025,-2.52351935169494,-0.6743307378597617,-0.7537714553643436,-0.49687672595420973,1.9845783971203061,6
-103.50025654584512,84.25450001471069,0.3132075788369478,28.298822862089697,102.23094722115898,89.61134556061319,2.973653691863602,-28.29882286208985,-60.90372287345358,3.262185620983342,-2.3579233379181206,-0.6972478293374569,-0.7114923280967367,-0.23637450515711725,2.00349306083233,7
-102.61256170819223,84.20142244808288,0.2552369175026252,28.29882286208985,101.56470113726586,89.5094246034139,2.976411616753139,-28.298822862089594,-63.49218911164108,3.1579319833815234,-2.295288523898935,-0.7179918815417982,-0.6693375879289,0.004056103870816674,2.011275360427434,8
-101.48927610232568,84.2738606022679,0.12249547906083101,28.29882286208972,100.53361864336455,89.27021865830652,3.570246871155594,-28.298822862089747,-66.82565558723829,3.0435500725613585,-1.9925034498042995,-0.7507954779912049,-0.6166289622170622,0.2745155357255051,1.999188483746386,9
-98.8215388376045,83.9940448235522,-2.62054496156163,28.298822862089697,98.35446124736303,88.77825482675362,5.230138574612078,-28.298822862089647,-68.79647640287277,2.882139596745805,-1.7245376917587565,-0.8269521751846037,-0.6466290112141667,0.4889816186720428,1.9466214205157177,10
-90.81562425213745,83.59785227944582,-7.885021524783482,28.298822862089697,90.28066015885302,88.09925862964157,10.067137406328442,-28.29882286208957,-73.84973113302821,2.728998508874821,-1.5020805447095695,-0.9040108899418949,-0.48323257681715487,0.760179334365148,1.9005219598487915,11
-78.96978689903806,82.97783970529483,-15.39223410290854,34.57895116720228,79.73638023104431,87.01077064297083,14.493334822310624,-37.6950254592615,-81.9581532172418,2.6537016951738788,-0.7417142413019547,-0.9150377694217615,-0.6203304730606851,0.7584702186345954,1.8865835155439297,12
-65.27879853184125,80.97239677358723,-22.4406709075594,34.260276380761226,65.00326550113337,84.19614538713452,21.2322035831941,-36.48041064508126,-90.0,2.6646468604859264,-0.574832131743727,-1.0316382144467882,-0.6166528937757932,1.216718568699029,1.8470278184731146,13
-51.56631877069226,84.5294094301197,-30.808783455023143,28.29882286208972,49.929492354110366,87.16879125290738,29.22805921907594,-28.298822862089594,-90.0,2.8265540451246305,-0.5054448083820869,-1.093990327920693,-0.7727390982732047,2.058204266471753,1.8176134949668663,14
-36.03461424677099,84.81704924896846,-35.67741379488051,28.298822862089697,35.068807292539404,86.93353617103138,34.219159885729944,-28.298822862089825,-90.0,3.2891644807389837,0.6192438761249268,-1.0894408723970486,-0.6598409311316449,2.529750785019391,1.8070710330431494,15
-27.50305608959805,84.78875312684119,-45.349746149276754,28.29882286208972,26.770585220941747,87.55608521103093,44.24963305013879,-28.298822862089697,-90.0,3.80241770452208,2.642302624018474,-1.0824764488248422,-0.40733721490822683,2.6853788259530083,1.7597225573825261,16
-18.935401676750207,86.4422168738361,-43.051130555665154,28.2988228620898,18.39263897979493,89.16709876766294,43.462317931597845,-28.298822862089697,-90.0,4.077879300279308,1.5794286046644677,-1.0911744735760116,-0.35253106394470723,3.0350164726153643,1.7053969242406002,17
-13.48904405208989,89.15407630191284,-35.49441797343264,28.2988228620898,12.595082931860665,90.54820106623427,38.04865968494631,-28.298822862089594,-90.0,4.310014294771713,0.21754968016046303,-1.0574791209127212,-0.5038367566146441,3.4971866097958704,1.6807774855062687,18
-12.40599615974823,90.90791760364351,-30.61138877157404,28.29882286208972,11.73037919622196,91.74495671474534,33.14697748715462,-28.298822862089672,-90.0,4.613797367235031,0.25168195966211315,-1.0677101013346482,-0.47970853538418046,3.9334898979190727,1.6467697280805138,19
-10.761701730197851,92.9142554053572,-28.12829392832694,28.298822862089825,9.966298225777484,92.9142053001213,30.406825494751672,-28.298822862089697,-90.0,5.0207347144113275,0.6485520272887366,-1.0549813238013683,-0.5564433053196336,4.222210430777408,1.6768593510890855,20
-8.554501712118727,94.3755962429082,-25.45834145249876,28.298822862089647,8.199874459644942,94.5504101237529,27.772732338703392,-28.29882286208985,-90.0,5.172348024354556,0.5189777744225411,-0.9876042851790731,-0.2541919831133364,4.471873537215867,1.6176103006349758,21
-6.532107223262355,94.73924208335534,-25.042166969770392,28.298822862089697,5.957963867026862,95.01991420365412,27.38139061501455,-28.298822862089825,-90.0,5.3189653037232825,0.46123385689798096,-0.9900283967522362,-0.07409297903619748,4.596637496721757,1.5958433617970031,22
-4.778656596414674,94.86836881359588,-25.046824207517076,28.298822862089875,4.436965355930366,95.26891464058988,26.4014614022611,-28.298822862089594,-90.0,5.447138694848808,0.6506547302572133,-1.003788849609313,0.011449815549591154,4.688639491252447,1.5750877028002896,23
-4.0021382601169435,95.26862882824727,-22.647762641985874,28.29882286208972,3.6683085441209005,95.55979624482798,24.069850961783423,-28.29882286208962,-90.0,5.5075646104129445,0.7390999145766708,-1.0402709352170774,0.037138080995297,4.721104243157019,1.5650127641630711,24
-3.8382322414263865,95.4046550514474,-22.61677310894021,28.298822862089697,3.454145262434556,95.51002651653644,24.11943676412018,-28.29882286208972,-90.0,5.5145886665541495,0.7758961237203797,-1.0903217734176247,0.013898978692315897,4.746510841222008,1.5619852625265367,25
-4.266389719158054,95.35299218883588,-22.567255980327797,28.298822862089594,3.8047558433263795,95.45853018588399,24.147362722130843,-28.298822862089697,-90.0,5.51232879358644,0.842945327137977,-1.1298434794215675,0.029344273830847274,4.76048185494791,1.5597277217630898,26
-6.246827842778485,94.92829125870767,-22.437515840759325,28.29882286208985,5.900522755679429,95.11172087544774,24.11528060339088,-28.2988228620898,-90.0,5.445645622833136,0.8686857083820322,-1.1604773293827029,0.06704640314776816,4.721240195073142,1.542499122783216,27
-10.386287948176443,94.55245267869378,-20.646737205546565,28.2988228620899,9.73838892623077,94.73304902346759,23.493808493325133,-28.298822862089594,-90.0,5.234649218734879,0.5202982171862892,-1.1999985086213727,0.09822035663758485,4.579743159983576,1.5457866707549974,28
-13.948431387213324,94.25073326644959,-21.17749097015651,28.298822862089697,13.389718881915435,94.72293306518273,21.82994354756976,-28.298822862089697,-90.0,5.124365888654886,0.08612794331707252,-1.2595739085752793,-0.016607710664325957,4.462375756130825,1.5391516999035582,29
-15.691852975769024,93.81486470318833,-21.321562377184286,28.298822862089697,14.914360928619885,93.95710596914257,24.556392813159473,-28.298822862089697,-90.0,5.101724612046616,-0.1144265458686899,-1.31670782072028,0.03589628098539472,4.3069174931098235,1.5045209876515062,30
-21.657827875186854,89.96205200959491,-28.423264664883654,28.29882286208972,21.205680398137023,91.17370203760943,29.602367256536834,-28.29882286208985,-90.0,5.4093497336651035,1.6518155533358816,-1.3055257387257417,0.33487899901396134,4.1223892931666395,1.4777333127121388,31
-27.317412588190386,89.94350814705962,-28.46533424837204,28.298822862089825,26.893230606067753,90.92621016438696,28.443216437430852,-28.298822862089697,-90.0,5.117826488461131,1.3416443400273046,-1.3622124740126798,0.02610647285906451,4.0828064037155425,1.4679368352846154,32
-35.5068861479318,88.40794979223857,-28.2585389708753,28.29882286208985,34.95113380789202,89.4075024087551,28.048723960107477,-28.298822862089672,-90.0,4.79112369396428,1.069025163285883,-1.3511994021939386,-0.1509667533509081,4.014613367094152,1.503791930024199,33
-47.97423290869481,86.08345751518512,-22.677175803302635,28.298822862089594,47.627924283160404,87.77167613243947,25.44504397730467,-28.298822862089697,-90.0,4.214289054756791,1.1923024577197772,-1.3394186309486233,0.2346852693693303,3.8847353055852847,1.494819790776914,34
-62.27695982257109,83.76509476768669,-17.307386920699322,28.29882286208962,61.805319099379574,85.92224202421863,20.049741857157343,-28.298822862089697,-90.0,3.342926155742031,0.2645648541217414,-1.3542453173043576,0.017062937176196665,3.469748483977382,1.5137971724933466,35
-78.09028740084192,82.04033087936553,-7.063866111848799,28.29882286208972,77.92201020903796,84.53028996234163,9.753136947444125,-28.298822862089697,-90.0,2.509760019335064,-1.068554345297089,-1.3580569414393662,-0.13038454299903657,2.492784943998923,1.5503786784926914,36
-91.23182521706362,82.1328931378086,5.2700636290149125,28.298822862089594,91.18782154026925,84.56698739700381,-0.19774543258358052,-28.298822862089697,-89.76239093207295,2.2866173947517376,-1.7525421470736,-1.3497415196594926,-0.21264071128384837,1.6502013120111472,1.5870044936599872,37
-101.150642896124,82.0572093768275,18.285510192280142,28.298822862089875,101.06921683330215,85.0719056528366,-14.185880150074881,-28.29882286208972,-67.34275563120018,2.454891206801448,-1.6481853426751476,-1.3160450362597274,-0.1758291813272237,0.49204912546515245,1.5381508670941337,38
-106.56130338242974,80.93353645752029,30.162456498575736,28.29882286208985,106.8333929573926,84.16129825299053,-25.456486370908415,-28.298822862089697,-52.402574232089044,2.908325620079226,-0.9461838961535329,-1.2443785092385158,-0.057428469039863664,-0.7872108263122413,1.5738304191562262,39
-109.51157602313013,77.48927117262886,37.95431644208985,28.298822862089697,110.35916484050937,80.69119398240004,-32.8398499260713,-28.298822862089697,-39.242728368852234,3.6862036333001895,-0.29416726599360044,-1.2506545408784773,0.13806946913025284,-2.43530672111756,1.6113936684463517,40
-113.91533316665398,76.3492542253032,43.57741192250681,28.298822862089647,114.19685288328577,79.62184450686082,-40.22900507273241,-28.298822862089594,-28.80173479378821,4.71943727688853,-0.0947221911586279,-1.2979619218853002,0.25566341372913315,-4.093297835635512,1.560051969078527,41
-117.46699370392113,75.38537807562935,46.16149587876918,28.298822862089647,117.87832246190541,78.90743884663182,-42.200276481627064,-28.298822862089594,-24.08650658111864,5.506531475698934,0.21934934088132435,-1.2456664773620594,0.19727253187341132,-5.364962972547058,1.5259780631915212,42
-121.16455131435659,76.0373658872633,50.145865345189364,28.2988228620899,121.18713554737879,79.82431565907495,-46.83582760729903,-28.298822862089672,-21.644258690186952,6.000000000000009,0.4230897031951701,-1.2058784326386525,0.08083827710361366,-6.407974240418446,1.5177993102187406,43
-123.03197052459339,76.93690044378148,49.94032250860754,28.29882286208957,122.85382104476803,81.28865827786544,-46.66149240075253,-28.298822862089825,-19.785576805010656,6.000000000000009,0.46480377017491015,-1.157932049463778,0.005901762941279239,-7.0357480776128885,1.4645312915372128,44
-123.99287781681812,78.2707985391163,49.66565463148766,28.29882286208972,123.4401158245028,82.8747854521191,-46.47250085573968,-28.29882286208972,-18.86943100000225,6.000000000000009,0.4740455557060161,-1.1284200009244398,-0.0696913842097285,-7.437435801694028,1.4294266970309577,45
-123.26506645721058,79.3016271191102,49.36550122883203,28.298822862089697,122.6096987568005,84.32418880953504,-46.38055547189691,-28.298822862089697,-18.0100191001291,6.000000000000009,0.5572812627648609,-1.0877914277243792,-0.21769415415095436,-7.592020896774831,1.3805467217033642,46
-120.69903506383055,80.72750297705038,46.6957610708493,28.29882286208972,120.02865717200437,85.59084336056378,-43.88855980918649,-28.298822862089747,-19.13697798429899,6.000000000000009,0.507182377371842,-1.0795025007968067,-0.2889252613923659,-6.800070515230654,1.3327163488369478,47
-116.25931970011607,80.20131856386087,39.62774137068762,28.298822862089875,115.95223951771953,85.0229470827944,-36.85401658985972,-28.298822862089697,-21.945228353446208,5.786481118603571,0.12127133021084122,-1.070382643174331,-0.3388420469703862,-5.538279066956631,1.3502392420962104,48
-111.22630619373673,80.01763400567107,32.19331540314392,28.298822862089875,111.5523374709067,84.54401751732888,-29.864503433887243,-28.298822862089697,-27.514885015645707,4.67502297935113,-0.49111552423039806,-1.0868534646876469,-0.4824967055591289,-3.728100211155184,1.3613878947996265,49
-108.00412120488723,81.85081283944675,27.68113241124275,28.298822862089594,107.33784337131677,85.8434140689296,-25.7452968859973,-28.298822862089697,-36.93479826264184,3.7319432255941436,-1.6691298831320887,-1.082968786859625,-0.49855130333032965,-1.752438978973728,1.424994870025685,50
-102.46851393325288,82.77415445416162,21.031692960097185,28.29882286208972,102.26031608530633,86.17906242004547,-16.89156232156933,-28.29882286208962,-48.61087523431925,3.0410627562849277,-2.3570529132138143,-1.0913806783531497,-0.30892595607749007,-0.16460020840181097,1.504402944467122,51
-95.52450704989587,82.38636743441128,9.701214165872363,28.29882286208972,94.78576712722568,85.91112810061304,-7.441198490993497,-28.298822862089594,-60.965835493839755,2.6574977509473956,-1.9983136046209502,-1.0957783019621978,-0.32575884995680243,0.7299766365729687,1.5336555544982144,52
-80.02433404914983,79.43101810114179,-6.6867551247022305,28.298822862089825,77.77119778880008,82.7178710670413,9.124528854751382,-28.298822862089747,-69.63621824397308,2.6030798780060915,-0.7546003433674926,-1.2389749667776226,-0.2627570804069107,0.5040333426186246,1.6406658602648614,53
-64.32593420500987,81.93341240993166,-19.29214033961544,53.689670867828376,64.2424737665972,85.45053564830216,17.494290178595268,-55.981091472226055,-90.0,2.3941629468124765,0.4975533168126733,-1.2367535015142486,-0.04596100116024668,0.7784344003060559,1.605219654976132,54
-32.816235962470344,78.1603315313671,-31.086700005234054,51.763572129272006,32.28225853520817,79.07454987220606,30.482667606475697,-52.21461342787906,-90.0,3.1872573364936256,1.2288700061049702,-1.219044435822845,0.15444460321843415,1.5032411913137984,1.6842086366113727,55
-9.646865826199669,85.17234793797243,-40.055737885267106,28.298822862089647,9.18833852277185,85.18141845667743,36.959013858622065,-28.298822862089697,-90.0,4.124237936234955,1.0665679429348964,-1.3066223791367706,-0.15632984523314816,2.8678500810786205,1.633624456594735,56
-4.216164470886555,89.71723866626289,-31.026020248466654,28.298822862089594,2.82258048191243,89.35959363064235,32.87173091910414,-28.298822862089594,-90.0,4.686934134182414,0.607282215640008,-1.339994276034916,0.16012953406486613,3.8247924818431778,1.57267464777845,57
6.520001448614572,89.75631577988048,-31.041651294326943,28.298822862089697,-7.703269236138531,88.53104433742733,32.71008314229741,-28.29882286208985,-90.0,5.498247840317894,1.5912798802208457,-1.3159265485411233,0.14328103690640634,3.9272452102884863,1.5523000939591989,58
13.188977434177515,90.81738677693434,-28.800650056005768,28.29882286208972,-14.038184667117921,89.56822293035368,30.462137981029056,-28.298822862089697,-90.0,5.794571036050141,2.0597092128250036,-1.284982218242514,0.15854523058638514,4.08290025006431,1.5138949479852235,59
19.99399184071058,91.56999658539304,-26.437175470216395,28.298822862089825,-20.693283899640466,89.8873196464559,28.14430496932933,-28.29882286208957,-90.0,6.000000000000009,2.538828393440051,-1.2690968983507847,0.057785865247602805,3.973668995198977,1.5030744073400253,60
25.348648793020953,93.05031638312498,-24.2827452549065,28.298822862089825,-25.952558500869632,90.60737122226878,28.29631753518561,-28.29882286208957,-90.0,6.000000000000009,2.513922669807217,-1.2123072110020316,0.01934804129872984,4.034372241630289,1.482457331986964,61
27.291900815482986,94.59905342443008,-22.14128387626577,28.298822862089594,-27.825231624326445,92.12981201533047,26.173823651057994,-28.2988228620899,-90.0,6.000000000000009,2.475548346053741,-1.2029982286164371,0.0048825208090265415,4.08466228274425,1.4704563414262417,62
28.627185712514642,95.4601132670306,-22.373000046173956,28.298822862089825,-29.265192803869454,93.06050917843157,26.31242752030841,-28.298822862089825,-90.0,6.000000000000009,2.7058512145955262,-1.1991777077733667,0.0660155220517308,4.122561740513863,1.4839283335049434,63
29.269299735503385,96.22029780902365,-22.521966213737358,28.298822862089697,-29.991228517749608,93.76339476672278,26.46682796320094,-28.298822862089647,-90.0,6.000000000000009,2.8652174394493453,-1.2118570458252693,0.06811674219411544,4.165467143998453,1.4854505355743484,64
30.003769796863583,95.9113799550553,-24.89811955637519,28.29882286208962,-30.476662519288215,93.92100918093489,26.494051182146087,-28.29882286208977,-90.0,6.000000000000009,3.0251531128070837,-1.2358619286180716,0.1267563824824268,4.157796996790909,1.4608168477574168,65
30.89905882252714,95.60192937036585,-24.795930826900477,28.298822862089825,-31.259775302716484,93.52248984106835,26.450767152568854,-28.29882286208972,-90.0,6.000000000000009,3.3006374698362175,-1.2665869272314159,0.15119071130414846,4.154302273485271,1.422945203448332,66
31.68531947663317,94.70628660567637,-27.017071920556027,28.29882286208972,-32.142418979432506,92.62042488945869,28.737653901378103,-28.2988228620898,-90.0,6.000000000000009,3.3111838015360826,-1.3021256692510959,0.16437912116768577,4.137831913797274,1.4056367293710181,67
31.94512639008502,94.41185972258566,-26.931511789524812,28.298822862089594,-32.44481236362158,92.31245879773971,28.702204714785147,-28.298822862089697,-90.0,6.000000000000009,3.3966113484513945,-1.3592164016897779,0.2056276192182708,4.12708897335096,1.384918091542976,68
32.066465954968244,94.0951403682028,-26.849596982587983,28.29882286208962,-32.51329915207998,92.09581887511234,28.676875936425912,-28.29882286208985,-90.0,6.000000000000009,3.3573131578205286,-1.3912931548542238,0.23458798142602888,4.097786339572809,1.3598839055038032,69
32.4276156551934,93.71761524047103,-26.699330911433606,28.298822862089697,-32.66795523610029,91.64669941049607,28.66214193192017,-28.29882286208985,-90.0,6.000000000000009,3.297519824837097,-1.4040970686293026,0.17537237960806557,4.031179904059242,1.3331887543644214,70
31.66474706848053,93.44925164635141,-26.655770042274188,28.298822862089594,-32.275994693048474,91.21171823886053,31.006668258543687,-28.298822862089875,-90.0,6.000000000000009,3.2431159620962178,-1.4340445076151005,0.2481558840205096,4.0006614155546325,1.2999512374683346,71
29.832300855223558,93.01813214796114,-26.543430418390674,28.298822862089697,-30.072107021447444,91.2354718112501,28.59531677475921,-28.2988228620899,-90.0,6.000000000000009,3.236482959333798,-1.4679303830061028,0.29246985136527853,3.926089098030691,1.2638587711018305,72
26.81327329207263,92.4403629205133,-26.405533830058776,28.298822862089594,-27.27092689068623,90.9389923323394,28.55652118645044,-28.298822862089747,-90.0,6.000000000000009,3.177431623820052,-1.50763267287233,0.3446776900470361,3.823844300901465,1.2475621085088997,73
18.11801748845174,92.831719292027,-26.528400428023897,28.29882286208985,-18.840660164925055,91.33788134066953,28.58937883710633,-28.298822862089647,-90.0,6.000000000000009,3.3782067021724043,-1.5034098033637395,0.4592191480290073,3.945046477756526,1.2764107281512016,74
14.714202596617328,92.21602134695952,-23.908570388579086,28.298822862089697,-15.879809070568685,91.08236193134664,26.134796089200346,-28.298822862089978,-90.0,6.000000000000009,3.0341618904133867,-1.5755207980124912,0.5907409401642937,3.671640997056003,1.2402543932963601,75
-6.269399100204756,91.21387636592178,-18.5348725169329,28.298822862089697,5.13636720675633,90.6634656141652,21.396506920327713,-28.298822862089697,-90.0,6.000000000000009,2.6978944932139104,-1.6156221032991671,0.5086210852644234,3.9306246660654858,1.2547323235977828,76
-24.963324583217993,87.52245001105751,-22.43921414204675,28.298822862089672,24.045736224057343,88.10529498285331,26.040471803609492,-28.29882286208985,-90.0,6.000000000000009,3.6442980314268065,-1.628548151597332,0.7456298163827128,3.7246374196946346,1.1769727412685616,77
-34.683495536393536,86.68984198915939,-22.1702371963138,28.298822862089672,33.54869191464426,87.90065602788718,26.095948524459843,-28.298822862089697,-90.0,5.37887244254397,2.5424446711053474,-1.6812927576977574,0.689773199969158,3.220054658648004,1.2334385159890766,78
-49.363078743553245,84.29479991769178,-16.700219167363592,28.29882286208985,48.399785099739304,86.18088421770919,20.81921878862972,-28.298822862089825,-90.0,4.616220943458477,2.034232287492289,-1.6685446997077216,0.6775648242618337,2.8195877339675945,1.327775040622375,79
-68.43841255477452,80.7878240540473,-6.136602843659252,28.298822862089697,66.93494068097681,82.51040333196315,12.42787125058824,-28.29882286208972,-90.0,3.280533275705843,1.0554865401825813,-1.6577743995559102,0.4216809332382794,1.8436765842145315,1.4183545765300825,80
-88.1955877472668,80.43881230874486,11.09379916892901,28.298822862089697,86.80482759977849,82.37384127548582,-2.669409205299401,-28.298822862089825,-90.0,2.517226753225289,-0.3707967240633185,-1.5709995348571995,0.2757942212082069,0.8936024942054147,1.5545351690544438,81
-99.85315368817518,81.63015935520252,28.322773874717083,28.298822862089825,99.43673320541885,83.47198662224312,-18.87068313086708,-28.2988228620899,-75.38567953866097,2.462716180372616,-0.993746994137089,-1.4927444631458784,0.16256401839238563,-0.2774341069134694,1.5767498985058055,82
-105.51413595742576,78.85627971056878,43.46274413594816,28.298822862089672,105.61741525973369,81.57672439556404,-35.968552221756084,-28.29882286208957,-51.88629178048694,2.911726646920143,-0.2250133934758206,-1.4079886725146211,0.1800220037426472,-1.7942202600459014,1.5107808333312422,83
-108.37032715642312,70.31028675777719,47.78409775112175,28.29882286208972,108.65659357771773,74.76717010045361,-44.93868904866382,-28.298822862089697,-35.38658267973935,3.9210608251128827,0.9142025551974917,-1.346117962103855,0.10118340705035472,-3.8854446732085317,1.4928586545537894,84
-113.89263042386779,67.40751317345605,55.81312609703616,28.298822862089647,113.691047035722,71.98958621275223,-52.03434968637822,-28.298822862089672,-24.14694581346984,5.236585028386769,1.0199236468593165,-1.2522551040319836,0.1576745406278898,-5.781046445485064,1.3334015873789675,85
-120.55076322930934,67.47755053149272,60.89797195923577,28.298822862089825,120.12209924620429,72.03314248831326,-56.5347735683143,-28.29882286208972,-21.62880383326126,6.000000000000009,1.1531952209006593,-1.1991447924977678,0.05900492146068628,-6.924373573912509,1.378496954014906,86
-126.30148135678293,64.30125947095623,70.31746469981623,28.298822862089647,125.41313945161139,68.92809143754693,-65.20218436506984,-28.298822862089697,-19.48914468979802,6.000000000000009,1.8136084550456286,-1.1776297090456775,0.04316365728527361,-7.816631850970951,1.2206553301084677,87
-130.04205561504062,63.225441970822025,74.90538476938126,28.298822862089747,128.72327385321924,68.94328766277918,-71.15689253650436,-28.298822862089825,-18.336672297377742,6.000000000000009,2.041181296169118,-1.151079861841565,-0.008311616573946837,-8.517827113304651,1.1555999937416968,88
-130.07016554636039,63.70487778509008,75.06348075534035,28.298822862089594,128.8691476074535,69.49677640997938,-71.11676969293785,-28.2988228620898,-17.338669244244457,6.000000000000009,1.9518242243601611,-1.1732566470697312,-0.023463725232014607,-8.884439478927646,1.105368488132309,89
-129.47893068758492,66.199543956571,70.43440608259647,28.29882286208972,128.3492918764438,72.52834829733993,-66.48568913088715,-28.298822862089697,-15.78041930572498,6.000000000000009,1.7107643729648578,-1.1400383492176045,-0.09841304993003028,-9.175401799874209,1.021481985022127,90
-126.66813026134228,70.61460261050972,64.08023269598515,28.29882286208985,125.78064397281288,76.32426681575453,-59.3182481190422,-28.29882286208972,-15.438963997402867,6.000000000000009,1.4039606977935184,-1.14567023027148,-0.1434014815713762,-9.013430101861283,0.9979025067969753,91
-122.17474325648426,72.7827823101616,56.63906702573302,28.298822862089875,122.29957461527054,79.19453965818197,-52.0726783638882,-28.298822862089647,-15.065174975237788,6.000000000000009,1.2897430183952063,-1.1368125645849891,-0.18856424084135548,-8.275854614455213,0.9073192452760097,92
-116.18539540320661,74.24587553894119,45.99558331566446,28.298822862089697,115.79521227292709,80.1241971880183,-45.10104436681882,-28.29882286208972,-17.415545792772036,5.865914449355271,0.6068612790986532,-1.213402767573508,-0.38801099828054025,-6.533963717304566,0.8511513118347303,93
-108.18240586550412,75.74805540994001,35.503953762797124,28.298822862089594,108.70238151226134,81.55820071828661,-35.86252887065718,-28.29882286208957,-24.081281313309855,4.50929942577162,-0.3584125126240522,-1.1709750069272393,-0.6158578473463985,-4.155912102095769,0.9569092996774425,94
-104.22897054168953,79.89516312324619,29.75746795373216,28.298822862089594,104.45419368403851,84.46522478629849,-28.339081263195123,-28.298822862089953,-34.96917536027729,3.5343672533723494,-1.5781606314281218,-1.1685082372442475,-0.632346531174769,-1.9015789611512732,1.0903205869348807,95
-98.75510835304024,83.42203581226129,22.67471644094,28.298822862089825,98.2447848310147,86.96513722065957,-18.767036713473768,-28.298822862089672,-47.013136870036675,3.0113562944336247,-2.6583545832207474,-1.1458090561946488,-0.34728716722149305,-0.31874870267589145,1.2164930966867769,96
-91.58567027004004,85.04204453234301,10.010644079639782,28.298822862089747,90.76379309739349,88.88739295107061,-6.1960299349501735,-28.298822862089697,-59.63740949954836,2.7448287229787436,-1.9040688540992972,-1.1567961428724316,0.24055108639236453,0.15019464155077333,1.3861565636360504,97
-72.24631788554117,83.14719360916695,-12.018121824729372,28.29882286208972,70.34340631532007,86.56306139819276,12.930035870551729,-28.29882286208985,-75.43382370470815,2.65955542558199,0.055630120977658355,-1.247886016581006,0.2848857195555728,-0.27101261418420763,1.5675740177871926,98
-46.367072641504336,86.50580998715945,-25.640329625163098,35.018113412447214,43.34651239597842,88.22288691014307,25.48207980308229,-35.47216217311475,-90.0,2.929343614850296,1.2730675594817942,-1.3485916758261345,-0.15100176122968753,0.42447429466068753,1.5844689146820687,99
-21.659828417356056,87.40226096365564,-37.795076346459666,28.298822862089697,20.031959867001024,88.88906450753814,37.80673152181927,-28.298822862089697,-90.0,3.631750733406905,2.1228898629130786,-1.3914967422254634,0.1616248192637113,1.0513899062768253,1.5293415748177255,100
-11.07080638491086,90.56836569079789,-27.675795996590626,28.29882286208985,10.059855962959643,90.85463935326604,28.471607447125614,-28.29882286208972,-90.0,4.108500120413964,0.9529046184847336,-1.3473351292192592,0.06121963650136294,2.1225190458283136,1.518189476650287,101
9.290718778147253,90.84821444117775,-28.79443451794948,28.298822862089672,-10.488408890369897,89.79178184921716,32.960824361454456,-28.298822862089672,-90.0,5.2498193093062975,1.9119777961543754,-1.2988452314192027,0.18826540852692927,2.1748050388080693,1.5056367047808714,102
15.35093207079941,91.27139668029677,-26.43488920669728,28.298822862089594,-16.444169545797806,90.30386037281717,28.16745316706124,-28.298822862089594,-90.0,5.385688989840517,2.120722020776885,-1.3148918976581216,0.1759549950778493,2.581471895863155,1.5284157836364094,103
23.749190688060033,89.04988385286734,-28.40545813882436,28.298822862089697,-24.648379526674585,87.37278951886064,30.086391479728448,-28.2988228620898,-90.0,6.000000000000009,3.1490365917866625,-1.299693163771547,0.12997956908660926,2.3876768943474738,1.5259951030687724,104
29.956583952325136,89.24490922102025,-26.02835489471895,28.29882286208972,-30.853375440743253,87.17727380278559,27.548103043337164,-28.298822862089825,-90.0,6.000000000000009,3.206443954258447,-1.3183756587749902,0.23604846509974448,2.266738701232502,1.5097383449615,105
33.479583403094196,89.19088519523228,-23.563078497811837,28.29882286208985,-34.134442240274744,86.60356463564536,27.43011507053612,-28.29882286208972,-90.0,6.000000000000009,3.511940790898301,-1.2757281031772705,0.26450437102130314,2.251050331876827,1.4482667310145405,106
35.9246752080799,87.7867886463675,-20.85692072343539,28.298822862089825,-36.1727473550967,85.1832176612289,24.625569235152206,-28.2988228620899,-90.0,6.000000000000009,4.104103619774681,-1.2624538492774642,0.3787189725960866,2.1895895267853938,1.3809881869439247,107
37.30124960719002,84.54068273264477,-20.177739709179328,28.298822862089697,-37.69983066748981,81.44886867908916,26.34650067380157,-28.298822862089924,-90.0,6.000000000000009,4.921272977489581,-1.2955481839309426,0.4536628838832187,2.103527710647387,1.335138106736061,108
38.90611937431424,79.07397080330398,-21.414373494594475,28.298822862089697,-39.06226360564634,76.08301229586395,27.852507192378,-28.298822862089875,-90.0,6.000000000000009,5.744982337642015,-1.3325354842417576,0.41696298403626253,1.858443793821221,1.2811084368366428,109
41.67613134597987,69.28026932712802,-26.875213304129865,28.298822862089697,-41.5325640940017,66.44978831065201,30.906497990616327,-28.298822862089875,-90.0,6.000000000000009,6.376064780935732,-1.3707877859217015,0.46439951056995127,1.2831013355814378,1.2468322659874889,110
45.62771775886176,54.84799758376699,-31.670532716826678,28.29882286208985,-44.10414968491734,50.8587165897757,34.880915780497176,-30.540521671469044,-90.0,6.000000000000009,6.885733159949155,-1.3810594264453924,0.33362404292365544,0.46975272635834364,1.2532740925291475,111
45.60500841123607,39.48336359476075,-26.261261858694365,35.221855361490704,-42.09937850693468,34.43407879060708,30.12018493332212,-38.61025620133574,-90.0,6.000000000000009,7.187816783447156,-1.3641957209888869,0.3950778815373187,-0.39648777162404364,1.1620562223144024,112
40.908188227136904,21.461036237782174,-18.692343868207498,40.06652186553512,-32.705994039850914,15.35137410714126,20.408661481335937,-43.71891130369348,-90.0,5.464213285772465,7.160254211012526,-1.3892893871898906,0.17664385292921891,-1.4977497118240541,1.16282880892176,113
18.979136519381075,5.353090058303717,3.8951620647203096,39.96783094375304,-32.705994039850914,5.470554475682351,20.408661481335937,-44.45521243268096,-90.0,4.488078225022115,7.174866982471195,-1.3537108067612371,-0.05365910536120386,-2.4906072789902476,1.1627121257426085,114
18.979136519381075,12.324096664864255,3.8951620647203096,37.258554285653965,-32.705994039850914,19.34807912404619,20.408661481335937,-42.4684843543091,-90.0,3.6361612672609294,6.905224028054094,-1.336746475743198,-0.12794013318299363,-3.2148590267578343,1.1565786625733394,115
18.979136519381075,27.259645001440465,3.8951620647203096,35.927430029813316,-32.705994039850914,34.35614156286061,20.408661481335937,-40.70303328252869,-90.0,2.992726179587814,6.704698819798291,-1.2985904778090482,0.03594092334095161,-3.444692084179988,1.14887826551354,116
18.979136519381075,41.29086535081855,93.21876293028797,32.75863707841699,-32.705994039850914,47.70077343148233,20.408661481335937,-36.69478136808158,-90.0,2.2783804926933056,5.998632952661818,-1.3061636878618315,0.426582235788686,-3.6035954996828714,1.1295724324647967,117
18.979136519381075,55.74007123672384,79.65111474964678,28.29882286208962,-32.705994039850914,59.280991988723976,-75.5730868999194,-28.298822862089697,-90.0,1.8991099369874371,4.692062589615144,-1.3896979939628664,0.4801897238518601,-3.806921300651606,1.1739809347839418,118
18.979136519381075,67.48803748329314,64.64386792224961,28.2988228620898,-32.705994039850914,70.79281163997688,-60.765984689392795,-28.298822862089672,-79.41257637746824,1.9798077691159615,3.2052744076307973,-1.4401989702505267,0.3977853422563041,-3.0475815201446466,1.2483312955545345,119
18.979136519381075,77.80184873499338,55.61734286064072,28.298822862089697,-32.705994039850914,80.56058992669703,-48.9945778581573,-28.298822862089697,-69.95280278455614,2.2567022169689412,1.458486867260169,-1.3803858347255957,0.2511855776822775,-2.2144773964749778,1.3806610480895884,120
18.979136519381075,84.80507875566528,43.82879941911923,28.298822862089647,-32.705994039850914,87.11398656693174,-34.865088023524514,-28.298822862089697,-71.68733068911847,2.347146747313452,0.2354018950924545,-1.3353239630602767,0.133169202359411,-0.9653053006961797,1.4563372960729808,121
18.979136519381075,88.35073666299665,24.419648474029376,28.298822862089953,-32.705994039850914,90.79899829065594,-17.74911278401013,-28.298822862089747,-77.73516781616392,2.2099961804999633,-0.8358896913161828,-1.386555293624642,0.625497357768528,0.04051334533548312,1.4875935605054702,122
-76.78976813341613,89.71848240184163,4.195190954008223,28.298822862089825,-32.705994039850914,92.57333351877394,-0.24118648101901688,-28.29882286208985,-84.34232054634933,2.216305753229885,-0.16519387142749536,-1.3241228124407434,0.5505681035563394,-0.22633761637300467,1.5375728201356147,123
-57.721783377448126,90.00572535640305,-6.114278352527435,28.298822862089697,57.13318126744892,92.03814269237786,9.186934508355282,-28.298822862089747,-90.0,2.3274218049560895,0.12668611200116434,-1.3125229184182092,0.365003098039773,-0.2075925809334597,1.5713139876407298,124
-39.74470840046711,93.3088239613539,-12.022585119870152,28.298822862089697,39.104599794252216,93.9615504068367,14.309374391857231,-28.298822862089825,-90.0,2.690202628953691,-0.43568679689116974,-1.2918764480511595,0.22880289913932947,0.5771978261831996,1.589376074440886,125
-30.41807820430817,93.58112227480927,-14.526740179812071,28.29882286208962,29.758644515220993,93.92584263367876,19.23336940091893,-28.298822862089697,-90.0,3.1210564178535254,0.5284653547204233,-1.2753483577426066,0.5116554268795953,0.788331147759912,1.5687367957335547,126
-20.09495953008301,93.98716515729153,-25.01512943806703,28.298822862089697,19.113644442264768,94.593226185421,28.22245232092036,-28.298822862089825,-90.0,3.7402501206310275,1.1972906025979644,-1.273666519667282,0.630015754564329,0.8396704838973158,1.5627393545627353,127
-11.47731086985916,96.28381709814899,-21.647450956381565,28.298822862089697,10.540382358486134,96.64366064265826,22.210399437510784,-28.298822862089697,-90.0,4.163141472966545,0.13336480173090273,-1.2879914701932977,0.4897944726481042,1.1767992439526835,1.5601213014406827,128
-8.815060740089116,97.19683776507871,-16.250353100848116,28.29882286208962,7.988160184075863,97.21318099709984,16.923443624074334,-28.298822862089825,-90.0,4.440589060921481,0.202342563385733,-1.293646907372161,0.36876974044256466,1.4728600057120431,1.488917196784024,129
-5.669217632606511,99.04180886380148,-13.312163987998208,28.29882286208972,4.542286584413365,98.58119603100015,16.229010940352325,-28.298822862089697,-90.0,4.910841520437819,0.4495077437097192,-1.282514082843031,0.3283784133923184,1.7101249006396815,1.4922010813197195,130
-5.290686362844591,99.77274796340605,-10.882857732007672,28.298822862089825,4.102489812767436,99.174304410975,13.764597555252909,-28.298822862089697,-90.0,5.045092622055403,0.3378395068370713,-1.2775024192475808,0.27981921025634793,1.8447650953278896,1.4918634482005562,131
-5.1238492434204606,99.68311559612245,-10.815145574188389,28.29882286208985,3.9865506825399386,99.27545572064382,13.650943434182079,-28.298822862089825,-90.0,5.226014108910864,0.513067277490123,-1.238739347308073,0.3500666523812139,1.956862426976631,1.4847416002971303,132
-5.335717489383892,99.99401787120759,-8.44438448208936,28.29882286208972,4.068523144516785,99.07376511558766,13.696170515376911,-28.298822862089825,-90.0,5.290013056992209,0.5484334845395966,-1.2643171957785795,0.3518123931479246,1.9465496822944721,1.4707479286615488,133
-7.0288855987916445,100.39467866912686,-6.352478214669364,28.298822862089647,5.616248570834281,99.7246480629146,11.664564800178978,-28.29882286208985,-90.0,5.296899821546591,0.6050390388758837,-1.2959543429876095,0.3894550886165472,2.0558363838313207,1.466797892361832,134
-8.764716543902825,100.33443310060773,-6.635036561339311,28.298822862089697,7.368808364488202,99.55602170724538,12.076687386390338,-28.298822862089672,-90.0,5.247464459429879,0.5613477235523728,-1.3391500172227961,0.3200722596469072,2.122892769940388,1.4507850801703703,135
-11.930929621407849,99.57654659475135,-7.209400570958803,28.298822862089594,10.862625067114955,99.32685190525056,10.470827345826008,-28.29882286208972,-90.0,5.017870265858946,0.074021497805144,-1.350550839536979,0.37910029730131106,2.1669980103023048,1.4278529257831016,136
-19.262099183331017,96.30013111211882,-12.50455235714812,28.298822862089697,17.97072344749609,96.31518145583304,16.021452203649197,-28.29882286208985,-90.0,5.1537223067790485,0.9692918437219346,-1.4004034992500196,0.23539616034298155,2.1341618244144396,1.4137866672849493,137
-26.912530376659614,94.01560324932898,-14.379513702610588,28.298822862089825,25.566343825821182,94.49085578273952,19.592470640186168,-28.298822862089953,-90.0,4.985265186066749,1.1058083225263575,-1.4260492211442348,0.4248132093656326,2.069265414379679,1.4022400030486168,138
-36.97111826845686,92.73262350484197,-11.565456545413822,28.298822862089697,35.892759954973805,93.54176859040027,17.004911268693682,-28.298822862089697,-90.0,4.498197579733081,0.9442963387571971,-1.42011477121831,0.4117264173584465,2.2104298624861336,1.3908138304668198,139
-50.98012997733864,89.3838322673482,-8.293970085392974,28.298822862089825,50.498632917560506,91.00438198931543,11.58733925035528,-28.29882286208972,-90.0,3.8121129956206827,1.046525610126019,-1.4040312706208025,0.36967691766576727,2.146741410000503,1.3671551383869405,140
-66.05830845936364,86.01988305337572,2.3539193983623177,28.298822862089697,66.13924436978601,87.39440217849432,3.352886606941466,-28.298822862089697,-90.0,2.8680144538367154,0.31887578485854245,-1.3804758964004182,0.2586946925963767,1.7033495824530265,1.3463498139541537,141
-81.55927059806005,81.87150167238839,20.452241605777406,28.298822862089647,82.707777561423,83.64972065748401,-14.823464442749472,-28.298822862089875,-90.0,2.2104868947126297,-0.08384109519386641,-1.337177517687131,0.16424519169282634,0.7370087236789663,1.3030486042036238,142
-90.38982071327713,73.64402639050132,42.80208258068697,28.298822862089697,92.10269884761833,75.79802798716517,-36.8583441272351,-28.298822862089825,-86.89799027536405,2.0105139667992318,0.3753623789104543,-1.3764411511295152,0.29234193824638166,-0.8184432872759694,1.2707239800066619,143
-97.15115758169134,61.22871629301674,61.82649546323174,28.298822862089875,98.85290877081904,63.88391544883645,-55.83947803311226,-28.298822862089594,-69.73002025245631,2.1530621307921836,2.1095728207538995,-1.376394235201491,0.39305975544446775,-2.3790552241407195,1.2446182768981897,144
-108.7952317408087,51.289277783557054,79.61987134519676,28.298822862089697,109.4114415560869,54.86544692611727,-75.0861157631403,-29.19924517699874,-56.05749781065563,2.5436246616624425,3.4446073221418834,-1.3683483666058704,0.4554567904166598,-3.7731199340974215,1.2911479938191197,145
-115.2513758972232,40.79670930715934,92.14188901951988,30.26458977745876,115.17768759319925,46.34434472591875,-87.26878363511668,-36.00290826133139,-61.05697904285042,2.4044532394789773,4.304742691859479,-1.3836271380571477,0.4701459890189578,-3.9584348631333053,1.2743729360214493,146
-125.71843781090278,31.59703821642228,104.99999999999999,32.658552492800666,123.90366635785263,36.76797076596216,-102.83943371698344,-38.189267003592875,-71.38367438016459,2.2000500658731905,4.89026233578825,-1.4092478186233146,0.5480015063111771,-3.9303952092966497,1.2381664169788602,147
-141.6899890235869,24.359688412722768,104.99999999999999,32.303665432163044,136.02005329803035,29.114160014819152,-105.00000000000001,-38.078949103344684,-85.15324104480369,2.109921116465693,5.178150056154114,-1.4425999539708985,0.37681401108306195,-3.911891787223346,1.2233606662354493,148
-155.0,17.766009710661976,104.99999999999999,32.60110025694025,155.00000000000003,21.16616076060132,-105.00000000000001,-38.498463477966304,-90.0,2.157126462110502,5.760379110080392,-1.4352658817102053,0.3102648519839422,-3.734603729944708,1.1128514762509993,149
-155.0,15.821336246189867,104.99999999999999,31.684575726171662,155.00000000000003,16.3267680778643,-105.00000000000001,-37.27567241067567,-90.0,2.5176131161346693,6.1796397655019,-1.4632493573924492,0.3349628770588503,-3.536936784048896,1.0805732857437653,150
-155.0,22.47763226114054,104.99999999999999,30.267961145177363,155.00000000000003,17.29740767275036,-105.00000000000001,-35.946338829169946,-90.0,3.183427482221497,6.66354641375507,-1.472265384188497,0.24889334416108855,-2.86412488954926,0.9603333438464181,151
-155.0,34.880875465170895,104.99999999999999,28.29882286208985,155.00000000000003,29.83677644864889,-105.00000000000001,-30.355489416640545,-90.0,3.836242211605169,6.907048805774658,-1.5173328681669203,0.42488856076923326,-2.489541929248453,0.926933555194575,152
-155.0,47.27470472568369,104.99999999999999,28.298822862089825,155.00000000000003,43.548115800454994,-105.00000000000001,-28.298822862089672,-90.0,4.607552496162595,7.111409728545783,-1.5684130138066745,0.3271019620434602,-1.9693253899895464,0.8757441070344301,153
-155.0,58.841388626988135,104.99999999999999,28.298822862089697,155.00000000000003,55.405522106385654,-105.00000000000001,-28.29882286208985,-90.0,5.1996777621849715,7.060367383708752,-1.6132884536464076,-0.012663599897161025,-1.5720548867525976,0.8763234781542973,154
-155.0,67.72848522251878,104.99999999999999,28.298822862089672,155.00000000000003,64.04501751132042,-105.00000000000001,-28.29882286208962,-90.0,5.592496491155839,6.7649227707437225,-1.6263159806866931,-0.046076241675569514,-1.297078479492606,0.845617430534533,155
-155.0,73.62237931929886,104.99999999999999,28.29882286208985,155.00000000000003,70.5849242785275,-105.00000000000001,-28.298822862089697,-90.0,5.857522605920261,6.360525560115069,-1.6201548892020732,0.14198100587627835,-1.075564903361802,0.8069654918937067,156
-155.0,77.53015366117201,104.99999999999999,28.298822862089953,155.00000000000003,74.44409447325239,-105.00000000000001,-28.29882286208972,-90.0,6.000000000000009,6.215213134117246,-1.6215458420195663,0.11975245489334159,-0.9299060811245793,0.8171355333565725,157
-155.0,81.34311056896648,104.99999999999999,28.29882286208972,155.00000000000003,79.12022764643488,-105.00000000000001,-28.29882286208985,-90.0,6.000000000000009,5.900773357804023,-1.5705900637885901,0.26150226775603325,-0.717430121938163,0.7734251708937055,158
-155.0,86.98671716785039,104.99999999999999,28.298822862089924,155.00000000000003,84.74154005209876,-105.00000000000001,-28.298822862089875,-90.0,6.000000000000009,5.16914745530744,-1.6116461448743382,0.2968045107192121,-0.3639681270450364,0.8042368552702196,159
-155.0,93.52576136672705,104.99999999999999,28.298822862089672,155.00000000000003,92.02028064931412,-105.00000000000001,-28.298822862089924,-90.0,6.000000000000009,4.341325991116315,-1.614478672290024,0.27555634857176386,0.40318975191639744,0.9132697232890692,160
-155.0,97.17338256128235,104.99999999999999,28.29882286208957,155.00000000000003,95.297311636034,-105.00000000000001,-28.29882286208985,-90.0,6.000000000000009,2.8971760870438703,-1.6840753737950995,0.29951267824449307,0.4685050652465738,1.0540662217278731,161
-155.0,99.4436085740465,104.99999999999999,28.29882286208985,155.00000000000003,97.88603362149792,-105.00000000000001,-28.298822862089825,-90.0,5.651739183421709,1.516998189614843,-1.652445932241643,0.5870072891677228,0.9514213309122243,1.0479304732972166,162
-155.0,96.32967701617939,104.99999999999999,28.29882286208962,155.00000000000003,96.10068761007585,-105.00000000000001,-28.298822862089697,-90.0,5.50666911330367,0.6695908686682258,-1.643521104655901,0.3866975095687203,0.8386017191831454,1.1052456678326277,163
-155.0,93.61632711573884,104.99999999999999,28.29882286208972,155.00000000000003,93.81452468919139,-105.00000000000001,-28.298822862089875,-90.0,5.4484420803399605,1.1606749909662084,-1.654579249629181,0.5622678146302269,0.6299800748178251,1.1201203568040363,164
-155.0,93.73025450843437,104.99999999999999,28.298822862089697,155.00000000000003,94.04754854809072,-105.00000000000001,-28.298822862089697,-90.0,4.714261612121021,0.263565729671236,-1.5630434246311753,0.7552107850535332,0.8295168327948287,1.1629420056089805,165
-56.96682675468434,90.94092797549965,104.99999999999999,28.298822862089697,57.29080215531724,92.2512522306944,-105.00000000000001,-28.298822862089594,-90.0,3.6765108193090708,-0.47299786841543345,-1.4469750134531452,0.46418959741185106,0.6995226554867484,1.2575027088362463,166
-77.75774792246453,88.46839367876969,16.85715451346591,28.298822862089594,78.7780765387249,90.10648529807564,-10.658190330334564,-28.298822862089697,-90.0,2.2408997607118435,-1.840386147712936,-1.3760107007911693,0.40015031415273244,0.14566649977552198,1.29110447997281,167
-91.90878832422554,88.64963202167102,36.299663177397775,28.298822862089825,93.55114439253131,90.43216530430455,-26.697895643612203,-28.298822862089825,-78.33243037946282,2.097356000827173,-2.744855810287748,-1.3295787144130418,0.4801837187707094,-0.46835170425405576,1.3653328720911797,168
-99.13458161128105,85.51704936861141,50.75455737885722,28.298822862089647,101.11802192313117,87.75866849041671,-40.73954663755144,-28.29882286208985,-52.81653217755881,2.562075190218523,-2.1841753650881994,-1.2778112049489059,0.502853700297739,-1.620856516193416,1.3145296459989397,169
-104.78521760541261,78.15296333942727,57.3674530510808,28.298822862089697,105.92186813573608,80.95288463907879,-51.84992894875473,-28.298822862089594,-38.235541672582805,3.2886204474228378,-0.9447122849886899,-1.298778468597277,0.5717434813961989,-3.3075049848241025,1.3236561724339477,170
-108.11487981802345,70.0542192430335,62.0327816839058,28.298822862089697,108.97094840798992,73.62016014681178,-58.900717505041335,-28.298822862089825,-29.62147403769142,4.079657298040994,0.15446063467161333,-1.3037824608214978,0.5113628854398442,-5.0814134484185205,1.2964648917982293,171
-116.33639927876087,68.71427368682453,68.75687285707144,28.298822862089672,116.52891754944707,71.29842458170444,-65.28755284507017,-28.298822862089697,-23.5669290709137,5.235047012574908,0.2980687091958601,-1.291156003930211,0.47691782498170643,-6.743649248174752,1.3185677393594022,172
-121.74814580959195,66.19203216329262,77.00329270233333,28.298822862089825,121.21008390498723,68.73901126864098,-72.91757470760935,-28.298822862089825,-20.729790165086072,5.49710442497489,1.006346778709266,-1.2728467581954122,0.4433196062382428,-7.654826699367137,1.2073334695203417,173
-127.23985334484195,65.45250871395544,85.37074283202386,28.29882286208957,126.38806284427991,68.45007327140073,-83.18593148712432,-28.298822862089672,-20.267007613609717,5.777346978854492,1.385020837719624,-1.2560421595528273,0.42094453325955,-8.47039012212882,1.2532438496427647,174
-128.6351052062231,66.16809214654046,91.74309088296086,28.298822862089747,128.2458751517346,68.61349094589795,-88.06447393099977,-28.29882286208972,-20.34561147266562,5.934865202371482,1.4397587242960355,-1.2746243617886663,0.45446763645810173,-8.817487849369899,1.285097085021492,175
-129.3148990919064,67.2179054210326,90.48227108151764,28.298822862089672,128.6502559606298,70.0447464893802,-88.07376683249821,-28.298822862089647,-19.634323608672336,6.000000000000009,1.5784999322504714,-1.274798980679419,0.44409287554392757,-9.063830587560533,1.2783386481569081,176
-127.14176973580446,70.44468851059857,88.67184026738921,28.298822862089747,126.79185688074618,73.4458725530077,-85.85031835541012,-28.29882286208972,-18.855542565411305,6.000000000000009,1.4250844948283965,-1.2825086122940677,0.4485491373638418,-9.042531833797122,1.2590485983328672,177
-124.21958303554226,72.52706233079434,77.64034200782389,28.29882286208962,123.99618140890499,75.19129853998801,-74.73762855693813,-28.29882286208985,-18.642813509290736,6.000000000000009,1.3896048893520196,-1.3289469292698102,0.4273513426833249,-8.671182503286303,1.2081026294856907,178
-119.30552241090389,73.65123618079835,67.98736631684646,28.298822862089825,119.42589099950582,76.96219074696926,-65.5367026006531,-28.29882286208972,-20.205184548386256,5.450506050586501,1.0863768241323568,-1.3267257488815436,0.44623069053546977,-7.5431258949656,1.1828820528601565,179
-114.04190551291265,75.68003689533221,57.92871565527059,28.298822862089697,113.9786698427307,78.32532642513365,-54.34899732716703,-28.298822862089594,-24.926352069013205,4.613459877547637,0.3377090987982864,-1.3436830460790379,0.4052016956715107,-5.8635763462190855,1.1961803751417797,180
-107.90293057660331,77.7305159015282,48.31807630163301,28.29882286208957,107.68728524911056,80.49399235043468,-45.271671339400655,-28.29882286208957,-34.34525577377445,3.5993334945942053,-0.5096035740384185,-1.3610440323448902,0.28486173327812103,-3.8175947953863916,1.2772605730622177,181
-101.37020914604781,80.07529868472476,37.252180779367436,28.298822862089647,101.20436651427241,82.45967505404904,-32.20084754252003,-28.298822862089672,-46.832705245077534,2.8556651387740217,-1.2934527134817781,-1.3804080300893202,0.2896073195194449,-1.9593735751000803,1.3136585277681208,182
-101.1570278333082,76.72382130444115,15.919031218426387,28.29882286208962,102.50345941516325,81.01774679913594,-18.658747595492294,-28.298822862089647,-25.21666240818846,3.395904912722484,-2.0603167059121037,-1.1930237224805997,-0.02950903989462931,-3.4652513070409663,0.5822659553368882,183
-101.47175969332864,72.52840567103017,13.291444478785968,28.29882286208985,102.60702844548868,79.5085300291219,-16.969368941902015,-28.298822862089697,-14.798619646722749,3.5403703074149058,-3.704267056059618,-1.324587186218438,0.11077949971129122,-4.178181690158741,-0.21614230114779057,184
-100.03689420489421,66.77948668851744,24.835256143136338,28.29882286208972,101.03613292645359,77.08409066040907,-17.43951530806817,-28.298822862089672,-5.037285588238672,3.4257200841598054,-3.534011782842078,-1.7005247799338448,0.04252585533581464,-4.844671216071543,-1.1447462982815966,185
-99.31552683618241,60.04738605789828,38.08063731667589,32.821146216812274,102.79068326449335,76.13527970619202,-23.621958409798072,-28.29882286208962,15.475343096029913,3.380464443179783,-2.6848856222426636,-2.1164146698665083,-0.5309727914008507,-4.975799547035152,-2.558952455585881,186
-101.05276449009219,56.191749825103145,52.40800429192576,29.939064726096166,104.8033557668295,74.88820191776443,-29.877005153847872,-28.29882286208985,38.20432771898594,3.7749518179478567,-2.49877390693787,-2.951820094935858,-0.835729759848972,-4.717261841125314,-4.178869012593242,187
-101.52980695373444,51.82829277991231,63.66310573013174,32.53078621574569,105.05144460128477,72.78316662238703,-33.11758180069778,-28.298822862089647,56.910075230136684,4.740019922300589,-2.360208105391408,-3.662028511978014,-0.9762182358926798,-4.415662381502931,-5.931147868816722,188
-104.35505574207038,46.53296465922013,77.12333165355875,34.086767600067475,106.16810437581282,70.52707534639232,-39.646441330185596,-28.2988228620898,69.09609508279104,6.000000000000009,-2.0535143319891236,-4.427211734871988,-1.3749454512755477,-4.371397738984359,-7.969765206120324,189
-101.41078086064624,37.99716046060548,77.9197643830927,41.340543719189576,106.41909493393953,67.30910370338071,-40.47898329200955,-28.298822862089697,80.13388999916421,6.000000000000009,-1.7248756850877218,-5.5457365682015345,-1.4252137737134773,-4.045580155984102,-10.224324768527376,190
-97.41030537697522,31.672305471627503,79.70155771026351,43.24028153180378,105.99040156033833,64.15990727941737,-42.11006284286141,-28.298822862089594,84.3708045581179,6.000000000000009,-2.104825158518353,-7.0608855625509985,-2.4074488582119584,-3.649820609729383,-12.463000862852724,191
-92.05037056392885,25.14763166221091,79.18909031066923,43.988927621616966,107.56217478596841,61.641781538336744,-47.27132220685442,-28.298822862089697,88.49824435684476,6.000000000000009,-2.0118837656665742,-8.892007598819115,-3.662710970105797,-2.9008844988042606,-14.772992230011731,192
-84.81748433374445,20.254046938182952,74.40321380702653,44.48354014398802,108.12252708710697,56.10274535827087,-49.32510221414141,-28.298822862089672,90.0,6.000000000000009,-2.465339669510263,-11.829920508561651,-3.814859202328817,-2.2186978953745657,-17.246530550455002,193
-75.15734901117818,17.668904289594224,68.09154650727673,43.611609053705585,107.63913517014527,50.471222804406615,-54.27217505660146,-28.298822862089825,90.0,6.000000000000009,-3.88173025821843,-14.982252319830659,-4.688574558487106,-1.1510460063663697,-19.71369329391098,194
-66.23370362093709,15.865167509996883,61.99426734204943,43.39888574281805,110.65282359153338,45.42399672327029,-58.269903643958955,-28.298822862089697,90.0,6.000000000000009,-5.121276586797702,-18.186233422155205,-4.3797452967974975,-0.4989368269280965,-21.7398046486891,195
-59.16506390028733,15.10405657859728,57.82500075311987,43.0193700007155,114.20259666184452,41.21701224364761,-65.54402724615854,-28.298822862089697,90.0,6.000000000000009,-6.39153882327033,-21.184167699529688,-4.23920700371869,0.23589701598447085,-23.39508992130559,196
-53.10308048572161,14.489478732702562,52.11362382499504,42.99152017644608,117.41237517697057,36.31944032083793,-70.28356694301294,-28.298822862089672,90.0,6.000000000000009,-7.8741083321129635,-23.990129780832824,-3.9271661470661257,1.0615784049847508,-25.07906319725556,197
-37.49878208920823,13.200577263497236,38.339392490406645,42.871475940101796,119.76536607694752,32.53271753942395,-73.54584108099495,-28.29882286208962,90.0,6.000000000000009,-8.716908911472679,-25.92433985720574,-3.6382097991322713,1.8514375577700015,-26.421281199439214,198
-23.006002566214747,12.442187038076899,25.513824445559322,42.77885912258056,122.27507834376408,29.19229445293847,-73.99472760476864,-28.29882286208972,90.0,6.000000000000009,-9.557307803612206,-27.30462269999697,-2.7821359634001395,1.9331511011945108,-27.250257413062002,199
-11.528897033034065,12.919502918909982,15.72508868242399,42.97262924461032,122.52569647819736,27.28615985500812,-74.59485994432703,-29.38215517379024,90.0,6.000000000000009,-10.250130632233105,-28.148011847591743,-2.2066198975250817,2.007717121576558,-27.756840211191555,200
-9.002446739176508,12.43551961459785,13.133178101303077,42.96690768488516,124.04738037227007,26.592311972306256,-73.79069671420211,-30.855469039347543,90.0,6.000000000000009,-10.67710485765967,-28.493008138964104,-1.8328077964898903,1.9564576366405784,-27.93974380384865,201
-10.369229193396372,12.30978583231527,14.579149204472444,43.07752652963271,123.26650902841958,26.524474578367723,-73.02153685927034,-31.82054093876336,90.0,6.000000000000009,-10.88118996220713,-28.40289074467575,-1.6318596331705237,1.871117630955461,-27.799811217278794,202
-18.60187684493102,12.113134061176606,20.79448873343287,43.65286870160469,123.3136489830164,27.016693770322405,-73.0675216986637,-32.328283843265,90.0,6.000000000000009,-10.715371853300315,-28.087290362467467,-1.8853439288291567,2.0112055930762334,-27.489083397359707,203
-29.154663166022623,13.060870238727226,31.750151437501273,43.96265367470024,122.2601677759637,27.95443594396209,-71.7371711047357,-32.119259914268234,90.0,6.000000000000009,-10.353966466505645,-27.315219522889763,-2.0861496300085323,1.949520384725076,-26.893897677976522,204
-38.77721752405828,14.020781250287316,39.3150144747673,44.633686903475684,120.4364272327026,29.233773033349156,-69.64166002668965,-31.649907680341183,90.0,6.000000000000009,-9.983047299886769,-26.172370792131527,-2.3736150943078984,1.8398533850798227,-25.98188760022305,205
-52.91182442551875,16.262776321699153,51.79458213638283,44.98956660370749,118.78213227380594,30.99686719755543,-67.66449342436452,-30.274990592275447,90.0,6.000000000000009,-9.553876918845429,-24.506934375730822,-2.678547526457132,1.542717850706458,-24.677010531610176,206
-61.77887742752544,18.714066567653926,61.198457788047655,44.87116932737808,114.38885667433206,34.30684300877297,-65.02741725520875,-28.29882286208985,90.0,6.000000000000009,-8.916350898300115,-21.80857796061101,-2.8253239287263763,0.8957490547910899,-22.87358743614846,207
-67.86195808308844,20.32001316766267,64.947956517062,45.007707754516595,111.8378410912233,38.73825688321175,-61.389083480019856,-28.29882286208972,90.0,6.000000000000009,-8.157524798958905,-18.70386661221281,-2.7884459783096522,0.09306529109874243,-21.0670980212851,208
-71.3929474296099,23.429243417163843,65.87635315667603,45.83048214616282,109.17329637033502,43.777216521106645,-57.87979027108005,-28.298822862089697,90.0,6.000000000000009,-7.291655848876772,-15.536678527706712,-3.2589480372329356,-0.43192347331563874,-19.190584020230258,209
-78.85468747963337,26.07333099479137,68.0758690058786,45.44366192422514,107.2005102780166,48.240113564256525,-54.58111862547723,-28.298822862089747,90.0,6.000000000000009,-6.287007192385634,-12.65552410005118,-3.0548516911613857,-1.1569961274026481,-17.348617802150258,210
-81.14756843688208,29.385930054289464,67.61540846571944,45.37927075174078,106.1961504988329,53.54226411236968,-54.353256130559764,-28.29882286208972,90.0,6.000000000000009,-5.570343205690331,-10.258943962272841,-2.530618379939873,-1.9417214336745516,-15.635835193138815,211
-86.47253080106482,36.043775272360556,68.57409500459124,43.589513574565466,104.84953994975315,58.33265529088862,-52.240680081138876,-28.2988228620898,90.0,6.000000000000009,-4.921413532857423,-8.164504366176853,-2.8083081014056046,-2.4774882329224153,-13.797347861411074,212
-90.07779078952859,42.81149498640465,67.5068617185215,40.38375483417852,103.93458972100473,63.61859824965539,-50.172976921275875,-28.298822862089672,90.0,6.000000000000009,-4.095249878525275,-6.2436325804917665,-3.0294313035879945,-2.840168925228577,-11.660559498393106,213
-92.857221160368,49.5880786474702,62.874095477038054,35.39416891899866,104.32811871266985,69.26868707215411,-49.6508361713067,-28.29882286208957,90.0,6.000000000000009,-3.1867346051274654,-4.525885351328356,-4.131672024952921,-3.0777917884629202,-9.502367301708857,214
-88.49951005580004,55.74448280890198,52.068387444936725,31.09575044236059,102.60555622850455,74.94473387005013,-43.24965593898716,-28.298822862089875,85.47853048562217,5.672578411971898,-3.6304738082973027,-2.709390163670061,-2.4638597378289595,-3.1086841287889,-6.905165930114917,215
-88.32848365755451,63.290322269433474,41.18079015662899,28.29882286208972,100.00345467355523,79.2875391604509,-33.57114858876012,-28.298822862089594,71.65371407342185,2.852599878177302,-3.967821183527106,-0.7507630234357451,-2.301075638374968,-2.7938604284129553,-4.377209845081001,216
-89.95949510586833,70.53032940014573,35.78269177331924,28.29882286208985,99.2182245138411,83.2619038223963,-27.407168289093132,-28.29882286208962,19.134815120077604,1.3127152463909226,-3.669739920778709,0.6875692489156173,-2.33218347117545,-2.657462807160381,-2.1952443425697727,217
-91.42801211481584,76.316701346955,30.630980303168727,28.298822862089697,97.9582880896366,86.67673151959376,-21.247015475864547,-28.29882286208972,-47.324788594150114,2.1905261760028987,-3.729239339717479,1.8601833554148968,-2.1080330628726496,-2.453930730770216,-0.2951197304389052,218
-95.02063593902182,80.6294341013239,30.44437276872185,28.298822862089594,98.0290330574016,89.87785043168977,-18.634350519686464,-28.298822862089697,-59.21436241065137,3.780223448142099,-3.803814186772944,2.8288108188652306,-2.5626128671931605,-2.6798589784674296,1.0356307328964969,219
-98.36518352767268,84.06830620195899,30.326109360252808,28.29882286208985,97.98874812208847,92.85744235933981,-17.979773941964698,-28.298822862089697,-64.54630298844076,5.024801815516886,-3.6383830032908264,3.303241156770064,-2.55918746661074,-2.8269226793151017,2.1222284495336967,220
-98.92242838866538,84.65951460678697,29.429981320947334,28.29882286208972,97.54286468053954,93.98699586281752,-15.109970192765745,-28.298822862089594,-66.17047040371527,5.960517463042625,-3.8589741131346997,3.9036206019538655,-2.3383259939724708,-2.9569344866536267,2.9750503280256035,221
-97.03657278565582,83.40439880126247,27.796396612429824,28.298822862089697,96.34683479665054,93.18516897126092,-12.938600289514744,-28.29882286208972,-64.88437706681863,6.000000000000009,-3.961352986041069,4.052156282736684,-2.3996115733008256,-3.1254448257502205,3.1335556931821933,222
-96.45678507943026,80.76175735042177,28.056114679838057,28.298822862089697,95.77997008160304,91.68365788955786,-13.58972149330086,-28.298822862089697,-61.079633243596916,5.822869906509243,-3.8870602672056154,3.9603981443697576,-2.7081164329027687,-3.397622779553753,2.7402749736053917,223
-94.83470741209621,77.21101957726545,30.896300955246126,28.298822862089825,94.91854193253666,89.25900297779754,-13.991852137580963,-28.298822862089697,-56.56496116730063,5.162720027060568,-3.5372985495050293,3.517306080121118,-2.743109214765414,-3.5126907849006543,2.0258517457516354,224
-91.27852542166438,72.44565419672335,35.62083319240252,28.29882286208962,94.70695446891719,86.22597010501319,-14.268883564230999,-28.298822862089594,-48.154574524974954,4.122444949393021,-3.351659821088501,2.7288349998993744,-2.6052260800829257,-3.5381253185641275,1.0220582564752558,225
-87.98346404430264,65.92650460414544,39.921538669228916,28.298822862089697,94.47909855838766,83.21088505177366,-14.541203213922362,-28.298822862089697,-31.615045156419672,3.110859305578353,-3.181248726231194,1.9231927001598355,-2.528154794385921,-3.525908657074799,-0.24757304312906545,226
-85.25378148987711,59.157020498898255,44.002468042123624,28.29882286208985,95.53245447872116,80.66829079866667,-16.99560589491622,-28.29882286208985,2.9121024819122394,2.4609603057136735,-2.784025040931695,0.8418826869403833,-2.104602610510321,-3.521165629029608,-1.72134159094452,227
-85.76037871707643,54.65814850743583,52.00846330230386,31.65766233550153,97.18094911901434,77.71505330064899,-17.384617259303802,-28.298822862089825,40.41167147554193,3.071236295691756,-2.320980108530694,-0.4776828511130643,-1.7840272740169847,-3.6544383581309847,-3.4968144318104577,228
-86.52365683531858,50.44146573368255,57.42091408987178,36.64921209964235,98.48675173024648,74.49675120982349,-20.70746514756803,-28.298822862089647,62.856704228337826,4.608368123060702,-1.8926841658352525,-2.052234880165333,-1.8739633121847816,-3.6944000730234676,-5.601827230753548,229
-87.65665305953539,46.526795418160404,63.616331012629836,38.56400266656728,99.53560425896411,70.73049725451047,-24.35086443870899,-28.29882286208957,73.39685582707925,6.000000000000009,-1.8504221352033963,-4.021753339644529,-2.0498286556690894,-3.6621744016861912,-7.786103425033765,230
-88.77057327675014,43.196287019531695,69.64869607662418,39.9878812302532,101.40301278103446,66.58420682817591,-29.30617790908683,-28.298822862089647,78.86473269121765,6.000000000000009,-1.770061677548784,-6.172911008657553,-2.9569327473958986,-3.5212259598007383,-10.121653421789034,231
-87.2875333744341,38.11271791696468,71.69258338710254,42.23770451454843,102.0225120846039,62.447595482649646,-33.384866434316535,-28.298822862089697,83.31514438407105,6.000000000000009,-1.8338199318246868,-8.077596721932675,-3.417019868915336,-3.281791145815972,-12.38925128113229,232
-85.4534383292092,34.329320904093336,72.16918563680929,43.35618007975575,102.89228718816108,58.30270486955107,-38.122267184297755,-28.298822862089697,85.80039411468988,6.000000000000009,-2.1426007991912517,-10.330944696722218,-4.27551064932723,-2.8408005235330758,-14.586720946146842,233
-80.87680410195487,30.227490820079208,73.02820695061031,43.92213711088611,105.42624640085073,54.0876088523199,-43.84610382701689,-28.29882286208957,88.35463514693336,6.000000000000009,-2.568443509750597,-12.915489956356977,-4.811986209636844,-2.2314768618278773,-16.756681808342023,234
-76.11406050221593,26.33033039167289,71.17501623355932,43.799980956161704,106.53959112850349,48.9343778116651,-49.370789616861146,-28.298822862089697,90.0,6.000000000000009,-3.1799235215553527,-15.65991538701805,-5.801154101536846,-1.1682092118189833,-19.120775150664215,235
-71.02150071883048,23.25380139512252,69.19496663432602,43.46935341238403,109.43158904966877,43.47956892198681,-53.41416314193526,-28.298822862089747,90.0,6.000000000000009,-4.203473930713285,-18.67788117175428,-5.878579126890514,-0.2642718431736989,-21.297262280440002,236
-69.79418675377211,20.52393934107444,68.73082078542922,42.58215556029895,112.98918314350698,39.16669190214881,-60.37654728270284,-28.29882286208985,90.0,6.000000000000009,-5.341970687384228,-21.44711310781551,-5.620287094564045,0.47222285791692037,-23.25451157427256,237
-67.57001547349319,18.095035107346447,69.18011766750276,41.6050120670162,117.6357327511183,35.28969781459185,-68.04734449818665,-28.29882286208962,90.0,6.000000000000009,-6.059845040835525,-24.020139281807676,-5.125012374939264,1.0602550723904942,-25.019003256264007,238
-61.999203935503,16.294333625182894,63.635743291596306,41.953486997699095,121.0866219629579,30.771949115320314,-72.26792572063741,-28.29882286208962,90.0,6.000000000000009,-7.485133253275568,-26.567350436759398,-4.03313956667449,1.4427859977206725,-26.49439903470687,239
-48.18207680822029,14.92593542070064,52.08831586351388,42.377030892300056,121.84963425043381,26.490119528927483,-74.11036459294229,-28.29882286208962,90.0,6.000000000000009,-9.226667332728677,-28.56223118626104,-3.0536336229527805,1.6681489213311753,-27.568622446086316,240
-34.33069792504218,13.488176728307852,37.490301872260716,42.81766131608538,124.88679989260477,23.75285972182941,-75.32084399476308,-30.640262685217728,90.0,6.000000000000009,-10.44741000628195,-30.134343100160788,-2.2707752744447682,1.9254924465486751,-28.473071842204813,241
-13.262016105687996,12.150576115286883,18.611292926194704,42.56752483497927,127.54372734255831,21.483979538529834,-75.69056802563838,-33.30459216800105,90.0,6.000000000000009,-11.171767877187879,-31.077616200263588,-1.2973989922747795,1.6413534899116067,-29.028958029338863,242
3.4824436788578743,12.176632254767414,1.7833980894611838,42.35091270520061,127.07280360963264,19.565210531721284,-75.53992055487312,-35.897076435650675,90.0,6.000000000000009,-12.08809802406761,-31.90317109611094,-0.4746706467691419,1.3785329494237777,-29.478114192190382,243
10.57663625705394,12.761973774642193,-5.182983656026498,42.5903975496149,127.83161702054556,17.783310686894495,-74.40365830742802,-38.00564379795143,90.0,6.000000000000009,-13.241506920686477,-32.67188666490203,0.12689157605419016,1.3012583736634291,-29.80564405380395,244
11.36681038470123,12.701029064664821,-5.4912062555643875,42.87523593068907,130.60019885547064,16.98340677672099,-75.23401873953564,-39.21098278035893,90.0,6.000000000000009,-13.907603249118358,-33.078953032212084,0.2251924224348681,1.491342862099827,-30.072492425248704,245
7.076459791487736,12.437672040568785,-1.0783012781942212,43.33624254527768,129.9928884245767,16.88539923903537,-74.80591292700436,-39.790174080503114,90.0,6.000000000000009,-14.180700728930567,-33.10092744373835,0.21652143692263937,1.590933709296011,-30.007817133529567,246
-2.5294157011176295,11.18270391627075,6.251593032494259,43.99167943634489,129.3613405277914,17.2626224449608,-74.22516748001516,-40.151096083267156,90.0,6.000000000000009,-14.223861083180365,-32.84136634116713,0.1420717477563312,1.5964901404223961,-29.698282821554283,247
-12.168798707682665,10.827818024117521,15.799550681977166,43.87492457534364,128.7266190891356,17.83671603587096,-73.4052909409889,-40.14602663385072,90.0,6.000000000000009,-13.877732311254746,-32.22067475958386,0.007492980747629091,1.5263828871912009,-29.24697830033199,248
-28.810134232687762,11.206080615998468,31.95670023860389,44.383930371175445,128.8676433940611,19.114917326910245,-73.24600982431743,-39.887153654493325,90.0,6.000000000000009,-13.251330169348412,-31.306982114758192,-0.2808759058613686,1.4347576124464576,-28.47787170227776,249
-44.8433184081298,12.485096346734363,46.30560755640049,44.67473025777062,126.84991429636034,20.783442579741102,-70.67290137355135,-38.96072463427874,90.0,6.000000000000009,-12.389751152578333,-29.852466616175175,-0.6519877363367074,1.2670045581735385,-27.467192937285994,250
-57.437192434497796,14.67160878759638,57.096806327526345,45.40750273606065,121.56365639485658,23.707481990606748,-67.1088615693456,-37.79275098862944,90.0,6.000000000000009,-11.43958398250589,-27.618944695651134,-1.0483195336655553,0.8772423775997077,-25.839613362449285,251
-65.18808040457229,17.676052351191768,62.71063877271738,46.19481465531149,118.51386286329878,27.447046671546588,-63.26479056610186,-35.520986812075385,90.0,6.000000000000009,-10.111277712396813,-24.725543761959326,-2.0127758735182577,0.762703114030396,-23.986430101238163,252
-70.9094871050027,19.377807388807334,66.23397220751606,46.1792082839086,113.41269506115857,31.483083389490016,-59.74075785048621,-32.2713921216131,90.0,6.000000000000009,-9.269823954369064,-21.592378803247883,-2.1400337027447756,0.01834521356711652,-22.061206303581667,253
-73.74276608709894,20.74353105694119,66.4906923019856,46.02338426600682,109.72019261109345,35.130626166248064,-55.203891492119965,-28.298822862089672,90.0,6.000000000000009,-8.417273656221676,-18.55472491919513,-2.337064596722312,-0.4936132351861478,-20.329575915036862,254
-75.47613646018665,22.310018998460443,65.18824986830256,46.70165841111126,108.25984312448625,40.28818624116321,-52.380727566338244,-28.298822862089697,90.0,6.000000000000009,-7.354162539786841,-15.667542367249355,-2.457126453919817,-1.0067388422315564,-18.654034303965133,255
-81.0915195204569,24.353698957620313,68.2590832965654,45.87595527993879,106.84006379492487,45.69306915716523,-52.59196960765643,-28.298822862089672,90.0,6.000000000000009,-6.403523466483961,-12.788996777806549,-3.04483264974222,-1.4344088313407997,-16.996654017897857,256
-83.25422525573998,26.71607548026665,67.32744544883508,45.738503475159284,106.94023330481815,51.77821176938067,-50.76788995997214,-28.29882286208957,90.0,6.000000000000009,-5.386119468496537,-10.28098316922275,-3.0221343962208116,-2.0330380924868443,-15.298434812073705,257
-87.6056166222442,31.90416324013928,69.0664923142679,43.77122169496969,105.08636577550674,56.29317812970944,-46.14890803479281,-28.298822862089747,90.0,6.000000000000009,-4.893735519554382,-7.992692354899034,-3.5628154985943303,-2.521980235954933,-13.608707258899106,258
-89.60974885934668,37.556285870768036,65.42829014435088,41.843724302161256,103.1352667620116,61.77171315411671,-43.26896769121244,-28.298822862089647,90.0,6.000000000000009,-4.512008560042781,-5.961746040790633,-3.4098914558685394,-2.962830753482654,-11.535662524743067,259
-91.58087881713249,44.0407865613975,62.947543372522624,37.23062608002719,102.47026338754681,67.33191948516803,-42.525958952394454,-28.298822862089825,90.0,6.000000000000009,-3.794302966191198,-4.0709546550609685,-4.721716782576806,-3.1423154161960136,-9.59899696390805,260
-90.39762396393441,49.68565041525842,55.867246562940814,32.52614499416062,101.68771019819877,72.81048650779498,-38.07644784485941,-28.29882286208957,84.82032611080537,6.000000000000009,-3.7719871508930343,-2.358675587341235,-4.4962017286708695,-3.287574892659641,-7.425786040377778,261
-88.31570514470121,56.2208380596885,46.08098175093687,28.29882286208972,99.8043922832361,77.23321302937467,-33.465041709423986,-28.298822862089697,75.06029724549194,4.5753071390949565,-4.029507307635679,-1.206500718879456,-4.129574223842469,-3.2987049387629663,-5.439458048775803,262
-88.12408004766951,64.28062814213757,35.52773239923319,28.29882286208972,98.29292567806604,81.08059545167356,-26.47468703591947,-28.298822862089594,59.08408709140567,2.826933079844097,-4.482133328600572,-0.2528075717576689,-3.4126042145516267,-3.077975552523944,-3.5707369452360087,263
-90.92085318339818,71.31430934968942,32.65759918827772,28.298822862089594,98.08609802202525,84.35821325668071,-23.50098688711748,-28.298822862089594,22.420513557329155,1.7725969892973124,-4.075007558719596,0.5041816841890022,-3.798522975815169,-2.950571031700118,-2.1023932834882517,264
-92.83501156921355,76.49636565778444,27.442932214459066,28.2988228620898,97.00767577496252,86.71117572856467,-20.205900964528382,-28.298822862089594,-17.40222615135668,1.8821970994074175,-3.95637881908088,0.8882601943801447,-3.7016262934415534,-2.832840283397127,-0.9404472612074848,265
-95.30946397182153,80.46594216669604,24.27283462843575,28.298822862089697,97.18381600169712,88.77047177435736,-20.42617253320356,-28.29882286208972,-34.141379027346964,2.522832821114691,-4.0443189373929,1.1109790482790243,-4.294269905165047,-2.9663252573367878,-0.2385234088368672,266
-97.81212345287756,83.36881531461871,24.316298008793197,28.298822862089672,98.32951285363934,90.46704226875868,-19.891050053500532,-28.298822862089594,-43.39978891749529,3.2065115683285317,-4.002527884853312,1.310507358306064,-4.029114724802624,-3.079147761157444,0.5910519889063534,267
-98.74839932837111,84.37470922258912,22.513948368570144,28.298822862089594,97.8241918917408,90.6776383729419,-16.504867219469492,-28.29882286208972,-48.302070939140286,3.7432393530763823,-4.040566122475682,1.5884140007175498,-3.1753376023906603,-3.1755820040808724,1.3592729983773242,268
-99.4022031322401,83.40596046945828,23.06266844246824,28.298822862089697,97.44457984389791,90.45008308530961,-16.46222485913317,-28.29882286208962,-51.5536965251133,4.443370087451102,-4.024077814701492,2.2581156514370258,-2.9408845474422924,-3.4767618893067307,2.1364827607574868,269
-99.52452997571123,80.96892924885145,26.205776888889424,28.29882286208957,95.65435446456405,89.27319378139127,-19.325647374285953,-28.298822862089697,-56.32965861152777,5.263360483724869,-4.039812863149741,3.297605834347855,-2.932645964300157,-3.738598448411163,3.006114935050756,270
-99.01050735087188,77.4371530573979,29.171166552940193,28.298822862089825,94.08297034732735,86.3056354899901,-25.26642815007837,-28.298822862089594,-61.748929479216045,6.000000000000009,-4.146376388025348,4.3996992810581235,-3.2332868818692857,-3.9228724578698206,4.06793430660229,271
-98.29915806771875,72.4905584376324,32.358772606216775,28.298822862089697,92.12288669121146,80.09950765991306,-34.07301983792135,-28.298822862089825,-67.35441123320457,6.000000000000009,-4.585074051621937,5.909742801813114,-3.597090141028975,-4.137836643354703,5.644123935729007,272
-98.07981942698258,66.55046002230354,36.531378915004844,28.29882286208985,91.85317929015342,72.95428490441381,-42.65673915677516,-28.29882286208962,-73.0656889175755,6.000000000000009,-5.033259777390721,8.01240742227905,-3.2778268762369662,-4.339115220328647,8.102795431408847,273
-98.48959119817985,60.543432662561635,38.46318843818068,28.298822862089697,92.0675826369656,66.67551159722666,-51.024743602227176,-31.711661419070435,-77.83020048633976,6.000000000000009,-5.376010966550182,10.370010870627919,-2.8800725131191705,-4.3841124956299655,10.906695686713402,274
-100.23819351899057,55.808088209691995,44.61183749991713,28.298822862089697,95.75464090163359,63.13680113777027,-60.136614806338315,-35.82823055535663,-81.76102062364038,6.000000000000009,-5.267879419351568,12.326439198445328,-1.1689043701958486,-4.095123050195389,13.676465068613934,275
-101.35444563104492,50.299658164094176,48.12622799086011,28.29882286208985,95.16653637680528,57.29104946192676,-65.15472538303305,-42.140804418375126,-85.22568343974247,6.000000000000009,-5.765076650841656,14.209203756474663,0.28851070973593634,-3.5482714527236046,16.600959076404695,276
-105.14430528380787,46.02714996305729,55.9046431122005,28.298822862089825,94.78461757629404,52.13454910224828,-70.36309782626901,-44.65436349974455,-87.69754740342347,6.000000000000009,-6.169576777462242,16.403464228390753,1.5569221306280236,-2.9186998855450135,19.22513495339836,277
-108.65570603630708,41.55624006112459,63.4622056802315,28.298822862089747,93.15646536231978,44.90530732091018,-76.73852344136141,-46.61765006689103,-90.0,6.000000000000009,-6.227408146177352,18.22173003923131,2.7418087827905935,-2.028233072496939,21.96580594427718,278
-112.93408253413327,37.197308935418604,71.51290057442237,28.298822862089697,91.88889088470255,39.150408651921616,-81.00586261277437,-46.89081604703267,-90.0,6.000000000000009,-6.606818504029889,20.4055182530108,3.2909131668935725,-1.2030060292910816,24.26473143667738,279
-118.28888588500587,33.37106033988863,78.32218386449325,28.298822862089594,91.25457064056512,34.41190863117727,-83.76712099116416,-46.27507789083866,-90.0,6.000000000000009,-7.560151608888721,22.525696649859587,3.5008963539275113,-0.46436167206638346,26.41112789093506,280
-124.04798594884168,30.003579583340798,84.99942079440562,28.29882286208985,91.79733866409177,30.094093186061748,-87.13653829848384,-45.252587107819494,-90.0,6.000000000000009,-8.07985396382319,24.407973602952442,3.3412587943360084,0.06941290031552871,28.3104441098475,281
-128.5925892299738,26.613383797277496,89.92227593378549,28.29882286208985,89.99586968575723,24.84691323726896,-87.55428059139481,-44.848554788235354,-90.0,6.000000000000009,-8.470736271669258,26.14510376642193,2.6285951956994085,0.2596736864456199,29.935712504229095,282
-132.74869523523574,23.367265924635664,94.64337998811409,28.29882286208972,86.68042452038459,20.268789388240776,-86.43403715425858,-44.461183103181014,-90.0,6.000000000000009,-9.193207555798645,27.0,1.8116883230662892,0.21186714658071257,31.07903462661792,283
-137.80825910757557,20.192666492923305,97.79493751633754,28.29882286208972,82.89088236212717,16.08568479025662,-82.11787176079348,-44.212171415261544,-90.0,6.000000000000009,-10.144689119665287,27.0,0.8069481847493568,-0.01732935697654895,31.900401608628638,284
-142.38485124701538,17.447880271874958,100.08613460976655,28.298822862089697,73.86708407653454,11.321778476072005,-74.37957378285499,-43.59228212155798,-90.0,6.000000000000009,-10.719974356285755,27.0,-0.18771527115881154,-0.4281364751768105,32.305543154984214,285
-144.7334132892952,14.929966170117138,99.92602688742932,28.527433438094597,57.19494804523591,7.4380763188549786,-58.75545911539505,-42.581390443550234,-90.0,6.000000000000009,-11.298988742255107,27.0,-1.3269056095739857,-1.0687647040183057,32.35581629635171,286
-143.79068880914514,13.285208921493249,96.5959314229025,30.86150061138873,31.998314071454512,5.533894505903394,-33.45199101238199,-42.07868305412763,-90.0,6.000000000000009,-12.095772562041425,27.0,-2.3420937941666047,-1.632572642386901,32.22089764785674,287
-140.73830238197814,12.13565807849669,93.60799297285588,32.44753466720769,3.986079313099679,5.134203326818598,-4.881823357798925,-41.672619229090905,-90.0,6.000000000000009,-12.747199081436259,27.0,-3.021368836259558,-1.9389740497103602,32.0178490880213,288
-140.77709700619167,11.794683894318643,91.27794661852668,33.177684385967844,-4.599466380864445,5.464854640546231,3.9442976918804895,-41.64147760342877,-90.0,6.000000000000009,-13.022961156041633,27.0,-3.2064868501977637,-2.000931360765096,31.8461283343203,289
-138.9408366250706,12.217355701358567,89.2882727969558,33.10857546811375,3.583316944240976,5.42346295049385,-4.061962604751989,-42.005587939170205,-90.0,6.000000000000009,-12.836352580118536,27.0,-3.1305464422935114,-1.9878507727716113,31.526369067331622,290
-135.9449439393565,12.873501266754612,85.8660811533087,32.85425215199251,11.712063422916701,5.465878810977504,-11.817910624207782,-42.647054301665456,-90.0,6.000000000000009,-12.29359126880514,27.0,-2.9745122454391275,-2.008513133687212,31.01728620891416,291
-133.2703043956793,14.074279429809742,83.1073671718007,32.09934605412113,34.149158757031294,5.440378170979608,-31.973347267585766,-43.35049995093301,-90.0,6.000000000000009,-11.974514145993979,27.0,-2.502754985094674,-1.7938055588534798,30.425336771103495,292
-129.47787242015914,15.799984396052132,79.11589723615603,30.660561976599016,57.85213631500291,7.698591259713719,-54.5869030709377,-44.63125849210141,-90.0,6.000000000000009,-11.582405524431266,26.628683237148778,-2.0553366638957327,-1.7340086232720193,29.3422247131758,293
-124.60239163648033,18.446718009155795,73.88497073472273,28.830623349600803,69.97059193648327,11.047974191799334,-65.39562251524207,-46.14681058119203,-90.0,6.000000000000009,-10.880037407692969,24.432591679707738,-1.226657052632824,-1.5634398607235807,27.87724941901463,294
-117.61495040412662,22.692697938555725,68.65986236317111,28.298822862089672,77.02472727128506,13.746521211783664,-70.88435896553348,-47.150551925893495,-90.0,6.000000000000009,-10.435696406516762,21.666714248944697,-1.0577003799845826,-1.8974761192601426,26.01799098814618,295
-114.47768160135942,28.718833056386792,64.28446512011554,28.29882286208962,77.43873999106633,16.31816231619519,-68.87902830251963,-48.319989478669335,-90.0,6.000000000000009,-9.271380965865141,18.540068328470568,-0.13428300104032762,-1.7949457422632735,24.305980255269127,296
-111.6685529306636,33.96254463044121,60.45884116669972,28.298822862089825,78.93907741320898,17.569248680926204,-67.78008205070428,-48.771462213775585,-90.0,6.000000000000009,-8.17293627784731,15.36001747107511,0.7548078648648298,-1.767114014595087,22.739864668860175,297
-108.23757333291267,39.27887627851253,55.37126839986116,28.298822862089825,79.68705822087395,20.097766389974417,-65.44651849222018,-49.565533641877934,-90.0,6.000000000000009,-7.18806216135293,12.592536785926596,0.6006740321041696,-2.1328675761256575,21.011367710094582,298
-107.2298322196738,43.8294738951577,53.278411812952115,28.29882286208972,83.43603678430834,22.57656595866274,-66.56313408124493,-49.974913989237166,-90.0,6.000000000000009,-6.306256356909602,10.009111522018546,0.8908508337131223,-2.4314285826959368,19.441942148177343,299
-106.82838158932631,50.042595084310705,53.19236151337536,28.298822862089825,85.81849462476349,27.21572009146121,-65.6485428009133,-50.18078481844163,-90.0,6.000000000000009,-5.0561469303759505,7.6407200483187125,0.8527635904965988,-2.7682732134459016,17.627659707744638,300
-104.93505475552661,55.287881255216426,49.97005604323561,28.298822862089594,90.38596056195152,34.465071650267404,-66.7192535300412,-48.66078579087739,-90.0,6.000000000000009,-4.645400030488334,5.340798114468314,0.42175941757747487,-3.263228056840193,15.546503680809371,301
-103.39473616494527,61.038892369843715,47.47252530970286,28.298822862089697,91.9626660926207,42.25833044526552,-61.44491911384722,-46.841157909746606,-90.0,6.000000000000009,-4.324630678430352,3.483446525735842,0.577558013479804,-3.4707631836244413,13.368435650955174,302
-103.51305210213448,66.81649523224301,45.99621478328564,28.298822862089697,94.38984385026893,50.428231239115036,-56.79890136699879,-41.63659295072491,-89.56542762719458,6.000000000000009,-3.2943687479117774,1.8207116234740337,1.0776598150775314,-3.54832985641561,11.052540258717531,303
-103.06730003671807,71.60130136008871,41.681549233739496,28.29882286208962,93.39408881111058,55.454007615572344,-50.39516525901897,-36.5243797223915,-85.86214671152814,6.000000000000009,-3.2888144203818674,-0.08312887513982098,0.733655242295373,-3.574732508390257,8.904301549625131,304
-101.4623948492474,76.15478219566312,36.90776999358699,28.298822862089697,91.53434700162836,59.283483778745364,-41.314333624708375,-29.3345102813549,-81.51918007674199,6.000000000000009,-3.4528936128851297,-2.07432968731684,0.2731192910624574,-3.3754486900291334,6.683727055913944,305
-100.03987376151481,80.32292418006173,31.307935421937284,28.298822862089697,93.18694795327144,65.17917732416625,-35.19988779567146,-28.298822862089594,-74.66522323325125,5.752860688659256,-3.1753560591262207,-3.8715251136873627,1.273714584160724,-3.187054424297658,4.685472323096339,306
-99.6081104317265,83.93574904710258,25.119043025259785,28.298822862089594,95.42061788351015,70.25843182960676,-30.530376001858915,-28.2988228620898,-61.778192059940785,4.000859515098787,-3.4010536740538932,-5.187727845462503,0.9474504068492883,-3.084444315600056,2.8486531100335717,307
-99.547872312263,86.61291099285296,20.06523088384497,28.298822862089697,95.37552856830996,75.14339034383295,-23.831573854881885,-28.29882286208972,-44.77554076838551,2.8562191808566046,-3.5336977683835866,-5.886844136052276,1.523307800665614,-2.932158383750695,1.5923955648340262,308
-99.04079645407516,89.06283512828958,20.345158465792252,28.29882286208962,95.64501475417687,79.17692084009065,-17.16050047069392,-28.298822862089672,-26.142160557612296,2.459267684255605,-3.7249839603997636,-6.201812998402104,2.4087860940870276,-2.9348351808355044,0.9273704135465344,309
-99.83240846934049,90.6073686664523,20.66583137950665,28.29882286208972,98.36120402135676,83.07094363774209,-18.69212047074468,-28.298822862089825,-8.552771157681741,2.5494590705200393,-3.8601296907969003,-6.1252827333366975,3.0162503072081703,-3.0898180121037706,0.5882103844146729,310
-99.46178038245745,90.50455068526185,20.74244597337411,28.298822862089825,97.93465122940619,83.39294593631064,-15.975796662682425,-28.298822862089594,-7.5863530804940815,2.7368888833493115,-3.7921381234539417,-5.869116845793311,3.1017463707212745,-3.2630317795236747,0.599781131655995,311
-99.03587302239673,88.66065403694255,20.247474223367277,28.298822862089594,94.48998506341609,82.15517007513749,-16.661122689476844,-28.298822862089594,-21.661474268818907,3.055449751684235,-3.909562638865128,-5.104429330040607,2.2292880765558216,-3.302542360909828,0.9966397869792567,312
-99.09597724539938,85.85284401575815,22.991736228863342,28.298822862089647,95.0161509595006,79.825552277341,-22.944077486602513,-28.298822862089697,-34.48617268146063,3.766509377206821,-3.9020064467111237,-3.99263981597121,1.8038792815330669,-3.584211676156502,1.9948616413721214,313
-99.01877807235932,81.28761687722728,23.0785587516117,28.298822862089697,91.49307997343415,73.6633291499594,-31.57691305723085,-28.298822862089594,-51.77197579447913,5.026005769666471,-3.9875679649035796,-2.624950584422465,0.863294371041239,-3.5547997984965236,3.428309607690844,314
-99.07643362390513,76.76348762405223,26.00965453982167,28.29882286208962,86.44217446170984,65.4072100728688,-38.509731919252694,-28.298822862089594,-63.99874040291724,6.000000000000009,-4.295642789285006,-0.8832798959909398,0.21746448434563942,-3.5961394641995184,5.4738055162560055,315
-99.64111889946551,72.48052304435284,29.0978633728853,28.29882286208985,87.14539334781716,60.392614664808406,-47.332946039471345,-31.333881015488092,-71.42687907018257,6.000000000000009,-4.379201169361792,1.1503304565259154,-0.3165962952201604,-3.741899338167234,7.801537538944094,316
-100.24057636172697,67.2132150089797,30.83960360827808,28.298822862089594,88.75725571988984,56.38757095239365,-54.01939584590312,-37.25550967316671,-76.59698579638899,6.000000000000009,-4.628166392733332,3.4654240248447734,-0.1064515366727828,-3.9966172418970993,10.502243188327789,317
-100.68390654525541,62.410056588706986,35.53188200915828,28.298822862089697,88.74851574978425,52.41545316435234,-59.622161385895936,-41.556280256134656,-80.2295807837643,6.000000000000009,-5.153704294090676,6.04475862706838,0.6154120671892563,-4.06195590118406,13.17729470423985,318
-101.2654855055132,57.50450794522983,40.40118968676122,28.298822862089825,86.68750365570531,46.71460927203012,-63.18443728809821,-45.54362605557656,-83.41322983909299,6.000000000000009,-5.518959843233943,8.456602837544096,1.4703872006616159,-3.846050855197002,15.887900095900182,319
-102.75700002310465,51.96915602201742,44.268506630661264,28.298822862089697,87.02554584533881,42.217443128001406,-64.50556395647617,-47.485967151402015,-86.99094632813681,6.000000000000009,-5.605820833420685,10.988479376635707,3.299963686674127,-3.080972021753099,18.82297510654126,320
-105.51685622571257,47.6198551110066,51.03177047004604,28.298822862089594,84.0837253226196,36.419033781130686,-68.1204274373277,-48.26476216560525,-89.78256225392695,6.000000000000009,-5.868153084844187,13.24533932233752,4.5569915055760175,-2.1648716877762904,21.29264171568723,321
-109.2932718500219,43.14566830522629,58.190302586008926,28.298822862089697,83.22562269580293,32.01385363353549,-72.70708961244038,-47.801033078069175,-90.0,6.000000000000009,-6.226906509094976,15.837296858571273,4.934531488129041,-1.4441200093931885,23.52351035345906,322
-112.31061894854207,38.7235364340077,64.32668071334093,28.29882286208985,83.01713478289622,28.217393163647856,-75.45198061632794,-46.771267353416455,-90.0,6.000000000000009,-6.925311472914065,18.387090179961376,4.414780798226506,-0.9696630943424847,25.569048374880673,323
-117.0406861034119,34.49460326866898,69.92849876525,28.298822862089697,83.41363379156402,25.571142351302697,-81.65425301068065,-45.387100106711586,-90.0,6.000000000000009,-7.984360620923356,20.667217915656376,3.687678081281394,-0.8097872231563147,27.26287685444012,324
-120.42706622239614,31.182984727612478,76.74591457949023,28.298822862089697,84.55196251010565,23.05636199179082,-83.05371135324408,-44.406273627795116,-90.0,6.000000000000009,-8.611968794606367,22.570289883607778,3.474086045969612,-0.3851818189757874,28.686358444313793,325
-124.93977303112595,27.717414321436586,81.91763923710359,28.29882286208962,81.42570918925489,19.636997709121648,-82.17278864890538,-43.79275648007031,-90.0,6.000000000000009,-9.261399352654783,24.391985119325195,2.8541150268491102,-0.12569839234343352,30.041193389093156,326
-130.4079179062278,23.974801856863376,85.77348141033283,28.298822862089594,79.98694525783029,16.345960985412255,-80.62055197106177,-43.10528486155544,-90.0,6.000000000000009,-10.17723681102258,26.08126043465201,2.1191138149463757,-0.03680778971820923,31.22458354756882,327
-133.87339324913134,20.409775445932038,90.06469023386971,28.298822862089924,69.88510820571439,12.727451848533969,-72.40424083574814,-42.712522290474425,-90.0,6.000000000000009,-11.25836811335807,27.0,1.3668102320028879,0.08282744748481057,32.10799705282352,328
-137.8877297984588,17.279937597153722,92.10035435570173,28.298822862089697,58.30588258790303,10.593931750400097,-62.501821468504794,-42.32046039374954,-90.0,6.000000000000009,-12.309207532596748,27.0,0.3026696348057899,-0.18400301575022424,32.51856063899478,329
-141.20694231298398,14.92987229182489,95.64977861104887,28.29882286208962,43.784142577109115,8.094751025818585,-47.00837755615265,-41.658138501744965,-90.0,6.000000000000009,-12.780811179825987,27.0,-0.2957507560336953,-0.25073924127861413,32.89832551816,330
-144.1737125005268,13.20250089446053,96.20867233243052,28.298822862089594,29.4123244025148,7.224783000881564,-32.42256907857133,-41.46430508855752,-90.0,6.000000000000009,-13.127126734859507,27.0,-0.8098227364246732,-0.39207724790367343,32.923368414139816,331
-145.35824140653438,11.935892903342195,95.07917834567418,29.78202519809657,10.873724240727663,6.556343352224795,-13.470876034224275,-40.89271863644946,-90.0,6.000000000000009,-13.726434039318406,27.0,-1.479022128651997,-0.6852355835843262,32.8574341425991,332
-144.06259716826023,11.234942766271995,93.73447131180205,30.89683273251503,-2.505027507784666,7.256144233875117,-2.094331959680797,-40.532954499127115,-90.0,6.000000000000009,-13.954971462517163,27.0,-1.8477652934218727,-0.8395666396161239,32.724621428094956,333
-142.5992464902826,11.164050319332475,92.04119815626139,31.459929736439932,-2.055997223085019,6.546825987670103,0.04035580063411082,-40.74446691230497,-90.0,6.000000000000009,-13.760907127459541,27.0,-1.8975225305983063,-0.859443132452758,32.50965823171166,334
-141.17467038466935,11.343679733193246,87.7926310761389,31.56882185253803,-2.4176332257999746,6.577989456467112,0.8571082871736686,-41.06806707088897,-90.0,6.000000000000009,-13.446239665139519,27.0,-1.9532468211338947,-0.9498909107635778,32.0814439341961,335
-136.6896811165642,11.934282797108814,82.88358330017716,31.102481550742624,9.428696722251688,6.46813769975917,-10.410173249896982,-41.89803831797149,-90.0,6.000000000000009,-13.084290670536946,27.0,-2.06571219258311,-1.2163558424253913,31.398450198484053,336
-130.06452949321647,12.917041880622378,78.23725164461962,30.40823108825764,27.176297009781607,6.631992064946426,-26.02096597631142,-42.75507462465071,-90.0,6.000000000000009,-12.621327824134982,27.0,-1.9755427319811594,-1.3064025432433624,30.616244219186818,337
-124.5252225354632,15.223213532043394,71.78755678948417,28.919583363466778,49.21592284157146,8.616250389870972,-45.98474428326521,-44.964146510605396,-90.0,6.000000000000009,-11.594786838434656,25.307737798647494,-1.7073819508115766,-1.471297376316028,29.24888632360089,338
-119.64479958322896,19.198724765974045,66.05881527222097,28.29882286208985,67.0514546928388,11.6846733956714,-62.39961107816551,-46.34596886083438,-90.0,6.000000000000009,-10.745851174829264,22.792190988253086,-1.4177566662408858,-1.753227067452547,27.386350208967425,339
-115.09936045927063,25.451472200096976,62.31249552310584,28.298822862089594,73.66458584231819,15.80810194949672,-66.79269043588232,-48.517960725496565,-90.0,6.000000000000009,-9.74536422581276,20.013818468637133,-1.4566547705576764,-2.157048637273085,25.09755841422267,340
-112.36290264947347,30.594005989288803,58.064825505994264,28.298822862089697,75.28560140800572,17.970768268823292,-65.72557460711074,-49.554630164667834,-90.0,6.000000000000009,-8.655061349884178,17.10655285458027,-1.275891539309084,-2.383445324800293,23.352966039404574,341
-109.20406444871978,36.220359749407976,53.12430021242666,28.298822862089697,74.97335218821325,20.832766289586345,-62.38210250292188,-50.70509598027929,-90.0,6.000000000000009,-7.536647728079792,14.118647944449409,-1.256130584079238,-2.5891451854123892,21.356380973119844,342
-108.44553176249157,40.99575670725924,51.050342629201765,28.298822862089594,79.16371275440379,24.111148673541013,-64.12199671108138,-51.03382344633002,-90.0,6.000000000000009,-6.523617979601736,11.529188566250705,-0.9374633093102775,-2.791306802908591,19.674802833320445,343
-107.45148967152727,47.511106810155816,50.61023912299644,28.298822862089647,82.50919914688129,28.56532975505822,-62.47003133057541,-51.100028782179145,-90.0,6.000000000000009,-5.732995974528224,9.045909455248749,-0.9643478412730274,-3.009572395681921,17.698249075622766,344
-107.35489355881195,52.76533138865886,49.33488348453998,28.298822862089594,88.02144659795903,35.3108360482832,-64.65314295628751,-49.52124932133121,-90.0,6.000000000000009,-4.719118636932064,6.7927219194952855,-0.190781727378477,-3.241978790124983,15.755918119328003,345
-105.34025743157137,58.506676026402076,45.73473267055526,28.29882286208962,90.2892514885245,42.825448468693764,-59.16092176397029,-47.342728175678964,-90.0,6.000000000000009,-4.0796513312254525,4.923025159292332,-0.40845906435986057,-3.4566404665049166,13.47502686180292,346
-104.64325186256126,64.289933033421,44.02530507882396,28.29882286208972,92.45986649693992,51.52584896091495,-55.72281052653626,-41.726619543556936,-88.60186188289596,6.000000000000009,-3.5311753158407324,3.3475703021964898,0.2300994698316857,-3.5476604694815412,11.221099762032361,347
-104.05999334152577,69.86415109561692,42.413833828773875,28.29882286208985,93.92332593815438,57.63691238206256,-50.6521621921667,-33.37542752676977,-84.94610911554618,6.000000000000009,-3.1386493508756472,1.565592987078585,0.6497084432695558,-3.6175217288913273,8.97492122562666,348
-102.49023408909464,73.84938706716638,35.20251418062069,28.298822862089697,93.08678107183064,61.97923297820578,-41.92584584736721,-28.298822862089697,-80.20003786764536,6.000000000000009,-3.091628750305506,-0.2526734243939493,0.3076281854119272,-3.4497414287925943,6.696310430567264,349
-101.64526962594293,77.5427610018862,29.28642535631858,28.298822862089697,94.2923984807068,68.13779003030646,-36.19390055030254,-28.29882286208962,-73.38761106404193,6.000000000000009,-3.1803192669689357,-1.7980222349479618,0.6336635498038035,-3.413844795541329,4.85699408613367,350
-100.36726791037638,81.43006339044982,26.198259201601275,28.298822862089697,95.37067283896567,72.47370180665668,-29.737189824619243,-28.298822862089697,-64.40909469742851,4.837001969376151,-3.032746343897203,-3.175088550981022,1.4699649598049889,-3.175906717359631,3.3329458224352977,351
-99.35985483376496,83.63383401762188,20.786994121589274,28.29882286208985,95.41643032158512,76.34905441453523,-25.975509922440665,-28.298822862089697,-52.05363186055713,3.7663201587218644,-3.002728852879595,-4.019671172086278,1.79266642715643,-3.089012605167165,2.2386285014966645,352
-99.7751222873123,86.38996186977417,21.201408763686953,28.29882286208972,97.01549517814891,79.6028825959027,-22.131278763590174,-28.29882286208972,-37.865168751399644,3.1146046695764236,-2.809322713200579,-4.5634679398199305,2.7883948169601154,-3.197402341632855,1.4656557538544905,353
-100.76354155032631,88.54625521398825,21.160479366014766,28.298822862089466,99.59783292074533,82.58960553966776,-21.642993175347268,-28.298822862089647,-22.360678553949747,2.9931792623089115,-3.00310901832658,-4.878324238525002,3.0825340041868374,-3.3760871648678092,0.8951079101291934,354
-100.76597228895703,89.40644223216977,20.549250279554045,28.298822862089825,100.1061156344743,83.88192782599319,-19.253490260869025,-28.298822862089697,-12.793491207702287,3.005191007161371,-3.205656865718362,-5.123420387257212,2.644616621300184,-3.396068753018729,0.35938732190731987,355
-98.91460291383495,89.30535771278284,20.301012223118878,28.298822862089594,99.11265917011667,83.7273619021329,-19.23896622120901,-28.298822862089594,-4.110805843312523,3.001523695571542,-3.3409691762870883,-5.641813747644769,2.4417128249871602,-3.372818562956847,-0.1940282936726102,356
-97.04916037105215,88.11314810361051,13.470693485128855,28.2988228620898,95.30949605251016,86.16658885543622,-10.001070753285543,-28.298822862089672,-18.66911531137121,3.010379720039885,-3.2621083551441608,-4.23639262522494,0.7858511109411651,-2.820625352374244,0.27223203161057086,357
-96.89836038080982,88.21703143233545,10.464536482727118,28.298822862089953,95.49441491694598,89.27041481528227,-8.040206775663863,-28.298822862089953,-24.559234926549493,3.4403250761447204,-3.3232364661128777,-3.1953903471125016,0.4332015289957419,-2.8435659199180403,0.8870440758505416,358
