JMW9912/AVATAR/Dynamixel/dynamixel_control/data/csv/poppy/.data/waist_test/2DoF (2P+Ori)/0422_2108_13_18_2_dof_waist_with_adj_poppy_bvh_motor_degree.csv
theta1,theta2,theta3,theta4,theta5,theta6,theta7,theta8,theta9,theta10,theta11,theta12,theta13,theta14,theta15,frame
-94.32656916508857,24.253969233946375,94.35497390174723,28.29882286208972,-94.88627990945874,8.654469499898093,-82.47931188170784,-28.298822862089697,26.2921196482245,6.000000000000009,2.8051766135533356,0.736096783755453,0.06106657397293583,-1.5574253403185632,-2.1207448039576726,0
-123.17082572204924,93.08293398644281,51.10880776089404,28.29882286208972,-94.88627990945874,101.64766579463736,-82.47931188170784,-82.45520069168194,90.0,6.000000000000009,1.710294439704166,-0.6507424253260541,0.14296101948450518,-0.464323372604364,-0.7334739441429222,1
-65.990441971516,104.99999999999999,51.10880776089404,113.69024548569129,-94.88627990945874,54.403075976091515,-68.10891164500715,-138.47092754234313,90.0,1.7296669505525022,1.5676611299321137,-0.5610153349652652,-59.268731278319095,-2.859862956728699,-2.1564854632193553,2
-65.49250472554391,104.99999999999999,51.10880776089404,114.60134159570521,-94.88627990945874,54.298528202831925,-68.17069208507601,-138.6448030722031,90.0,1.4998157361360627,1.4589474168923193,-0.44632427025609905,-59.47765954277219,-2.950577456457164,-2.2550443331884793,3
-66.85557825668731,104.99999999999999,51.10880776089404,115.49277981525964,-94.88627990945874,53.50119851119034,-68.18562231871282,-138.93187287044864,90.0,1.213385508588608,1.395978443000698,-0.31449160719175895,-59.72119466950342,-3.0895848254845157,-2.4345387440074693,4
-66.54213905412604,104.99999999999999,51.10880776089404,116.40109556905199,-94.88627990945874,53.66459332927335,-67.69051909824864,-139.17888329811504,90.0,1.006014607078658,1.2828737943240243,-0.1821071586461434,-59.92159406319666,-3.164574332915454,-2.6192800050891853,5
-66.33849365296504,104.99999999999999,51.10880776089404,117.29448499335837,-94.88627990945874,54.54738679583561,-66.82343266045132,-139.44167598693366,90.0,1.1493950495964544,1.168026577531999,-0.02882702800584361,-60.169826804302936,-3.2493287283507786,-2.671011276454871,6
-66.0824518860237,104.99999999999999,51.10880776089404,118.12555436905967,-94.88627990945874,55.41950852755703,-66.4978943917406,-139.74245579570328,90.0,1.3877773454219313,1.1537600669623418,0.11154764131094298,-60.47103475947307,-3.475519012847918,-2.709320897184699,7
-65.90849550241573,104.99999999999999,51.10880776089404,118.8978604835571,-94.88627990945874,56.25483604391857,-66.45087481139026,-140.11994880202,1.9316080593714438,1.515402734153691,1.1377648620558296,0.2895639982148828,-60.75409226068733,-3.667045307054892,-2.88896313467501,8
-67.57902136746512,104.99999999999999,51.10880776089404,119.7349325381241,-94.88627990945874,56.960451253596304,-66.02258604439156,-140.65088854187925,16.681743456305455,1.8356927681877708,1.1038419956007928,0.46789241100563356,-60.962551951022604,-3.8836468721205892,-3.0686812125135323,9
-67.4283430567699,104.99999999999999,51.10880776089404,120.69221292733948,-94.88627990945874,57.845596676070464,-65.30091341316817,-141.0134404250815,22.27199433211109,2.195998440077136,1.062144674077792,0.6413005476805611,-61.12121936796832,-4.076317469511413,-3.1315050170392293,10
-67.38394370238416,104.99999999999999,51.10880776089404,121.59057920600854,-94.88627990945874,60.116337228893094,-65.17899780696295,-141.23086951823817,20.596072938482713,2.5467701066810666,1.0258756135006395,0.8201777161546201,-61.41393812911067,-4.280063280776576,-3.053494614261989,11
-67.3465408537712,104.99999999999999,51.10880776089404,122.26568701370667,-94.88627990945874,61.65312854558628,-64.82426558745634,-141.5199997948154,22.478304164015825,2.9195357253544407,1.0394174964335916,1.0010854284112545,-61.769182580893805,-4.546435902226264,-3.0336461664672085,12
-67.27409255340976,104.99999999999999,51.10880776089404,122.90508791823339,-94.88627990945874,63.28499582277516,-63.94898577753191,-141.84151126258428,26.758698282966094,3.199701798640454,1.0494843304552104,1.1895984384710043,-61.96789544751695,-4.791024019113185,-3.049419002389112,13
-67.30367138888889,104.99999999999999,51.10880776089404,123.64615258137327,-94.88627990945874,64.9736060705885,-62.53174359462823,-142.04031050311175,29.815086432200143,3.4328171731476,0.9730310754223159,1.3534017237951956,-62.043816237614365,-4.9651711050768865,-3.0346666559092705,14
-67.41179747765035,104.99999999999999,51.10880776089404,124.28719827306382,-94.88627990945874,66.82251145682851,-61.49897047305035,-142.13560512727787,29.34925174945781,3.6825103842474176,0.8706234271909016,1.5126314005160595,-62.23695296709531,-5.13040372753125,-2.946220399594875,15
-69.52706181366446,104.99999999999999,51.10880776089404,124.76226611153226,-94.88627990945874,69.48011864963064,-61.76545056106394,-142.15059321574844,29.053677044743417,3.9459385218308616,0.8131683341710415,1.694699994789774,-62.49878703206546,-5.338317781975078,-2.910109061023059,16
-69.82483142405505,104.39887916562242,51.10880776089404,125.19518312259126,-94.88627990945874,71.02262520222311,-61.16846719016848,-142.20112085359966,31.56428605768689,4.1698441939312065,0.7537505042446025,1.8864978558326362,-62.699004886743126,-5.546396797106553,-3.012606695767293,17
-70.0816913225814,103.41780880473098,51.10880776089404,125.56461598331329,-94.88627990945874,72.6680624180957,-60.32842553107314,-142.299960805012,33.012473557549114,4.476589869699497,0.7285335293153462,2.0272611994555203,-62.891390758372175,-5.797414244572161,-3.052854294173091,18
-70.41873589033807,102.35649067462747,51.10880776089404,125.97577564830672,-94.88627990945874,73.96077284799718,-59.83719631083836,-142.20054610817493,32.511651920030886,4.697048582406807,0.7809433049140684,2.112553765049518,-63.03604381216212,-6.032279344809643,-2.995279932199561,19
-70.89736260807217,101.38305734800566,51.10880776089404,126.27583784218022,-94.88627990945874,75.65196594644742,-61.00068800631882,-142.02117429767475,32.59935153940867,4.773727138475944,0.8986162707135918,2.1643159793883116,-63.213803734268765,-6.217242469682845,-2.9729408530539403,20
-71.49726964760892,100.3170477517377,51.10880776089404,126.3860454027869,-94.88627990945874,76.1260487446486,-61.28225177118052,-141.89047966525524,32.220954224975735,4.695891660562302,0.9620138424492042,2.17102664510392,-63.37340633170901,-6.287361386364662,-2.9476583523294266,21
-72.05937530025209,99.20947637733781,51.10880776089404,126.44879510825083,-94.88627990945874,76.71211541471594,-61.544747718604604,-141.75079291323937,28.137034588356467,4.5605065348120375,1.0220778192921147,2.172095780064018,-63.47937356371516,-6.349938721567272,-2.7864616175291745,22
-72.4811425673411,98.31619575965654,51.10880776089404,126.5271292568314,-94.88627990945874,77.12793948284637,-62.171263666053015,-141.54231032580668,23.42720262719327,4.5155272921171,1.1987696403104078,2.2207609981326537,-63.56508093123458,-6.512502422148787,-2.640443971873631,23
-72.95824372743563,97.46916320394334,51.10880776089404,126.59963195635478,-94.88627990945874,77.76257403717051,-64.2678606059485,-141.27406235811713,21.62131666462213,4.390569155033153,1.3645897737189778,2.3133142115258765,-63.56216620392997,-6.63065582419491,-2.6859555647088538,24
-75.3221586637196,96.9399407359112,51.10880776089404,126.65845797064487,-94.88627990945874,77.12639292111227,-65.89165212202438,-141.04588250826623,20.259798635203207,4.192255197171291,1.4270683940795257,2.439782137156387,-63.557578739165955,-6.674519381656662,-2.8162907904849486,25
-75.65709002128176,96.08336627558748,51.10880776089404,126.74754273533539,-94.88627990945874,76.24221320364386,-67.64030771551587,-140.99794104400164,18.839627176219675,4.094079384436007,1.48531857335304,2.56023705385622,-63.54787223944452,-6.791723902382678,-2.968994518140306,26
-75.94181221850035,95.23713194987369,51.10880776089404,126.75066496481804,-94.88627990945874,75.52779405285584,-69.11008869999978,-140.97665558204545,15.002539367615505,4.0461178318876305,1.5470650769276466,2.7166533458874143,-63.53953797177232,-6.912168729427062,-3.041831397194541,27
-76.16895643300157,94.57617014726293,51.10880776089404,126.65957717598461,-94.88627990945874,74.97906707163273,-70.52003555269182,-140.90226976180568,9.357177167974111,4.121807333109484,1.6253895937342302,2.903959335239245,-63.511342368434875,-7.090624811137436,-3.0250305181600474,28
-76.3405050745613,93.98986350749266,51.10880776089404,126.58803606041343,-94.88627990945874,74.39577673404158,-72.0134646524959,-140.9783659179287,4.721685145784115,4.15059705046122,1.6612683053016726,3.115061331727397,-63.454705807291695,-7.244589146334762,-3.1003806661660707,29
-76.40661465567086,93.17989809147393,51.10880776089404,126.66863051582351,-94.88627990945874,72.93562788083754,-72.25108263150042,-141.04337422316445,1.6542618482554632,4.200022307185685,1.6421822689568146,3.3451932611088533,-63.239519576803836,-7.377874413628734,-3.243362701390995,30
-76.39064999083558,92.32032850920078,51.10880776089404,126.81114847992428,-94.88627990945874,72.01545015631574,-73.2558619014942,-141.09415575734022,-2.472474453603849,4.359491687031444,1.5939045984218414,3.589831747403505,-62.96292741570669,-7.534354805793279,-3.3039436971569676,31
-76.31126904053008,91.63548826582168,51.10880776089404,126.81082091755852,-94.88627990945874,70.92568439797039,-74.6789128463593,-141.22122439046595,-6.394562127182731,4.583287397044584,1.567443833062302,3.8278392660239047,-62.73513942298905,-7.754898447561299,-3.348020388297029,32
-77.97731203486558,91.18476919016972,51.10880776089404,127.15334365845003,-94.88627990945874,69.66859872222066,-75.91711555612686,-141.33504657021155,-9.856579578639618,4.781198876277533,1.5000622324291595,4.077596307954318,-62.45909081707045,-7.939067531866873,-3.4515934873944616,33
-77.90335780762427,90.55614609411057,51.10880776089404,126.85385516642249,-94.88627990945874,68.51115852238907,-76.94275417191054,-141.4597311612549,-12.185100920055865,5.046748187431291,1.3883764504565714,4.348986802747341,-62.129133176437136,-8.123121955410998,-3.607325304878188,34
-77.70170934092262,89.66366444547063,51.10880776089404,127.21359494003669,-94.88627990945874,66.8946976993777,-77.41060156405081,-141.59144295884283,-12.697560112915232,5.2428841442945995,1.2429675259857325,4.667274521165639,-61.708786217246505,-8.314914779925779,-3.8195534751272935,35
-77.42054481327956,88.80269584684468,51.10880776089404,127.61504957475157,-94.88627990945874,65.32348591058036,-78.56830585855344,-141.71146641249467,-11.400800782479973,5.373607385802845,1.1063612105609077,4.982496995565234,-61.191487501553794,-8.563018253272253,-4.11783316433293,36
-77.0493003944423,88.28368206740578,51.10880776089404,127.68622584916785,-94.88627990945874,63.726529012515705,-79.3129402026446,-141.78393999742883,-10.626508968397411,5.642927317496786,1.0263026135948947,5.252113628895187,-60.733362855591345,-8.87355385128023,-4.379707712426966,37
-76.75568304148757,87.96256030666804,51.10880776089404,127.44970035705721,-94.88627990945874,62.99779579460318,-79.77274392466327,-141.94207166361133,-11.642487482114051,6.000000000000009,0.9559141456727809,5.500958779252625,-60.43317480973028,-9.140194935336142,-4.535163925604342,38
-78.47491513762738,87.73944927374573,51.10880776089404,127.44341564259703,-94.88627990945874,61.93396970548816,-79.1436401279223,-142.06243847683544,-10.860247097575774,6.000000000000009,0.90924902925968,5.755427218054154,-60.01374314641441,-9.415128790656375,-4.7840443055598,39
-78.39181171552057,86.92341296284442,51.10880776089404,127.49298796666928,-94.88627990945874,61.4675815650593,-78.48750110820957,-142.1129326804015,-10.058939345706232,6.000000000000009,0.8514765628075041,6.00951322744685,-59.612407010448614,-9.663393147328373,-5.040649403624285,40
-78.29520602990092,86.35371533201294,51.10880776089404,127.45949748136889,-94.88627990945874,61.95905475640571,-78.19677391420493,-142.41944290679513,-9.64358328352264,6.000000000000009,0.6876845625865476,6.3089601884883715,-59.37495184389844,-9.822898600367896,-5.299114604534017,41
-78.22538658344477,85.7211344047135,51.10880776089404,127.48398100036955,-94.88627990945874,62.713437852446866,-77.18868383702247,-143.009690533509,-7.188875714751311,6.000000000000009,0.5113010374391215,6.666075318239832,-58.95561520739194,-10.023656447363175,-5.745267042342761,42
-78.21926706942146,84.82993759731981,51.10880776089404,127.53313320620111,-94.88627990945874,62.9773540876641,-74.33454279820613,-143.45621767570154,-4.990275497966814,6.000000000000009,0.3541446435230819,6.948941110719955,-58.29675289209106,-10.226802375318684,-6.1432662405856675,43
-79.94461568411627,84.67912312432401,51.10880776089404,127.46997518998347,-94.88627990945874,64.19935988671642,-72.10107938936511,-143.83311263109834,-3.7895428700616374,6.000000000000009,0.23255218636712088,7.094844703046127,-57.7225721506347,-10.422537247366108,-6.309254810213753,44
-80.11808519951714,83.6773239106545,51.10880776089404,127.43002425658915,-94.88627990945874,64.7461874365549,-69.47725687169317,-144.15881064427367,-2.566787766108741,6.000000000000009,0.11491029855377582,7.197561497209737,-57.082898219533305,-10.518866370436305,-6.495994231643146,45
-80.38631441557129,82.54438099917992,51.10880776089404,127.41266707860962,-94.88627990945874,66.12896873791703,-67.18498815854679,-144.51767437960393,-2.3410451676688604,6.000000000000009,0.010877204584810037,7.255381699342054,-56.49080238412896,-10.57593526644579,-6.635727476565885,46
-80.49863747337938,81.5064525173658,51.10880776089404,127.29934735440729,-94.88627990945874,67.70021489368497,-64.44894542506484,-144.7210325724348,-3.6173430987886204,6.000000000000009,-0.0625406541742621,7.141019146856715,-56.019803912311765,-10.621117202740836,-6.5041746691573,47
-80.76546873393313,80.36574903504248,51.10880776089404,127.10179300081104,-94.88627990945874,70.37840013476354,-62.45250171281286,-144.7835596886547,-5.502336704654627,6.000000000000009,-0.17751865333078665,6.932009977896249,-55.62501776898068,-10.508114093556353,-6.284560328552577,48
-81.21844602011537,79.04318783212626,51.10880776089404,127.03335770518515,-94.88627990945874,72.65600190303464,-59.879756778102745,-144.96404342534416,-6.962788926590848,6.000000000000009,-0.3604936673417373,6.822186175922994,-55.29434743663582,-10.27977421495875,-6.155483096317527,49
-81.75387484360233,77.88255355906821,51.10880776089404,127.05339206698021,-94.88627990945874,74.90297100427364,-57.117274364635755,-145.06217600621235,-6.816318026811546,6.000000000000009,-0.5015890612757956,6.795395298095828,-54.832467272467184,-10.129263740951094,-6.160929143605283,50
-82.39429483563308,76.99860638710366,51.10880776089404,126.867621701373,-94.88627990945874,76.63176288443975,-54.35049513896243,-145.05988168002227,-5.553797663553715,6.000000000000009,-0.6531744947744815,6.691261397918525,-54.26149916695201,-9.970864680922379,-6.256260979511571,51
-83.12345507576502,76.00219276003025,51.10880776089404,126.71217587712256,-94.88627990945874,78.01101485975072,-51.87540534778208,-144.96762016296896,-3.8420063476157047,6.000000000000009,-0.819987384639591,6.493019590701655,-53.698723777676946,-9.765215336089303,-6.343473025243177,52
-83.95729095029382,74.88936106964591,51.10880776089404,126.6483878579523,-94.88627990945874,79.35878751020954,-49.78909201888311,-144.76775069153732,-1.42990262556944,6.000000000000009,-0.9941863500942406,6.323599843162319,-53.271466942393225,-9.501883345622694,-6.487825781690703,53
-84.54060287888971,74.05479327068873,51.10880776089404,126.45242614854747,-94.88627990945874,82.19240260254047,-49.443144715849776,-144.63276114942093,1.2831014147004072,6.000000000000009,-1.2034838293706067,6.177886112178504,-53.076944328263096,-9.222825857361043,-6.66289083240548,54
-85.14125206681389,73.4717993191034,51.10880776089404,126.30038721077634,-94.88627990945874,83.53257224107305,-48.31104675082063,-144.49584552995407,4.367075269307992,6.000000000000009,-1.3626775808858376,6.082759895478908,-52.87056676689638,-9.021208982749252,-6.928513626114885,55
-86.17452562154268,72.54893749587663,51.10880776089404,125.64882956907522,-94.88627990945874,84.59561218059966,-46.990294667201844,-145.00854154212712,8.963475327179108,6.000000000000009,-1.883768508111191,6.042807970157659,-52.52264524329416,-8.465115089124184,-7.392233651653313,56
-88.05874545828044,72.61672963874513,51.10880776089404,125.85897081074344,-94.88627990945874,87.27254219387821,-46.74608741041037,-144.25373088306034,7.205809210455906,6.000000000000009,-2.0109186633692504,6.0029425614774015,-52.007997101324854,-8.49265042698934,-7.171266617286129,57
-88.77865402704906,72.18663206545689,51.10880776089404,125.67319838796166,-94.88627990945874,87.52586167100813,-46.156813154574166,-143.91742733606046,11.213123142063417,6.000000000000009,-2.130762797734339,6.030996920748572,-51.59151245448475,-8.428080951305153,-7.625361636987865,58
-89.5055939835126,71.50016228133299,51.10880776089404,125.40709036993334,-94.88627990945874,87.83719287638746,-45.92885233667055,-144.017374311249,14.731250982707868,6.000000000000009,-2.437948185047932,6.1522083352644845,-51.31758710832589,-8.237514257312409,-8.176855605624462,59
-89.80622264138078,70.66047954625743,51.10880776089404,125.42419729366149,-94.88627990945874,89.62274893989223,-47.25668511198057,-143.72574592308152,14.935074724489187,6.000000000000009,-2.733967300719862,6.300893385954595,-51.060487934776724,-8.18154024819276,-8.430692665573812,60
-89.99757483774096,70.17572658997479,51.10880776089404,125.2861867335027,-94.88627990945874,89.36290865840014,-47.85741114556543,-143.23831687324272,16.71848939296955,6.000000000000009,-2.9791790334002295,6.397377748038288,-50.84871399536173,-8.202195486213482,-8.773618604363474,61
-89.92563452220244,70.31231332089162,51.10880776089404,125.09548098190434,-94.88627990945874,88.75484539029102,-49.100228522537385,-142.62920329145453,19.042384294717802,6.000000000000009,-3.05671918147005,6.40510914855504,-50.826586905302044,-8.381448402419974,-9.169010009932816,62
-89.90243941068037,71.05354505793042,51.10880776089404,124.95860015492164,-94.88627990945874,87.39997708086756,-51.0611739050687,-141.74280028239676,22.40806640530136,6.000000000000009,-2.895683140545914,6.320731201435829,-50.806980846882695,-8.68763576568679,-9.718499525521498,63
-91.22506132856077,70.72320758011125,51.10880776089404,123.46753311209028,-94.88627990945874,85.90235175388449,-53.03615168526377,-142.74541379412824,29.582144645075083,6.000000000000009,-3.7343385834829594,6.3247446053694185,-50.54429958123305,-7.84727060704292,-10.812685192013388,64
-90.9019337297365,69.60803695806884,51.10880776089404,124.38537817173656,-94.88627990945874,85.02450334791067,-53.88255647563097,-140.64268284694765,21.57928007280573,6.000000000000009,-3.4840680297876414,6.124006466543011,-50.14681453477221,-8.443236778441783,-10.118111112836123,65
-92.09949224149784,69.77347229551961,51.10880776089404,123.02025534530748,-94.88627990945874,81.48426496056729,-55.38239492173425,-140.740205145481,28.030078354997574,6.000000000000009,-3.7569754049904023,5.93684069249381,-49.90948631428219,-7.984304552242262,-11.121199139562616,66
-92.83862864347381,69.22618301305093,51.10880776089404,122.53666005456013,-94.88627990945874,79.61896317844472,-57.202197789617244,-139.99171050924144,27.212413891155965,6.000000000000009,-4.006890980444323,5.692484978968041,-49.47077324212215,-7.71924005392427,-11.209795327725518,67
-93.48365890428325,69.02821112840307,51.10880776089404,121.88480271773828,-94.88627990945874,76.23124415356021,-58.48839700837837,-139.2494855785686,27.022846507136702,6.000000000000009,-4.257511904974033,5.409934110507597,-49.10294968730579,-7.41282196247659,-11.367197552759505,68
-95.52554283224681,69.94810315007895,-47.462785012889334,121.32847633893402,-94.88627990945874,73.88869871814576,-60.88650215046476,-138.45965572129765,26.857731660348612,6.000000000000009,-4.4618542497953,5.1246154993451425,-48.82347486264802,-7.1083200828083,-11.441896796684667,69
-96.12432405680224,69.4312642488656,-46.75343349231934,120.868948061729,-94.88627990945874,70.38112073124123,-62.29650134486513,-137.42368462549987,26.773066015165064,6.000000000000009,-4.544955887349487,4.829381186292161,-48.51291122781519,-6.876194029830034,-11.41250916474772,70
-97.01637507975255,68.5814565741482,-45.801444593898424,120.48087838873802,-94.88627990945874,66.51863761075674,-63.76347168908683,-136.07017922330581,26.196472870304152,6.000000000000009,-4.6033786200250315,4.498925261322361,-48.129448286367946,-6.601777117440557,-11.35350990338385,71
-97.93604544753379,67.87188425961847,-45.010538994128154,120.08487044404124,-94.88627990945874,62.485969714206625,-65.25200137350186,-134.5403035483503,25.445360288750823,6.000000000000009,-4.711490871774035,4.259312067368058,-47.772445837074876,-6.230377778483717,-11.387227784336545,72
-98.59634333662876,67.50797462656784,-44.30022027549766,119.54869503765858,-94.88627990945874,59.05623297780444,-67.37712744541602,-132.7984884341356,25.041189799983076,6.000000000000009,-4.803214206944361,4.0266754521092185,-47.38081137739066,-5.952897013483024,-11.478862535333333,73
-99.19833289179208,67.06386458954947,-43.42112904014695,119.12176409965413,-94.88627990945874,54.446867992063424,-68.54633807460945,-130.43499294961703,24.044196994865427,6.000000000000009,-4.884825278975607,3.7116554994049995,-46.934412567706694,-5.671276303198879,-11.441892229032991,74
-99.63787768982463,66.64251534359163,-42.618718225912374,118.74775066698314,-94.88627990945874,49.993150334530924,-69.56740714015895,-127.63766714746495,22.776217100101864,6.000000000000009,-4.979226542904414,3.389797932469377,-46.57703769562216,-5.3423800796904715,-11.379642288455967,75
-99.89534252671795,66.28167166225934,-41.82810057360689,118.26072496814551,-94.88627990945874,45.60118473819373,-70.41941880335628,-124.47263412108101,21.624294959538677,6.000000000000009,-5.157735319567082,3.0348536028551516,-46.23140461806206,-4.96176289687509,-11.305145609192296,76
-100.26633325689673,65.74895679965671,-40.80602134614997,117.79259308101382,-94.88627990945874,41.67121053918738,-70.27410889890842,-120.79147454597582,20.254383152708115,6.000000000000009,-5.517259592970492,2.6308016486859853,-45.74306728326757,-4.445614783041814,-11.195656983581767,77
-100.70798199641291,65.01524930859527,-39.533667607081384,117.63174014511667,-94.88627990945874,36.99958104300027,-69.4092697763374,-116.3238189548345,18.63891800243476,6.000000000000009,-5.929438967140858,2.1660750639752737,-45.15729727815919,-3.9673656346391746,-11.001577942431561,78
-101.27774029469583,64.98067819212562,-37.616798844490305,117.42694167147607,-94.88627990945874,33.03063100103316,-67.13492793467435,-111.19105743838101,17.473382399502576,6.000000000000009,-6.21367875960191,1.6572708039377564,-44.62743564704719,-3.6337025158145315,-10.753275247183668,79
-101.23268559057139,64.55925549085906,-36.60688028986689,117.11569842387607,-94.88627990945874,28.144130391169984,-64.23881593860084,-105.58511755940675,16.228566463588148,6.000000000000009,-6.383156161380399,1.1311571563413876,-44.09356655725813,-3.3404928459182432,-10.498686741614467,80
-101.51578715214636,63.903415325027076,-35.36905411596248,117.21753379898274,-94.88627990945874,24.05418837480239,-57.80194141297519,-99.57895314368595,14.374180224976826,6.000000000000009,-6.454265747827283,0.507047228173422,-43.53475877980718,-3.0815840892489246,-10.184753398111779,81
-101.8507330802097,63.31207664797018,-34.098396021674574,116.95690639006473,-94.88627990945874,19.9020196656244,-49.38502940765398,-92.96587015810947,11.6523710662035,6.000000000000009,-6.547033849741286,-0.15603987198184038,-42.89112205408975,-2.6327346471227906,-9.796586213215162,82
-102.80231602983042,62.62919054237549,-32.53283449727298,117.26735144725909,-94.88627990945874,17.930428359252065,-35.25208936578245,-86.10601633647042,9.05456833800105,6.000000000000009,-6.807480548686387,-0.7335352592357541,-42.06387025446014,-1.9976868153538312,-9.519610725902018,83
-103.40291553733003,62.43338065597736,-31.130361662453996,117.45726220650124,-94.88627990945874,16.10156686265653,-18.413609067245293,-79.98383299431985,9.180717459863628,6.000000000000009,-7.00272141981624,-1.2881660605642964,-41.197012607918445,-1.6233508494089741,-9.463953502494794,84
-103.94974741001865,62.359389969754524,-29.728874432347922,117.52687226154339,-94.88627990945874,17.45644426296095,-2.672536148722395,-74.52188407986208,9.805501674315986,6.000000000000009,-7.11594864493934,-1.8190921429925337,-40.271347420221495,-1.3093755727025247,-9.436903341337043,85
-104.41017965610476,62.263195929683086,-28.351941320062355,117.78762987555939,-94.88627990945874,18.929185831481522,10.52022372103658,-69.77702584714629,9.4962253732355,6.000000000000009,-7.245158244594141,-2.3058716314087717,-39.34306595324043,-0.9577456927477155,-9.378920174383586,86
-104.63960593306497,62.50705755810381,-27.143107248101522,118.09208151231442,-94.88627990945874,21.005282880973255,18.78770081095668,-67.43944969168798,11.194042321340516,6.000000000000009,-7.393806185479195,-2.763206387374422,-38.37381904789525,-0.6935981516427007,-9.472529305647408,87
-104.81926572217475,63.08489506523031,-26.03489982197595,118.38554984411962,-94.88627990945874,24.533803113346217,21.505030342173463,-66.80753998559297,14.76817751380211,6.000000000000009,-7.494203557808398,-3.205793846106662,-37.32994720409613,-0.5413853107451516,-9.73744820786738,88
-104.3069505007537,61.995496744253984,-26.883243066592552,118.81929743999476,-94.88627990945874,26.87770984635856,24.476576194117243,-68.01005521715926,17.80142071676024,6.000000000000009,-7.669297721582593,-3.5884053741346102,-36.253943871339295,-0.2892492615172052,-10.062117644528119,89
-104.51857174831011,62.4732587817615,-25.568694387766065,119.40993321061863,-94.88627990945874,29.423352989797447,26.168374901706674,-70.14843190989713,19.06990542539681,6.000000000000009,-7.8167618222864235,-3.968765295144416,-35.06957009793555,-0.158780381451506,-10.266155714237176,90
-105.39649261937221,64.7387306376857,-22.21436445498842,119.90093675230388,-94.88627990945874,32.35220088934865,27.59798643663903,-72.83120679653595,19.472949698066405,6.000000000000009,-7.9919957298544135,-4.374290305449174,-33.715053621253794,-0.07062132650163035,-10.426157441475654,91
-105.52641927969006,65.30830422124434,-20.595928056280574,120.59157664473406,-94.88627990945874,34.92511899961854,30.532763704438505,-75.75822223853456,19.52667184515854,6.000000000000009,-8.219784897090113,-4.7705754479333855,-32.18862156349383,0.01611375867877415,-10.550489079504533,92
-105.7197961814485,66.06468098349356,-18.845227635261786,121.47606766143683,-94.88627990945874,38.1654310003798,32.389402882313725,-78.56387745538757,20.382750672656286,6.000000000000009,-8.398596431239406,-5.176673660448167,-30.501850084444488,-0.07305808722457569,-10.75019218710024,93
-106.01022096757718,66.9950820719101,-16.871254865633137,122.30723746011596,-94.88627990945874,41.891337002365276,34.651533349027034,-81.52185965671904,21.109452733604105,6.000000000000009,-8.571619721061914,-5.635474567313551,-28.554209412536142,-0.22791392033319355,-10.962855562321097,94
-106.9740742546779,69.66808899912165,-12.745421990817038,123.03334337208555,-94.88627990945874,46.08174265013215,36.9621777321402,-84.303330278655,21.01854299786766,6.000000000000009,-8.83697847617913,-6.189055692777632,-26.274923190463618,-0.32496226961817243,-11.02874892932687,95
-107.05425204593041,70.45339765022769,-10.159696911859937,123.60342477994229,-94.88627990945874,50.42208880714466,39.20391507015862,-86.634525140085,20.907403339392367,6.000000000000009,-9.130062001763257,-6.807684795260052,-23.83700376888716,-0.4968868944352534,-10.971381347233795,96
-106.57728283810266,71.11722610316521,-7.657891065497711,124.10048136759829,-94.88627990945874,54.51991776552096,41.39118333950006,-88.9941316760369,21.118983580783592,6.000000000000009,-9.391461707396303,-7.438642914230158,-21.44859402453083,-0.7754783679867006,-10.875145377540415,97
-105.87143505781901,73.50573764051366,-3.6557304511286928,124.63585594711036,-94.88627990945874,59.39397260218114,41.108318077162906,-91.7037733538054,21.38270393709761,6.000000000000009,-9.545473013750076,-8.045808014049397,-19.067122164304863,-1.1530731155108183,-10.73777186326812,98
-105.02176578194653,73.88286473214528,-0.9892772324860852,125.16496109914313,-94.88627990945874,63.11189320515577,43.759306524301316,-94.23403771795239,23.124833599050362,6.000000000000009,-9.584340608655804,-8.580924941002104,-16.45853632331013,-1.632683466850186,-10.63247248843593,99
-103.94427234189777,75.93390004487357,3.221418737602576,125.52632636506493,-94.88627990945874,66.55170323840728,46.674552598581315,-96.38720830812717,26.85969742499959,6.000000000000009,-9.59744094553656,-9.047308001503449,-13.762553554735913,-2.141077670895903,-10.560400703298331,100
-101.73213892555532,75.75435945561311,5.3361701165043485,125.44364617970373,-94.88627990945874,69.1472409908783,49.468994742572264,-98.57903119911118,31.668399453931404,6.000000000000009,-9.567685860092412,-9.451137905967123,-11.348471391300224,-2.6942511054993807,-10.52398570482775,101
-98.96978805625525,75.23735139403992,7.105326217510254,125.18370203306675,-94.88627990945874,71.14342815410151,52.269337812752994,-100.9195223521571,38.58016917120552,6.000000000000009,-9.502748133789112,-9.752601501939576,-9.06309903781192,-3.269591450533368,-10.567459165080516,102
-97.17944749577357,76.11623609528247,10.955218306792084,124.39556628295836,-94.88627990945874,73.6660992851376,55.25152552211276,-101.39080684323098,44.9820243875765,6.000000000000009,-9.512493382716759,-10.09819526106089,-6.653117073396417,-3.8291048977738824,-10.625184994510636,103
-91.69543059815774,70.97222940949386,8.861578780295671,123.64491741336536,-94.88627990945874,73.70337465587176,53.31916248291174,-103.46485524569935,37.04966153597366,5.853395610473942,-9.56336317857716,-10.287738502094024,-6.030116169918088,-3.97460080313156,-9.901308041330216,104
-86.58820804724016,69.63381626322756,9.549920090936899,122.5696259384666,-94.88627990945874,73.48785614438718,54.89864251062744,-105.53930876341009,40.95412505758684,5.365802409571006,-9.645564634869503,-10.37915478566085,-4.651472685711569,-4.349024783920363,-9.72291112562134,105
-82.70094424112524,67.39752121912473,10.040252182041048,121.15193391284218,-94.88627990945874,73.82579039318468,57.57946666997306,-107.18303483666605,53.88758780380144,5.8714258257374405,-9.657033580494417,-10.356150668555353,-2.630988106444771,-5.0227141022330395,-10.001438580684555,106
-79.4069159453265,65.44271461844984,11.361628692764254,119.2119290318097,-94.88627990945874,74.36259435111042,60.85772188985544,-108.12033866638652,66.8442732418344,6.000000000000009,-9.597128840423363,-10.280104174229463,-0.19836792816419305,-5.802489072128227,-10.479234732823725,107
-76.86335935766212,63.55575812269545,13.356980713173003,117.01109089616982,-94.88627990945874,74.95790039911692,64.25775274497511,-108.38179235040687,76.7599223932472,6.000000000000009,-9.601249488458816,-10.248781037194691,2.3805295118887853,-6.48365952541633,-10.91267120764209,108
-74.01176157179256,61.27506340559665,14.881652869703858,114.43960252433354,-94.88627990945874,75.18363109473472,67.05995204123589,-108.5388625260386,83.46552893197283,6.000000000000009,-9.65814551473629,-10.193475958659386,4.640468449885958,-7.0627110464552585,-11.185673227456611,109
-70.50227991299272,58.68689078199065,15.443688691147441,110.96235946212656,-94.88627990945874,74.98577872445424,69.24948194643743,-108.65431860373937,87.74793291065957,6.000000000000009,-9.869718187821857,-10.124572326731125,6.6121148737382,-7.381865249655191,-11.269224853355183,110
-66.30956792597686,55.69829631028186,15.533884202712185,106.88336601961349,-94.88627990945874,74.96735894504864,70.99343272770847,-108.71599959969514,88.59682723670765,6.000000000000009,-10.015916907351027,-10.027897415548239,8.366766988839565,-7.909235902365901,-11.212078777316712,111
-62.47277575814023,50.944177571728105,13.77384605084773,102.34682443254232,-94.88627990945874,75.2061486068203,72.47231742858457,-108.4869437887942,89.57545994806219,6.000000000000009,-10.034950784113818,-9.916226182608552,10.039742773142446,-8.48098487648042,-11.034185326737171,112
-58.09792181459015,48.149063118056276,12.716621603703446,97.38723455917847,-94.88627990945874,75.72833456254914,71.67954331500755,-108.25394042906994,90.0,6.000000000000009,-10.122243369689555,-9.771953002152284,11.61792980987537,-8.830985356084685,-10.813598680965605,113
-54.361282366979914,44.135264407791844,9.891956410996384,92.16169785859327,-94.88627990945874,75.59884142310527,72.91388295919634,-108.15482538802691,90.0,6.000000000000009,-10.274945057872593,-9.538352056202578,13.167615934385955,-9.131782593977762,-10.676022374516005,114
-50.50903830237475,41.85990246296074,8.56331285871154,86.61932088221921,-94.88627990945874,75.51335407457171,75.02105753610967,-108.0728250324459,90.0,6.000000000000009,-10.405424509715731,-9.268960578463325,14.763159259846072,-9.441077801558258,-10.58047476300659,115
-47.09376976267772,38.2246789988726,5.347667293500756,80.76434409927599,-94.88627990945874,75.98917067261976,76.03275456944988,-107.80165363667238,90.0,6.000000000000009,-10.563037556559033,-8.981079312468626,16.4450960156515,-9.668432636475165,-10.46614504384258,116
-41.86202852219942,36.40665639607258,2.1157759012381137,74.40714531896941,-94.88627990945874,75.97600689916469,76.69106232990214,-107.90385086954645,90.0,6.000000000000009,-10.780956342559383,-8.667736042283261,17.85461913937939,-9.779254327313481,-10.331016265588215,117
-37.162127108795445,33.748268627450116,-2.928776886691029,68.11826837949988,-94.88627990945874,75.52084605362677,79.69265171573106,-108.16143277901871,90.0,6.000000000000009,-10.982465053856695,-8.41601520667204,19.27680236743391,-9.913470360001106,-10.329413017452353,118
-33.16048644347366,32.52051687030489,-5.541326746883053,61.73997101345389,-94.88627990945874,75.79350724450906,80.79251685219765,-108.38308534452145,90.0,6.000000000000009,-11.064433270580164,-8.296927729049216,20.66917717141466,-10.07971482458152,-10.303096865950895,119
-27.14887119857384,31.28971001178832,-10.14007121596005,54.220323711128685,-94.88627990945874,76.00505103748159,81.68633785282432,-109.33098166361243,90.0,6.000000000000009,-11.001176046838728,-8.189175055478232,21.879086090583634,-10.3173330658709,-9.992424786034098,120
-28.941879715830453,27.64558490321573,-10.371715955515066,50.26231966748567,-94.88627990945874,78.69876615146141,83.97036806970223,-108.12204571931227,90.0,6.000000000000009,-10.996661260417513,-8.450063694657572,24.1754723638563,-10.390219778566546,-9.321536856895804,121
-17.530783295169005,27.747104213683738,-20.290969418459166,43.030370154454864,-94.88627990945874,78.8909861322945,81.51922958116418,-109.18562318708129,90.0,6.000000000000009,-11.00516280478133,-8.516717838255541,24.23377927805147,-10.57813238798398,-8.433146420927107,122
-15.904584482944035,26.204421141673738,-21.57742734697522,38.67751522541996,-94.88627990945874,80.07217336818404,82.9440909251217,-109.29383356402572,90.0,6.000000000000009,-11.0339623461378,-8.719535259367603,25.641235118964378,-10.683369355575337,-7.9190235084304135,123
-11.442028438465956,25.238914848090722,-25.36679852015749,34.50553137468446,-94.88627990945874,81.2693930750155,83.70915835028859,-109.6366768837843,90.0,6.000000000000009,-11.030877607568952,-8.956819753903943,26.42540774256081,-10.942350168178862,-7.218940498267824,124
-4.471856907893799,25.97775521635399,-29.155751547431205,28.298822862089594,-94.88627990945874,79.24437331327564,86.31054687590384,-112.71011623847791,90.0,6.000000000000009,-11.046772716160392,-8.394920310256165,27.292846758352823,-11.16698383455663,-7.277201710299467,125
-47.59107475336312,19.049889063854728,13.008481055200795,36.27185204126755,-94.88627990945874,86.60208595178102,92.5160282964758,-107.71019859637197,88.03984479703037,6.000000000000009,-10.755628668467617,-9.167085262772787,33.1514027235072,-11.220880495173263,-7.390208488331559,126
-11.96262617313438,21.31997171495069,-20.12349943625464,28.572255836156618,-94.88627990945874,85.07628768481658,85.39966155606562,-110.31830327598269,88.83809788557944,6.000000000000009,-10.644505755906987,-9.379573611777142,29.76621452950752,-11.653427992475322,-5.992959059388925,127
-12.194814679928504,21.17504704146381,-17.510292835536614,28.298822862089697,-94.88627990945874,85.5112293555841,85.96243673084359,-110.95831470626739,88.14674565039228,6.000000000000009,-10.637805280012037,-9.587603449606112,30.111414034217404,-11.760791805395607,-5.597406315487748,128
-14.127676541394763,20.764193594028328,-13.24265942566747,28.763600833522347,-94.88627990945874,85.87205193385401,86.58199876106666,-111.73088389116943,87.33568557201943,6.000000000000009,-10.590540997068144,-9.762237817550888,30.56874377594626,-11.958865108811722,-5.33159065449434,129
-20.15509756526133,19.493975781025203,-7.538170345886268,31.420598426081714,-94.88627990945874,86.62500202627712,87.16675240834948,-111.97546988190165,86.49326383522045,6.000000000000009,-10.499518999209126,-9.980046408181721,31.199299653918295,-12.141703145097107,-5.075454850064233,130
-22.84818706361281,20.00661481587212,-2.606847474239294,33.304427418555335,-94.88627990945874,86.75283746911374,85.20910431442599,-112.67769410411348,85.5953062839373,6.000000000000009,-10.385933470709514,-10.155675168863054,31.185104603941276,-12.32066546054356,-4.907272859604826,131
-27.881413582869758,20.04300231159954,2.1144798880505316,35.803273954619264,-94.88627990945874,86.71910567721815,85.26640433639177,-113.33001546369329,84.69157581216605,6.000000000000009,-10.201251316071653,-10.30580220626804,31.279448587530197,-12.505951941063822,-4.910097787308325,132
-33.36835613003143,20.362029673746836,7.131617795201286,38.52249352778822,-94.88627990945874,86.6949489749896,85.24579519343429,-113.75821140719515,84.36699420248792,6.000000000000009,-10.031521446127266,-10.449317070358356,31.3595442292691,-12.594750016287298,-4.88292451192306,133
-38.67700373127121,22.119571414766906,14.207172649545875,42.42621347787462,-94.88627990945874,86.92545438988193,82.48512661914502,-113.43564619680221,84.29352022456683,6.000000000000009,-10.180383290590733,-10.59496196709999,31.14629954803109,-12.396607022253843,-4.879351979632068,134
-34.379454122809435,24.120865900485473,10.185395111499192,43.35958634713723,-94.88627990945874,85.6507382885004,80.000536782505,-114.88827860563917,83.18999306699237,6.000000000000009,-9.92102325164492,-10.695114026697844,29.55251855115906,-12.769946515771682,-5.279919662406071,135
-36.54601693400865,25.11850814689854,11.789622603299023,45.11342200848563,-94.88627990945874,84.99040821601324,79.61199365826968,-115.8258750114748,83.73600327648829,6.000000000000009,-9.514042697380043,-10.687198588685824,29.160345732395495,-12.919474938994057,-5.488885772286266,136
-43.80216624589335,26.111474933178666,17.88425187394714,48.181103528696525,-94.88627990945874,84.70485839447167,80.08739924609344,-115.91239436556445,84.77031019947388,6.000000000000009,-9.209420531918875,-10.569043743775268,29.505776806649465,-12.817234751877118,-5.823289841221469,137
-49.56788490771438,27.973412228020372,22.516131267952208,51.27807733583942,-94.88627990945874,84.76146085024816,79.7899557939019,-115.94622972667622,85.15962444523056,6.000000000000009,-8.866491034730945,-10.739415126391854,29.36011881715736,-12.76755934198638,-6.1344305384942786,138
-49.444369976183886,29.56617431730667,21.564738307707408,54.167714449015556,-94.88627990945874,84.14376746640887,78.00677417163077,-115.84837419030205,85.65755831627897,6.000000000000009,-8.766136605853635,-10.748860867100364,28.344498016547835,-12.557967502487166,-6.07603772472883,139
-46.597553802620524,31.849196590126073,18.25307445688093,55.02263670205593,-94.88627990945874,83.25831153197792,74.26366232101357,-117.47947196212048,84.98996644459949,6.000000000000009,-8.189157325520815,-10.815410461758661,26.674615319865357,-12.900370454853668,-6.663937936981753,140
-52.90478108965171,33.72153736550488,22.68423700257462,60.14656765328696,-94.88627990945874,84.28532958064733,73.29229101349054,-115.48421229220382,86.30153943190953,6.000000000000009,-8.198859048216411,-10.861748041772339,26.571445773370307,-12.320441044097612,-6.511229652530386,141
-44.49743861969589,36.75953165974766,13.77484216365284,60.3495631831003,-94.88627990945874,80.889758113751,69.4659656388343,-118.0935890467629,85.9305097131829,6.000000000000009,-7.804128338093151,-10.667571275711024,23.384238787263858,-12.40598066115475,-7.218949845979481,142
-49.03660355385658,40.207917407410605,18.59757473140286,63.583972678817794,-94.88627990945874,80.03558273123059,69.32234274097368,-118.1721915395669,87.15718203600757,6.000000000000009,-7.565965007813057,-10.545871017720335,23.190548265788507,-11.986804096263585,-7.909367444809638,143
-51.308381392714686,42.470927266285074,19.41906137660675,66.3836701315967,-94.88627990945874,79.41137888315576,68.7177593470022,-118.53664315349648,86.27689782972763,6.000000000000009,-7.082415674637758,-10.517054259766422,22.337181641103143,-12.03771211772935,-8.512865851034512,144
-52.60360012785781,44.418097754811726,18.94148491143991,69.29660855766308,-94.88627990945874,79.45264826581791,65.54293366617294,-118.87839293816303,87.07729772450202,6.000000000000009,-6.630124117091919,-10.461090090258413,21.207262305963244,-11.870711489209347,-8.686664133239857,145
-53.961612347922774,46.84060107172054,18.05884342854079,72.68506400588757,-94.88627990945874,78.13495820635173,63.7931130218799,-119.32485308965603,89.31901410001889,6.000000000000009,-6.567721302425453,-10.327964707366185,19.929623758060952,-11.264486787496576,-8.941444678152921,146
-54.07483551357801,49.307643861283424,16.226560023482488,75.30214875271032,-94.88627990945874,77.04974814013133,62.143621732386116,-120.06579524861175,89.92753556699193,6.000000000000009,-6.231119212930494,-10.344301979338029,18.28756462238419,-11.0507584852889,-9.316638516045908,147
-53.76892982709218,52.475381121888596,15.84333378045403,78.3967326668489,-94.88627990945874,76.80738610860139,58.02472292829969,-120.73829535098781,90.0,6.000000000000009,-6.080246638785283,-10.157939753849572,16.75007925780455,-10.582071352349455,-9.325314346978873,148
-55.5071388981641,54.89663104354391,15.10495575445485,81.71026642332036,-94.88627990945874,75.94380615058282,56.61860860567708,-121.22762223248527,90.0,6.000000000000009,-5.92603177981442,-10.141463611941992,15.396834310478429,-10.236169351488584,-9.634897696258214,149
-56.08173250438193,56.769090846917585,13.099953563918392,84.93767905919559,-94.88627990945874,75.21575367014957,54.5023050563896,-121.64139049875939,90.0,6.000000000000009,-5.814916857871517,-10.132243876622212,13.66610351182603,-9.84024557048495,-9.46331410316167,150
-56.05603671913163,58.55705857650739,10.439017387536612,87.78627125980472,-94.88627990945874,74.01717814675925,51.97027381308251,-122.6165496094017,90.0,6.000000000000009,-5.6691750651643735,-10.058125823446016,11.76873728845893,-9.486917465405623,-9.320684890914956,151
-57.619117858315654,61.95723332474892,11.12754297611556,90.920140981467,-94.88627990945874,72.9837842469558,50.32569966478823,-123.36574261846314,90.0,6.000000000000009,-5.526735077852831,-9.861001205884822,10.56175786962999,-9.142644051829238,-9.548608977334387,152
-60.880185197591395,64.10597343336438,11.107986373031302,94.31848469638717,-94.88627990945874,72.25027792570688,49.39334361680583,-123.69056253167358,90.0,6.000000000000009,-5.499964966477135,-9.790627537155395,9.79704254673105,-8.725694869272248,-9.827650363808251,153
-63.38451366429435,67.64625934007641,12.469832386929957,97.64154560085743,-94.88627990945874,71.60610544115175,48.409100781165826,-124.10461984486564,90.0,6.000000000000009,-5.43242514803883,-9.689173310515894,8.964970143422773,-8.50477372359008,-10.065393220571835,154
-66.59516845590966,69.6186663748092,12.172796724736527,101.08662462668454,-94.88627990945874,70.93975804024127,47.28394787391347,-124.49760004291176,90.0,6.000000000000009,-5.593763743637605,-9.5684318896476,8.193414582501097,-8.024561299458641,-10.234774989129297,155
-68.61973262738638,72.5279488427188,12.248066749923536,104.03175521802493,-94.88627990945874,70.3873568039816,45.94871014548204,-124.57111988241216,90.0,6.000000000000009,-5.577114198126442,-9.520637034439014,6.991285179357932,-7.83730146286906,-10.332338548914429,156
-69.37226937126093,75.21916347891512,10.823737482469898,106.3904216951139,-94.88627990945874,70.76122383952924,41.339723054931206,-125.22949271544316,90.0,6.000000000000009,-5.637390879912198,-9.387113180443997,5.171821519773303,-7.440669683747879,-10.192947627416904,157
-70.87830895887286,76.04681277119842,8.244793386451457,108.6368998569172,-94.88627990945874,69.89916740598322,39.0702844097999,-125.94748302277448,90.0,6.000000000000009,-5.72686334430554,-9.191982972495522,3.666721765270908,-7.0864101947113385,-10.18119627786814,158
-72.69580645219915,78.47160935854976,7.644218838885617,110.7810208903752,-94.88627990945874,69.19457070955144,37.291101316222345,-126.53087927352267,90.0,6.000000000000009,-5.84865515673134,-8.986228579368362,2.454880260559954,-6.742012052900975,-10.2850503550104,159
-74.36407278033256,80.79610864631135,6.933455571165103,112.98375450603575,-94.88627990945874,68.43727187461218,35.26354274945624,-127.11114786422283,90.0,6.000000000000009,-6.056394133011658,-8.71863389045135,1.228639822994566,-6.342828505798165,-10.37458175033683,160
-75.8522714246462,81.2378585857384,4.843460808514985,114.8710812936941,-94.88627990945874,67.72353627492613,33.519462355417225,-127.61042469618266,90.0,6.000000000000009,-6.159230849640459,-8.538057463894669,-0.016276392595157594,-6.121128569519086,-10.476870171043844,161
-77.36171633393519,83.12850041995213,4.310282175002446,116.85032970055576,-94.88627990945874,65.42769290360391,33.33192853850114,-128.31344882891833,90.0,6.000000000000009,-6.586572817060559,-8.237194469810031,-1.2370517350339654,-5.557289682949263,-10.487070515283751,162
-78.42297962787286,83.1686570360982,2.331823783445847,118.6390570517568,-94.88627990945874,64.66147271890847,31.296520388332997,-129.01151759833598,90.0,6.000000000000009,-6.842941426303619,-7.795449625751532,-2.4671458395146675,-5.3528775669461615,-10.66118459015856,163
-79.34023443144469,84.97729868945984,2.030660053003399,120.12911699118432,-94.88627990945874,63.85120184120515,29.329933533742746,-129.68640428743137,90.0,6.000000000000009,-6.99260315244537,-7.339245743650649,-3.6636295543583404,-5.125104586531855,-10.890238701328906,164
-79.93195364871177,84.87805872558489,0.2262649442374219,121.46570276098458,-94.88627990945874,62.911439930229214,27.20298283834831,-130.40026241478685,90.0,6.000000000000009,-7.106748515383652,-6.8980867303970985,-4.954588395538637,-4.895559440823248,-11.092877511319557,165
-80.26839357067755,86.50716242139896,-0.08978442496577355,122.96280916104729,-94.88627990945874,61.81481735512324,24.637751206793133,-131.23103700720466,90.0,6.000000000000009,-7.227333431137568,-6.387655398192138,-6.425830306507924,-4.656338693522023,-11.28812981865721,166
-80.61418811938644,86.09757721409198,-1.8649849496421278,124.38476577699026,-94.88627990945874,58.86353007961866,23.825332628824167,-131.9870526190385,90.0,6.000000000000009,-7.369149762216233,-5.827096702479761,-7.961166887181728,-4.328005306564313,-11.498726974480885,167
-80.03896912225157,85.65694934236126,-3.5483481284510674,125.22149783540493,-94.88627990945874,57.71736640008028,20.987165300594278,-132.35414325616392,90.0,6.000000000000009,-7.6064157197684885,-5.352953532971522,-9.581488569048885,-3.951262780660059,-11.492569726379788,168
-78.12472970815146,85.56082509563811,-5.262845623199519,126.22181219212054,-94.88627990945874,56.39918052541157,17.567837806678536,-133.87320566766786,88.88580210572053,6.000000000000009,-7.5791077426586195,-4.7089032894794824,-11.389660335549774,-4.181933122519881,-11.620888149109737,169
-78.93772952260726,86.81506998626014,-4.165879188870609,127.32670823639427,-94.88627990945874,53.65398162667748,18.36862484989269,-134.25470478116355,90.0,6.000000000000009,-7.681295332852515,-4.15752669813021,-12.164195210738953,-3.9257825593379168,-12.08861988883941,170
-78.55885883266886,85.95925695771052,-4.7659308468640535,128.22300543800253,-94.88627990945874,52.644274918255334,16.605795691564136,-134.32770465900535,87.96895050113241,6.000000000000009,-7.888285678346239,-3.6898613138199203,-13.43132588228526,-3.6876530513989154,-12.1766772366238,171
-76.26269099487473,85.4613458407309,-6.045577665617601,128.83793020113893,-94.88627990945874,51.2266314399868,12.986235016753563,-135.2040541241069,82.336946029968,6.000000000000009,-8.05916254696139,-3.2254024003820545,-15.388832521147188,-3.6278112198845935,-11.909971509838956,172
-74.68567886744965,84.72192976242893,-6.602801481690328,129.48154990401005,-94.88627990945874,50.02001479787267,10.60774940435064,-135.54741483191296,77.66381431504455,6.000000000000009,-8.16750172583519,-2.8471112032379553,-16.92510596912641,-3.5983349085318648,-11.705814141666762,173
-72.64392354704823,84.10569477699285,-7.075740301781936,130.0493043317862,-94.88627990945874,48.88524733710513,7.96554596876279,-135.82273070131126,72.64431312287047,6.000000000000009,-8.31673870269195,-2.5062133304368426,-18.472307072139415,-3.514366202614765,-11.379223753107855,174
-70.82786043738929,83.50557475055209,-7.171287115411019,130.57129959626448,-94.88627990945874,45.90321709482271,7.976996700533649,-135.80845232587623,68.07457405043526,6.000000000000009,-8.4689097894371,-2.179001573526002,-19.789692191400608,-3.5831334774039574,-11.228533858743571,175
-69.15108446752016,84.92105972308266,-5.932980957932044,130.8646537996761,-94.88627990945874,44.77593560895732,6.030526255590596,-135.90252791076827,63.895367898974136,6.000000000000009,-8.621395055266431,-1.8625684430784295,-21.182827663680047,-3.586499417197484,-11.014632895600482,176
-67.14197141434973,84.57083670148465,-6.0844151454284,131.08677703746602,-94.88627990945874,43.76194322908695,4.293771937972306,-135.84463235217237,59.91556091220114,6.000000000000009,-8.668410964839602,-1.6109854575261529,-22.505268678418282,-3.6584709053702658,-10.732057809030529,177
-65.29454576129227,84.45568433970377,-6.2865707268652296,131.13877959800078,-94.88627990945874,40.848535947775055,4.475425299939184,-135.6045581906258,57.783278864411,6.000000000000009,-8.679222456609892,-1.4569205470552475,-23.753509929898982,-3.6742005788006917,-10.462604733599214,178
-63.54183380751234,82.74871450317663,-7.871306792844491,131.11277675400328,-94.88627990945874,39.56875624028126,3.7385340030315533,-135.32158318682667,56.54100596271896,6.000000000000009,-8.757905777621474,-1.3169841489892444,-24.8940174555048,-3.5804664654694363,-10.248921194241188,179
-62.281356549121405,84.3619193503682,-6.817851648262446,131.07613585087552,-94.88627990945874,38.75608250849282,2.6582216781407464,-134.98085030139447,54.124728652578334,6.000000000000009,-8.845811423673124,-1.2534195674335562,-25.962725582866415,-3.4958153208262175,-9.98555518788419,180
-60.83303240639643,84.18240275078799,-7.26703289237609,130.90840431971012,-94.88627990945874,37.96954260138984,1.6177426088014764,-134.35081524933483,51.812861722892215,6.000000000000009,-8.900074142829036,-1.30850381873722,-26.935440040694907,-3.414203548808064,-9.68208117599138,181
-59.766792263294036,84.23558042413285,-7.79420653606958,130.6485027374765,-94.88627990945874,37.21701612070417,0.41934489255308166,-133.74285727798903,52.371319965950285,6.000000000000009,-9.153316783814418,-1.3779465295865378,-27.82160691225793,-3.145387305394633,-9.524683170068519,182
-58.84769113962641,84.38077186245535,-8.214192254160755,130.57707765399195,-94.88627990945874,36.503694485777686,-0.8646621714818286,-133.4988150950837,52.38493029828524,6.000000000000009,-9.358783329598465,-1.4577161414664541,-28.72642414149438,-3.0932974801399897,-9.462925319608607,183
-58.24091348377673,84.61082070403234,-8.99825856409344,130.40477798577416,-94.88627990945874,35.972520339421,-3.1814951085215317,-133.47022597647725,52.42104053619087,6.000000000000009,-9.534493953776593,-1.5188453771829415,-29.651374110278507,-2.9084119892035973,-9.363394324412317,184
-57.90544920849602,84.89789891216995,-9.91948568276277,130.1617748619328,-94.88627990945874,35.531816251878084,-5.959522197654608,-133.3968920579784,52.10836917870372,6.000000000000009,-9.772852122975952,-1.5609243237118882,-30.550071113637284,-2.6649978749666494,-9.279522194554506,185
-57.480630081447835,85.26336492104473,-11.038493425040214,129.9362725443478,-94.88627990945874,35.183014636730974,-9.071974054436861,-133.32071234454096,51.12416365451752,6.000000000000009,-9.960837912118294,-1.555984008171382,-31.429044837386478,-2.560480815566491,-9.245205146415366,186
-57.80338567020744,85.67103494895424,-11.797037948757774,129.9243087113314,-94.88627990945874,34.87749607217782,-11.248062216421921,-133.1345287045332,53.10612743557018,6.000000000000009,-10.161091832347337,-1.4587513016410667,-32.08217725148401,-2.5346834286188398,-9.504193560868131,187
-58.2584135353301,86.00521600530573,-12.675543291923354,130.05210363310442,-94.88627990945874,34.8401070823663,-13.565761925304706,-132.98938885783548,53.67635106722967,6.000000000000009,-10.305521985851898,-1.2849328553469341,-32.71832469789806,-2.6080077829001738,-9.763504192784046,188
-58.66476880687987,86.35153199425238,-13.953831699721935,130.08359534719406,-94.88627990945874,35.069011889724,-16.42793254323392,-133.0646916264587,52.79097302149488,6.000000000000009,-10.318075697736107,-1.0408623349924921,-33.43579413624902,-2.7656184302441726,-9.999509614197226,189
-59.48948067644428,86.4692969821087,-14.81900283653063,130.30986887173026,-94.88627990945874,35.717240051103545,-18.51039286532714,-133.03040177674075,51.9947443806839,6.000000000000009,-10.293891694172407,-0.741919845933182,-33.889698449673745,-2.950636855383048,-10.26079606064724,190
-60.66764037827871,86.46186595817385,-15.381482443087263,130.72133545150908,-94.88627990945874,36.536434887828165,-19.993803802701194,-132.92492798515235,51.88966312025595,6.000000000000009,-10.268028783807027,-0.4117601625080369,-34.1872766393004,-3.180819910551318,-10.583664880535864,191
-62.05102826269705,87.31609113429035,-15.407827500961679,131.2298117950278,-94.88627990945874,37.27481935798613,-21.772026709405612,-132.8861481123406,51.89147851887775,6.000000000000009,-10.180958070467351,-0.079806818536603,-34.56830104426382,-3.471515032825104,-10.889890901229284,192
-62.96971358044178,87.20613634634002,-16.890902332872244,131.5051112077037,-94.88627990945874,38.050972958000656,-24.44119105323547,-133.20132636799016,52.462651954891385,6.000000000000009,-10.046019765723267,0.2632917811112227,-35.11811904928226,-3.7273253248726994,-11.235303599422135,193
-64.1392747402852,86.81310620056131,-18.101396586333188,131.8034562280939,-94.88627990945874,40.652999997621066,-26.94913025067554,-133.59811713592853,53.747732672870775,6.000000000000009,-9.958914495611,0.6279704297268041,-35.46042225188115,-3.9507787820456053,-11.648606878737791,194
-65.23393584345962,86.19757185669306,-18.990016157247187,132.1955860015355,-94.88627990945874,41.61486724098095,-28.55913092648703,-133.90840808475465,54.61413912699534,6.000000000000009,-9.973303055780795,1.0004177380230164,-35.64448049840689,-4.154821327968494,-12.015674409543955,195
-66.04775957976608,85.79695646072287,-19.855503528874785,132.50019671040943,-94.88627990945874,42.29547810563896,-30.212176567005532,-134.0608299306035,55.16482140601499,6.000000000000009,-10.023978463763413,1.3525699714845225,-35.85135197240661,-4.410295783809129,-12.428794588650907,196
-67.40724702414293,87.39200186818665,-19.24139087964807,132.68493521894794,-94.88627990945874,42.73110143271649,-31.721187883646838,-134.34025005907733,55.74463102951973,6.000000000000009,-10.046059984269846,1.6414849472309276,-36.080250553433174,-4.727607426966809,-12.87511162396994,197
-68.1151976361751,87.12738619633714,-20.095266300665752,132.8526498011025,-94.88627990945874,43.335219716089725,-32.97926651944072,-134.76412262616594,56.412795837346295,6.000000000000009,-10.111511761934649,1.920674100619113,-36.31000862700194,-4.909073142150158,-13.233903498297074,198
-68.60099858524272,86.96079671261887,-21.031962014142668,132.95592921814563,-94.88627990945874,43.83689094643006,-34.53166561338059,-135.19093927633332,56.32082094141288,6.000000000000009,-10.18945032769595,2.1759392128454573,-36.67754599075525,-5.084525583525726,-13.539790531287316,199
-68.95686882550712,86.85413336406647,-21.999254202508112,132.99017386525074,-94.88627990945874,44.2309569954219,-36.55653490349961,-135.66434473986826,55.8346267201039,6.000000000000009,-10.255362481017833,2.3889307504807533,-37.13446383534062,-5.272084434829533,-13.80986793010112,200
-69.27163056867107,86.7546612399337,-22.87935751156375,132.97167772480088,-94.88627990945874,44.59574475639004,-38.65818689759119,-136.22459287372925,54.93572203344149,6.000000000000009,-10.329769766974016,2.6094732771008324,-37.54619449487387,-5.40797094656766,-14.07208252978996,201
-69.58618569384181,86.51662340405244,-23.457968840423124,133.0007949733083,-94.88627990945874,43.30605999544857,-40.184364094188716,-136.77533756015995,55.28902195563912,6.000000000000009,-10.379295851429351,2.869145309097833,-37.814162702577875,-5.588990680549376,-14.381050690045816,202
-69.80620824870492,86.27334360138461,-23.769273023180848,133.0562848213339,-94.88627990945874,43.24060554198904,-41.458703523587396,-137.16597172493698,55.700594758357674,6.000000000000009,-10.38583493654657,3.1153481665037033,-37.96729707795873,-5.835399766337138,-14.706089560868255,203
-70.02141939291812,86.12669306898975,-24.041134910947587,132.97417452958197,-94.88627990945874,42.87139033904634,-42.70858920063181,-137.58462103421667,56.76582128293845,6.000000000000009,-10.45695099062603,3.3282897643944103,-38.064587307627235,-6.003769513281986,-15.068952774612116,204
-71.14563024472805,87.37037392022509,-22.481980578388924,132.95486195447,-94.88627990945874,42.3194360603169,-43.3915117759332,-138.00144712795387,57.67232750554626,6.000000000000009,-10.657141943260553,3.525072759782545,-38.003776784752404,-6.10790262180951,-15.401672534747298,205
-71.24681998121952,86.69369299384277,-22.18972704181433,133.04423057544128,-94.88627990945874,40.18019105702774,-44.02706520294608,-138.3154559193919,57.242089745843934,6.000000000000009,-10.787726208424758,3.7237890923026153,-37.97838681146831,-6.357301439062573,-15.635185242088772,206
-71.32392654015787,85.96607906703672,-21.909623964443078,133.134972029511,-94.88627990945874,39.99708159617334,-44.54228228837717,-138.47553994317497,56.986764638149744,6.000000000000009,-10.804265492902832,3.9360845541865355,-38.04656434287112,-6.648694045846138,-15.829546494332387,207
-71.3857024247489,85.32286755903999,-22.012162476726527,133.100554899299,-94.88627990945874,37.710612279649375,-46.17726386955764,-138.73877032890832,55.31640914101301,6.000000000000009,-10.903958518388034,4.136774643711713,-38.35302874074052,-6.708279942941646,-15.931343313898376,208
-70.779019782378,85.14065749057279,-22.382756980917403,132.91405813468936,-94.88627990945874,37.51601584359521,-48.75276251661264,-139.33933504492393,52.53309617940758,6.000000000000009,-11.120638194402702,4.3542911579272925,-38.880573172870044,-6.683023473331838,-15.93288746699702,209
-70.05211197140699,84.99718623779916,-22.304024335793365,132.76085213620217,-94.88627990945874,36.57472148528566,-50.58218457733438,-139.78149203519712,50.76362832895392,6.000000000000009,-11.302629191435981,4.566215243329854,-39.12412038685373,-6.886317643618949,-16.056492985708058,210
-69.65178359235222,84.70706100230169,-22.008561081726402,132.59579882689695,-94.88627990945874,34.53401580309381,-51.61399836714868,-139.99803667239084,50.28653950648782,6.000000000000009,-11.433102047452046,4.758530993757413,-39.16004177954158,-7.171345916084796,-16.302475254357983,211
-69.33168238643013,84.27275175244642,-21.665490527775496,132.40721269771626,-94.88627990945874,32.36198309920517,-53.002171986341246,-140.09074012341333,49.704990857045594,6.000000000000009,-11.627072376501534,4.922136067407503,-39.20650520120148,-7.341830412997581,-16.50220980725719,212
-68.92879606229143,83.80824686453411,-21.260720990787664,132.29963190807737,-94.88627990945874,30.770250166809372,-53.86530403207634,-140.23775320949665,48.752852813563116,6.000000000000009,-11.854111683334283,5.03054351389642,-39.252599452590026,-7.474003597764256,-16.587985917222106,213
-68.37004995817489,83.73831347092612,-21.11624908464083,132.00634464908535,-94.88627990945874,29.370808488958982,-55.26972051324968,-140.46628431715985,47.843639942246206,6.000000000000009,-12.103326560859808,5.066570894319907,-39.39171927125627,-7.543180038300283,-16.66216196227499,214
-67.96685705906134,83.68343693528067,-20.949544180025296,131.6784333347319,-94.88627990945874,27.807766339875723,-56.271191961336406,-140.60383808368164,47.493981422577974,6.000000000000009,-12.386501669967101,5.07689191787962,-39.43861170116495,-7.593543001246066,-16.803730084969832,215
-67.8361124347231,83.33191612396887,-20.54375876967377,131.5222241730399,-94.88627990945874,26.177407182249066,-55.97224218994982,-140.59444011658698,47.4191244617402,6.000000000000009,-12.582407661136566,5.097815429000238,-39.34178940078675,-7.769830539404583,-16.987626388930735,216
-67.95866006104892,82.88565132966822,-20.35479556984727,131.4285472219451,-94.88627990945874,25.021892432580596,-55.636108215416705,-140.5018499140605,47.367637007069305,6.000000000000009,-12.728299066270967,5.1518484564517735,-39.346128551409386,-7.87040319448986,-17.17796147640646,217
-67.95376770151798,82.76102492672943,-20.57115917086868,131.21599924688073,-94.88627990945874,24.220699591131364,-56.16225574922159,-140.45125833044423,46.873924271485535,6.000000000000009,-12.751869441975813,5.196814116797886,-39.610817278345685,-7.973173136242968,-17.359199557969774,218
-67.99360310593885,82.8671347451061,-21.014006410399723,130.94685882229388,-94.88627990945874,24.0570008644125,-56.91667104898623,-140.50315381990396,46.54389110032067,6.000000000000009,-12.659782359976354,5.219685905549751,-39.93893242225984,-8.044004707914008,-17.501723208692322,219
-68.38335307500094,82.91628177565134,-21.535373302547473,130.6381263263449,-94.88627990945874,24.355404006592455,-57.22139509111668,-140.65538401545714,47.07580831240625,6.000000000000009,-12.581384868763456,5.22085792822632,-40.19200597594482,-8.036627261790773,-17.70972692448481,220
-68.93253915147068,82.72247544443009,-22.004702425129704,130.36532140762344,-94.88627990945874,24.183073254235563,-59.873442735163344,-140.92976986742522,47.26836722869762,6.000000000000009,-12.488738270310161,5.159856342691739,-40.46230140837062,-8.05280167590534,-17.862708863740668,221
-69.47607904859335,82.44348005828266,-22.58290034019008,130.14728976103757,-94.88627990945874,25.986532376591022,-60.99009143905955,-141.4395525334683,46.999654265115296,6.000000000000009,-12.271198605138673,5.139029374413715,-40.874325692986865,-8.075154701142292,-17.935765168531944,222
-69.98103699773246,82.24182037045198,-23.27345122049657,129.93980886005528,-94.88627990945874,28.52294187327366,-62.18984332817097,-142.0997901328127,46.9553303096768,6.000000000000009,-11.979801992892172,5.174696712775182,-41.344011014096736,-8.06044761528247,-17.972990052155975,223
-70.65658548806807,81.86956519381702,-23.798608118591677,129.72405799324062,-94.88627990945874,31.231657411029573,-62.1122360672847,-142.66315992101144,47.111179870575626,6.000000000000009,-11.745214070084197,5.1497446040522075,-41.65342234902872,-7.9800395409923155,-17.932940555701833,224
-71.55242458147602,81.11696273991365,-24.002894425758136,129.61624752720593,-94.88627990945874,34.9022454110118,-60.02462190611144,-143.01671779553217,47.138177064261086,6.000000000000009,-11.530288561433258,5.05552785179968,-41.7903690294899,-7.89487150247089,-17.792273297918225,225
-72.60825715562945,80.15181188477817,-24.16703343149361,129.69616102251155,-94.88627990945874,37.69143507038873,-59.06016263511593,-143.13363108917864,46.45445676026241,6.000000000000009,-11.258994811239278,4.879662934303066,-41.977725397616375,-7.82414341669871,-17.562392112922204,226
-73.59514637446217,79.49233792672331,-24.87010461211361,129.69044823355034,-94.88627990945874,40.748127842049364,-58.82658993302964,-143.37724709870295,45.500852307527126,6.000000000000009,-10.970625735934687,4.606274124179789,-42.515261018533565,-7.630380262703166,-17.286625243209567,227
-73.53902710025545,77.5032210208131,-27.790169952144776,129.55694720918189,-94.88627990945874,44.8008705993957,-59.19000983605347,-143.9284628424199,45.109376582026464,6.000000000000009,-10.85521442137746,4.408124616130429,-43.26889426927172,-7.1478889608588085,-17.02296730105974,228
-74.39773997845369,77.0315390874657,-28.66158643446393,129.5712486958283,-94.88627990945874,49.07953609062415,-58.33012330124035,-144.30286974420747,45.36908705965602,6.000000000000009,-10.661592843713255,4.213490723040204,-43.76763300961663,-6.96509267169962,-16.811475041969025,229
-76.52691501551179,78.10529033752971,-27.743313399057072,129.5523737355861,-94.88627990945874,52.81079901967206,-57.20913481703922,-144.43791187977922,47.13686566175388,6.000000000000009,-10.371549625657886,4.116193939586954,-44.09830380223013,-6.8675338546401274,-16.778403993717667,230
-77.76781551041442,77.56268979343326,-28.712375458902997,129.3995910095972,-94.88627990945874,56.75933966017607,-56.36534680860374,-144.58521913016665,49.24237473437894,6.000000000000009,-10.11158588833115,4.071400719542499,-44.49115136551627,-6.736151994457834,-16.79954766580382,231
-78.8084681177367,77.12736573246879,-29.857534855887614,129.16361913418214,-94.88627990945874,60.984431030227746,-55.526875890844856,-144.65629439384725,50.6828610317462,6.000000000000009,-9.850791662795455,4.02060888734546,-45.02129064809474,-6.6498859293416634,-16.769028851065162,232
-79.50973588046809,77.02043101632809,-31.338103149611907,128.76665531805943,-94.88627990945874,65.47134494401512,-55.1652015818004,-144.71286377443195,51.448365396296886,6.000000000000009,-9.568207767052032,4.01859801337999,-45.798211422355095,-6.603918268157749,-16.790382252760395,233
-80.23682241617682,76.98582356743817,-33.02399634497304,128.11210095719733,-94.88627990945874,70.71772351265916,-56.36791160643215,-144.73175441806256,53.92550100346518,6.000000000000009,-9.36355478288011,4.062062414870777,-46.64084278743267,-6.506901509870688,-16.937232538904546,234
-80.994274136624,76.89800895338888,-34.93099819120074,127.52358854733366,-94.88627990945874,75.11800027589601,-56.87507514449386,-144.51444202133095,55.903406448641526,6.000000000000009,-9.220944070517405,4.116464793343908,-47.55971881283543,-6.3818550134449845,-16.98097401543289,235
-80.43534866931128,75.68335261616159,-39.071149660033186,126.85836825499607,-94.88627990945874,80.49810496912434,-59.132416318890016,-144.10927225941043,57.76435359910481,6.000000000000009,-9.098174838816057,4.131158356373617,-48.700217786466126,-6.238877750112302,-17.02997908806493,236
-81.16810979041226,76.22482357549526,-41.69292236362432,125.91314673964784,-94.88627990945874,84.10680203147409,-61.03023508784372,-143.72986775219596,60.55364363981354,6.000000000000009,-9.04739414339299,4.185506531470163,-49.87038602884079,-6.0354439382959475,-17.293940959438366,237
-81.84647228556983,76.78872902128833,-44.26361789297215,124.91206143942492,-94.88627990945874,87.16225474591043,-63.14503132149313,-143.13833027310415,63.03131541347087,6.000000000000009,-8.930682782429331,4.232157828901654,-51.041010533834786,-5.978627128689594,-17.55293368411179,238
-82.48678754267809,77.67063131290661,-46.99904817937171,123.74061940869794,-94.88627990945874,90.5872195509779,-67.20366117830702,-142.26353452863037,65.75060934214405,6.000000000000009,-8.70971405480328,4.316199250108052,-52.29400519481293,-6.001241068923846,-17.917617261643112,239
-81.7379430626115,77.5673754023862,-51.76105035343318,122.20881837213216,-94.88627990945874,92.47197040056537,-70.59139145956043,-141.3090588076571,68.94961668603287,6.000000000000009,-8.546834802759232,4.389426550749812,-53.61638267649385,-5.970840545336225,-18.453441524413076,240
-82.4651577107205,78.61974247706391,-54.669738199852965,120.42898935217416,-94.88627990945874,94.24345148452592,-76.02764620281887,-140.19047186198935,71.66993532620617,6.000000000000009,-8.523641030266717,4.432012938977293,-54.940093041445635,-5.839042494107588,-18.99275252527113,241
-83.22875406487114,79.42362864864558,-57.430871946012225,118.6026056695607,-94.88627990945874,94.95148583773225,-80.18655601329385,-138.63943981173298,73.58767709283312,6.000000000000009,-8.57608469976222,4.506490486823881,-56.19807778816345,-5.678106633144109,-19.469946093200406,242
-83.95416587009314,80.16588362303115,-60.04015135059254,116.673348327508,-94.88627990945874,94.81632886430442,-84.94578303907171,-136.64368684176964,75.3354691284904,6.000000000000009,-8.570316403974111,4.625207070199953,-57.43511891289163,-5.6352749560918305,-20.01789998687191,243
-84.53696450051665,80.98772004314765,-62.53982628013008,114.43111214353989,-94.88627990945874,93.72467994934506,-88.87407207947265,-134.19458697364257,76.55931258525814,6.000000000000009,-8.499010640220757,4.695752448815561,-58.71831351919783,-5.653895513215486,-20.51290812327692,244
-85.12222118353166,81.62439095116866,-64.79820675315547,112.03474857033528,-94.88627990945874,92.06517264826357,-92.56803419878109,-131.16784245874302,77.37287756225523,6.000000000000009,-8.463718615245304,4.761057261298231,-59.90617872895888,-5.598977836033844,-20.898401952007557,245
-83.75584963689124,81.51756097219912,-68.65625368146668,109.52978095571744,-94.88627990945874,89.80550837298198,-95.99625133023075,-127.8346900230532,76.91915812502937,6.000000000000009,-8.308972709609126,4.647247122109403,-61.17066720061237,-5.7191053614026615,-21.086649503863313,246
-84.59929025620534,81.6672188944307,-70.68912852702223,106.79905026916691,-94.88627990945874,87.61643595217036,-99.65675675362115,-123.97535822511495,78.12546876438309,6.000000000000009,-8.408489299448833,4.718740603601537,-62.300424738114316,-5.238035047145816,-21.335153758767365,247
-84.69265219222056,82.11994926445601,-72.5936906355766,103.99346317683113,-94.88627990945874,84.85983488993256,-103.14230473701122,-119.55418535962929,77.00533489754233,6.000000000000009,-8.44055180704224,4.664611201731468,-63.628780584508775,-5.162575367128235,-21.349432354242865,248
-84.78180603109574,82.68146769549385,-74.41039746655767,100.96215456466315,-94.88627990945874,81.79370715448587,-105.00000000000001,-114.86371864357012,75.99418434995822,6.000000000000009,-8.425975754333882,4.596145446677753,-64.96279268299966,-5.029554088387294,-21.362158158080465,249
-83.32852126973089,82.68097357054816,-77.93536496626515,97.96274165253506,-94.88627990945874,78.38674020430153,-105.00000000000001,-109.96000088533997,75.50526882635243,6.000000000000009,-8.367709578109388,4.600433048777446,-66.14852055117062,-4.893662924488041,-21.388471832709854,250
-83.42029188959103,82.95936313016573,-79.22383812116622,95.07303569762017,-94.88627990945874,74.789333649565,-105.00000000000001,-105.12758040737955,75.45880312504278,6.000000000000009,-8.346093600080632,4.681471853623324,-67.17983142735345,-4.778475279480743,-21.462107469958326,251
-83.34886671881121,83.05223965099248,-80.2257768248912,92.18643227819406,-94.88627990945874,71.7070692482998,-105.00000000000001,-100.36709771434754,75.58642861516111,6.000000000000009,-8.607317903444853,4.744915252867588,-67.9982051836168,-4.525482040438713,-21.527208948594748,252
-83.06760891922379,83.10051097683613,-80.88529591824981,89.4148829121499,-94.88627990945874,67.5791248105111,-105.00000000000001,-96.4906579526962,74.89483566824389,6.000000000000009,-8.88299811256393,4.714750637643572,-68.64703753325982,-4.36436013261839,-21.515669142163322,253
-81.48946516304727,82.93550662696826,-83.46874085062338,86.47353761200557,-94.88627990945874,64.31334801962075,-105.00000000000001,-94.18166408864931,75.10848578856591,6.000000000000009,-9.20846677639434,4.738209604515817,-69.09379469589996,-4.069823807541448,-21.677005759422098,254
-81.20728634723886,82.60275586274462,-83.74405590936217,83.65183759144944,-94.88627990945874,60.98469807458413,-105.00000000000001,-94.61905681662114,74.43690659458518,6.000000000000009,-9.731829785484324,4.783076500081394,-69.37177623902039,-3.723555155967286,-21.730003356352434,255
-80.79767334688049,81.92003785205911,-83.73992596399718,81.01693505763183,-94.88627990945874,57.93463503147985,-105.00000000000001,-96.27014846161808,72.90478312384373,6.000000000000009,-10.315192244690037,4.857207150201061,-69.44545655931975,-3.402001315413843,-21.691716288897684,256
-80.31366665675715,80.9440448040511,-83.45428211652508,78.57384022307868,-94.88627990945874,55.557775340671945,-105.00000000000001,-98.6208823771723,70.66339089109952,6.000000000000009,-10.92127677715985,4.932896461349456,-69.2920827071174,-3.149029175235902,-21.586411474862654,257
-79.83382562752689,79.48804622797651,-82.79832774145903,76.4513334106672,-94.88627990945874,52.11477920525214,-105.00000000000001,-100.84220664628215,66.59492300894665,6.000000000000009,-11.589336461536638,4.942085027254985,-68.80760412553916,-2.9126993793496245,-21.255119265999088,258
-79.60018877462578,77.90475593836678,-81.84403102686356,74.44630969208136,-94.88627990945874,48.80391126732912,-105.00000000000001,-103.21839338422181,61.74162690200459,6.000000000000009,-12.18879995690564,4.972388137050227,-67.98671333123991,-2.7598232994886303,-20.942826837629735,259
-80.82283882339469,76.68301774241048,-78.25178093950906,72.63143504871242,-94.88627990945874,44.757754595557174,-105.00000000000001,-104.74947980579539,57.69216093775516,6.000000000000009,-12.576605499343005,5.023451864927164,-66.90868638906139,-2.875176747214157,-20.633654014559163,260
-81.10849549899345,75.27250869552898,-76.49702269320329,70.80919789323143,-94.88627990945874,40.770870532241794,-101.14162806681242,-105.5833075392942,55.09789076409797,6.000000000000009,-12.815780815236261,5.0416502876893405,-65.37155328727451,-3.2035438300237002,-20.225567769979865,261
-82.8245662106771,74.34945803231149,-72.05999013653313,68.7322530100318,-94.88627990945874,37.2758530130741,-92.68991137523086,-106.43396028885005,47.87425721856384,6.000000000000009,-12.960211056294142,5.0330901566585995,-63.582957955600534,-3.590198823269328,-19.65738093194773,262
-83.36303825589886,73.19614003790329,-69.93614859003956,66.8495475387434,-94.88627990945874,35.29052366381794,-84.15481941117011,-107.7403685202187,41.14608762726743,6.000000000000009,-12.99894150181305,5.091596765033081,-61.73360208755545,-4.022461879775918,-18.926121908144793,263
-83.84908014501457,72.42603788887929,-67.61291272867824,65.10525554354531,-94.88627990945874,34.261168808806346,-74.21141898350243,-109.22668673376319,35.48443457157024,6.000000000000009,-12.931284029368808,5.218471215212274,-59.69392098566805,-4.639586933000356,-18.131491997007213,264
-85.40999012333133,72.5031740321926,-62.76678781302179,63.48990306562188,-94.88627990945874,32.93353152356595,-65.08394996593691,-109.62275615433207,30.585704787268163,6.000000000000009,-12.788744252571908,5.355751421009301,-57.56975053545102,-5.404521844791336,-17.331296777280137,265
-85.89886738326736,72.55960982262113,-60.702064309826135,61.76038015642833,-94.88627990945874,32.89505776384411,-56.017304044590006,-110.41245894714375,26.63546418172738,6.000000000000009,-12.625327656455392,5.544446773013189,-55.63017733232243,-6.095624192897742,-16.628435850529407,266
-86.09950696599907,72.83436703574984,-58.780066425402815,60.25129179943787,-94.88627990945874,32.82409849478702,-48.793778517455834,-111.76530584775442,21.136156371733485,6.000000000000009,-12.393118115033621,5.789353186514324,-53.78940920610077,-6.778988236954152,-15.817969449715719,267
-86.3099209519004,73.15820409511706,-56.580494294557234,58.96324550760735,-94.88627990945874,34.652254595353895,-41.30820656799715,-112.93521313509984,15.872191343617807,6.000000000000009,-12.231897548773563,6.0532224952995595,-51.63183401009228,-7.404390558216457,-14.895696933141329,268
-85.46754324611567,73.26400953064814,-56.79993635498632,57.66545735420555,-94.88627990945874,36.94207713143312,-34.83819333183279,-114.38075949838297,12.106955367599635,6.000000000000009,-12.18378025286396,6.285329780286415,-49.342712998300925,-7.980319142302776,-13.9720265088978,269
-85.34524918459661,73.98275364301716,-54.36111700980007,56.894862800558656,-94.88627990945874,40.143832339492974,-29.36022616849432,-116.1985264283284,6.597792820425804,6.000000000000009,-11.902869069723884,6.510939436093129,-46.8624813349522,-8.74010236478457,-12.855446958356236,270
-86.41703616108431,75.38792535654213,-49.03515318019562,56.15887405788248,-94.88627990945874,43.49002395762479,-23.39145809847647,-116.97767387462713,1.1513490609261665,6.000000000000009,-11.38963414649969,6.6911347595659185,-43.88282045857774,-9.419444117265742,-11.639616519416789,271
-85.91518394094749,75.9684481865537,-48.43890425112457,55.053607634168635,-94.88627990945874,46.68054492866371,-19.154274422164903,-117.77491649344621,-3.5219376196828724,6.000000000000009,-11.049390312664205,6.940781292894746,-41.22851445800194,-9.653089598256978,-10.65319637714197,272
-85.15959312650497,76.54699408127497,-46.99247272308896,55.022605465332994,-94.88627990945874,49.86723810408131,-16.861012216531986,-119.1875560541454,-12.061865124182374,5.819242676425433,-10.707816185588353,7.214295273565101,-38.93293239076064,-9.939603635560447,-9.459592464673173,273
-85.56661349246629,78.20036574679894,-42.273581141147474,55.32764381258448,-94.88627990945874,53.48405874334539,-14.129994775618627,-120.5712552110178,-18.11008828733567,5.085204436005608,-10.548658596784692,7.63273956999845,-36.146182041308286,-10.004470551716704,-8.425848955198614,274
-84.07456214401805,79.8207282908771,-39.73861638435074,55.20694037498835,-94.88627990945874,57.65552420317921,-11.22003434685923,-120.97899683154967,-18.69328813643112,4.671703060002595,-9.996782958800205,7.862767607479017,-33.074121249278505,-10.52807367393223,-7.315647346864847,275
-82.63274941845789,81.2775353911023,-37.586413638763766,55.10987917884349,-94.88627990945874,59.8602604155753,-8.239034411551708,-121.36481488553981,-22.706816021107578,3.8996520790874283,-9.594824075535023,8.22386284752882,-30.29797220725298,-10.56723358159977,-6.387841053363267,276
-80.75387101116797,82.35004733633579,-35.76367665757698,55.69166887827723,-94.88627990945874,62.76211555358807,-6.808833324148241,-122.1189920572674,-30.33012736991888,3.4142017512198537,-9.32448506319979,8.685834043788564,-27.805291448480098,-10.549473807836495,-5.458205416071683,277
-78.32847858565584,83.33506727120063,-33.92415866937753,56.41578842679017,-94.88627990945874,65.69857851604918,-5.182464523671057,-122.77320479019124,-37.94605551486812,3.0169772696042427,-9.066062934019088,9.174519500415926,-25.219845303476042,-10.5389787460729,-4.529099003510236,278
-76.13291380516374,84.84533821785746,-29.564822199611996,57.17361790971562,-94.88627990945874,68.65700245165857,-3.1130296474321866,-122.90610307701061,-44.382477080483795,2.6080120159981823,-8.771361228725826,9.623574959327321,-22.40320730843904,-10.489543133834722,-3.5794789481985423,279
-73.03413871722591,85.09026915915538,-27.619293130719313,58.1898646180512,-94.88627990945874,71.27041133065374,-1.5411548605134595,-122.96662454858898,-56.38498928680717,2.452311229586689,-8.453972528905826,10.04753799620908,-19.765966721888276,-10.394524694367137,-2.601027250211622,280
-69.70330932650533,85.04057927394639,-25.975939402900924,59.68913128804289,-94.88627990945874,73.6097876891211,-0.46055036698525736,-122.8803262605164,-72.43572737321962,2.595136201251068,-8.228784202912339,10.488045821335259,-17.35150446828577,-10.154105219385352,-1.6256495277695617,281
-65.87546325194312,85.03123985583551,-24.64284719060823,61.12953334540292,-94.88627990945874,73.82808899260726,2.0835095282465006,-122.81400766201615,-83.6017101507739,2.793624840469395,-8.084904425567307,10.965821832839714,-15.101862835896396,-9.860664864067628,-0.7901656547940414,282
-62.148765864324595,85.96768819099726,-21.305055230986703,62.593930562406996,-94.88627990945874,75.72139595037805,3.106074172711302,-122.95233484079424,-90.0,2.9422562434046537,-7.972672571934053,11.399051777607673,-12.948097436171642,-9.564276662418045,-0.02533949211609694,283
-57.99775143420739,85.78619627940245,-20.28459549066528,64.10377983641219,-94.88627990945874,77.4578129393167,4.119000358876069,-123.10516377349562,-90.0,2.9337569794548806,-7.958204173900681,11.810719341500121,-10.876270371626843,-9.130769503012157,0.6343665945803455,284
-53.91032449621835,86.7201269885603,-17.242796682920364,65.28459319714068,-94.88627990945874,78.9358031469637,5.213161470399724,-123.19473487557664,-90.0,2.694647703258592,-7.9844430228894065,12.20968536457658,-8.879253849669336,-8.681603546294538,1.1354608081417628,285
-49.42897948319746,86.3748782657145,-16.476007382715284,66.37969344157811,-94.88627990945874,80.27411369781696,6.353525684723151,-123.26365429918084,-90.0,2.4646340594583602,-8.04073763478309,12.542849047679596,-6.997834999187749,-8.234072600749851,1.6281121763034798,286
-45.44360257859268,87.06856243617703,-13.888401858146084,67.47030895938894,-94.88627990945874,79.61986902093298,8.829590462403383,-123.43259387745003,-90.0,2.276902252941499,-8.117374242289848,12.887576194900848,-5.307105216281564,-7.825616068159556,2.1272211243213928,287
-41.65648511774447,87.7590054195086,-11.523599854431133,68.51082161182572,-94.88627990945874,80.68056900156692,9.569925310252192,-123.84120218691751,-90.0,2.1000168241292316,-8.206385210156656,13.307120469827439,-3.7168547489389767,-7.418277121980153,2.52946978427772,288
-37.79286193219779,87.14473369965769,-11.285280483221849,69.6928330463058,-94.88627990945874,81.71794254091512,10.42497690417579,-124.32303176296112,-90.0,1.8694032870458654,-8.285028695581307,13.752102534686559,-2.14991625104728,-6.958612163063102,2.824467181489836,289
-34.346965120880654,87.7345769288121,-8.937355834605745,71.15779303786071,-94.88627990945874,82.84430894367192,11.642034673050093,-124.48293259585205,-90.0,1.5101175135456024,-8.268635163165195,14.130256813284198,-0.6151100567638579,-6.4968753153039955,3.0121557980988385,290
-32.77236917015001,86.83917028270105,-8.629714286132126,71.42455160562753,-94.88627990945874,83.73358005230281,12.55047497394004,-125.19595388499583,-90.0,1.617792401263484,-8.248816597060667,14.58773502779335,0.6560422866438095,-5.987941513506899,3.0922945326748437,291
-31.271713268650405,85.5990231955638,-7.627294978638682,71.9509663374449,-94.88627990945874,82.95595724732604,15.861591597339707,-124.82138342556355,-90.0,2.1485009078974673,-7.98332091965559,14.897538585350887,2.1950689140259265,-5.394748920941024,2.886103546427878,292
-29.331675805466812,84.9047108203852,-7.466961958388819,71.33243520444124,-94.88627990945874,83.6993878948042,16.694255735698924,-124.95039784767528,-90.0,2.7795851174766044,-7.660483150010107,15.172810972395705,3.2318760946638574,-4.975237629104955,2.9478416711704014,293
-28.234882782609386,83.83542569996825,-6.8265939467476935,70.88212967179066,-94.88627990945874,84.67001339935264,18.171647008387467,-125.10114027977842,-90.0,3.7828753428480324,-7.405664026761876,15.317393241420726,4.43339342036489,-4.366984579765747,2.922312522188611,294
-27.746604879608004,81.45059400645926,-8.107032947070179,70.825808401212,-94.88627990945874,85.69243463054855,19.81772919991691,-125.0782833597224,-90.0,4.730666684151355,-7.281247706666249,15.391440329819707,5.588257409401952,-3.686037547602286,2.8495062529511492,295
-27.74365893565656,80.67537948259131,-7.580772577537878,70.91059189180193,-94.88627990945874,86.43903278583777,21.013118397587558,-125.08419480736273,-90.0,5.1953781213629195,-7.362333187849731,15.446458056130526,6.427398898781115,-3.0718062867751237,2.8205333934936436,296
-27.447537609953397,80.49310769254214,-7.491243566810921,70.87475448617148,-94.88627990945874,86.70367270574444,21.581828549104277,-125.5089058336042,-90.0,5.214577105176326,-7.444203166910114,15.494589489818734,6.941016167786394,-2.839319161941739,2.8189579613192692,297
-27.80852392415264,80.4327051883571,-7.182303477163437,71.20785555658398,-94.88627990945874,86.76951322130786,22.117550382979832,-125.70963375349857,-90.0,5.535661846252453,-7.446611894647289,15.541571079495704,7.3553214745650655,-2.70820139907816,2.61748411317667,298
-27.9266913021122,79.85505222109018,-9.530704271935495,71.29032213015745,-94.88627990945874,86.3012232152002,21.880663253778277,-126.15879575567845,-90.0,5.606560813221236,-7.351912663939242,15.610126579323186,7.287016966099119,-2.809700215305194,2.4380623232462066,299
-28.45638120879568,80.9027885991426,-9.952925447646207,71.22017849212166,-94.88627990945874,85.53610284770187,21.32424883866792,-126.76072660438376,-90.0,5.630865518710471,-7.212602124135719,15.608484117166476,6.916720699829899,-2.968223948134383,2.2547934849928173,300
-29.324224995250486,81.92819949996587,-10.292806165847528,71.11993128924185,-94.88627990945874,84.80188237532013,20.795213581431025,-127.13237308972556,-90.0,5.663303682058589,-7.125454484970701,15.5294170775872,6.457224340735923,-3.0727704450221665,2.106429190456523,301
-30.185945852216854,83.09334017351208,-10.78664504957628,70.93651424447404,-94.88627990945874,84.05760425070974,20.041901099164033,-127.33995410246888,-90.0,5.434451481280705,-7.0629623879105,15.458692875579223,5.853995808457447,-3.2932343420523593,1.9878150103719312,302
-30.853071568056475,84.5461573060961,-11.672486758977387,70.8079561148381,-94.88627990945874,83.12776763568338,18.859165623013542,-128.00043401515657,-90.0,5.001545499427384,-6.944712031619631,15.454853367307155,5.029770811512725,-3.7032227663538273,1.9153921278353023,303
-32.41357645535929,85.61466823972009,-12.083448040000953,71.24039393273216,-94.88627990945874,82.43293770579093,18.215849495751797,-128.3009218013225,-90.0,4.977959501445097,-6.868092629631427,15.343265289115903,4.318527843510722,-3.846679426908642,1.7744827385714155,304
-33.518534924433006,85.56579601351486,-14.791730543789477,71.71473496459384,-94.88627990945874,81.70142805489719,17.30861962204688,-128.60930742648807,-90.0,4.698693764917585,-6.774329102423457,15.15899185174863,3.449222870254178,-4.167310572877941,1.7568177750185086,305
-34.936104969138555,86.82908328722394,-15.47326226001073,72.18286459347136,-94.88627990945874,80.82922779506757,16.214383108851443,-128.939786085492,-90.0,4.4985902958051955,-6.705551957119237,14.870291945102634,2.4650018381693903,-4.505612129902837,1.7790258257253557,306
-36.330882789205546,88.15929365625361,-16.18983559860415,72.6852593381542,-94.88627990945874,79.98709413082595,15.150516206863458,-129.20586414086253,-90.0,4.1818354981155474,-6.592588347866732,14.51025374824523,1.3940454741443744,-4.942613576138015,1.787459762710721,307
-37.80153286510478,89.45434504685403,-16.96307294809831,73.07111798679533,-94.88627990945874,79.20681928192144,14.100801282235908,-129.48922577412037,-90.0,3.730225143680307,-6.4534614681082125,14.193826273967913,0.2800167313232783,-5.3861658709600375,1.7587382927271995,308
-39.24387420681142,89.35449670604727,-19.64438291813746,73.77158589413837,-94.88627990945874,80.22509377927717,11.527272225591627,-129.7447917598946,-90.0,3.468364046623224,-6.445156300823159,13.861331416890415,-0.8101312373928706,-5.643291049205385,1.6578677012552476,309
-40.82733248740236,90.71805569545003,-20.4796014686802,74.694932833504,-94.88627990945874,79.1229109033779,10.150580362640262,-130.21461170813387,-90.0,3.053808330188401,-6.410316997572234,13.49926165613266,-2.0288264087578805,-6.0812426520337635,1.4865077247025276,310
-42.53966958523676,92.13900711412994,-21.22309709692174,75.51154148528735,-94.88627990945874,77.93617293285588,8.862471522209404,-130.62054019175108,-90.0,2.8054497811498,-6.27046142412499,13.081900948016415,-3.2777455113763643,-6.513545231626107,1.180322302675251,311
-43.816667145962626,92.21915549602018,-24.041603942764734,76.07299849621965,-94.88627990945874,76.84072331699569,7.486348772930617,-131.1420394328959,-90.0,2.627271980264929,-6.1196906058139104,12.651402062532096,-4.607179680759394,-6.887269860266858,0.9406468085552955,312
-45.74698403956382,93.2380582350599,-24.80952094118513,76.76222528945488,-94.88627990945874,75.90223626716578,6.185245878690314,-131.72251480442546,-90.0,2.5157212147733135,-5.970946170973323,12.275550376968283,-5.870023703062102,-7.215926009804003,0.7055513172436354,313
-48.059429591716544,94.05266484709234,-25.467681362489454,77.51427288322732,-94.88627990945874,75.08490562894542,5.093465377542909,-132.00798517326157,-90.0,2.587181588984571,-6.0270072603158855,11.84339233759362,-7.101040335337642,-7.212432247822314,0.47188310786959253,314
-49.86033017242518,94.95685486845495,-26.38761638065497,78.73002909203933,-94.88627990945874,74.22071431643322,3.7524800303687815,-132.5172341107126,-90.0,2.49135154567443,-6.03520649326582,11.447089145678378,-8.386416660152433,-7.55159073715402,0.21153998918885697,315
-51.09654173153548,94.6999093157456,-29.32991671545578,79.83983808672197,-94.88627990945874,73.26221942355835,2.2290544426067664,-133.01618912920551,-90.0,2.491847542112618,-6.042549532099988,10.997936138498638,-9.798552508643796,-7.816295311165347,-0.08169927774859954,316
-52.67516463921072,95.63070063885682,-30.439106759945975,80.67402800675298,-94.88627990945874,74.28245230519705,-0.9127594197301812,-133.54045175266663,-90.0,2.381987050033508,-5.983509253560477,10.493180296011209,-11.29133439507254,-8.157165082961397,-0.2755342751081408,317
-53.56681793360192,95.17080969502041,-33.336663274415024,81.5107275756457,-94.88627990945874,73.49154147028233,-2.4700713353734867,-133.95599380412403,-90.0,2.459359055057523,-5.848119349001206,10.07087943307982,-12.675906357068706,-8.410820701534764,-0.5184309596871033,318
-55.38666254599793,95.80626598435828,-34.32681002003669,82.53435446549842,-94.88627990945874,72.72733265183808,-4.0117891325789845,-134.26664500683313,-90.0,2.6600304105885453,-5.7064817383205595,9.698265756254473,-14.036245625196804,-8.549346823010087,-0.8435148004985414,319
-57.00524339301871,96.51258198753271,-35.38506489147865,83.49913101715332,-94.88627990945874,71.93083881147619,-5.690827202636106,-134.63858391731475,-90.0,2.881252655018253,-5.579642304428184,9.323591887519134,-15.461116252471404,-8.673043304713746,-1.2235246731174696,320
-58.419901158450266,97.23234265299251,-36.498848215314084,84.35054567302973,-94.88627990945874,73.07714579072214,-8.830510585545248,-135.07847639242746,-90.0,3.0694021287754576,-5.486093550416703,8.93968275178923,-16.907601561525194,-8.78467640297071,-1.5893097563882865,321
-58.95395787427784,96.67421523574876,-39.51499160764263,85.39026437726993,-94.88627990945874,72.38410200712542,-10.755867565364241,-135.54178452489765,-90.0,3.1706064699220287,-5.348683581873885,8.546997392490688,-18.406740091090487,-8.924747066051262,-1.899773517378593,322
-60.46305617895261,97.16896848856847,-40.80616603685984,86.42959465399893,-94.88627990945874,71.84142258627412,-12.82386615599861,-135.91357879090256,-90.0,3.2036288889203774,-5.204607479538519,8.145040093803928,-20.017705053038863,-8.976303415184075,-2.174578708988235,323
-61.82828020263931,97.72688770223269,-42.22201466518089,87.36726168064821,-94.88627990945874,73.28001539952785,-16.30473375021007,-136.32440002726986,-90.0,3.2955324054214024,-5.0894739776574385,7.73233799174436,-21.74302869818975,-8.998876099478293,-2.4607030863835146,324
-61.99381050192279,97.17919736112543,-45.40815855716384,88.34377462405028,-94.88627990945874,73.03940869202955,-18.46784520703571,-137.09721631655134,-90.0,3.274045746958778,-4.875184217533393,7.361520708583595,-23.463030433055867,-9.109452382460086,-2.7670528728809716,325
-63.438575668325946,97.12186873882068,-46.53652366045859,89.63514729816906,-94.88627990945874,75.02617663346376,-21.45643038185426,-137.83762117160998,-90.0,2.937563113585142,-4.562939673010398,7.0649329708752875,-24.964596847684188,-9.110246322641242,-2.962937095464175,326
-65.12794704069259,96.52254176882103,-47.355379723399075,91.34839921098046,-94.88627990945874,75.26994640619087,-22.749988521787923,-138.02174871117722,-90.0,2.672626571857206,-4.328994863406684,6.740019959228282,-26.233293437195474,-8.927588393030744,-3.038620121579428,327
-66.40655533537522,96.57844333145586,-48.63981429715322,92.80469961161594,-94.88627990945874,75.28944424093774,-24.649156255633052,-138.044427624508,-90.0,2.7747065790798384,-4.171825931806326,6.358198441216836,-27.802628171209573,-8.807416228284158,-3.2072950164935117,328
-67.34468402840669,97.37500158960665,-50.42710770737129,93.75413242069536,-94.88627990945874,76.95312745093011,-28.495722390157663,-138.51712953037347,-90.0,3.0689753107099698,-3.9988799172449996,6.035050389078527,-29.722113954577832,-8.80248030221017,-3.6329728467896816,329
-68.33342227048641,97.87232858573753,-52.0577833516561,94.67621886456821,-94.88627990945874,77.23055815061117,-30.800968361162546,-139.1616863362128,-90.0,3.1343606639374024,-3.8534671269722045,5.796120551895647,-31.539783652442605,-8.685659535280818,-4.03463756335139,330
-68.98157403827432,98.00088084727604,-53.269597597275705,95.5684382197145,-94.88627990945874,79.54855624323801,-33.628326537743675,-139.67715379578593,-90.0,2.93583745561242,-3.795988584467513,5.498499962039964,-33.08722800839807,-8.46076823489113,-4.153069451785574,331
-67.57662084301064,97.5330172725151,-55.90431014891253,96.34462471484923,-94.88627990945874,80.16035612151121,-35.093500080626605,-139.80104527413343,-90.0,2.7586381234329913,-3.508072510385208,5.19450382721276,-34.46466654887063,-8.495923641021042,-4.147152567744997,332
-69.27142615204642,98.97963321078004,-55.1500211297171,97.12142310918739,-94.88627990945874,81.87312622066769,-37.90780602385559,-140.17652827250816,-90.0,2.9650593937185974,-3.250077079347181,4.8953256106278875,-35.76690353497124,-8.35572023920836,-4.45886340082117,333
-70.12630926809965,98.69586726311404,-55.83498920631296,98.27572758781903,-94.88627990945874,82.14083050848367,-39.286043562305096,-140.81437054838855,-90.0,2.9347017521927437,-3.283945374806462,4.546418146537575,-36.989769977896614,-7.909423634271049,-4.622023475148842,334
-69.05944690153825,97.40605399317047,-58.24641020532022,99.648304987837,-94.88627990945874,84.31925571544677,-41.954548235624706,-140.9355051721403,-90.0,2.257598282220215,-3.177538853910961,4.192134557029634,-38.26974781185384,-7.7137268252390365,-4.336674030546112,335
-69.44600942891859,97.45274167554912,-59.071823962839545,100.81474556993392,-94.88627990945874,84.540245238189,-43.660158249428406,-141.36904604843832,-90.0,2.2222594392859643,-3.011674841779667,4.005429282186009,-39.49755394382523,-7.531183811680772,-4.496703151918651,336
-71.13119001367578,98.22091870346401,-58.041206435524586,102.26647460834296,-94.88627990945874,85.98222698617138,-46.47314914656609,-141.74455144577902,-90.0,2.3626664583266193,-2.8064250855468598,3.8861677001065935,-40.484157982388965,-7.437321299005739,-4.705497231093702,337
-71.34882360564566,98.24866176853531,-58.55878343270293,103.50578599207462,-94.88627990945874,85.8897495515784,-48.10662997059373,-142.12965377524768,-90.0,2.5323441553348065,-2.651403115758566,3.735810085135758,-41.429078989736794,-7.289798277064805,-4.898553707125958,338
-71.73290292353944,98.01637072801401,-58.9606789204406,104.5897044558714,-94.88627990945874,85.58742226052321,-49.730569162038876,-142.81448068802496,-90.0,2.65416720773475,-2.651011065942863,3.6031562671214457,-42.28425836388895,-7.008336414542512,-5.106305662214342,339
-71.93351105574428,97.34380587340934,-59.23731038339961,106.14078927688418,-94.88627990945874,85.51754678654525,-51.09945032407556,-143.17064412795128,-90.0,2.278610933989256,-2.6109519541886788,3.44652471057249,-43.03959002688714,-6.846252116976853,-4.965097891379735,340
-72.06905667514116,97.0165730455271,-59.71513062523006,107.60067739910839,-94.88627990945874,85.55111323668555,-52.792318001484965,-143.5011701007456,-90.0,2.0649140765815632,-2.4959677746674798,3.307380933434576,-43.89534923806307,-6.752479855438647,-4.892465147883684,341
-72.32216142758433,96.86459891369977,-60.14698147037668,108.86857347435298,-94.88627990945874,85.39036306562723,-54.61968916924579,-144.0805431684427,-90.0,2.2246694921517576,-2.4279093558043807,3.201373557867422,-44.695756702126815,-6.593922102420663,-5.059918690129271,342
-72.58965858858542,96.38711405935383,-60.3530826236003,110.28653086891718,-94.88627990945874,84.94392241014474,-56.346505352351905,-144.6629725179519,-90.0,2.320383450837465,-2.4250380137889254,3.099062942176824,-45.36801656205047,-6.41271064164893,-5.1901778094133,343
-72.65733689721122,95.94678849194143,-60.7036464708194,111.63467694433339,-94.88627990945874,86.01087915008263,-59.36840726406979,-145.10094988476055,-90.0,2.1432727723353713,-2.4544796767817587,3.033393005271219,-46.1192477827996,-6.249470560221282,-5.151844130980025,344
-72.5925385154922,95.6615607442148,-60.83763429804366,112.89685123278005,-94.88627990945874,85.86819857509074,-61.06824998192276,-145.55263672740406,-90.0,2.383311658276825,-2.4918367967202513,3.025764111838616,-46.689772477113365,-6.139113571293195,-5.28208194054115,345
-72.55768519603254,95.18757871018826,-60.545482719864914,114.26538819195217,-94.88627990945874,84.18204544076858,-61.30055802656496,-146.15444617026873,-90.0,2.995597453404773,-2.482876994867069,3.0563161358533484,-46.96790729296809,-6.1299129778028965,-5.591168881598279,346
-74.17216516907075,95.28381353670672,-58.719128359802895,115.78205208266897,-94.88627990945874,83.65825862353229,-62.50090782292728,-146.63840052365842,-90.0,3.2648756198589783,-2.4820703312476864,3.076211550961652,-47.220261255507396,-6.091553138965188,-5.739097162883193,347
-74.266571553161,94.50002101540872,-58.6264401077611,117.14982950004645,-94.88627990945874,83.75203236651362,-63.53251949502594,-147.06465528358706,-90.0,3.236360933919615,-2.4992509931010334,3.0582351922715594,-47.6421480218766,-6.001028561468587,-5.721641704295108,348
-74.40193473746956,93.66205767491776,-58.50805477209829,118.48362888953316,-94.88627990945874,83.89308260460314,-64.36480743063882,-147.45535557440252,-90.0,3.2415490557689854,-2.5131092117197036,3.089408558806854,-48.02265207083194,-5.912138036168042,-5.737293648659657,349
-74.54981563089514,92.68635804927854,-58.345616002688004,119.93097322579743,-94.88627990945874,84.05579226041966,-65.07879021562769,-147.71939891653417,-90.0,3.2739507124503255,-2.5618498003488277,3.224088957132396,-48.34905353077841,-5.826757967309596,-5.805778760742363,350
-74.5160167464188,91.73270518869639,-58.159820709021915,121.31019664392615,-94.88627990945874,84.22888277294213,-65.60468705819898,-147.97513498569774,-90.0,3.490238758984579,-2.6034241691627553,3.4153388848566264,-48.7003871882007,-5.862941344839446,-5.919518717219524,351
-74.24807081510522,90.94245796565214,-58.055598261833644,122.42335073600334,-94.88627990945874,84.8605520154174,-65.7447114349288,-148.0,-90.0,3.7563265287215652,-2.596572083955752,3.5733678262313022,-49.12854605717502,-6.014366891161239,-5.918388741372615,352
-74.0664874872504,90.04468959468198,-57.84228575847681,123.5273676768542,-94.88627990945874,84.89142938536786,-64.11952746655909,-148.0,-90.0,3.9753468359062327,-2.559431263868112,3.7518100689147857,-49.41749485712638,-6.164490670981588,-5.89035636222416,353
