JMW9912/AVATAR/Dynamixel/dynamixel_control/data/csv/poppy/.data/waist_test/2DoF (2P+Ori)/0429_2054_13_18_2DoF_Ori_bvh_motor_degree.csv
theta1,theta2,theta3,theta4,theta5,theta6,theta7,theta8,theta9,theta10,theta11,theta12,theta13,theta14,theta15,frame
-95.92251261320826,22.1324781961728,94.39553488464352,28.29882286208972,-96.14211400595684,6.565858853703758,-79.64029516131268,-28.29882286208971,9.061519176957306,4.005673455057703,0.0,0.0,0.0,0.7360967837554502,2.8051766135533387,0
-98.67251261320826,24.8824781961728,92.89553488464352,31.04882286208972,-93.39211400595684,9.315858853703759,-78.14029516131268,-31.04882286208971,11.811519176957306,6.755673455057703,0.0,0.0,0.0,-0.26390321624455004,1.8051766135533385,1
-95.92251261320826,27.6324781961728,91.39553488464352,33.79882286208972,-90.64211400595684,12.065858853703759,-76.64029516131268,-33.79882286208971,9.061519176957306,6.079103727505314,0.0,0.0,0.0,-0.5610153349652571,1.5676611299321013,2
-93.17251261320826,30.3824781961728,89.89553488464352,36.54882286208972,-87.89211400595684,14.815858853703759,-75.14029516131268,-36.54882286208971,6.311519176957306,5.699886166523471,0.0,0.0,0.0,-0.4463242702561103,1.4589474168923264,3
-90.42251261320826,33.1324781961728,88.39553488464352,39.29882286208972,-85.14211400595684,17.56585885370376,-73.64029516131268,-39.29882286208971,3.5615191769573062,5.323295352737764,0.0,0.0,0.0,-0.31449160719174646,1.3959784430006912,4
-87.67251261320826,35.8824781961728,86.89553488464352,42.04882286208972,-82.39211400595684,20.31585885370376,-72.14029516131268,-42.04882286208971,0.8115191769573062,4.975272369341228,0.0,0.0,0.0,-0.18210715864614838,1.2828737943240334,5
-84.92251261320826,38.6324781961728,85.39553488464352,44.79882286208972,-79.64211400595684,23.06585885370376,-70.64029516131268,-44.79882286208971,-1.9384808230426938,4.6659872579781485,0.0,0.0,0.0,-0.028827028005856264,1.16802657753201,6
-82.17251261320826,41.3824781961728,83.89553488464352,47.54882286208972,-76.89211400595684,25.81585885370376,-69.14029516131268,-47.54882286208971,-4.688480823042694,4.301445392646066,0.0,0.0,0.0,0.11154764131094722,1.1537600669623398,7
-79.42251261320826,44.1324781961728,82.39553488464352,50.29882286208972,-74.14211400595684,28.56585885370376,-67.64029516131268,-50.29882286208971,-7.438480823042694,3.9074644772260054,0.0,0.0,0.0,0.28956399821487055,1.137764862055825,8
-76.67251261320826,46.8824781961728,80.89553488464352,53.04882286208972,-71.39211400595684,31.31585885370376,-66.14029516131268,-53.04882286208971,-10.188480823042694,3.4579902818989785,0.0,0.0,0.0,0.4678924110056283,1.1038419956007923,9
-73.92251261320826,49.6324781961728,79.39553488464352,55.79882286208972,-68.64211400595684,34.06585885370376,-64.64029516131268,-55.79882286208971,-12.938480823042694,3.0401925894798674,0.0,0.0,0.0,0.6413005476805548,1.0621446740777871,10
-71.17251261320826,52.3824781961728,77.89553488464352,58.54882286208972,-65.89211400595684,36.81585885370376,-63.14029516131268,-58.54882286208971,-15.688480823042694,2.7031337611145534,0.0,0.0,0.0,0.8201777161546183,1.025875613500634,11
-68.42251261320826,55.1324781961728,76.39553488464352,61.29882286208972,-63.14211400595684,39.56585885370376,-61.64029516131268,-61.29882286208971,-18.438480823042696,2.3385077766098346,0.0,0.0,0.0,1.001085428411265,1.039417496433591,12
-67.97214623411037,57.8824781961728,74.89553488464352,64.04882286208972,-60.39211400595684,42.31585885370376,-60.14029516131268,-64.04882286208971,-21.188480823042696,1.9277378653501431,0.0,0.0,0.0,1.1895984384710072,1.0494843304552046,13
-68.7276005567735,60.6324781961728,73.39553488464352,66.79882286208972,-57.64211400595684,45.06585885370376,-58.64029516131268,-66.79882286208971,-23.938480823042696,1.4894026741061843,0.0,0.0,0.0,1.3534017237951905,0.9730310754223224,14
-69.41832167149474,63.3824781961728,71.89553488464352,69.54882286208972,-54.89211400595684,47.81585885370376,-57.14029516131268,-69.54882286208971,-26.688480823042696,1.1056835604097766,0.0,0.0,0.0,1.512631400516057,0.8706234271909044,15
-70.76571488511686,66.1324781961728,70.39553488464352,72.29882286208972,-52.14211400595684,50.56585885370376,-55.64029516131268,-72.29882286208971,-29.438480823042696,0.8004750037384204,0.0,0.0,0.0,1.6946999947897738,0.8131683341710496,16
-71.68996042662963,68.8824781961728,68.89553488464352,75.04882286208972,-49.39211400595684,53.31585885370376,-54.14029516131268,-75.04882286208971,-32.188480823042696,0.48294884980454145,0.0,0.0,0.0,1.8864978558326242,0.7537505042445962,17
-72.7135857082171,71.6324781961728,67.39553488464352,77.79882286208972,-46.64211400595684,56.06585885370376,-52.64029516131268,-77.79882286208971,-34.938480823042696,0.22015317758668382,0.0,0.0,0.0,2.027261199455518,0.728533529315343,18
-73.84149446737145,74.3824781961728,65.89553488464352,80.54882286208972,-43.89211400595684,58.81585885370376,-51.14029516131268,-80.54882286208971,-37.688480823042696,0.23720737425898347,0.0,0.0,0.0,2.1125537650495207,0.7809433049140702,19
-75.03795252997433,77.1324781961728,64.39553488464352,83.29882286208972,-41.14211400595684,61.56585885370376,-49.64029516131268,-83.29882286208971,-40.438480823042696,0.22893509058588524,0.0,0.0,0.0,2.1643159793883204,0.8986162707135805,20
-76.32970954054136,79.8824781961728,62.895534884643524,86.04882286208972,-38.39211400595684,64.31585885370376,-48.14029516131268,-86.04882286208971,-43.188480823042696,0.18573984894371665,0.0,0.0,0.0,2.1710266451039195,0.9620138424491951,21
-77.51707316380292,80.66880635640244,61.395534884643524,88.79882286208972,-35.64211400595684,67.06585885370376,-46.64029516131268,-88.79882286208971,-45.938480823042696,0.38792898835388295,0.0,0.0,0.0,2.1720957800640175,1.0220778192921103,22
-78.52332316499798,80.60505257195962,59.895534884643524,91.54882286208972,-32.89211400595684,69.81585885370376,-45.14029516131268,-91.54882286208971,-48.688480823042696,0.7381855468075547,0.0,0.0,0.0,2.220760998132646,1.1987696403104087,23
-79.60449095260253,80.50362913138,58.395534884643524,94.29882286208972,-30.14211400595684,72.56585885370376,-43.64029516131268,-94.29882286208971,-51.438480823042696,1.0388871455888091,0.0,0.0,0.0,2.3133142115258822,1.3645897737189816,24
-81.25144407855039,82.17852782026425,56.895534884643524,97.04882286208972,-27.39211400595684,73.37178549986658,-42.14029516131268,-97.04882286208971,-54.188480823042696,1.3036658342087912,0.0,0.0,0.0,2.43978213715638,1.4270683940795152,25
-82.28279834408139,81.9931001977337,55.395534884643524,99.79882286208972,-24.64211400595684,72.57465311889683,-40.64029516131268,-99.79882286208971,-56.938480823042696,1.5622868167752568,0.0,0.0,0.0,2.560237053856212,1.485318573353047,26
-83.183991384873,81.78392183161743,53.895534884643524,102.54882286208972,-21.89211400595684,71.9863381229876,-39.14029516131268,-102.54882286208971,-59.688480823042696,1.8869243012213106,0.0,0.0,0.0,2.7166533458874245,1.547065076927658,27
-83.82139258873364,81.6724224974564,52.395534884643524,105.29882286208972,-19.14211400595684,71.4505122454834,-37.64029516131268,-105.29882286208971,-62.438480823042696,2.2431817129904603,0.0,0.0,0.0,2.903959335239251,1.6253895937342375,28
-84.38930270886412,81.5140687988423,50.895534884643524,108.04882286208972,-16.39211400595684,70.90048193279007,-36.14029516131268,-108.04882286208971,-65.1884808230427,2.5825757790163584,0.0,0.0,0.0,3.1150613317273885,1.6612683053016644,29
-85.09755522583718,81.16762490572522,49.395534884643524,110.79882286208972,-13.642114005956842,68.61620497563582,-34.64029516131268,-110.79882286208971,-67.9384808230427,2.829984887684786,0.0,0.0,0.0,3.345193261108848,1.6421822689568146,30
-85.71699043245161,80.80221198547147,47.895534884643524,113.54882286208972,-10.892114005956842,68.36076183653343,-33.14029516131268,-113.54882286208971,-70.6884808230427,3.0746555256774437,0.0,0.0,0.0,3.589831747403502,1.5939045984218383,31
-86.18847422213287,80.50200176106192,46.395534884643524,116.29882286208972,-8.142114005956842,67.9622781042843,-31.64029516131268,-116.29882286208971,-73.4384808230427,3.3373553030626084,0.0,0.0,0.0,3.827839266023912,1.5674438330622904,32
-87.27851687092343,81.82469885466998,44.895534884643524,119.04882286208972,-5.3921140059568415,67.22462521993164,-30.14029516131268,-119.04882286208971,-76.1884808230427,3.601180652054817,0.0,0.0,0.0,4.077596307954329,1.5000622324291597,33
-87.706288291566,81.52900554028767,43.395534884643524,121.79882286208972,-2.6421140059568415,66.73969278234281,-28.64029516131268,-121.79882286208971,-78.9384808230427,3.835895624887998,0.0,0.0,0.0,4.3489868027473335,1.388376450456569,34
-88.29556673277673,80.97982871213934,41.895534884643524,124.54882286208972,0.10788599404315846,64.29356615652713,-27.14029516131268,-124.54882286208971,-81.6884808230427,3.9261163355422553,0.0,0.0,0.0,4.667274521165644,1.2429675259857225,35
-88.91791385501408,80.37328694024382,40.395534884643524,127.29882286208972,2.8578859940431585,63.62493926651748,-25.64029516131268,-127.29882286208971,-84.4384808230427,3.9195674451883487,0.0,0.0,0.0,4.982496995565226,1.1063612105609,36
-89.26215178824147,79.88780778889416,38.895534884643524,127.68622584916783,5.6078859940431585,63.03455550567419,-24.14029516131268,-130.0488228620897,-87.1884808230427,4.0345692283839565,0.0,0.0,0.0,5.252113628895177,1.0263026135949027,37
-89.39155943214844,79.57269701409908,37.395534884643524,127.44970035705721,8.357885994043158,62.77763410488403,-22.64029516131268,-132.7988228620897,-89.9384808230427,4.307915707397254,0.0,0.0,0.0,5.500958779252635,0.9559141456727749,38
-90.53002362991765,80.99019943952742,35.895534884643524,127.44341564259706,11.107885994043158,60.86004374226093,-21.14029516131268,-135.5488228620897,-92.6884808230427,4.49742563479174,0.0,0.0,0.0,5.755427218054152,0.9092490292596852,39
-91.28060517906599,80.5203633181679,34.395534884643524,127.4929879666693,13.857885994043158,61.11569959162997,-19.64029516131268,-138.2988228620897,-95.4384808230427,4.678778619218187,0.0,0.0,0.0,6.009513227446852,0.8514765628075025,40
-91.68442795625434,80.14660917818976,32.895534884643524,127.45949748136887,16.60788599404316,61.57520898753001,-18.14029516131268,-141.0488228620897,-98.1884808230427,4.831220892664878,0.0,0.0,0.0,6.308960188488377,0.6876845625865406,41
-92.27211245986861,79.6773762354362,31.395534884643524,127.48398100036955,19.35788599404316,62.440764129712896,-16.64029516131268,-143.00969053350897,-100.9384808230427,4.861094681090649,0.0,0.0,0.0,6.666075318239835,0.5113010374391112,42
-93.13481260333802,79.15475126912595,29.895534884643524,127.53313320620114,22.10788599404316,61.73571172624327,-15.140295161312679,-143.4562176757015,-103.6884808230427,4.904658344624775,0.0,0.0,0.0,6.948941110719955,0.35414464352308817,43
-94.20617454391376,80.62285870240426,28.395534884643524,127.46997518998347,24.85788599404316,62.863650128414704,-13.640295161312679,-143.83311263109832,-105.87150208316257,4.977951473767115,0.0,0.0,0.0,7.094844703046125,0.23255218636712707,44
-95.20374714128609,80.22275905527906,26.895534884643524,127.43002425658912,27.60788599404316,61.93061845611145,-12.140295161312679,-144.15881064427367,-104.38616995894208,4.9796565927828595,0.0,0.0,0.0,7.197561497209739,0.11491029855378242,45
-96.34537912727575,79.81557358203969,25.395534884643524,127.41266707860964,30.35788599404316,62.99746215101761,-10.640295161312679,-144.51767437960396,-103.949355698265,5.055066269613913,0.0,0.0,0.0,7.255381699342066,0.01087720458481449,46
-97.24393432230774,79.51405844632977,23.895534884643524,127.2993473544073,33.10788599404316,63.45266075665763,-9.140295161312679,-144.7210325724348,-103.41780851527241,5.203773865766083,0.0,0.0,0.0,7.141019146856721,-0.06254065417426759,47
-98.21179830222167,79.27355796708555,22.395534884643524,127.10179300081099,35.85788599404316,65.88169310204863,-7.640295161312679,-144.7835596886547,-103.42701787829955,5.318795572411366,0.0,0.0,0.0,6.932009977896257,-0.17751865333078962,48
-99.33835891852493,78.95004719339569,20.895534884643524,127.03335770518515,38.60788599404316,66.34909957055855,-6.140295161312679,-144.96404342534416,-102.51824045014706,5.407531330324855,0.0,0.0,0.0,6.822186175922983,-0.36049366734174515,49
-100.46593620115551,78.66421955272058,19.395534884643524,127.05339206698021,41.35788599404316,66.93012354340458,-4.640295161312679,-145.06217600621235,-100.84021890971388,5.426487857933044,0.0,0.0,0.0,6.795395298095829,-0.5015890612757868,50
-101.53063408194804,78.55663477459562,17.895534884643524,126.86762170137305,44.10788599404316,67.51525195167751,-3.140295161312679,-145.05988168002227,-99.55542743155529,5.329963228478128,0.0,0.0,0.0,6.691261397918535,-0.6531744947744822,51
-102.76983055802866,78.44864082588654,16.395534884643524,126.71217587712259,46.85788599404316,67.96576154692193,-1.6402951613126788,-144.9676201629689,-98.40777333872883,5.144154607190991,0.0,0.0,0.0,6.493019590701664,-0.8199873846395881,52
-104.1610718031872,78.27811108770221,14.895534884643524,126.64838785795233,49.60788599404316,68.32919432571967,-0.14029516131267883,-144.7677506915373,-96.32534865953548,4.941388684457012,0.0,0.0,0.0,6.323599843162314,-0.9941863500942302,53
-105.17852988208111,78.10050842827262,13.395534884643524,126.45242614854747,52.35788599404316,70.4192520594048,1.3597048386873212,-144.63276114942093,-93.57534865953548,4.7775476229278455,0.0,0.0,0.0,6.177886112178498,-1.2034838293706176,54
-106.09406222923856,78.01931097510268,11.895534884643524,126.30038721077636,55.10788599404316,70.40743790881308,2.859704838687321,-144.49584552995407,-90.82534865953548,4.657116187241631,0.0,0.0,0.0,6.082759895478917,-1.3626775808858282,55
-107.28991693594088,77.88976145374069,10.395534884643524,125.64882956907522,57.85788599404316,70.59331077954717,4.359704838687321,-145.0085415421271,-88.07534865953548,4.328811652049603,0.0,0.0,0.0,6.0428079701576545,-1.883768508111193,56
-108.08025905908103,79.4748181576428,8.895534884643524,125.85897081074344,60.60788599404316,72.70289836632729,4.411355930134212,-144.25373088306037,-85.32534865953548,4.747370351311187,0.0,0.0,0.0,6.002942561477408,-2.0109186633692544,57
-109.08140792676377,79.38208731887167,7.395534884643524,125.67319838796172,63.35788599404316,72.6529069872699,4.467271515734316,-143.91742733606043,-82.57534865953548,4.687003600978677,0.0,0.0,0.0,6.030996920748568,-2.1307627977343264,58
-110.16524272293707,79.13487576543389,5.895534884643524,125.40709036993337,66.10788599404316,72.53275483029563,4.295451070183023,-144.01737431124903,-79.82534865953548,4.7076390865137485,0.0,0.0,0.0,6.152208335264484,-2.437948185047926,59
-110.94626593536204,78.73076109305302,4.395534884643524,125.42419729366155,68.85788599404316,74.24591048226861,2.795451070183023,-143.72574592308155,-77.07534865953548,5.059133459258964,0.0,0.0,0.0,6.300893385954593,-2.7339673007198746,60
-111.5556030925652,78.45397881998134,2.8955348846435243,125.28618673350267,71.60788599404316,73.76511241528821,1.6242704493498408,-143.23831687324275,-74.32534865953548,5.328486451671861,0.0,0.0,0.0,6.397377748038295,-2.97917903340022,61
-111.79075075783634,78.42331827399757,1.3955348846435243,125.09548098190434,74.35788599404316,72.99038888146833,0.4151956403500634,-142.62920329145453,-71.57534865953548,5.589868828956918,0.0,0.0,0.0,6.4051091485550415,-3.0567191814700503,62
-111.92918276135882,78.65183200908186,-0.10446511535647574,124.95860015492164,77.10788599404316,71.88661902975312,-1.0848043596499366,-141.7428002823968,-68.82534865953548,5.6575038148134835,0.0,0.0,0.0,6.32073120143584,-2.8956831405459234,63
-113.01412562177036,78.68272823386675,-0.3569005271206398,123.46753311209025,79.85788599404316,70.95775214244573,-2.5848043596499366,-142.74541379412824,-66.07534865953548,5.342846387774148,0.0,0.0,0.0,6.324744605369428,-3.734338583482961,64
-113.72227953271353,78.29823901945198,0.387051059522803,124.38537817173656,82.60788599404316,70.16027370583487,-4.084804359649937,-140.64268284694768,-63.32534865953548,6.325198649299585,0.0,0.0,0.0,6.124006466543001,-3.48406802978765,65
-114.85463162404,78.50517071061815,0.41165671684423655,123.0202553453075,85.35788599404316,67.41027370583487,-4.978118474619898,-140.74020514548099,-60.57534865953548,5.804704385867408,0.0,0.0,0.0,5.936840692493818,-3.7569754049904045,66
-115.69080384329229,78.50819628749736,0.687064108309135,122.53666005456012,88.10788599404316,66.10186826635062,-6.478118474619898,-139.99171050924141,-57.82534865953548,5.925116969441401,0.0,0.0,0.0,5.692484978968045,-4.00689098044431,67
-116.25557892717127,78.62521885218003,0.7956078176991687,121.88480271773828,90.85788599404316,63.35186826635062,-7.123083326228924,-139.24948557856854,-57.55680547348632,6.005320501852346,0.0,0.0,0.0,5.409934110507607,-4.257511904974042,68
-116.75795788645566,80.51737965600461,2.2956078176991688,121.32847633893404,93.60788599404316,62.260834623530734,-8.623083326228924,-138.45965572129762,-57.41907855281487,6.137001208477267,0.0,0.0,0.0,5.124615499345132,-4.4618542497953015,69
-117.52413211483028,80.452892449022,2.8743216273076304,120.868948061729,96.35788599404316,59.52973830147775,-9.074103403705015,-137.42368462549987,-57.02604763435998,6.23014124566741,0.0,0.0,0.0,4.829381186292155,-4.544955887349496,70
-118.70415840854008,80.3098076954259,3.368508307563172,120.480878388738,95.23218308257573,56.891464516470386,-9.049731518278252,-136.0701792233058,-58.040830215058655,6.305546408138991,0.0,0.0,0.0,4.498925261322365,-4.603378620025038,71
-119.72148441327735,80.16826163695346,3.771449715161408,120.08487044404121,92.48218308257573,54.141464516470386,-8.571705138945667,-134.54030354835024,-59.72536163525636,6.487301464889584,0.0,0.0,0.0,4.25931206736805,-4.711490871774044,72
-120.41306765336657,80.0551544742153,4.081919435733962,119.5486950376586,89.73218308257573,53.490040531764684,-9.304067076486664,-132.79848843413563,-60.84120051811596,6.6652751683406635,0.0,0.0,0.0,4.026675452109224,-4.80321420694437,73
-121.07805517209512,79.89252347930075,4.4845936473272205,119.12176409965413,86.98218308257573,51.06558572343556,-7.955552060230723,-130.43499294961703,-62.40451332630496,6.79604160261573,0.0,0.0,0.0,3.7116554994049897,-4.884825278975605,74
-121.57690326781514,79.67307030916925,4.93306900389956,118.74775066698311,84.23218308257573,48.91015852839634,-6.455552060230723,-127.68499294961703,-64.1008550127534,6.963573161075483,0.0,0.0,0.0,3.3897979324693686,-4.979226542904424,75
-121.86163621115317,79.41261150740833,5.410997881414262,118.26072496814551,81.48218308257573,47.006288206805216,-4.955552060230723,-124.93499294961703,-64.68240794922562,7.15683572633675,0.0,0.0,0.0,3.0348536028551396,-5.157735319567079,76
-122.18133894133852,79.09074152155296,5.979700545130858,117.79259308101382,78.73218308257573,47.25330986495011,-3.4555520602307226,-122.18499294961703,-64.94053952034876,7.274456335531463,0.0,0.0,0.0,2.6308016486859964,-5.517259592970491,77
-122.65292302064371,78.72490663946604,6.653726929353212,117.6317401451167,75.98218308257573,46.03811375622029,-1.9555520602307226,-119.43499294961703,-64.45523804579624,7.373804480491946,0.0,0.0,0.0,2.1660750639752617,-5.929438967140854,78
-122.81588142391668,78.98819867057985,7.824127504880441,117.42694167147604,73.23218308257573,46.939080720908834,-0.4555520602307226,-116.68499294961703,-62.62060978525912,7.560401818591008,0.0,0.0,0.0,1.6572708039377488,-6.213678759601907,79
-122.92681954907806,78.52931157425897,8.334430311121809,117.11569842387604,70.48218308257573,46.49860196782396,1.0444479397692774,-113.93499294961703,-61.53259534632963,7.782832315949764,0.0,0.0,0.0,1.1311571563413922,-6.3831561613804055,80
-123.4757844959819,78.09889306508772,8.958033900906756,117.21753379898271,67.73218308257573,48.21729739753173,2.5444479397692774,-111.18499294961703,-62.059063166383304,7.945355418798259,0.0,0.0,0.0,0.5070472281734222,-6.454265747827291,81
-123.82121889888082,77.64336815891964,9.56341827441497,116.9569063900647,64.98218308257573,48.849926886571275,4.044447939769277,-108.43499294961703,-64.01869814940666,8.062819872432444,0.0,0.0,0.0,-0.15603987198184377,-6.547033849741295,82
-124.44635200178803,77.29000297951654,10.251744794480091,117.26735144725903,62.23218308257573,51.566265597935235,5.544447939769277,-105.68499294961703,-65.85813925333497,8.138267585009366,0.0,0.0,0.0,-0.7335352592357565,-6.8074805486863825,83
-124.82019860962434,76.99215973693242,10.79873912680578,117.45726220650127,59.48218308257573,53.11616853778504,7.044447939769277,-102.93499294961703,-64.97958414068424,8.140167498191527,0.0,0.0,0.0,-1.2881660605643013,-7.002721419816226,84
-125.1216007872363,76.65958732930562,11.324410582319402,117.52687226154345,56.73218308257573,55.86616853778504,8.544447939769277,-100.18499294961703,-63.49172684279847,8.207958249191003,0.0,0.0,0.0,-1.8190921429925422,-7.115948644939328,85
-125.28356845136945,76.25107120471543,11.869324715421449,117.78762987555939,53.98218308257573,58.040073241337446,10.044447939769277,-97.43499294961703,-62.84390798497266,8.366700477127978,0.0,0.0,0.0,-2.305871631408762,-7.245158244594133,86
-125.18415441302412,75.89310943611524,12.27371997384251,118.09208151231442,51.23218308257573,59.71926402752283,11.544447939769277,-94.68499294961703,-60.249739332225964,8.406567648748908,0.0,0.0,0.0,-2.763206387374425,-7.393806185479183,87
-125.00937980393026,75.6300556889431,12.541186364755212,118.38554984411964,48.48218308257573,62.46301980738476,13.044447939769277,-91.93499294961703,-57.499739332225964,8.353088700630943,0.0,0.0,0.0,-3.2057938461066744,-7.4942035578084,88
-125.2993503280938,73.60921143019937,11.3688963093957,118.81929743999471,45.73218308257573,63.933108927647595,14.544447939769277,-89.18499294961703,-54.749739332225964,8.359479457460289,0.0,0.0,0.0,-3.588405374134606,-7.669297721582581,89
-125.04442238301137,73.24581906120663,11.703602718113578,119.40993321061863,42.98218308257573,65.41136929089063,16.044447939769277,-86.43499294961703,-51.999739332225964,8.457690828476744,0.0,0.0,0.0,-3.968765295144411,-7.81676182228643,90
-124.14323029459256,74.62787547689408,13.203602718113578,119.9009367523039,40.23218308257573,67.08990516420853,17.544447939769277,-83.68499294961703,-50.62605123484243,8.497173394736375,0.0,0.0,0.0,-4.374290305449165,-7.9919957298544135,91
-123.64573627967131,74.19247773855979,13.76080567034972,120.59157664473409,37.48218308257573,68.25559008006266,19.044447939769277,-80.93499294961703,-50.863138574172595,8.438512312772621,0.0,0.0,0.0,-4.770575447933384,-8.219784897090104,92
-123.22321426907699,73.82862089244,14.026677526448777,121.47606766143683,34.73218308257573,69.92327313097984,20.544447939769277,-78.5638774553876,-51.169865714823175,8.188060646853488,0.0,0.0,0.0,-5.176673660448165,-8.398596431239396,93
-122.77618885641621,73.50163970960052,14.253914018651521,122.30723746011593,31.98218308257573,71.8342484542045,22.044447939769277,-81.3138774553876,-52.31954543002688,7.905088621214805,0.0,0.0,0.0,-5.635474567313546,-8.57161972106192,94
-121.79998484059533,74.92183516850214,15.753914018651521,123.03334337208553,29.23218308257573,73.89564123246709,23.544447939769277,-84.0638774553876,-53.964940596125814,7.672358532881828,0.0,0.0,0.0,-6.189055692777629,-8.836978476179134,95
-121.03052319559754,74.33105850173736,16.33608568416458,123.60342477994232,26.48218308257573,75.92961004493235,25.044447939769277,-86.634525140085,-55.65093578846613,7.348511345686515,0.0,0.0,0.0,-6.80768479526005,-9.130062001763255,96
-119.87227964755282,73.49104314188924,16.65239590406782,124.10048136759826,23.73218308257573,77.7564250077966,26.544447939769277,-88.99413167603687,-57.82572698700954,6.941509612654054,0.0,0.0,0.0,-7.438642914230155,-9.3914617073963,97
-117.83378426846492,74.21866521111964,18.15239590406782,124.63585594711036,20.98218308257573,80.38915727266584,28.044447939769277,-91.7037733538054,-60.57572698700954,6.520244507800286,0.0,0.0,0.0,-8.045808014049403,-9.545473013750065,98
-116.42845056196128,72.92982542818935,18.441025217187107,125.16496109914313,22.657616089154487,81.70334693538472,29.544447939769277,-94.23403771795238,-63.32572698700954,5.996290228555774,0.0,0.0,0.0,-8.580924941002113,-9.5843406086558,99
-114.1790528024988,73.17046969719006,19.923568369747517,125.52632636506496,24.837573752981694,82.75838679056922,31.044447939769277,-96.38720830812716,-66.07572698700955,5.44306537640114,0.0,0.0,0.0,-9.047308001503447,-9.59744094553655,100
-111.58218305309627,71.22944026000596,19.61343808643242,125.44364617970375,27.050696352734228,83.2942267265714,32.54444793976928,-98.57903119911121,-68.82572698700955,5.018665287909084,0.0,0.0,0.0,-9.451137905967123,-9.56768586009241,101
-108.83218305309627,69.00491236102383,18.928226285344635,125.18370203306674,29.342925142176313,83.47014566162994,34.04444793976928,-100.91952235215709,-71.57572698700955,4.618896497827267,0.0,0.0,0.0,-9.75260150193957,-9.502748133789108,102
-106.08218305309627,68.47086681746744,20.074512075608784,124.39556628295836,30.38665055925823,84.09305446172009,35.54444793976928,-101.39080684323099,-74.32572698700955,4.5168371680032955,0.0,0.0,0.0,-10.098195261060885,-9.512493382716768,103
-103.33218305309627,65.72086681746744,18.574512075608784,123.64491741336533,33.13665055925823,83.51591178002859,37.04444793976928,-103.46485524569938,-77.07572698700955,5.393372041804596,0.0,0.0,0.0,-10.287738502094033,-9.563363178577172,104
-100.58218305309627,62.97086681746744,17.074512075608784,122.5696259384666,35.88665055925823,82.32644629984739,38.54444793976928,-105.53930876341013,-79.82572698700955,5.54565659203968,0.0,0.0,0.0,-10.379154785660841,-9.64556463486951,105
-97.83218305309627,60.22086681746744,15.574512075608784,121.15193391284215,38.63665055925823,81.54973289827711,40.04444793976928,-107.18303483666607,-82.57572698700955,5.227807032619754,0.0,0.0,0.0,-10.35615066855535,-9.657033580494405,106
-95.08218305309627,57.47086681746744,14.074512075608784,119.2119290318097,41.14890306791245,80.93563303167218,41.54444793976928,-108.12033866638653,-85.32572698700955,4.825126958210741,0.0,0.0,0.0,-10.280104174229459,-9.597128840423352,107
-92.33218305309627,54.72086681746744,12.574512075608784,117.01109089616982,42.929401328631904,80.39218914318856,43.04444793976928,-108.38179235040687,-88.07572698700955,4.843178103989432,0.0,0.0,0.0,-10.24878103719469,-9.60124948845882,108
-89.58218305309627,51.97086681746744,11.074512075608784,114.43960252433354,44.527187909544594,79.68233871445454,44.54444793976928,-108.53886252603861,-90.82572698700955,5.40626992465363,0.0,0.0,0.0,-10.193475958659377,-9.65814551473628,109
-86.83218305309627,49.22086681746744,9.574512075608784,111.68960252433354,46.00080236806993,78.74280903294198,46.04444793976928,-108.65431860373937,-93.57572698700955,5.949570626045591,0.0,0.0,0.0,-10.124572326731112,-9.86971818782186,110
-84.08218305309627,47.333317707205424,8.074512075608784,108.93960252433354,47.18352302601063,77.93421673449704,47.54444793976928,-108.71599959969517,-96.32572698700955,6.304111639611644,0.0,0.0,0.0,-10.027897415548235,-10.01591690735103,111
-81.33218305309627,44.583317707205424,6.574512075608784,106.18960252433354,48.20260797898578,77.30899231915681,49.04444793976928,-108.48694378879426,-99.07572698700955,6.8421736963569,0.0,0.0,0.0,-9.916226182608561,-10.034950784113809,112
-78.58218305309627,44.090168848827034,5.074512075608784,103.43960252433354,50.74645772124035,77.61029108838311,50.54444793976928,-108.25394042906997,-101.82572698700955,7.438998120257258,0.0,0.0,0.0,-9.77195300215229,-10.122243369689555,113
-75.83218305309627,42.559656991173576,3.5745120756087836,100.68960252433354,51.791738813164514,76.94499576919858,52.04444793976928,-108.15482538802694,-104.57572698700955,7.925013670540889,0.0,0.0,0.0,-9.538352056202589,-10.274945057872586,114
-73.08218305309627,42.87518310871571,2.0745120756087836,97.93960252433354,52.1251334760282,76.11216148889412,53.54444793976928,-108.0728250324459,-107.32572698700955,8.447251251936295,0.0,0.0,0.0,-9.268960578463336,-10.405424509715722,115
-70.33218305309627,42.15270737336391,0.5745120756087836,95.18960252433354,53.102564454150404,76.12224394384903,53.727376321795774,-107.80165363667237,-104.57572698700955,8.98011798678987,0.0,0.0,0.0,-8.981079312468635,-10.563037556559033,116
-67.58218305309627,43.487262792506854,-0.9254879243912164,92.43960252433354,54.344141551943174,75.92110839655938,53.18504259987309,-107.90385086954646,-101.82572698700955,9.380598003880023,0.0,0.0,0.0,-8.667736042283263,-10.780956342559394,117
-64.83218305309627,43.972997550152506,-2.4254879243912164,89.68960252433354,54.066640005307804,74.70685772644981,54.68504259987309,-108.1614327790187,-99.07572698700955,9.769113505197888,0.0,0.0,0.0,-8.41601520667204,-10.9824650538567,118
-62.08218305309627,45.462480936215925,-3.9254879243912164,86.93960252433354,54.71185857242745,74.64127535748631,54.6121874714732,-108.38308534452148,-96.32572698700955,10.191638258873759,0.0,0.0,0.0,-8.29692772904921,-11.06443327058017,119
-59.33218305309627,47.445059926913274,-5.425487924391216,84.18960252433354,56.006218713247414,74.59716457933855,54.499719970083696,-109.33098166361243,-93.57572698700955,10.864217333518555,0.0,0.0,0.0,-8.18917505547824,-11.00117604683873,120
-56.58218305309627,46.27021812779405,-6.925487924391216,81.43960252433354,55.133625169433685,75.55380972259181,55.252398981454434,-108.12204571931227,-90.82572698700955,11.408178298777948,0.0,0.0,0.0,-8.450063694657572,-10.99666126041752,121
-53.83218305309627,49.02021812779405,-8.425487924391216,78.68960252433354,57.453479261793724,76.10510506892211,53.752398981454434,-109.18562318708128,-88.07572698700955,11.340852355775489,0.0,0.0,0.0,-8.516717838255545,-11.005162804781332,122
-51.08218305309627,49.8108066384281,-9.925487924391216,75.93960252433354,57.435094496705425,76.38877114246235,53.49929335179863,-109.29383356402569,-85.32572698700955,11.611988593545766,0.0,0.0,0.0,-8.719535259367593,-11.03396234613781,123
-48.33218305309627,50.66886692659096,-11.425487924391216,73.18960252433354,57.01496743569791,76.50284431497593,53.9089582230919,-109.63667688378428,-82.57572698700955,11.585193873450331,0.0,0.0,0.0,-8.956819753903956,-11.030877607568945,124
-45.58218305309627,53.3746020783306,-12.925487924391216,70.43960252433354,59.695289071987325,75.32280023994876,55.31704900695351,-112.38667688378428,-79.82572698700955,12.67180520474135,0.0,0.0,0.0,-8.394920310256161,-11.046772716160401,125
-42.83218305309627,50.6246020783306,-14.425487924391216,67.68960252433354,56.945289071987325,78.07280023994876,56.81704900695351,-109.63667688378428,-77.07572698700955,14.286680393987398,0.0,0.0,0.0,-9.167085262772781,-10.755628668467606,126
-40.08218305309627,50.50491452150374,-15.925487924391216,64.93960252433354,57.51567233030378,78.39675380083803,55.31704900695351,-110.31830327598269,-74.32572698700955,12.237415388121011,0.0,0.0,0.0,-9.379573611777152,-10.64450575590699,127
-37.33218305309627,50.69918475171164,-17.425487924391216,62.18960252433354,57.170251199518745,78.16404457206427,53.81704900695351,-110.95831470626737,-71.57572698700955,12.079324816669358,0.0,0.0,0.0,-9.587603449606117,-10.63780528001204,128
-34.58218305309627,50.505121662300596,-18.925487924391216,59.43960252433354,57.13377282428488,78.0771108964973,53.86657012865894,-111.73088389116944,-68.82572698700955,12.107373617301878,0.0,0.0,0.0,-9.762237817550893,-10.59054099706815,129
-31.832183053096273,49.0359388222652,-20.425487924391216,56.68960252433354,56.819939353773975,78.20589910993606,54.015647196858495,-111.97546988190166,-66.07572698700955,12.112508466997438,0.0,0.0,0.0,-9.980046408181709,-10.499518999209128,130
-29.082183053096273,49.010337067082425,-21.925487924391216,53.93960252433354,58.27398219562142,79.04304389861466,52.515647196858495,-112.67769410411344,-63.325726987009546,11.830208689121456,0.0,0.0,0.0,-10.155675168863057,-10.385933470709505,131
-26.332183053096273,48.19347365085627,-23.425487924391216,51.18960252433354,58.34529549125029,78.88682662485347,51.84950588748694,-113.33001546369327,-60.575726987009546,11.726914513713085,0.0,0.0,0.0,-10.305802206268034,-10.201251316071646,132
-23.582183053096273,47.38125419712914,-24.925487924391216,48.43960252433354,58.40820153395566,78.73769090025664,51.74227142053189,-113.75821140719513,-57.825726987009546,11.677114995545521,0.0,0.0,0.0,-10.44931707035835,-10.031521446127257,133
-20.832183053096273,47.1656729262661,-26.425487924391216,45.68960252433354,59.2555547233474,79.78000699881645,50.24227142053189,-113.43564619680221,-55.075726987009546,11.054162773596437,0.0,0.0,0.0,-10.594961967099993,-10.180383290590731,134
-18.082183053096273,48.320851938824454,-27.925487924391216,43.35958634713723,59.46038409028079,79.12412380229465,48.74227142053189,-114.88827860563917,-52.325726987009546,10.560089659845762,0.0,0.0,0.0,-10.695114026697844,-9.92102325164492,135
-15.332183053096273,48.223000514351796,-28.345380182999314,45.11342200848563,60.099044818292,78.81778930322055,47.561625173696896,-115.82587501147478,-49.575726987009546,10.933169148923817,0.0,0.0,0.0,-10.687198588685831,-9.514042697380038,136
-12.902646774310872,47.17792975702402,-26.845380182999314,47.86342200848563,60.559963915864365,78.82004086198076,47.557239494945314,-115.91239436556445,-46.825726987009546,11.529804256846033,0.0,0.0,0.0,-10.569043743775266,-9.209420531918886,137
-15.652646774310872,46.56018538252911,-25.345380182999314,50.61342200848563,60.34213731631775,78.94256786286502,47.29099204797793,-115.94622972667622,-44.075726987009546,11.787568093049703,0.0,0.0,0.0,-10.739415126391863,-8.86649103473094,138
-18.402646774310874,46.895635230142396,-23.845380182999314,53.36342200848563,60.50690681989095,78.5929449125027,46.49389210642581,-115.84837419030201,-41.325726987009546,11.187873896088995,0.0,0.0,0.0,-10.748860867100356,-8.766136605853635,139
-20.491240404197175,48.12989955218211,-22.842683217964943,55.02263670205593,62.37390450426377,79.42158549564532,44.99389210642581,-117.47947196212048,-38.575726987009546,11.247821594215242,0.0,0.0,0.0,-10.815410461758667,-8.189157325520807,140
-23.241240404197175,47.26740703043878,-21.342683217964943,57.77263670205593,61.28904394018582,79.99419353228473,43.49389210642581,-115.4842122922038,-35.825726987009546,10.805240803027155,0.0,0.0,0.0,-10.861748041772337,-8.19885904821641,141
-24.62510019411023,49.88585594266757,-21.74089998604573,60.3495631831003,62.69811323133239,78.39558216736167,41.99389210642581,-118.0935890467629,-33.075726987009546,10.270098489826188,0.0,0.0,0.0,-10.667571275711023,-7.804128338093155,142
-27.37510019411023,50.70045189140057,-20.24089998604573,63.0995631831003,63.1203079411035,78.34634430589487,41.609449161869136,-118.17219153956687,-30.325726987009546,10.658605751171349,0.0,0.0,0.0,-10.54587101772033,-7.565965007813046,143
-30.12510019411023,50.909756760154714,-18.74089998604573,65.8495631831003,62.87182622163749,78.14301620096339,41.469962343794286,-118.53664315349648,-27.575726987009546,10.687714995500146,0.0,0.0,0.0,-10.517054259766415,-7.08241567463775,144
-32.87510019411023,51.26915330868949,-17.24089998604573,68.5995631831003,64.25412842558,79.23717837347569,39.969962343794286,-118.87839293816303,-24.825726987009546,10.782388842869935,0.0,0.0,0.0,-10.461090090258411,-6.63012411709193,145
-35.62510019411023,51.80680915840979,-15.74089998604573,71.3495631831003,64.85847013090897,78.80059978151777,38.78110244738701,-119.32485308965606,-22.075726987009546,10.809314613122574,0.0,0.0,0.0,-10.327964707366183,-6.567721302425449,146
-38.37510019411023,52.706073015276914,-14.24089998604573,74.0995631831003,64.650054803493,78.30482824787953,38.464404429313056,-120.06579524861172,-19.325726987009546,10.82648570774131,0.0,0.0,0.0,-10.34430197933802,-6.231119212930507,147
-41.12510019411023,54.683332946479474,-12.74089998604573,76.8495631831003,66.47365011288863,79.3134139196779,36.964404429313056,-120.7382953509878,-16.575726987009546,10.464561277126442,0.0,0.0,0.0,-10.157939753849583,-6.080246638785296,148
-43.87510019411023,55.29746408745026,-11.24089998604573,79.5995631831003,66.23110293729943,78.99909630705982,35.793859055808994,-121.22762223248529,-13.825726987009546,10.206494071958783,0.0,0.0,0.0,-10.141463611941983,-5.92603177981441,149
-46.62510019411023,56.01497029118128,-9.74089998604573,82.3495631831003,66.1029200258684,78.58630453896745,35.44151722340846,-121.6413904987594,-11.075726987009546,9.697648171445351,0.0,0.0,0.0,-10.1322438766222,-5.814916857871513,150
-49.37510019411023,56.82127187804867,-9.70761585837595,85.0995631831003,66.76377172883372,78.00930417955067,34.83873018564823,-122.61654960940169,-8.325726987009546,9.4069198867901,0.0,0.0,0.0,-10.058125823446016,-5.669175065164366,151
-52.12510019411023,58.83964064428523,-8.20761585837595,87.8495631831003,67.64534887487537,77.78594580691374,34.369648802655206,-123.36574261846314,-5.575726987009546,9.61391006117334,0.0,0.0,0.0,-9.86100120588483,-5.5267350778528295,152
-54.87510019411023,59.46211986651142,-6.70761585837595,90.5995631831003,68.17970183026253,77.71618710855847,34.19757106149659,-123.69056253167358,-2.8257269870095456,9.897538640819485,0.0,0.0,0.0,-9.790627537155405,-5.4999649664771395,153
-57.62510019411023,61.718577229457324,-5.20761585837595,93.3495631831003,68.60097445694163,77.63858740906086,33.99773450197702,-124.10461984486561,-0.07572698700954561,10.14250986240682,0.0,0.0,0.0,-9.689173310515882,-5.432425148038834,154
-60.37510019411023,62.45390420186212,-3.7076158583759504,96.0995631831003,69.02360052850281,77.54243006396368,33.7495423870063,-124.49760004291173,2.6742730129904544,10.177779613192953,0.0,0.0,0.0,-9.568431889647606,-5.5937637436375995,155
-63.12510019411023,64.45874914423146,-2.2076158583759504,98.8495631831003,68.55504915182965,77.31962002582063,33.51172433104217,-124.57111988241213,5.424273012990454,9.952253169429797,0.0,0.0,0.0,-9.520637034439012,-5.5771141981264405,156
-65.87510019411023,66.69503758011227,-0.7076158583759504,101.5995631831003,69.99781229458478,78.41165684323074,32.01172433104217,-125.22949271544307,8.174273012990454,9.552977062960842,0.0,0.0,0.0,-9.387113180443986,-5.637390879912194,157
-68.62510019411023,67.01844654165163,0.5999641605675281,104.3495631831003,70.45069812752473,78.04113401485803,30.511724331042167,-125.94748302277448,10.924273012990454,9.368910749548643,0.0,0.0,0.0,-9.19198297249552,-5.726863344305547,158
-71.37510019411023,68.93206968517882,1.7809213303345153,107.0995631831003,70.59063878756454,77.80622939954873,30.024860491213836,-126.53087927352267,13.674273012990454,9.333324894050785,0.0,0.0,0.0,-8.986228579368367,-5.848655156731338,159
-74.12510019411023,70.8764762816542,2.8402884588384927,109.8495631831003,70.91804340830937,77.53391195889554,29.399674345029187,-127.11114786422284,16.424273012990454,9.191401146856649,0.0,0.0,0.0,-8.718633890451349,-6.056394133011655,160
-76.87510019411023,71.04777073712404,2.3892206837554153,112.5995631831003,70.5694997225196,77.21190053974165,28.88515076757546,-127.61042469618266,19.174273012990454,9.049309223286834,0.0,0.0,0.0,-8.538057463894663,-6.159230849640461,161
-79.62510019411023,72.83111375592553,3.6235029689149507,115.3495631831003,69.42252251142271,75.24128296465,29.937978393551298,-128.3134488289183,21.924273012990454,8.57208227837361,0.0,0.0,0.0,-8.237194469810026,-6.58657281706056,162
-82.37510019411023,72.70030608632732,3.228817554218072,118.0995631831003,68.94568320701745,74.97068866950274,29.142082710211252,-129.011517598336,24.674273012990454,8.00013766266678,0.0,0.0,0.0,-7.795449625751526,-6.842941426303623,163
-85.12510019411023,74.33550124821502,4.415997856142603,120.12911699118429,68.32197621980421,74.70742555654093,28.325269465203487,-129.68640428743137,27.424273012990454,7.630655123396035,0.0,0.0,0.0,-7.339245743650647,-6.99260315244537,164
-86.68008556759601,74.12348481548811,4.144423877051139,121.46570276098453,67.47681297901319,74.33161228333212,27.402727490671445,-130.40026241478682,30.174273012990454,7.260415795955761,0.0,0.0,0.0,-6.898086730397106,-7.106748515383661,165
-87.20249609011987,75.66493290442878,5.466011545899331,122.96280916104736,66.69138172790919,73.87003140362417,26.2634278523606,-131.2310370072047,32.924273012990454,6.874932881739516,0.0,0.0,0.0,-6.387655398192147,-7.227333431137563,166
-87.8171275724723,75.18184119779477,5.45979218227172,124.3847657769902,64.76684342601169,71.67726675263623,26.752793222353212,-131.98705261903845,35.674273012990454,6.4468948869355485,0.0,0.0,0.0,-5.827096702479754,-7.36914976221624,167
-87.46268011278634,74.7824922204192,5.47713727303504,125.22149783540492,63.37831775792197,71.14672098005104,25.542201320674405,-132.35414325616392,38.424273012990454,5.550539868495675,0.0,0.0,0.0,-5.352953532971525,-7.606415719768487,168
-86.31075253715639,74.39858673762745,5.285783966119788,126.22181219212054,62.952066565619134,70.53418317480319,24.042201320674405,-133.8732056676679,41.174273012990454,5.131358712135086,0.0,0.0,0.0,-4.708903289479488,-7.579107742658611,169
-86.90068761032646,75.3333489184212,6.785783966119788,127.32670823639435,60.360240425087746,68.77067070783505,24.91851320202997,-134.25470478116358,43.924273012990454,5.110024038629904,0.0,0.0,0.0,-4.157526698130201,-7.6812953328525015,170
-86.82893035239204,74.40839796888142,8.144558482817446,128.22300543800253,58.106608618711086,68.56680693087752,24.013281915447127,-134.32770465900538,46.674273012990454,4.437291787383032,0.0,0.0,0.0,-3.6898613138199283,-7.888285678346251,171
-85.07796177849528,73.77830847189396,8.54484199087083,128.8379302011389,56.576304444098035,67.83811353907393,22.513281915447127,-135.2040541241069,43.924273012990454,3.733907247864062,0.0,0.0,0.0,-3.225402400382045,-8.0591625469614,172
-84.05317385745414,72.91810465226459,9.388787324451043,129.48154990401008,54.37856206528426,67.39113674633464,21.33897963643491,-135.54741483191293,41.174273012990454,3.1819835118643582,0.0,0.0,0.0,-2.8471112032379438,-8.167501725835193,173
-82.48177144985549,72.09147011477114,10.25614738180674,130.0493043317862,52.53155034069218,66.9172469193305,20.209206436857567,-135.82273070131126,38.424273012990454,2.6176679755727856,0.0,0.0,0.0,-2.5062133304368555,-8.31673870269195,174
-81.26932454513674,71.15892577736473,11.299205462989931,130.57129959626448,49.78155034069218,64.89430876282805,21.15973775180538,-135.8084523258762,35.674273012990454,2.084666434880346,0.0,0.0,0.0,-2.179001573525995,-8.46890978943711,175
-79.4573543949052,72.15141180538558,12.799205462989931,130.8646537996761,47.37234836448841,64.63943517525287,20.308566345031036,-135.90252791076824,32.924273012990454,1.646625200529609,0.0,0.0,0.0,-1.8625684430784393,-8.62139505526644,176
-77.95869276486349,71.35497239810535,14.299205462989931,131.086777037466,45.43536234236135,64.43585629644704,19.619797314216935,-135.84463235217237,30.174273012990454,1.2825256802754126,0.0,0.0,0.0,-1.6109854575261635,-8.668410964839591,177
-76.50989751589674,70.7364309784194,15.246779827775924,131.13877959800078,42.85215514136049,62.46621853438231,20.936921547998256,-135.60455819062582,27.424273012990454,1.0972281645121438,0.0,0.0,0.0,-1.456920547055239,-8.679222456609905,178
-75.70203182393391,68.56311433130033,14.768888135820628,131.1127767540032,40.99696883507452,62.04339270958393,21.121298644014573,-135.32158318682667,24.674273012990454,1.1206464021586886,0.0,0.0,0.0,-1.316984148989256,-8.757905777621465,179
-74.02083599801624,69.66488426928359,16.268888135820628,131.07613585087554,39.504393565837525,61.960515078763805,20.969300490686972,-134.98085030139447,21.924273012990454,1.1414973898049865,0.0,0.0,0.0,-1.2534195674335562,-8.845811423673126,180
-72.90707992325962,69.0499604692722,16.813625309998137,130.9084043197101,38.2646901393654,61.78116298277378,20.899332996602457,-134.35081524933483,19.174273012990454,1.049538727188833,0.0,0.0,0.0,-1.3085038187372307,-8.900074142829041,181
-71.92834404299015,68.6544652755101,17.03099783935139,130.6485027374765,37.38183775187807,61.580354992873204,20.809192833131778,-133.74285727798906,21.924273012990454,0.8395927721395335,0.0,0.0,0.0,-1.3779465295865396,-9.153316783814422,182
-71.30593942559865,68.38055843732666,17.371700221059662,130.57707765399195,36.86735578160167,61.38491931994832,20.72761522496982,-133.49881509508373,24.674273012990454,0.8511997946502452,0.0,0.0,0.0,-1.4577161414664532,-9.358783329598475,183
-70.81697204682148,68.25085771439029,17.425259995991834,130.40477798577413,37.26685476320303,61.0445636916553,20.38582568829158,-133.47022597647725,27.424273012990454,0.9642105794412602,0.0,0.0,0.0,-1.5188453771829504,-9.534493953776582,184
-70.49294624113524,68.26781892994484,17.38123658675274,130.1617748619328,37.9357909496479,60.61703604005584,19.863674416592303,-133.3968920579784,30.174273012990454,1.0301323943014042,0.0,0.0,0.0,-1.5609243237118953,-9.772852122975944,185
-70.15620575649221,68.30640184628511,17.06414478827224,129.93627254434776,38.87950760335192,60.130752124725625,19.1359320188757,-133.320712344541,32.924273012990454,1.096622026074604,0.0,0.0,0.0,-1.5559840081713865,-9.960837912118288,186
-70.55446720812768,68.56029205494625,17.00680846370496,129.92430871133143,39.626653738239995,59.88353326544888,18.541127108390043,-133.1345287045332,35.674273012990454,1.3849030943384717,0.0,0.0,0.0,-1.4587513016410705,-10.16109183234735,187
-71.1465907199247,68.83922600479353,16.857143453339468,130.0521036331044,40.69912525087525,59.737396190288344,17.882613987774068,-132.98938885783554,38.424273012990454,1.5663415616410872,0.0,0.0,0.0,-1.284932855346926,-10.305521985851902,188
-71.7398635783861,69.09112361699519,16.35729305109806,130.08359534719403,42.304662420506936,59.61185761624188,17.029232993583005,-133.06469162645874,41.174273012990454,1.5423018603708751,0.0,0.0,0.0,-1.040862334992487,-10.318075697736106,189
-72.73373645693367,69.3709316149918,16.136149863872316,130.3098688717302,44.11341877987481,59.74684578858845,16.366678558340347,-133.03040177674075,43.924273012990454,1.455573015247566,0.0,0.0,0.0,-0.7419198459331741,-10.293891694172395,190
-74.09991602173585,69.72746765360947,16.15975142468277,130.72133545150905,45.94945488834113,60.04316749239733,15.850016718347955,-132.92492798515235,46.674273012990454,1.474043020779726,0.0,0.0,0.0,-0.4117601625080317,-10.26802878380702,191
-75.23011889708658,70.94797086518592,16.68265958287818,131.2298117950278,48.00994369621365,60.08779538682167,15.38325265944439,-132.88614811234058,49.424273012990454,1.5128772193270914,0.0,0.0,0.0,-0.07980681853659341,-10.180958070467346,192
-76.51555145139747,71.0301490041455,15.973321987032756,131.5051112077037,50.49162466384463,59.93619165612237,14.526645918726434,-133.20132636799013,52.174273012990454,1.515329880834096,0.0,0.0,0.0,0.26329178111123464,-10.04601976572327,193
-78.1015206936446,70.99261658437182,15.435526583549853,131.80345622809386,53.24162466384463,61.759719681270646,13.026645918726434,-133.5981171359285,53.549757351343416,1.5777323059973924,0.0,0.0,0.0,0.6279704297268092,-9.958914495611008,194
-79.63968939417886,70.83349392619607,15.105924301346022,132.1955860015355,55.666518788322584,61.77533671396792,11.526645918726434,-133.90840808475465,50.799757351343416,1.7041149384844925,0.0,0.0,0.0,1.0004177380230068,-9.973303055780786,195
-80.88739699683755,70.72670665131267,14.725614511148429,132.5001967104094,57.54229003129323,61.69010282284718,10.587838954605157,-134.06082993060352,48.049757351343416,1.8951197917202829,0.0,0.0,0.0,1.3525699714845214,-10.023978463763411,196
-81.51732923462227,72.58804039516484,15.573373096516427,132.6849352189479,59.10368522099235,61.56612083082939,9.846391091513494,-134.34025005907733,45.299757351343416,2.085987056545282,0.0,0.0,0.0,1.6414849472309363,-10.046059984269853,197
-82.5289670242464,72.57719444914304,15.175686433903293,132.85264980110244,60.5835239780793,61.555144570469196,9.285731561242844,-134.76412262616597,42.76244004154267,2.1618131921198906,0.0,0.0,0.0,1.9206741006191081,-10.111511761934642,198
-83.3040977856327,72.58745113893633,14.779309068778261,132.9559292181456,61.85438799940421,61.45109319046903,8.621198854291155,-135.19093927633335,40.573722003140105,2.1785820141015186,0.0,0.0,0.0,2.1759392128454693,-10.189450327695956,199
-83.9687097114888,72.62578228189403,14.404117283974745,132.99017386525074,63.09280605107182,61.1430604699469,7.702093580775596,-135.66434473986828,38.31901392450478,2.135877756778969,0.0,0.0,0.0,2.388930750480762,-10.255362481017844,200
-84.52672362938974,72.63075747537734,14.062890625828578,132.97167772480088,64.27507671434651,60.78312528231581,6.658680274111297,-136.22459287372925,35.56901392450478,2.1186821289364044,0.0,0.0,0.0,2.6094732771008444,-10.329769766974012,201
-85.17645358239646,72.48652331343195,13.898550685951799,133.0007949733083,64.88394474576151,58.6100853290535,7.273197340652211,-136.77533756015995,32.81901392450478,2.0816360471988755,0.0,0.0,0.0,2.8691453090978363,-10.379295851429356,202
-85.79770537550817,72.2794865862718,13.857119260061143,133.05628482133386,65.33662164465707,58.43777729622207,6.445516868161385,-137.165971724937,33.10571116365747,2.008399985177151,0.0,0.0,0.0,3.115348166503713,-10.38583493654658,203
-86.31000452602942,72.11218721550955,13.79167072561464,132.974174529582,65.36738839478542,58.22660203459036,5.5937092765725955,-137.58462103421667,35.85571116365747,1.9604593252712443,0.0,0.0,0.0,3.328289764394407,-10.456950990626039,204
-86.55673012741511,73.64792390906982,15.29167072561464,132.95486195447,64.87273804534857,58.13563401443344,4.97117807470314,-138.0014471279539,38.60571116365747,2.004051356265523,0.0,0.0,0.0,3.525072759782541,-10.65714194326055,205
-87.26314537709787,73.1694318740447,15.775315015340919,133.04423057544125,63.73840804412592,56.15044389584655,5.964403076672797,-138.31545591939187,38.022703453760755,1.9956168873623863,0.0,0.0,0.0,3.723789092302605,-10.787726208424768,206
-88.02922220341368,72.63583893920008,16.299655602263055,133.134972029511,62.57152235091257,57.207173407928856,4.500551920943184,-138.47553994317494,40.74432286878299,1.7753178307501432,0.0,0.0,0.0,3.936084554186536,-10.804265492902823,207
-88.54388623789214,72.1867639911265,16.69238205241621,133.100554899299,61.193255560688925,54.865736086530404,5.504173715319729,-138.7387703289083,37.99432286878299,1.3701662549171436,0.0,0.0,0.0,4.136774643711723,-10.903958518388025,208
-88.1078013330607,71.81264824299518,16.862925844175937,132.91405813468933,60.787238019957755,54.41075877182062,4.261871307508762,-139.33933504492396,35.24432286878299,1.1632366860695633,0.0,0.0,0.0,4.354291157927294,-11.120638194402712,209
-87.74465178359657,71.36904085908192,17.15210837314905,132.7608521362022,59.684231549326284,53.84783492275542,3.395223607357403,-139.78149203519718,32.49432286878299,1.4071419530543876,0.0,0.0,0.0,4.566215243329848,-11.30262919143597,210
-87.85681666023305,70.91348934023485,17.52399577025233,132.595798826897,57.39173923547491,53.11073738892608,3.175392104411615,-139.99803667239084,29.744322868782987,1.796985599861902,0.0,0.0,0.0,4.758530993757422,-11.433102047452055,211
-88.02358607012633,70.41105327927123,18.01298751055404,132.40721269771623,54.89680531673267,52.20611648238752,2.8727783528317765,-140.09074012341333,26.994322868782987,1.9722712877248614,0.0,0.0,0.0,4.922136067407501,-11.627072376501523,212
-88.07093582380642,69.93307566296187,18.554011653599964,132.29963190807734,52.868063985436315,51.559347686729225,2.816818472461951,-140.23775320949665,24.244322868782987,2.109319245641999,0.0,0.0,0.0,5.030543513896429,-11.854111683334288,213
-87.73413111585616,69.67732855413242,18.812193363361803,132.0063446490853,51.131952274456026,50.82966759848467,2.5942629383451403,-140.46628431715982,21.494322868782987,2.3496299562467824,0.0,0.0,0.0,5.0665708943199,-12.103326560859815,214
-87.52697813005132,69.47985908214616,19.027040587754968,131.67843333473186,49.20998583038854,50.148749466171076,2.6090935216897897,-140.60383808368167,18.744322868782987,2.6452224425578494,0.0,0.0,0.0,5.076891917879625,-12.386501669967108,215
-87.83844621075272,69.19210327686261,19.433318664155543,131.52222417303992,47.16732893649337,49.75463277343218,3.12672625200189,-140.594440116587,15.994322868782987,2.8904879560713685,0.0,0.0,0.0,5.097815429000242,-12.582407661136557,216
-88.38632278232261,68.91998376936318,19.79692476038026,131.42854722194502,45.66569408698024,49.58466574427096,3.5899207518159892,-140.50184991406047,13.244322868782987,2.9970048082107272,0.0,0.0,0.0,5.151848456451775,-12.72829906627096,217
-88.70958749172173,68.79938557045477,19.905528129285155,131.21599924688078,44.707081462945006,49.41910194684107,3.825833160339727,-140.45125833044426,10.494322868782987,3.056411123408621,0.0,0.0,0.0,5.196814116797897,-12.751869441975803,218
-88.91352573271142,68.84130966548817,19.780577050371036,130.94685882229388,44.63959736560113,49.401414043868165,3.85328879809729,-140.50315381990396,7.744322868782987,3.0826461783503327,0.0,0.0,0.0,5.219685905549758,-12.659782359976361,219
-89.41162745011822,68.96883312494339,19.580435431602027,130.6381263263449,45.2068843424985,49.62212769551355,3.860885231173531,-140.65538401545712,4.994322868782987,3.042992210704891,0.0,0.0,0.0,5.22085792822632,-12.581384868763463,220
-90.2349100449257,69.0913798710014,19.51941903667322,130.36532140762344,46.28022930138711,47.96301294009504,5.226047831204095,-140.92976986742522,2.2443228687829873,3.021906528337276,0.0,0.0,0.0,5.159856342691738,-12.48873827031017,221
-91.10501083911196,69.1604604201665,19.49259608569732,130.1472897610376,48.84240114022673,48.29581664208014,4.359095045988727,-141.4395525334683,-0.5056771312170127,2.9640033905546046,0.0,0.0,0.0,5.1390293744137185,-12.27119860513868,222
-91.83339917230546,69.22298691403893,19.381999608444087,129.93980886005528,51.59240114022673,48.793407316112024,3.0627245048688816,-142.09979013281267,-3.2556771312170127,2.863761567101079,0.0,0.0,0.0,5.174696712775179,-11.979801992892172,223
-92.69732855973656,69.31293218792337,19.332772728922055,129.72405799324056,54.34240114022673,49.57313352382261,2.1604896484427307,-142.66315992101147,-6.005677131217013,2.8340184035922746,0.0,0.0,0.0,5.149744604052208,-11.74521407008419,224
-93.92650245771944,69.34328071468863,19.526575767940272,129.6162475272059,57.09240114022673,52.32313352382261,0.6604896484427307,-143.0167177955322,-8.755677131217013,2.893582599904305,0.0,0.0,0.0,5.055527851799677,-11.530288561433265,225
-95.4593446733822,69.4120869186997,19.837763308515125,129.69616102251152,59.84240114022673,53.4425935642715,0.03624970722519145,-143.13363108917864,-11.505677131217013,2.9143754988278086,0.0,0.0,0.0,4.8796629343030675,-11.25899481123928,226
-96.7524915822111,69.73757443049674,19.8534575881274,129.6904482335503,62.59240114022673,54.331972129358036,-0.2894605471329767,-143.3772470987029,-14.255677131217013,2.9259482215293526,0.0,0.0,0.0,4.606274124179797,-10.970625735934695,227
-98.0769683378746,68.38948068382949,18.3534575881274,129.55694720918186,65.34240114022673,55.49212898706082,-1.2257815063309727,-143.9284628424199,-17.005677131217013,2.9056610564087815,0.0,0.0,0.0,4.4081246161304195,-10.855214421377468,228
-99.11088131065694,68.78633735873609,17.986442372224133,129.57124869582825,68.09240114022673,57.97025998203971,-2.2476198836728405,-144.30286974420744,-19.755677131217013,2.877769206298646,0.0,0.0,0.0,4.21349072304021,-10.661592843713251,229
-99.9449263089838,70.93382380816438,18.999485696278825,129.55237373558606,70.84240114022673,60.20116783010977,-2.635305515076729,-144.4379118797792,-17.005677131217013,2.754707959716949,0.0,0.0,0.0,4.116193939586965,-10.371549625657876,230
-101.37225867745902,71.3204530321519,18.593185986262284,129.3995910095972,73.59240114022673,62.47787018193318,-3.0365343198434127,-144.58521913016665,-14.255677131217013,2.701560494178272,0.0,0.0,0.0,4.071400719542503,-10.111585888331145,231
-102.594248808757,71.76927122900753,18.075717813702962,129.1636191341822,76.34240114022673,64.860619190596,-3.2170218575258756,-144.65629439384728,-11.505677131217013,2.7084251991237562,0.0,0.0,0.0,4.020608887345474,-9.850791662795464,232
-103.41320048283343,72.26217151130214,17.381850572566787,128.76665531805943,79.09240114022673,67.2455872136273,-3.4839067974911546,-144.71286377443195,-8.755677131217013,2.915633532830546,0.0,0.0,0.0,4.018598013379985,-9.56820776705202,233
-104.20395985736484,72.78418025234745,16.566418451433986,128.1121009571974,81.84240114022673,69.9955872136273,-4.983906797491155,-144.7317544180626,-6.005677131217013,3.106912382610182,0.0,0.0,0.0,4.0620624148707805,-9.363554782880108,234
-104.92942026751422,73.42981548314698,15.586827451140838,127.52358854733369,84.59240114022673,72.7455872136273,-6.062955173204675,-144.51444202133098,-3.2556771312170127,3.438136936678873,0.0,0.0,0.0,4.116464793343906,-9.22094407051741,235
-105.78995279216147,72.49286750125047,14.086827451140838,126.85836825499612,87.34240114022673,75.4955872136273,-7.562955173204675,-144.10927225941043,-0.5056771312170127,3.7049099292367793,0.0,0.0,0.0,4.131158356373609,-9.098174838816059,236
-106.11326647333725,73.51892718534607,12.586827451140838,125.91314673964787,90.09240114022673,78.2455872136273,-9.062955173204674,-143.72986775219593,2.2443228687829873,3.9864278582390944,0.0,0.0,0.0,4.185506531470172,-9.047394143392987,237
-106.46176608167434,74.58186667519075,11.086827451140838,124.91206143942487,92.84240114022673,80.9955872136273,-10.562955173204674,-143.13833027310415,4.994322868782987,4.367517535123706,0.0,0.0,0.0,4.232157828901662,-8.930682782429319,238
-106.64695985090223,75.7383807363127,9.586827451140838,123.74061940869797,95.59240114022673,83.7455872136273,-12.062955173204674,-142.26353452863037,7.744322868782987,4.710547055894063,0.0,0.0,0.0,4.316199250108063,-8.709714054803289,239
-106.97513322228265,75.15868844673908,8.086827451140838,122.20881837213214,98.34240114022673,86.0748711492548,-13.562955173204674,-141.30905880765707,10.494322868782987,5.081200281263525,0.0,0.0,0.0,4.389426550749815,-8.54683480275923,240
-107.03654073137626,76.4666496382167,6.586827451140838,120.42898935217416,101.09240114022673,88.8248711492548,-15.062955173204674,-140.19047186198935,13.244322868782987,5.471310733196406,0.0,0.0,0.0,4.432012938977301,-8.523641030266727,241
-107.15272424312603,77.7069832441479,5.086827451140838,118.60260566956067,103.84240114022673,89.49466688898987,-16.562955173204674,-138.6394398117329,15.994322868782987,5.775893862364137,0.0,0.0,0.0,4.506490486823881,-8.576084699762223,242
-107.37108071220283,78.86726460525544,3.586827451140838,116.673348327508,106.59240114022673,90.35023920105442,-18.062955173204674,-136.6436868417697,18.744322868782987,6.015923432851883,0.0,0.0,0.0,4.625207070199953,-8.570316403974104,243
-107.46687034498501,80.0104574277341,2.086827451140838,114.43111214353989,107.1608470006151,89.80064516802825,-19.562955173204674,-134.19458697364257,21.494322868782987,6.141431220534302,0.0,0.0,0.0,4.695752448815572,-8.499010640220765,244
-107.54026476191976,81.05360767044473,0.586827451140838,112.0347485703353,105.76941215651057,88.94989534028556,-21.062955173204674,-131.44458697364257,24.244322868782987,6.098463660872756,0.0,0.0,0.0,4.761057261298226,-8.463718615245307,245
-107.49361087839806,80.28538616565403,-0.913172548859162,109.52978095571748,103.92136513624762,87.68548527910096,-22.562955173204674,-128.69458697364257,26.994322868782987,6.015501954437977,0.0,0.0,0.0,4.647247122109409,-8.308972709609138,246
-107.70773880511803,81.14753692581341,-2.413172548859162,106.7990502691669,101.92783813945391,86.2552631185419,-24.062955173204674,-125.94458697364257,29.744322868782987,5.6176445096914485,0.0,0.0,0.0,4.7187406036015425,-8.408489299448844,247
-107.41112963796294,81.99184213051849,-3.913172548859162,104.0490502691669,99.40954977527359,84.26551233252248,-25.562955173204674,-123.19458697364257,32.49432286878299,5.417452022059737,0.0,0.0,0.0,4.664611201731465,-8.440551807042226,248
-107.00986261644292,82.7846846558893,-5.413172548859162,101.2990502691669,96.71015512865436,81.92239617465592,-27.062955173204674,-120.44458697364257,35.24432286878299,5.077375484244327,0.0,0.0,0.0,4.596145446677743,-8.425975754333878,249
-106.50868088344419,81.77803828837355,-6.913172548859162,98.5490502691669,93.96015512865436,79.39232874287947,-28.562955173204674,-117.69458697364257,37.99432286878299,4.524869157492584,0.0,0.0,0.0,4.600433048777449,-8.367709578109398,250
-106.29894200128429,82.20426855905704,-8.413172548859162,95.7990502691669,91.21015512865436,76.8291647034026,-30.062955173204674,-114.94458697364257,39.38752710734386,4.3317309278275,0.0,0.0,0.0,4.681471853623325,-8.346093600080627,251
-105.96845321294008,82.47189851180956,-9.913172548859162,93.0490502691669,88.46015512865436,74.0791647034026,-31.562955173204674,-112.19458697364257,39.143641686589014,4.35548655098186,0.0,0.0,0.0,4.744915252867576,-8.60731790344484,252
-105.63292935645146,82.63148400088946,-10.36342042554392,90.2990502691669,85.71015512865436,71.3291647034026,-33.06295517320467,-109.44458697364257,39.182829247135736,4.30345306867721,0.0,0.0,0.0,4.7147506376435775,-8.882998112563923,253
-105.11328109572355,81.25917310246956,-11.86342042554392,87.5490502691669,82.96015512865436,68.5791647034026,-34.56295517320467,-106.69458697364257,40.83617517553097,4.171554094287271,0.0,0.0,0.0,4.738209604515824,-9.20846677639434,254
-104.9078673955256,81.14163925824455,-12.124400054223981,84.7990502691669,80.21015512865436,65.95791824143573,-36.06295517320467,-103.94458697364257,40.50924096086666,4.091596050789591,0.0,0.0,0.0,4.783076500081386,-9.731829785484315,255
-104.84142928656287,80.80138592358183,-11.830854203399877,82.0490502691669,77.46015512865436,65.57556107652493,-37.56295517320467,-101.19458697364257,38.63142230452174,3.9617627322237143,0.0,0.0,0.0,4.85720715020105,-10.315192244690031,256
-104.96169738744017,80.30714688448076,-11.44363209781545,79.2990502691669,74.71015512865436,64.51300464376979,-36.06295517320467,-98.6208823771723,36.07262751883702,3.8219287046816155,0.0,0.0,0.0,4.932896461349445,-10.921276777159855,257
-105.32835923174112,79.70668156883742,-10.971289834928745,76.5490502691669,71.96015512865436,65.25311483984581,-34.56295517320467,-100.84220664628215,33.32262751883702,3.5090695409766464,0.0,0.0,0.0,4.942085027254997,-11.58933646153664,258
-105.9364498364592,79.1147169889556,-10.516849825848773,74.44630969208134,69.21015512865436,65.07211595687579,-33.06295517320467,-103.21839338422178,30.572627518837017,3.0119189511237,0.0,0.0,0.0,4.972388137050232,-12.18879995690564,259
-106.86446287606906,79.84014813479112,-9.016849825848773,72.63143504871242,66.46015512865436,65.11127827392946,-31.56295517320467,-104.7494798057954,27.822627518837017,2.6979516363438036,0.0,0.0,0.0,5.023451864927161,-12.576605499342994,260
-107.75051488813097,79.44990141304196,-7.704642459017869,70.80919789323141,63.710155128654364,64.17324899637369,-30.06295517320467,-105.58330753929418,25.072627518837017,2.614571036353077,0.0,0.0,0.0,5.041650287689346,-12.815780815236252,261
-108.66472193094319,80.35952233544927,-6.204642459017869,68.73225301003174,60.960155128654364,65.581307812126,-28.56295517320467,-106.43396028885002,22.322627518837017,1.8982382089201932,0.0,0.0,0.0,5.0330901566585915,-12.960211056294149,262
-109.26066745284848,80.00836179209261,-5.111112180286315,66.8495475387434,58.210155128654364,65.68955286692415,-27.06295517320467,-107.7403685202187,19.572627518837017,1.4163397617385618,0.0,0.0,0.0,5.0915967650330725,-12.99894150181305,263
-109.51524546169786,79.68098887498466,-4.947581612769253,65.10525554354533,55.460155128654364,67.68870585307415,-25.56295517320467,-109.2266867337632,16.822627518837017,1.0870712706543177,0.0,0.0,0.0,5.218471215212281,-12.9312840293688,264
-109.6567874911276,80.64047322210854,-3.4475816127692527,63.48990306562188,52.710155128654364,67.79763484094195,-24.06295517320467,-109.62275615433204,14.072627518837017,0.8282929079425776,0.0,0.0,0.0,5.3557514210093045,-12.788744252571908,265
-109.42605136388886,80.67377438872279,-2.842668439376471,61.76038015642833,49.960155128654364,69.5919775534573,-22.56295517320467,-110.41245894714375,11.322627518837017,0.678072651166454,0.0,0.0,0.0,5.544446773013176,-12.625327656455386,266
-108.80857001968286,80.65709140647859,-2.957800668085813,60.251291799437844,47.210155128654364,69.51409224676969,-21.06295517320467,-111.7653058477544,8.572627518837017,0.8829189652319943,0.0,0.0,0.0,5.789353186514333,-12.393118115033623,267
-108.0272466226607,80.64400378776101,-3.094444974701924,58.96324550760735,44.460155128654364,71.21757890044798,-19.56295517320467,-112.93521313509983,5.822627518837017,1.0806714339624792,0.0,0.0,0.0,6.053222495299565,-12.231897548773553,268
-106.78698554019303,79.77346919788711,-4.594444974701924,57.66545735420558,41.710155128654364,72.75291960520819,-18.06295517320467,-114.38075949838297,3.0726275188370167,1.0669342515524598,0.0,0.0,0.0,6.2853297802864105,-12.183780252863958,269
-105.58333884617532,79.92432359365671,-5.813962032780819,56.89486280055868,38.960155128654364,74.57041765604924,-16.56295517320467,-116.1985264283284,0.3226275188370167,1.3892543150752548,0.0,0.0,0.0,6.51093943609314,-11.902869069723883,270
-104.75379236818952,81.16029792026491,-4.313962032780819,56.15887405788245,38.27530445365322,76.16681576846764,-15.06295517320467,-116.97767387462713,-2.4273724811629833,2.0421089103820895,0.0,0.0,0.0,6.69113475956593,-11.389634146499676,271
-103.32674948828108,80.6784682300983,-5.813962032780819,55.053607634168635,39.07198465483048,77.4849889847548,-13.56295517320467,-117.77491649344621,-5.177372481162983,2.6305688469743793,0.0,0.0,0.0,6.940781292894748,-11.049390312664213,272
-101.64399300973845,80.50983156989521,-6.732960881601248,55.022605465332965,40.444330801359605,78.34138954107625,-12.06295517320467,-119.18755605414543,-7.927372481162983,3.177633208173599,0.0,0.0,0.0,7.214295273565104,-10.707816185588342,273
-100.04797703143772,81.69645060784882,-5.232960881601248,55.327643812584455,42.02516440299467,79.40995001581673,-10.56295517320467,-120.57125521101777,-10.677372481162983,3.5716032295907154,0.0,0.0,0.0,7.632739569998446,-10.548658596784685,274
-97.64164112507908,81.99986019843705,-5.495513440629778,55.2069403749884,43.26144414439267,81.30521579779952,-9.06295517320467,-120.9789968315497,-7.927372481162983,4.012486959692186,0.0,0.0,0.0,7.862767607479011,-9.99678295880021,275
-95.06746999200152,82.22787464674776,-6.0944308023224885,55.10987917884349,44.45665787113385,81.22869125029055,-7.562955173204671,-121.36481488553981,-5.177372481162983,4.540190328917048,0.0,0.0,0.0,8.223862847528823,-9.594824075535012,276
-92.31746999200152,82.2662465801467,-6.729644121732861,55.69166887827723,46.184866734149224,81.78932257539785,-6.062955173204671,-122.1189920572674,-2.4273724811629833,4.946915011094068,0.0,0.0,0.0,8.685834043788551,-9.324485063199791,277
-89.56746999200152,82.2311996941541,-7.451688187493599,56.41578842679012,47.82434189545526,82.43122842600779,-4.562955173204671,-122.77320479019124,0.3226275188370167,5.332708036049623,0.0,0.0,0.0,9.174519500415911,-9.066062934019094,278
-86.81746999200152,83.04313290614755,-5.951688187493599,57.17361790971562,49.164096030894136,83.14547620253133,-3.0629551732046707,-122.90610307701061,3.0726275188370167,5.721264527364297,0.0,0.0,0.0,9.623574959327327,-8.771361228725818,279
-84.06746999200152,82.68666761650893,-6.593593295899756,58.1898646180512,50.52010372565881,83.57863729924873,-1.5629551732046707,-122.96662454858901,5.822627518837017,6.188197552622539,0.0,0.0,0.0,10.047537996209075,-8.453972528905833,280
-81.31746999200152,82.2841862133933,-7.333631865802996,59.68913128804289,51.95836230276475,83.79622693949982,-0.0629551732046707,-122.88032626051637,8.572627518837017,6.651501287761295,0.0,0.0,0.0,10.488045821335266,-8.228784202912342,281
-78.56746999200152,81.9519033620627,-8.235366052117174,61.12953334540292,52.715766612335635,82.20646536616114,1.4370448267953293,-122.81400766201621,11.322627518837017,6.979672674180165,0.0,0.0,0.0,10.965821832839715,-8.084904425567318,282
-75.81746999200152,82.80881938184501,-7.03316475375127,62.593930562407046,53.93532419723794,82.35691833127177,2.9370448267953293,-122.9523348407943,14.072627518837017,7.2326864805666915,0.0,0.0,0.0,11.399051777607673,-7.972672571934059,283
-73.06746999200152,82.67653423384763,-8.039366955014922,64.10377983641223,55.29517574470495,82.44195625095668,4.437044826795329,-123.10516377349559,16.822627518837017,7.48174423606814,0.0,0.0,0.0,11.81071934150013,-7.958204173900675,284
-70.31746999200152,83.79493337715729,-6.952488575755602,65.28459319714068,56.396334642641975,82.51812266957995,5.937044826795329,-123.19473487557659,19.572627518837017,7.7995562423824625,0.0,0.0,0.0,12.209685364576577,-7.98444302288942,285
-67.56746999200152,83.83308070761228,-7.924038878699886,66.37969344157808,57.02042955639683,82.60791423702587,7.437044826795329,-123.2636542991809,22.322627518837017,8.059264329155399,0.0,0.0,0.0,12.542849047679603,-8.04073763478309,286
-64.81746999200152,85.13847271770958,-6.755241920461047,67.47030895938899,56.993323661805086,80.85543277077838,8.93704482679533,-123.43259387745003,25.072627518837017,7.948792015029923,0.0,0.0,0.0,12.887576194900848,-8.117374242289857,287
-62.06746999200152,86.52220640648736,-5.632343678876861,68.51082161182569,57.57851420549157,80.88504977053395,10.43704482679533,-123.84120218691751,27.822627518837017,7.7919119599685995,0.0,0.0,0.0,13.307120469827437,-8.20638521015666,288
-59.31746999200152,86.67558666039773,-6.556512131555933,69.69283304630576,58.20331282802465,80.99946464775947,11.93704482679533,-124.32303176296112,30.572627518837017,7.760597789040066,0.0,0.0,0.0,13.752102534686552,-8.285028695581316,289
-56.56746999200152,88.12198005060267,-5.29445258564436,71.15779303786069,58.43602050158321,81.34749187337515,13.43704482679533,-124.48293259585205,33.32262751883702,7.780786922856645,0.0,0.0,0.0,14.130256813284186,-8.2686351631652,290
-53.81746999200152,88.06982391508983,-5.874840649547934,71.42455160562754,59.364595622694544,81.61236681183527,14.710444067921944,-125.1959538849958,36.07262751883702,8.017761919723045,0.0,0.0,0.0,14.58773502779335,-8.248816597060666,291
-51.06746999200152,87.76523053320393,-6.115878895140258,71.95096633744487,58.573665902018774,80.38844926702265,16.210444067921944,-124.82138342556358,38.82262751883702,8.530346682110151,0.0,0.0,0.0,14.8975385853509,-7.98332091965558,292
-48.31746999200152,87.86111990758536,-6.533680353703784,71.33243520444123,58.87660697399817,80.61799385692863,16.355308068271277,-124.95039784767528,41.57262751883702,9.026376194945273,0.0,0.0,0.0,15.172810972395698,-7.660483150010102,293
-45.56746999200152,87.77214143174987,-6.660884179468194,70.8821296717907,59.0864128091099,81.0374936058188,16.633047559583737,-125.10114027977846,44.32262751883702,9.70973380070097,0.0,0.0,0.0,15.317393241420737,-7.405664026761882,294
-42.81746999200152,86.37363170610782,-8.160884179468194,70.82580840121197,59.079385816716446,81.5394425014819,17.08422102376348,-125.07828335972245,47.07262751883702,10.215122610516223,0.0,0.0,0.0,15.391440329819698,-7.281247706666241,295
-40.06746999200152,86.37088811418784,-8.800621953264603,70.91059189180191,59.120285405865566,81.8739899739719,17.378401731076437,-125.08419480736273,49.82262751883702,10.256177707698347,0.0,0.0,0.0,15.44645805613052,-7.362333187849737,296
-37.31746999200152,86.63727870681194,-9.020842628998066,70.87475448617148,59.49027768303553,81.9256640746018,17.409216907096877,-125.5089058336042,52.57262751883702,10.109406811475475,0.0,0.0,0.0,15.494589489818745,-7.4442031669101265,297
-34.56746999200152,86.79453302569989,-9.17702776917233,71.20785555658398,59.69447719582321,81.99731148350388,17.443505288748923,-125.70963375349854,55.32262751883702,10.159547051015327,0.0,0.0,0.0,15.541571079495709,-7.446611894647302,298
-32.53135302890295,86.02919839815151,-10.67702776917233,71.2903221301574,60.341935220416566,81.77730924109115,17.16711627565659,-126.15879575567845,58.07262751883702,10.146990648656633,0.0,0.0,0.0,15.610126579323182,-7.351912663939232,299
-33.12551506741068,86.63959659646811,-11.991417929942992,71.22017849212165,61.19193248852487,81.397550950497,16.834662242212325,-126.76072660438368,60.82262751883702,10.113190484146756,0.0,0.0,0.0,15.608484117166482,-7.21260212413573,300
-33.97978585851437,87.19310172812683,-12.228499030479481,71.11993128924186,61.957306167141354,81.02994306684191,16.61494834784673,-127.13237308972559,63.57262751883702,10.051749037017363,0.0,0.0,0.0,15.529417077587198,-7.12545448497069,301
-34.914978385205686,87.77083494163311,-12.483108450195976,70.93651424447404,62.4777405153497,80.67292004352522,16.364422732587247,-127.33995410246888,66.32262751883701,9.807523223569358,0.0,0.0,0.0,15.458692875579231,-7.062962387910499,302
-35.7985048937038,88.46767895166806,-12.891736178886005,70.80795611483809,63.49040691253553,80.20801565450343,15.941186305194694,-128.00043401515651,69.07262751883701,9.58308880078376,0.0,0.0,0.0,15.454853367307159,-6.944712031619621,303
-37.31191875067333,88.89578745107616,-13.021078845703833,71.2403939327321,64.32241580964981,79.92663456038323,15.872535483478515,-128.30092180132254,71.82262751883701,9.508982509026723,0.0,0.0,0.0,15.343265289115916,-6.868092629631421,304
-38.4992277325525,88.16310242378061,-14.521078845703833,71.71473496459383,65.10240163860259,79.54585396332376,15.79016193153125,-128.60930742648813,74.57262751883701,9.36470416319261,0.0,0.0,0.0,15.158991851748622,-6.774329102423447,305
-39.999278933298356,88.72283469060096,-15.173841727435724,72.18286459347134,65.82124341328182,78.99380354257825,15.651559609835605,-128.93978608549205,77.32262751883701,9.349348057068536,0.0,0.0,0.0,14.870291945102641,-6.7055519571192495,306
-41.5376758487701,89.30784394034005,-15.107987834512137,72.68525933815417,66.36790853634672,78.49002772846104,15.657181050581574,-129.20586414086256,80.07262751883701,9.2470490236649,0.0,0.0,0.0,14.510253748245239,-6.592588347866741,307
-43.13526139501983,89.84836811474787,-15.050824602674128,73.0711179867953,67.1313082958393,78.0645948610918,15.715887055197827,-129.4892257741204,82.82262751883701,8.994200607043382,0.0,0.0,0.0,14.193826273967906,-6.453461468108209,308
-44.58298683902601,89.04136846396433,-16.550824602674126,73.77158589413838,68.48746970579059,79.41404326227074,14.215887055197827,-129.74479175989458,85.57262751883701,8.756614472598326,0.0,0.0,0.0,13.861331416890428,-6.445156300823168,309
-46.25924572479424,89.59646354818761,-16.90720475108606,74.694932833504,69.26535076490742,78.73522323634506,13.94536865609905,-130.21461170813382,88.32262751883701,8.424548383375134,0.0,0.0,0.0,13.499261656132653,-6.4103169975722265,310
-48.0455895782727,90.15741572157258,-16.774931911357367,75.51154148528735,69.83727522364676,78.0841514261687,13.837388204354209,-130.62054019175113,91.07262751883701,8.065704806151372,0.0,0.0,0.0,13.081900948016404,-6.270461424124994,311
-49.43790297437691,89.41174093938754,-18.274931911357367,76.07299849621964,70.64953850173376,77.41376617119313,13.748361089587164,-131.14203943289593,93.82262751883701,7.819993908311223,0.0,0.0,0.0,12.651402062532103,-6.119690605813914,312
-51.36941446343725,89.76043113870627,-18.333070250801043,76.76222528945486,71.57709358683444,76.82520024572686,13.68714068867445,-131.7225148044254,96.57262751883701,7.741540690269711,0.0,0.0,0.0,12.275550376968285,-5.970946170973326,313
-53.387240756577654,90.07346027174547,-17.98406120528944,77.51427288322736,72.31582547241445,76.28243223580374,13.747964035512473,-132.00798517326152,99.32262751883701,7.624044534520249,0.0,0.0,0.0,11.843392337593608,-6.027007260315885,314
-55.20255273788122,90.4189231290626,-17.774062580533357,78.73002909203933,73.11829147995223,75.70395678108899,13.706123551435335,-132.51723411071262,102.07262751883701,7.38242828723992,0.0,0.0,0.0,11.447089145678376,-6.035206493265812,315
-56.570355695112674,89.51607458448078,-19.274062580533357,79.83983808672195,73.83733410249201,75.03293981661601,13.607529570955883,-133.01618912920554,104.82262751883701,7.196238590436308,0.0,0.0,0.0,10.997936138498648,-6.042549532099996,316
-58.144098804502725,89.95468674921669,-19.23319898324904,80.67402800675296,74.9796731742538,76.16731113101629,12.107529570955883,-133.54045175266666,107.57262751883701,6.9316744526836205,0.0,0.0,0.0,10.49318029601121,-5.983509253560485,317
-59.2659025615484,88.93656847633879,-20.73319898324904,81.5107275756457,75.8171567740248,75.51188395838705,11.790744996435834,-133.95599380412406,110.32262751883701,6.68947860709592,0.0,0.0,0.0,10.070879433079833,-5.848119349001217,318
-60.977518401983076,89.16738682435086,-20.648294205857518,82.53435446549842,76.70610848962302,74.89843392437182,11.643554965044526,-134.26664500683313,113.07262751883701,6.56289860215608,0.0,0.0,0.0,9.69826575625448,-5.706481738320565,319
-62.46299370434848,89.41423276981652,-20.408534725494555,83.49913101715333,77.60562217391461,74.24784483539585,11.440176410087371,-134.63858391731478,115.82262751883701,6.507399540827113,0.0,0.0,0.0,9.323591887519136,-5.579642304428172,320
-63.727605787733296,89.6909602811869,-20.190281393368746,84.35054567302971,78.8117144023194,75.464166348176,9.940176410087371,-135.07847639242752,118.57262751883701,6.444191293611825,0.0,0.0,0.0,8.939682751789226,-5.4860935504167,321
-64.54813728119666,88.56532161622657,-21.690281393368746,85.39026437726993,79.79343476417071,74.71321010554651,9.305220520539079,-135.54178452489768,121.32262751883701,6.3183568665950745,0.0,0.0,0.0,8.546997392490685,-5.348683581873875,322
-65.89744069087845,88.7578749594391,-21.616770161386412,86.4295946539989,80.96320312631507,73.93599910518225,8.959911200537269,-135.9135787909026,124.07262751883701,6.1333083632421195,0.0,0.0,0.0,8.145040093803937,-5.204607479538511,323
-67.0532226023115,88.98290475596829,-21.365173269152855,87.36726168064824,82.50179772427094,75.06518167962385,7.4599112005372685,-136.32440002726983,126.82262751883701,6.003379589384375,0.0,0.0,0.0,7.7323379917443535,-5.089473977657448,324
-67.60729114564938,87.766494014773,-22.865173269152855,88.34377462405028,84.06249106146014,74.32805553143518,6.752034326730499,-137.0972163165513,128.1522564267613,5.93543511594351,0.0,0.0,0.0,7.361520708583587,-4.87518421753339,325
-69.0465532836246,87.6030029936711,-22.651341306318916,89.63514729816909,86.11429348588946,75.69186436824494,5.252034326730499,-137.83762117160998,130.9022564267613,5.871068335862773,0.0,0.0,0.0,7.064932970875296,-4.5629396730104,326
-70.7547390566273,87.23665980509728,-22.098968225221682,91.34839921098045,87.53097267793322,75.22908801291152,5.054060842710149,-138.0217487111772,132.5687459709092,5.847807490158486,0.0,0.0,0.0,6.740019959228293,-4.328994863406686,327
-71.9241211385506,87.25866056635031,-21.799967340124613,92.80469961161593,88.77719939193749,74.53626412200627,4.745154010957891,-138.044427624508,130.7137081614422,5.8187564662668345,0.0,0.0,0.0,6.358198441216833,-4.171825931806325,328
-72.62680012811566,87.57034443966178,-21.774249655784985,93.75413242069534,90.50015352273051,75.60029680760255,3.245154010957891,-138.51712953037344,129.10374115056518,5.86468911003318,0.0,0.0,0.0,6.035050389078524,-3.9988799172450116,329
-73.36187221034037,87.67009513658219,-21.664106348629684,94.67621886456826,92.22573184010047,74.91714635015664,2.0983464768948856,-139.16168633621282,129.37845196686644,5.901798068941245,0.0,0.0,0.0,5.796120551895642,-3.8534671269722054,330
-73.79391081010264,87.59745070372067,-21.365610352911332,95.56843821971447,93.85807581420231,76.35448504226686,0.5983464768948856,-139.67715379578593,129.7437092097536,5.838859682293288,0.0,0.0,0.0,5.498499962039966,-3.795988584467513,331
-73.05512378873027,86.08389895038185,-22.865610352911332,96.34462471484923,95.38113282940563,75.81579378570555,0.2510155804198069,-139.80104527413343,130.85747085302765,5.76867322426589,0.0,0.0,0.0,5.194503827212765,-3.5080725103852117,332
-73.88229618548758,87.53229699757054,-21.365610352911332,97.12142310918739,96.61401262540889,77.1851941791289,-1.2489844195801931,-140.17652827250814,131.42331558081582,6.013435187242412,0.0,0.0,0.0,4.895325610627891,-3.25007707934718,333
-74.62449765388209,87.24244149766224,-20.302598333855855,98.275727587819,97.49266009488447,76.64795346538247,-1.7852137977649907,-140.81437054838852,131.69849173838608,6.147965734523729,0.0,0.0,0.0,4.5464181465375795,-3.2839453748064638,334
-74.42249785194394,85.42992739839372,-21.617712956099968,99.64830498783698,98.40759322757475,78.00467749368805,-3.2852137977649907,-140.93550517214027,134.073668858917,5.951818038123323,0.0,0.0,0.0,4.19213455702963,-3.1775388539109573,335
-74.81416202927004,85.1591404048387,-21.282627238474966,100.81474556993395,99.34152369720854,77.40775168394593,-4.1103745652233945,-141.36904604843835,135.21201372663108,5.932472666225106,0.0,0.0,0.0,4.005429282186002,-3.011674841779673,336
-75.83123636972589,86.29325447975981,-19.782627238474966,102.26647460834293,99.9493751288727,78.82630444332895,-5.6103745652233945,-141.74455144577902,135.80257464298245,5.957689775734216,0.0,0.0,0.0,3.8861677001065935,-2.806425085546847,337
-76.12443747003148,85.97881762183884,-18.759523008250028,103.5057859920746,100.57250346414109,78.18310022944583,-6.831669240379053,-142.12965377524765,135.9894355144455,6.013934166882092,0.0,0.0,0.0,3.7358100851357516,-2.651403115758571,338
-76.58315266009394,85.59154924491747,-18.33373744146427,104.58970445587147,100.7060196710746,77.57946461673919,-7.595068129991436,-142.81448068802493,136.05380879014987,5.988183868464196,0.0,0.0,0.0,3.6031562671214448,-2.651011065942857,339
-77.09180426446967,85.08895839631745,-17.800950004512472,106.14078927688419,100.70896302497101,77.02675884049994,-8.256882335616629,-143.17064412795128,137.4482532813344,5.7677678694155095,0.0,0.0,0.0,3.4465247105724988,-2.610951954188673,340
-77.44290919348825,84.73749977092173,-17.41514053250501,107.60067739910838,101.15648771365112,76.30053367757968,-9.18997849252864,-143.5011701007456,138.38889213476813,5.616921903801603,0.0,0.0,0.0,3.307380933434588,-2.4959677746674775,341
-77.85069318032748,84.42248833296573,-17.072510404073856,108.86857347435298,101.65819159519647,75.52118198115502,-10.265786661147134,-144.0805431684427,138.08738447735703,5.604054481331133,0.0,0.0,0.0,3.2013735578674143,-2.4279093558043865,342
-78.43644820947009,83.96427390800015,-16.584869843819657,110.28653086891714,101.58396506457586,74.82142435401333,-11.273007247908078,-144.6629725179519,137.61197005922054,5.465075762001522,0.0,0.0,0.0,3.099062942176813,-2.4250380137889302,343
-78.72990007557797,83.53093854905376,-16.15734107863467,111.63467694433336,101.45560031209048,76.00641250096679,-12.773007247908078,-145.10094988476055,137.61667728961476,5.161619548540139,0.0,0.0,0.0,3.0333930052712144,-2.454479676781748,344
-78.93060836539516,83.06021551048612,-15.744707627683484,112.89685123278002,101.82595166680255,75.26329218005523,-14.273007247908078,-145.55263672740406,135.05533942570236,4.992084450666193,0.0,0.0,0.0,3.0257641118386234,-2.491836796720254,345
-79.45786296591712,82.43311072236195,-15.193221401437714,114.26538819195217,102.13060819238811,72.76691705370285,-14.615411221387772,-146.1544461702687,132.30533942570236,4.923764784893618,0.0,0.0,0.0,3.05631613585334,-2.482876994867071,346
-80.60362458620162,83.48335094264498,-13.693221401437714,115.78205208266895,101.86493204503512,72.31136776962475,-15.43948304715911,-146.6384005236584,129.55533942570236,4.774948870439988,0.0,0.0,0.0,3.0762115509616645,-2.482070331247693,347
-81.19826297553651,82.92335856157398,-12.274005877405049,117.14982950004648,102.12096467570696,71.88672277558207,-16.119211091523752,-147.06465528358703,127.84052729379691,4.555347766145696,0.0,0.0,0.0,3.05823519227157,-2.499250993101039,348
-81.85717664443588,82.33003601118797,-11.683259674353897,118.48362888953311,102.35466662947897,71.59839207691275,-16.635443546395912,-147.4553555744025,126.77775573017449,4.328694701378678,0.0,0.0,0.0,3.0894085588068587,-2.513109211719707,349
-82.58427423363835,81.62444211080226,-11.076151416842983,119.93097322579747,102.49280178773763,71.45562956139347,-17.06543365153607,-147.71939891653415,125.2075295410512,4.027971723058086,0.0,0.0,0.0,3.2240889571323934,-2.5618498003488237,350
-83.25831944893818,80.84388715089888,-10.4302443914323,121.31019664392616,102.49119496666917,71.49999304179997,-17.25448393511426,-147.97513498569768,122.4575295410512,3.648780400193178,0.0,0.0,0.0,3.4153388848566184,-2.603424169162746,351
-83.70218126993028,80.1397433074533,-9.813134539059924,122.42335073600334,102.88373264236702,71.66915396846412,-17.131206576369298,-148.19865939671516,119.7075295410512,3.2737640309599243,0.0,0.0,0.0,3.5733678262312902,-2.596572083955761,352
-84.25342129337344,79.43063090555516,-9.191735235697477,123.52736767685423,104.08843135517343,70.1275681602088,-15.631206576369298,-148.34042051693487,116.9575295410512,2.955796839806723,0.0,0.0,0.0,3.7518100689147746,-2.5594312638681145,353
-84.89089749776575,78.68640690233423,-8.609973521240999,124.63381997884628,104.69135314694167,70.63829574492672,-14.862915455160305,-148.39570892274457,114.2075295410512,2.633273679793035,0.0,0.0,0.0,4.012201907099262,-2.482870100945163,354
-85.41010753211354,77.9877648717313,-8.07444541946519,125.59439370119308,105.64904896557182,71.1491146884792,-14.194549257848035,-148.50315883389106,111.4575295410512,2.3902617913694257,0.0,0.0,0.0,4.27491421120368,-2.336407885842648,355
-85.88277541582578,77.28674804126042,-7.556702990352644,126.46583086347663,106.98434191673978,71.67858608738533,-13.46918903702847,-148.6340452276793,108.7075295410512,2.304163785728129,0.0,0.0,0.0,4.563091775220342,-2.173274610349141,356
-86.94624244761135,78.39078687635788,-6.056702990352644,127.40527332741465,107.73009364227913,72.37298715788941,-12.524270948274182,-148.71831668204175,105.9575295410512,2.383427888051902,0.0,0.0,0.0,4.857522085501979,-2.0389890379250515,357
-87.60409682255049,77.66097489264784,-4.808051679422671,128.34783852897095,108.70454729817537,73.1271601316814,-11.502207600738833,-148.6624267987542,103.2075295410512,2.416245578811833,0.0,0.0,0.0,5.186991235551943,-1.8868022820680612,358
-88.10564313402048,77.00802504235571,-4.355646075329039,129.12537095899785,109.8104974792017,73.8820216383068,-10.451386110761193,-148.62109624971885,100.4575295410512,2.569368993640027,0.0,0.0,0.0,5.517069624143045,-1.710130633100979,359
-88.8811712237883,76.34200962162024,-3.8275209224610895,129.80656252695604,110.61461918990523,74.75223131240156,-9.226693575383186,-148.58098653696388,97.7075295410512,2.771352581655701,0.0,0.0,0.0,5.831834546158719,-1.588655633862534,360
-89.55895516125203,75.6762078620581,-3.3111759578817375,130.46728832246453,111.53044107454119,75.58792989137395,-8.067667958995182,-148.43121152222028,94.9575295410512,2.959649586743899,0.0,0.0,0.0,6.159212105143153,-1.4710934205340171,361
-90.15200225351303,75.04793125897433,-2.89143987758973,131.101083508261,112.40973615497184,76.3872661335575,-7.017857518278776,-148.23423904341456,92.2075295410512,3.3329134691529223,0.0,0.0,0.0,6.525567800259433,-1.319391853931073,362
-90.86812173739538,74.42720785029402,-2.467801484097044,131.65103574300778,112.97330405548026,77.19143488424055,-6.015999010326509,-148.13471425387456,89.4575295410512,3.7515286060564064,0.0,0.0,0.0,6.901165091139943,-1.108072053743653,363
-91.39524608677834,73.87225664413063,-2.0831815055163494,132.15386593422,113.72684736812063,77.84317969677836,-5.176744544659776,-147.90555163330512,86.7075295410512,4.024087212883132,0.0,0.0,0.0,7.230515521009779,-0.8728139102298214,364
-91.93849623692273,73.45060900669965,-1.7982301265942833,132.58109343472145,114.47444693570604,78.29136689865359,-4.6004127351769455,-147.65291164410033,83.9575295410512,4.269467331803676,0.0,0.0,0.0,7.507010494211279,-0.6806578170249677,365
-92.61627257036774,73.10725465770376,-1.557592688508208,132.87263349818167,115.11465523183264,78.60849109532701,-4.205050420857039,-147.61466491762945,81.2075295410512,4.527567089190994,0.0,0.0,0.0,7.754965759954911,-0.5266474406801255,366
-92.9654002805555,72.74888993455241,-1.335813063086762,132.99976375451283,116.14655490782334,78.80137970746921,-3.898664541198041,-147.63888670281983,78.4575295410512,4.684530416839158,0.0,0.0,0.0,7.998340748861008,-0.3348754837989521,367
-93.42306061027385,72.28741560674,-0.9371628927601905,133.22070197697863,116.85161808720048,80.7772271485735,-5.268421223075611,-147.50745186074036,75.7075295410512,4.8128521152271055,0.0,0.0,0.0,8.231021511966583,-0.0810901626400463,368
-94.25514618110157,71.90605587925921,-0.5317483648101395,133.48537216651306,117.32536926417215,80.53282030183853,-5.71624744597976,-147.46791547249066,72.9575295410512,5.020624454988899,0.0,0.0,0.0,8.426779665883586,0.01796389385486953,369
-94.89594000532115,71.70214481959206,-0.34156045611539776,133.59763275938812,118.03196032662852,79.96353658845332,-6.567786441621923,-147.6497644087594,70.2075295410512,5.233809276025637,0.0,0.0,0.0,8.580430209909997,-0.04865516583111967,370
-94.98058657557192,71.62247333233569,-0.3553362663028652,133.5276473660644,118.93493735479956,80.98723088097526,-8.067786441621923,-147.8285599199022,67.4575295410512,5.346912979084678,0.0,0.0,0.0,8.686368099574581,-0.03789183874459792,371
-95.07401281418795,71.57779852814089,-0.3890013342462931,133.38582428063665,120.06388841633967,79.82458223664658,-9.567786441621923,-147.96495414974657,64.7075295410512,5.432752919882375,0.0,0.0,0.0,8.77041864391591,0.0414835690613486,372
-95.42238821966318,71.52543320258026,-0.373145950862516,133.1793834455917,120.70251983756624,80.11069755146319,-11.067786441621923,-148.1455573388499,61.9575295410512,5.467164842153984,0.0,0.0,0.0,8.857675253387079,0.06111602273109618,373
-95.66350296428863,69.56089731804485,-1.873145950862516,133.0029732429151,121.6105187434387,79.46911057584909,-12.567786441621923,-148.26257444713693,59.2075295410512,5.4290537535674614,0.0,0.0,0.0,8.962772477335864,0.09521906025639129,374
-95.82608014356668,69.59118788465622,-2.0577927174889608,132.84798476677415,121.76285856592537,80.15576526180185,-14.067786441621923,-148.31135687721837,56.4575295410512,5.425729212343347,0.0,0.0,0.0,9.09199097690152,0.21759417215033142,375
-96.13113857812034,69.70743274290795,-2.2832493986522073,132.65688624541787,122.23329478172938,78.92406353042112,-15.567786441621923,-148.35781355858265,53.7075295410512,5.4482606681986185,0.0,0.0,0.0,9.187526686564272,0.23027563921138175,376
-96.37607627192031,69.87982730575605,-2.553190857971609,132.48711505694445,122.65924456418395,77.38217826193878,-17.067786441621923,-148.25780279786508,50.9575295410512,5.472045222155648,0.0,0.0,0.0,9.251212587405028,0.1886629702707436,377
-96.54041262279873,70.15793191892013,-2.973321736617325,132.3133512848618,123.12001979996617,75.54586404267624,-18.567786441621923,-147.90546981371787,48.2075295410512,5.558240784776752,0.0,0.0,0.0,9.311253946361543,0.1958380926369922,378
-96.52669617767684,68.61991680267711,-4.473321736617325,132.0067075070839,122.40317473127772,74.97667633892658,-20.067786441621923,-147.50868906535612,45.4575295410512,5.648615051298173,0.0,0.0,0.0,9.376383558780645,0.17154691021818189,379
-96.72295596409059,68.94472451072478,-5.533605493879984,131.70102739724757,122.88018055825451,72.6349900333304,-21.567786441621923,-147.0501471827023,42.7075295410512,5.763353327726923,0.0,0.0,0.0,9.444418132835388,0.11518929618560045,380
-97.09504653481675,69.116170100717,-5.781123628877322,131.46500033177253,123.0507172659504,70.2236197072381,-23.067786441621923,-146.28043587199915,39.9575295410512,5.966807076673052,0.0,0.0,0.0,9.520641275643266,-0.008627689895553164,381
-97.35189678633948,69.19142272543876,-5.911759453071436,131.33323802132907,122.96199104312404,67.92279853854984,-24.567786441621923,-145.17399278783353,37.2075295410512,6.1707030648702155,0.0,0.0,0.0,9.589080229356503,-0.16779355353235292,382
-97.50693885210988,67.2777231628709,-7.411759453071436,131.25963224903208,122.64763913461401,65.4808031794056,-26.067786441621923,-143.92420988009147,34.4575295410512,6.38152584976631,0.0,0.0,0.0,9.678877068238618,-0.2542178289193088,383
-98.17668708542273,67.19603669649295,-7.324082027298992,131.22802073270998,121.80856463532199,62.7308031794056,-27.567786441621923,-142.26078000546116,31.7075295410512,6.6488962886908105,0.0,0.0,0.0,9.746320811498078,-0.34185035145987774,384
-98.84312600689925,67.09430901046642,-7.132289515330244,131.23002092480638,121.56763426751058,59.9808031794056,-29.067786441621923,-139.90023070755143,28.9575295410512,6.922636240827828,0.0,0.0,0.0,9.813603852459243,-0.5631694680376108,385
-99.31953812396576,67.0832842089406,-7.054273426927528,131.0309062357717,121.09236427869753,57.2308031794056,-30.567786441621923,-137.15023070755143,26.2075295410512,7.202397773852208,0.0,0.0,0.0,9.84299830961941,-0.9257190426510024,386
-99.78384453567284,67.14938297371934,-7.07285266832064,130.60955642701202,120.51208908130101,54.4808031794056,-32.06778644162192,-134.40023070755143,23.4575295410512,7.508855475587112,0.0,0.0,0.0,9.866258021028296,-1.2979197770291826,387
-100.25977446621694,67.03230821943241,-6.6916563535116556,130.49455441475357,119.67734983766636,51.7308031794056,-33.56778644162192,-131.65023070755143,20.7075295410512,7.673930820196071,0.0,0.0,0.0,9.749300302052982,-1.612607263749513,388
-100.56439675971808,65.04574705764487,-7.820853495400562,130.3272278447926,118.18341333757456,48.9808031794056,-35.06778644162192,-128.90023070755143,17.9575295410512,7.5708721000280885,0.0,0.0,0.0,9.548850399606462,-1.8113373129911121,389
-100.6792542754739,65.02732671916371,-7.539758332296261,129.995703625127,115.43341333757456,46.2308031794056,-36.56778644162192,-126.15023070755143,15.207529541051201,7.459192538496207,0.0,0.0,0.0,9.332906747544179,-2.0362951348552714,390
-100.3075673692292,65.01577698513745,-7.3179017912589766,129.7838192665267,112.68341333757456,43.4808031794056,-38.06778644162192,-123.40023070755143,12.457529541051201,7.487794320801836,0.0,0.0,0.0,9.076014768732216,-2.309812829761206,391
-100.6140507126382,65.08316310631335,-7.04422009887206,129.6337994192787,109.93341333757456,40.7308031794056,-39.56778644162192,-120.65023070755143,9.707529541051201,7.553413125500411,0.0,0.0,0.0,8.800788079543999,-2.5347861242652736,392
-101.11143253247187,65.39590392847714,-7.070670935211185,129.21373421731107,107.18341333757456,37.9808031794056,-41.06778644162192,-117.90023070755143,6.957529541051201,7.626264570619977,0.0,0.0,0.0,8.529032867981886,-2.8400630790626686,393
-101.26029976026426,63.8742806094695,-8.570670935211185,128.6553742083796,104.43341333757456,35.2308031794056,-42.56778644162192,-115.15023070755143,4.207529541051201,7.710850712517077,0.0,0.0,0.0,8.224000656215376,-3.137975860753622,394
-101.66579486267257,64.02871177489651,-8.5142133172115,128.3724121458559,101.68341333757456,32.4808031794056,-42.77834766915344,-112.40023070755143,1.4575295410512012,7.743878545394894,0.0,0.0,0.0,7.8716964963713405,-3.250342953625501,395
-101.97713903180379,64.35657235089018,-8.507008142820855,128.08103706856528,98.93341333757456,29.730803179405598,-41.27834766915344,-109.65023070755143,-1.2924704589487988,7.69697224302854,0.0,0.0,0.0,7.507849659040411,-3.3149816548823265,396
-102.34663510713136,64.72101317187462,-8.511253917594171,127.94655684442246,96.18341333757456,26.980803179405598,-39.77834766915344,-106.90023070755143,-4.042470458948799,7.75156477468595,0.0,0.0,0.0,7.117081123574458,-3.443221247118667,397
-102.58586904358667,65.12138718400608,-8.42761546834517,127.74121995116239,93.43341333757456,24.230803179405598,-38.27834766915344,-104.15023070755143,-6.792470458948799,7.783151618492155,0.0,0.0,0.0,6.571005845051664,-3.5576876722258657,398
-102.59417147027459,63.70508489239339,-9.92761546834517,127.54882148314847,90.68341333757456,21.480803179405598,-36.77834766915344,-101.40023070755143,-9.542470458948799,7.641251059092358,0.0,0.0,0.0,5.927493601706187,-3.667461189560692,399
-102.84283474266375,64.24803749014231,-10.005640274595148,127.49277776059276,87.93341333757456,23.71628686211046,-35.27834766915344,-98.65023070755143,-11.862550411290739,7.444663984577251,0.0,0.0,0.0,5.333056900636192,-3.893389519812544,400
-102.60815932060224,64.94190073765546,-10.404962361180932,127.13683905615778,85.18341333757456,26.215035681155285,-33.77834766915344,-95.90023070755143,-10.535704149858338,7.415581140975164,0.0,0.0,0.0,4.812197752602398,-4.179449406155445,401
-101.82111467428845,63.71633957988847,-11.904962361180932,126.62151621512766,82.43341333757456,27.97217540061533,-32.27834766915344,-93.15023070755143,-8.732891369610044,7.553061642895421,0.0,0.0,0.0,4.3487092764290685,-4.464190734982774,402
-101.6281462688135,64.14538475584762,-12.61178945266764,126.36229316710742,79.68341333757456,30.13473988451963,-30.77834766915344,-90.40023070755143,-9.10058102670839,7.702091339448569,0.0,0.0,0.0,3.931511826608055,-4.741084201723118,403
-101.51728146842731,64.43623638147119,-12.541984235215343,126.31025388847229,76.93341333757456,32.7429192565973,-29.27834766915344,-87.65023070755143,-11.247216565114796,7.829043648967531,0.0,0.0,0.0,3.495638854026692,-5.055369265524968,404
-101.40538083749482,64.7629095822218,-12.510753412144403,126.58370675688526,74.18341333757456,35.4929192565973,-27.77834766915344,-84.90023070755143,-13.997216565114796,7.900123324100146,0.0,0.0,0.0,3.0632836780326236,-5.261586280186472,405
-100.80322411154128,63.509497199964976,-14.010753412144403,126.81041692093805,71.43341333757456,38.2429192565973,-26.27834766915344,-82.15023070755143,-16.148817741534103,7.840727862550369,0.0,0.0,0.0,2.6405834354419593,-5.3658543772752045,406
-100.71228976879702,64.07800920411559,-14.765361561670588,126.82174545971938,68.68341333757456,40.9929192565973,-24.77834766915344,-84.58170132199787,-16.332480012389492,7.69015389873043,0.0,0.0,0.0,2.1634780920512453,-5.58346424823295,407
-100.86180507518067,64.2894606551128,-14.451682331583717,127.215434785144,65.93341333757456,43.7429192565973,-23.27834766915344,-87.33170132199787,-16.920509618544116,7.546540920640709,0.0,0.0,0.0,1.6236937356850867,-5.89652945256233,408
-101.06622931999682,64.32063945634914,-13.852249687031176,127.8563016441748,63.183413337574564,46.4929192565973,-21.77834766915344,-90.08170132199787,-18.175430892450294,7.425439796115713,0.0,0.0,0.0,1.0462706178995882,-6.16116362968431,409
-100.95709904728771,64.43640848599482,-13.287197632133486,128.36490973980327,60.433413337574564,49.2429192565973,-20.27834766915344,-92.83170132199787,-19.55008618786528,7.276165564530905,0.0,0.0,0.0,0.39945547802142845,-6.364883269948487,410
-100.61603633579233,64.58065823908692,-12.767148186296934,128.79978030387767,57.683413337574564,51.9929192565973,-18.77834766915344,-95.58170132199787,-22.168721666766192,6.925406490897729,0.0,0.0,0.0,-0.22781191393830696,-6.50955645624748,411
-99.96916474166612,64.65367166879922,-12.28355534721946,129.2934051064083,54.933413337574564,54.7429192565973,-17.27834766915344,-98.33170132199787,-24.918721666766192,6.445203555443922,0.0,0.0,0.0,-0.7132920232727412,-6.610484936998105,412
-98.78826642238045,64.80973817418557,-11.882567200008923,129.70540910082002,52.183413337574564,57.4929192565973,-15.77834766915344,-101.08170132199787,-26.59535257003043,5.981600976398177,0.0,0.0,0.0,-1.1968889334933623,-6.616048887540086,413
-96.68980934040849,63.22056161468381,-13.259701504866495,129.8640259799679,49.75875805630471,60.2429192565973,-14.27834766915344,-103.83170132199787,-26.84717045394888,5.469788184949094,0.0,0.0,0.0,-1.7061974129905355,-6.598972913914191,414
-94.90066229612894,63.39619413251682,-12.85684786152513,129.98481890141244,51.850105620155404,62.9929192565973,-12.77834766915344,-106.58170132199787,-27.6540732441833,5.007648430536936,0.0,0.0,0.0,-2.146523453864521,-6.689008020311227,415
