JMW9912/AVATAR/Dynamixel/dynamixel_control/data/csv/poppy/.data/waist_test/2DoF (2P+Ori)/0429_2054_13_29_2DoF_Ori_bvh_motor_degree.csv
theta1,theta2,theta3,theta4,theta5,theta6,theta7,theta8,theta9,theta10,theta11,theta12,theta13,theta14,theta15,frame
-95.92251261320826,22.132478196172787,94.39553488464352,28.29882286208972,-72.60190495432178,6.351773528956599,-91.24522972932667,-28.29882286208971,9.061519176957306,4.005673455057678,0.0,0.0,0.0,0.7360967837554498,2.805176613553338,0
-98.67251261320826,24.882478196172787,92.89553488464352,28.298822862089697,-69.85190495432178,9.101773528956599,-89.74522972932667,-31.04882286208971,6.311519176957306,4.617043621591048,0.0,0.0,0.0,1.361414638279404,1.8051766135533376,1
-95.92251261320826,27.632478196172787,91.39553488464352,28.298822862089697,-67.10190495432178,11.851773528956599,-88.24522972932667,-33.79882286208971,3.5615191769573062,7.367043621591048,0.0,0.0,0.0,1.3361708641701675,0.8051766135533374,2
-93.17251261320826,30.382478196172787,89.89553488464352,28.298822862089747,-64.35190495432178,14.601773528956599,-86.74522972932667,-36.54882286208971,0.8115191769573062,8.666636299472684,0.0,0.0,0.0,1.3462034182658575,-0.19482338644666286,3
-90.42251261320826,33.132478196172784,88.39553488464352,28.29882286208985,-61.60190495432178,17.3517735289566,-85.24522972932667,-38.68361938112914,-1.9384808230426938,8.628202924547388,0.0,0.0,0.0,1.3833357503991257,-1.194823386446663,4
-87.67251261320826,35.882478196172784,86.89553488464352,28.298822862089825,-58.85190495432178,20.1017735289566,-83.74522972932667,-39.578631384821946,-4.688480823042694,8.710639177596983,0.0,0.0,0.0,1.3794970383468919,-2.1948233864466635,5
-84.92251261320826,38.632478196172784,85.39553488464352,28.298822862089647,-56.10190495432178,22.8517735289566,-82.24522972932667,-40.43382366445546,-7.438480823042694,8.823014553449129,0.0,0.0,0.0,1.3506890022250635,-3.1948233864466635,6
-84.23408026034906,41.382478196172784,83.89553488464352,28.298822862089697,-53.35190495432178,25.6017735289566,-80.74522972932667,-41.502732722875685,-10.188480823042694,8.88598723052779,0.0,0.0,0.0,1.338815744403687,-4.1948233864466635,7
-83.46633288247955,44.132478196172784,82.39553488464352,28.29882286208972,-50.60190495432178,28.3517735289566,-79.24522972932667,-42.6694704232381,-12.46918757175682,8.947488628499228,0.0,0.0,0.0,1.3277188661853045,-5.1948233864466635,8
-83.11397705942726,46.882478196172784,80.89553488464352,28.298822862089697,-47.85190495432178,31.1017735289566,-77.74522972932667,-43.86139907791757,-12.470813694971474,8.995336176786838,0.0,0.0,0.0,1.3157621850579866,-5.470637220380606,9
-82.38024501263494,49.632478196172784,79.39553488464352,28.29882286208972,-45.10190495432178,33.8517735289566,-76.24522972932667,-45.0249302393243,-12.583089295342447,8.96716189912016,0.0,0.0,0.0,1.2946109290096108,-5.348400401762458,10
-82.15365796987291,52.382478196172784,77.89553488464352,28.29882286208962,-42.35190495432178,36.6017735289566,-74.74522972932667,-45.99706852977244,-12.94389766327707,8.978806450882086,0.0,0.0,0.0,1.295067712317957,-5.219242929110471,11
-81.93501572002964,54.65832814388524,76.39553488464352,28.298822862089697,-39.60190495432178,39.3517735289566,-73.24522972932667,-46.74221827069084,-13.353562734721894,9.083990806347373,0.0,0.0,0.0,1.2883148965858813,-5.094902733071812,12
-81.22692157841247,53.278974483835825,74.89553488464352,28.29882286208985,-36.85190495432178,42.1017735289566,-71.74522972932667,-47.67383900560087,-13.305169242796566,9.102909245207224,0.0,0.0,0.0,1.2817062569946474,-4.933402824919779,13
-81.24316501924292,51.7848336967004,73.39553488464352,28.88948694933785,-34.10190495432178,44.47179850760825,-70.24522972932667,-48.694227412066375,-13.38535543966503,8.972022550374437,0.0,0.0,0.0,1.2685753327699276,-4.739813104525831,14
-81.61922358695905,50.58459378635375,71.89553488464352,30.32103671897573,-31.351904954321782,43.73927688848745,-68.74522972932667,-49.68208799149166,-13.620928906933155,8.823428835608,0.0,0.0,0.0,1.2390609302738826,-4.5943185442826815,15
-81.42880434592861,49.78343679934066,70.39553488464352,31.751607340953683,-28.601904954321782,42.33594888479555,-67.24522972932667,-50.57862034736795,-13.8521014774757,8.7475046225293,0.0,0.0,0.0,1.2536511784982276,-4.500847969761327,16
-81.8349642346408,48.635092603956224,68.89553488464352,33.16500686636421,-25.851904954321782,40.85956471792168,-65.74522972932667,-51.31896502501979,-14.092557942912531,8.68775173068751,0.0,0.0,0.0,1.2741367800633214,-4.327650508092063,17
-81.42572740273494,47.828955068276706,67.39553488464352,34.24985095657645,-23.101904954321782,40.21967691776736,-64.24522972932667,-52.252558773170485,-14.56366972370671,8.511226118445885,0.0,0.0,0.0,1.2831361871893276,-4.135227478171128,18
-81.60935354727195,46.610863949575695,65.89553488464352,35.27599126000098,-20.351904954321782,39.028754859381955,-62.74522972932667,-53.246965367942316,-14.88392301889123,8.356513061508155,0.0,0.0,0.0,1.2680922034790458,-4.045054600334565,19
-81.79736196987515,45.43288277379232,64.39553488464352,36.41970071141605,-17.601904954321782,37.78405254731739,-61.24522972932667,-54.15884865688284,-15.022575887737096,8.274481031424061,0.0,0.0,0.0,1.2821823153722727,-3.963477527152311,20
-81.25586890251155,44.727563043562775,62.895534884643524,37.541471502937746,-14.851904954321782,37.26577563221426,-59.74522972932667,-55.092507453038344,-15.367566637842282,8.112258167817034,0.0,0.0,0.0,1.312198380958165,-3.8721204106588756,21
-81.3660465206434,43.6204984105063,61.395534884643524,38.6085970799442,-12.101904954321782,36.027344508082265,-58.24522972932667,-56.05720475579903,-15.951319075096533,7.946024744820099,0.0,0.0,0.0,1.3147236973389036,-3.7278190164210208,22
-81.46967586308814,42.57231765238725,59.895534884643524,39.751674981523294,-9.351904954321782,35.477853420291694,-56.74522972932667,-56.96650674190283,-16.497442302596756,7.77314607113155,0.0,0.0,0.0,1.3275675862191318,-3.5815594685598073,23
-80.50619113527996,41.89309160706048,58.395534884643524,40.60515827352827,-6.601904954321782,34.32886665880933,-55.24522972932667,-58.02033472494648,-16.627424346511333,7.619361500265504,0.0,0.0,0.0,1.3366710920122384,-3.4865653925358724,24
-80.35759052777453,40.65189222460958,56.895534884643524,41.452018179848366,-3.851904954321782,33.201561758459356,-53.74522972932667,-58.94913557944836,-17.053707349205805,7.540179877881854,0.0,0.0,0.0,1.33864906582879,-3.3732616505050785,25
-80.32878875643488,39.43633740595749,55.395534884643524,42.45302357041569,-1.1019049543217818,32.05364072988347,-52.24522972932667,-59.800679282934176,-17.319085964706876,7.4481353062974405,0.0,0.0,0.0,1.373875536677061,-3.2663352542036974,26
-79.28133809759986,38.712201314681764,55.90647276883556,43.27269601699699,1.6480950456782182,31.631021656448784,-50.74522972932667,-60.839917593674166,-17.195692018651904,7.287099560208916,0.0,0.0,0.0,1.369355404320629,-3.1528194819304347,27
-79.26982465767043,37.43306683266814,55.614161336527616,44.0399121070511,4.398095045678218,30.403346838072995,-49.24522972932667,-61.803469577796385,-17.619429551988958,7.099324496833215,0.0,0.0,0.0,1.3550456720454418,-3.003382618508628,28
-79.1352415731706,36.04154756732694,55.171058274258506,44.712265594668146,7.148095045678218,29.23468651104712,-47.74522972932667,-62.76138743781347,-18.522027300190285,6.894453942338002,0.0,0.0,0.0,1.396453693734625,-2.8224900997189097,29
-77.57313952155977,35.06493235072628,55.80246009880324,45.468588586790744,9.898095045678218,28.153907394795418,-46.24522972932667,-63.763443221568615,-19.88032340388695,6.686252132726002,0.0,0.0,0.0,1.4504685940245325,-2.677098279175114,30
-77.34299260705743,33.643254867768896,55.280837352746104,46.21023538519793,12.648095045678218,26.863624866523054,-44.74522972932667,-64.73874747539672,-20.96569020048667,6.459438288344402,0.0,0.0,0.0,1.4737177147784655,-2.537580886371485,31
-76.2688976999022,32.52921703738553,55.84500746180541,46.820872104275,15.398095045678218,26.244722627285167,-43.24522972932667,-65.46653268260452,-21.64236302531435,6.269306265817703,0.0,0.0,0.0,1.4929620942673143,-2.3351562702931385,32
-75.62120846675901,30.990345462299814,55.30798008049553,47.346388593023505,18.148095045678218,24.780667834005662,-41.74522972932667,-66.122076116004,-22.591014198024652,6.104169556952577,0.0,0.0,0.0,1.5254768128580234,-2.14008974784209,33
-74.92180315300833,29.399499631246595,54.74625059359153,47.90058032998901,20.898095045678218,23.340510065920157,-40.24522972932667,-66.87829042950833,-23.488520102820427,5.920856656717509,0.0,0.0,0.0,1.5611709720476281,-1.953016577732724,34
-73.81631982358743,27.766624497411858,53.75312816640817,48.42127937487802,23.648095045678218,21.85123926268802,-38.74522972932667,-67.70203536513034,-24.52638076850505,5.751259724417958,0.0,0.0,0.0,1.588721277134989,-1.760028995887614,35
-72.49726185435703,26.052166511948435,52.55362016445056,48.99613672101154,26.398095045678218,20.341076388145414,-37.24522972932667,-68.30918359402604,-26.065957668937646,5.633095435286749,0.0,0.0,0.0,1.6378948804269744,-1.5572287648997027,36
-70.85293611776248,24.344201948537343,51.05362016445056,49.51251797062173,29.148095045678218,18.82743964421934,-35.74522972932667,-68.84747691982106,-27.202017312371943,5.53049204369306,0.0,0.0,0.0,1.701619672577833,-1.3638333611978923,37
-68.10293611776248,23.185634802277264,49.768372626376845,50.03574004282288,31.898095045678218,17.359704229957654,-34.24522972932667,-69.39474975694245,-28.72235705181391,5.423858734669132,0.0,0.0,0.0,1.7701087689480615,-1.2095180607572327,38
-65.35293611776248,21.47973147759368,48.268372626376845,50.679269219481036,34.64809504567822,17.141207881632624,-32.74522972932667,-69.8208727496606,-30.44497591329235,5.292489108815601,0.0,0.0,0.0,1.816913187666426,-1.0708268008828186,39
-62.72721538642875,19.836838102130812,46.768372626376845,51.43926972056852,37.39809504567822,16.02962515473685,-31.245229729326667,-70.19210796974,-31.09591843453745,5.201889884732195,0.0,0.0,0.0,1.8447112179734984,-0.9134249964191601,40
-59.97721538642875,18.266482491962957,45.268372626376845,52.203529581790974,40.14809504567822,16.295277498437553,-29.745229729326667,-70.73410741376954,-31.622142840252714,5.1408943574115336,0.0,0.0,0.0,1.8599805171837638,-0.734340120400606,41
-57.22721538642875,16.77629836753663,43.768372626376845,52.957643042761724,37.48173015137051,15.481405670531776,-28.245229729326667,-71.35422636223021,-33.42435969305968,5.05255089714379,0.0,0.0,0.0,1.855883714959616,-0.5680683490385646,42
-54.47721538642875,16.166650834358496,42.268372626376845,53.75865044203692,34.73173015137051,14.922836818588932,-26.745229729326667,-71.89120635055068,-35.31498198278093,4.975766459275706,0.0,0.0,0.0,1.8054557023584612,-0.4717434476078936,43
-51.72721538642875,15.00546710531395,40.768372626376845,54.67920375397457,31.981730151370513,14.442192263709389,-25.245229729326667,-72.54515088158847,-35.56006241352098,5.001802894577079,0.0,0.0,0.0,1.7694094471569342,-0.3446401992769444,44
-48.97721538642875,14.075194876689016,39.268372626376845,55.646904136025604,29.231730151370513,15.49313128589901,-23.745229729326667,-73.20817034453533,-35.50967686643462,5.030524353362173,0.0,0.0,0.0,1.691562947989082,-0.21076431034992318,45
-46.22721538642875,13.351806701363731,37.768372626376845,56.73977504558354,26.481730151370513,15.925767572827523,-22.245229729326667,-73.88515382726621,-35.50508260337109,5.023884994756116,0.0,0.0,0.0,1.5733866364312332,-0.15428880268547307,46
-43.47721538642875,13.278275181401856,36.268372626376845,57.891542132394584,23.731730151370513,16.706332929322993,-20.745229729326667,-74.58598592213549,-34.92319105696306,5.0879811161082555,0.0,0.0,0.0,1.476534174351217,-0.09508464211885649,47
-40.72721538642875,12.742605589075918,34.768372626376845,59.0183716926273,20.981730151370513,17.610980547413618,-19.245229729326667,-75.3900941900318,-34.69695384835532,5.083929810564797,0.0,0.0,0.0,1.381935008668121,-0.036561325705879104,48
-37.97721538642875,13.46793291368974,33.268372626376845,60.19030261994974,18.231730151370513,18.750468218867375,-17.745229729326667,-76.17462452434631,-34.715273091241606,5.00632932819315,0.0,0.0,0.0,1.2566979116496921,0.03148578740966504,49
-35.22721538642875,13.435757054274863,31.768372626376845,61.43581354021432,15.481730151370513,18.875777230558324,-16.245229729326667,-77.0036138021036,-34.6889718783683,5.0347298518416395,0.0,0.0,0.0,1.175758465647008,0.12850409982434255,50
-32.47721538642875,14.699323726486998,30.268372626376845,62.76150368866793,12.731730151370513,20.22252215388479,-14.745229729326667,-77.91592036423903,-33.66206580024317,5.108315845693553,0.0,0.0,0.0,1.131694768421426,0.21448228339279202,51
-29.727215386428753,15.016995267277943,28.768372626376845,64.14039104036847,9.981730151370513,21.708262278554603,-13.245229729326667,-78.76972919047208,-32.70028146157499,5.131377489205503,0.0,0.0,0.0,1.1074388155888883,0.30740667541197236,52
-26.977215386428753,16.50197970923581,27.268372626376845,65.67438401358402,7.231730151370513,23.437812300348423,-11.745229729326667,-79.40069223543875,-32.54913845203668,5.052336187152862,0.0,0.0,0.0,1.0146142459607348,0.3818822212516877,53
-24.227215386428753,17.231590945776997,25.768372626376845,67.04200301583958,4.481730151370513,25.070117226798864,-10.245229729326667,-80.15557679987963,-32.992758099909516,5.045168401787686,0.0,0.0,0.0,0.9260668583898223,0.4385921976524772,54
-21.477215386428753,19.14579537369539,24.268372626376845,68.25790470092501,1.7317301513705132,25.711191335998816,-8.745229729326667,-80.98055294166159,-33.1999187163915,5.115606819849663,0.0,0.0,0.0,0.9000384904701174,0.49584670644804874,55
-18.727215386428753,20.10232542465429,22.768372626376845,69.43986175135345,-1.0182698486294868,27.438884890370264,-7.245229729326667,-81.80778673572954,-32.77129311578598,5.194241466412222,0.0,0.0,0.0,0.8937649361780275,0.5320961753478931,56
-15.977215386428753,21.094897576411935,21.268372626376845,70.74745582589927,-3.7682698486294868,29.253986071300808,-5.745229729326667,-82.6009502101294,-32.09949541308454,5.214441362788529,0.0,0.0,0.0,0.8257670216748179,0.5317415859343841,57
-13.227215386428753,23.104070974976636,19.768372626376845,72.15308689238994,-6.518269848629487,31.104115115978225,-4.245229729326667,-83.37081593111844,-32.281903882579954,5.24244974290444,0.0,0.0,0.0,0.7326086758350823,0.5006848986333218,58
-10.477215386428753,24.331984470781816,18.268372626376845,73.53722714929513,-9.268269848629487,31.896646223488897,-2.7452297293266668,-84.300077674559,-33.27376067631572,5.308305870492311,0.0,0.0,0.0,0.6716963791938423,0.40321064105293597,59
-7.727215386428753,25.486977745452652,16.768372626376845,74.98963464022978,-12.018269848629487,33.63377843709953,-1.2452297293266668,-85.35405238160068,-33.585014424443216,5.432072904706074,0.0,0.0,0.0,0.6157795272258243,0.27370024466765486,60
-4.977215386428753,27.33901267759119,15.268372626376845,76.55826745260084,-14.768269848629487,34.793563685607175,0.25477027067333324,-86.38842442639115,-32.42187820834085,5.534955504564224,0.0,0.0,0.0,0.5408731641422787,0.13520069815277938,61
-2.227215386428753,28.365054986147094,13.768372626376845,78.14567945101251,-17.518269848629487,35.85058760272938,1.7547702706733332,-87.53532473434173,-30.554977529039313,5.654146733538386,0.0,0.0,0.0,0.47295507321760005,-0.01807725338345666,62
0.5227846135712468,29.317659785020492,12.268372626376845,79.83845844014556,-20.268269848629487,36.841774137265965,3.2547702706733332,-88.66332392321718,-29.908011393700477,5.77925446508765,0.0,0.0,0.0,0.41873054675240057,-0.15940821440283226,63
3.272784613571247,30.273195480149894,10.768372626376845,81.52968845640976,-23.018269848629487,37.68858575352674,4.754770270673333,-89.77547635220647,-30.17457306020464,5.876114137768977,0.0,0.0,0.0,0.3349487893111902,-0.2847579095984731,64
6.022784613571247,32.0802808349762,9.268372626376845,83.04821186537912,-25.768269848629487,38.38233250446772,6.254770270673333,-90.94515145540467,-30.15607695542541,5.909990636148288,0.0,0.0,0.0,0.265905300258601,-0.3614915989567595,65
8.772784613571247,32.94977425316575,7.768372626376845,84.49571939056995,-28.518269848629487,38.96330150264664,7.754770270673333,-92.21886757852133,-29.946035135945294,5.939296731337356,0.0,0.0,0.0,0.24715672439005856,-0.34100577543585314,66
11.522784613571247,33.62976548242965,6.268372626376845,85.93508792315643,-31.268269848629487,39.58800719029535,9.254770270673333,-93.32400479285734,-29.55344447533611,5.924896311601979,0.0,0.0,0.0,0.1902968952775645,-0.212802027923587,67
14.272784613571247,34.2403579542677,4.768372626376845,87.21129669952707,-34.01826984862949,40.14366956027481,10.754770270673333,-94.30806403499246,-29.593611502931896,5.7443139773018155,0.0,0.0,0.0,0.11643779445585248,-0.008713234312771134,68
17.022784613571247,34.73311141024853,3.268372626376845,88.31347657691786,-36.76826984862949,40.669156750521786,12.254770270673333,-95.04383096645043,-30.43846997903658,5.409214205272277,0.0,0.0,0.0,0.050045041821254736,0.21995225363750248,69
19.772784613571247,35.286987867355556,1.768372626376845,89.19937780456524,-39.51826984862949,40.99954772988339,13.754770270673333,-95.66763413810011,-32.004264938259674,5.121903591241763,0.0,0.0,0.0,0.0030434451218232794,0.47935473602202716,70
22.522784613571247,35.70486971908688,0.2683726263768449,89.8770285210447,-42.26826984862949,41.19239204650078,15.254770270673333,-96.16980371787093,-33.55363253715376,4.876909016342523,0.0,0.0,0.0,-0.003302222355922942,0.6960233242144139,71
25.272784613571247,35.90506839927341,-1.231627373623155,90.39966095825156,-44.05397106109048,40.39277188906887,16.754770270673333,-96.41914619907473,-33.819940963789286,4.613605610935471,0.0,0.0,0.0,-0.05938312584922185,0.9233722153130719,72
28.022784613571247,36.025567847626846,-2.731627373623155,90.60149712197405,-43.428786753877695,40.34456159265398,18.254770270673333,-96.56833060305247,-35.101336722643644,4.254781639293286,0.0,0.0,0.0,-0.13254383801682362,1.1788435662129937,73
30.772784613571247,35.88860401084637,-4.231627373623155,90.66580041790864,-42.62242237931036,40.14080782048922,19.754770270673333,-96.65511200607993,-37.544326246749634,3.7995545252045724,0.0,0.0,0.0,-0.22375998757979346,1.4535598060253054,74
33.52278461357125,34.75296584228593,-5.731627373623155,90.6373945062564,-43.84988398487982,38.949687428241006,21.254770270673333,-96.53172128855613,-40.24968787295936,3.395765764392772,0.0,0.0,0.0,-0.32930239495109603,1.7373434366924656,75
36.27278461357125,34.27283588874751,-7.231627373623155,90.29654160597015,-42.9131601606515,38.376823885778386,22.754770270673333,-96.35805481299663,-42.99968787295936,3.0654814696222634,0.0,0.0,0.0,-0.4092875618790298,2.025395365821456,76
39.02278461357125,33.5274197418669,-8.731627373623155,89.84375743059678,-41.95927927858174,37.73054988865484,24.254770270673333,-96.00508235611112,-45.74968787295936,2.7520788018318347,0.0,0.0,0.0,-0.5047432905468621,2.2760736430374013,77
40.225979762040325,32.58686553662635,-10.231627373623155,89.3388338498487,-40.82172149062103,36.878888096313815,25.754770270673333,-95.48367097771774,-48.49968787295936,2.4561785245310745,0.0,0.0,0.0,-0.6230929953836388,2.482586808745225,78
38.76206887931513,31.52457691881885,-11.731627373623155,88.58569346899296,-41.978169042743396,34.97305703536137,27.254770270673333,-94.98624753006374,-51.24968787295936,2.2089935207592943,0.0,0.0,0.0,-0.7301503578383555,2.645625643252828,79
37.218947931593384,30.262149757331244,-13.231627373623155,87.6706113813417,-40.87352111274868,33.754506528500656,28.754770270673333,-94.42959596228204,-53.99968787295936,2.078432241483697,0.0,0.0,0.0,-0.8311992851456953,2.815942109780883,80
35.41537015955743,28.755806329116375,-14.731627373623155,86.61273668755103,-39.802192235592166,32.58101642031336,30.254770270673333,-93.61939349653775,-55.01410747971443,1.9472528801320022,0.0,0.0,0.0,-0.9650578453252394,3.0368473153114004,81
33.422176231160115,27.171214725989852,-16.231627373623155,85.37272939272019,-38.41300631130275,31.22070292233879,31.754770270673333,-92.75094460346769,-57.76410747971443,1.8361626718360229,0.0,0.0,0.0,-1.1023204727967306,3.2101023195951797,82
30.672176231160115,26.0701953474813,-17.731627373623155,83.9748874688428,-39.55829330318587,28.773333900093963,33.25477027067333,-92.04128485228128,-60.51410747971443,1.806390848969268,0.0,0.0,0.0,-1.2205374736053078,3.319440114649409,83
29.258453106435834,24.08237270009915,-19.231627373623155,82.41092790573998,-37.851558289162334,26.911951517771413,34.75477027067333,-91.33878199627698,-63.26410747971443,1.776694358132592,0.0,0.0,0.0,-1.308950741404914,3.4462355866883367,84
26.508453106435834,22.976855792807484,-20.731627373623155,80.7476903040388,-35.86335254847462,25.121924843338466,36.25477027067333,-90.44178312305013,-66.01410747971443,1.7339415485547744,0.0,0.0,0.0,-1.4017150726853114,3.559069966873012,85
23.758453106435834,20.985412866574194,-22.231627373623155,78.981253461351,-34.70550222147653,22.985209444915462,37.75477027067333,-89.56044538384262,-68.76410747971443,1.7086887884655344,0.0,0.0,0.0,-1.4849533439859426,3.6171785992327807,86
21.008453106435834,19.841203175521144,-23.731627373623155,77.27379734717013,-31.95550222147653,21.681683145157653,39.25477027067333,-88.57680575598766,-71.51410747971443,1.6890887343173087,0.0,0.0,0.0,-1.5295142154536587,3.664990825451775,87
18.258453106435834,17.739558262868997,-25.231627373623155,75.529453574298,-29.20550222147653,19.673193599293093,40.75477027067333,-87.4523295642856,-70.88846471703825,1.709890068985995,0.0,0.0,0.0,-1.578372459307708,3.7069490716936815,88
15.508453106435834,16.882745091554362,-26.731627373623155,73.53614871922552,-26.45550222147653,17.648933890227053,42.25477027067333,-86.32219280624221,-69.56870158843329,1.720486935156568,0.0,0.0,0.0,-1.6087406196255505,3.743743738309838,89
12.758453106435834,15.069883997482261,-28.231627373623155,71.58979287884571,-23.70550222147653,16.668806315272704,43.75477027067333,-85.03265019959586,-68.01850742170926,1.7334292473494126,0.0,0.0,0.0,-1.6389208727436322,3.7238781345434235,90
10.008453106435834,14.488366693125089,-26.731627373623155,69.80130850935284,-20.95550222147653,14.719540109002686,42.25477027067333,-83.73348932099249,-65.26850742170926,1.8552982504327988,0.0,0.0,0.0,-1.6768464010855864,3.6240312056687523,91
7.258453106435834,12.918544322034096,-25.231627373623155,68.14470373860121,-18.20550222147653,12.868262856744346,40.75477027067333,-82.46273810016301,-62.51850742170926,1.9528495737708167,0.0,0.0,0.0,-1.6858483625062466,3.521092085866681,92
4.508453106435834,12.738646316606202,-23.731627373623155,66.58422152507866,-15.455502221476529,11.266025146501812,39.25477027067333,-81.16878015198743,-59.76850742170926,2.015451627554027,0.0,0.0,0.0,-1.6456001877009132,3.4950926399972007,93
1.7584531064358337,12.924750488541184,-22.231627373623155,65.25468922950402,-12.705502221476529,11.356024675260011,37.75477027067333,-79.80302666768007,-57.01850742170926,2.1140990256468686,0.0,0.0,0.0,-1.5775286011661214,3.4325603260752375,94
-0.9915468935641663,12.519124059328165,-20.731627373623155,64.02313236296338,-9.955502221476529,10.607138382248484,36.25477027067333,-78.44313661972218,-54.26850742170926,2.3270670736259356,0.0,0.0,0.0,-1.5337228131867222,3.244264194251441,95
-3.7415468935641663,13.621736342754664,-19.231627373623155,62.86039726281445,-7.205502221476529,10.575644932743618,34.75477027067333,-77.12188345005579,-51.51850742170926,2.6383045960610354,0.0,0.0,0.0,-1.4754463540843656,3.0494004841763314,96
-6.491546893564166,14.300208011635188,-17.731627373623155,61.862169949461546,-4.455502221476529,11.250410834179297,33.25477027067333,-75.75956921295798,-48.76850742170926,2.935323623523981,0.0,0.0,0.0,-1.3828124705143117,2.8377298862820224,97
-9.241546893564166,15.68179058402523,-16.231627373623155,61.16878249888848,-1.7055022214765287,12.558798390902549,31.754770270673333,-74.34270690728249,-46.01850742170926,3.216362095037284,0.0,0.0,0.0,-1.2831232318086498,2.615181072951797,98
-11.991546893564166,17.508356839737726,-14.731627373623155,60.61173609831246,1.0444977785234713,14.223582024651483,30.254770270673333,-72.99815221996472,-43.26850742170926,3.47428948127581,0.0,0.0,0.0,-1.158293908804339,2.3800765344977246,99
-14.741546893564166,19.637350016810377,-13.231627373623155,60.10298808346713,3.7944977785234713,16.17366846930948,28.754770270673333,-71.67192512583011,-40.51850742170926,3.7990897852698198,0.0,0.0,0.0,-0.9827638034975544,2.067553654748186,100
-17.491546893564166,21.974663862529052,-11.731627373623155,59.678759912652794,6.544497778523471,18.285350764187335,27.254770270673333,-70.26328682339215,-37.76850742170926,4.207134276555701,0.0,0.0,0.0,-0.7683711427987737,1.7360891441878168,101
-20.241546893564166,24.377457417029873,-10.231627373623155,59.22716514659852,9.294497778523471,20.464451703769925,25.754770270673333,-68.76825123371418,-35.01850742170926,4.5846535436277565,0.0,0.0,0.0,-0.5536411816015293,1.4630742735240125,102
-22.991546893564166,26.786549682606697,-8.731627373623155,58.69844082757376,12.044497778523471,22.7437443880977,24.254770270673333,-67.21887785358251,-32.26850742170926,4.996384273155956,0.0,0.0,0.0,-0.34330713525761225,1.1796371043953697,103
-25.741546893564166,28.796371213952717,-7.231627373623155,58.25898971999762,14.794497778523471,25.4937443880977,22.754770270673333,-65.65267615827901,-29.51850742170926,5.523583980918872,0.0,0.0,0.0,-0.15269695548202247,0.8475606008099994,104
-28.491546893564166,31.229206166551407,-5.731627373623155,57.8212255342423,17.54449777852347,28.2437443880977,21.254770270673333,-64.19893122742744,-26.76850742170926,6.026928641561768,0.0,0.0,0.0,0.04826977025885416,0.5401447108859876,105
-31.241546893564166,33.93423861891404,-4.231627373623155,57.319019801518515,20.29449777852347,30.84051773333138,19.754770270673333,-62.6879014346947,-24.01850742170926,6.426748521420209,0.0,0.0,0.0,0.22725588830162916,0.2346155381616872,106
-33.99154689356416,36.14740099556605,-2.731627373623155,56.80305696541778,23.04449777852347,33.29921872443647,18.254770270673333,-61.21451880897943,-21.921659872173873,6.767269900084737,0.0,0.0,0.0,0.3541342970109015,-0.052919350180263204,107
-36.74154689356416,38.67065156865162,-1.231627373623155,56.15981984587209,25.79449777852347,35.79376197879782,16.754770270673333,-59.791839716642976,-21.085472153904313,7.09180568011338,0.0,0.0,0.0,0.40542685224157904,-0.33629124989219294,108
-39.49154689356416,41.137039471244826,0.2683726263768449,55.46683983966293,28.54449777852347,38.47206208323396,15.254770270673333,-58.42368837938217,-20.45384653488797,7.428086946280166,0.0,0.0,0.0,0.43692869771716936,-0.6533343138839682,109
-42.24154689356416,43.174087268653196,1.768372626376845,54.82500966377681,31.29449777852347,40.67095969153003,13.754770270673333,-57.20348741108839,-19.67466922133685,7.713366367172551,0.0,0.0,0.0,0.45078111418786426,-0.8861059361113948,110
-44.99154689356416,45.624691726659734,3.268372626376845,54.282156576922425,34.04449777852347,43.42095969153003,12.254770270673333,-55.99763689419977,-19.359989865790595,7.916115476659601,0.0,0.0,0.0,0.478834932052486,-1.1051453428201201,111
-47.74154689356416,48.13595427929854,4.768372626376845,53.591082907470266,36.79449777852347,45.99321247070662,10.754770270673333,-54.807434721417145,-18.73081720765404,8.061002548609068,0.0,0.0,0.0,0.47532453728575524,-1.4000818938899642,112
-50.49154689356416,50.57020024847323,6.268372626376845,52.751845512342136,39.54449777852347,48.51692411164229,9.254770270673333,-53.763684859549635,-17.61092174323184,8.282909789992654,0.0,0.0,0.0,0.4383810102939303,-1.6894884533652443,113
-53.24154689356416,52.55603160984652,7.768372626376845,51.98279852516893,42.29449777852347,50.663429441212706,7.754770270673333,-52.91219156263983,-16.56423658299287,8.555948853878284,0.0,0.0,0.0,0.3695097661031073,-1.9302567072599497,114
-55.99154689356416,54.91629445351499,9.268372626376845,51.21892953321888,45.04449777852347,53.413429441212706,6.254770270673333,-52.2531775143027,-15.732788996810793,8.732669580894152,0.0,0.0,0.0,0.24525665629767163,-2.1393100053870775,115
-58.74154689356416,57.29493748151457,10.768372626376845,50.52981767927343,47.79449777852347,55.68587967482344,4.754770270673333,-51.580212477239286,-15.16233469265091,8.80858182962957,0.0,0.0,0.0,0.16450503187640128,-2.378025597967406,116
-61.49154689356416,59.772355989396715,12.268372626376845,49.87288365336835,50.54449777852347,58.3327139334356,3.2547702706733332,-50.942829853534455,-14.299646115548077,8.919534066911588,0.0,0.0,0.0,0.07441844786632765,-2.633503960354685,117
-64.24154689356416,61.8386306296261,13.768372626376845,49.180825857792875,53.29449777852347,60.86509475605759,1.7547702706733332,-50.29706257542784,-13.291329379462846,9.109056357923823,0.0,0.0,0.0,-0.10921646051885389,-2.905449970192381,118
-66.99154689356416,64.32878361342581,15.268372626376845,48.53484827441479,56.04449777852347,62.82880256225826,0.25477027067333324,-49.555117911788045,-12.520296356431466,9.343761256104665,0.0,0.0,0.0,-0.35204422011006015,-3.238899927149029,119
-69.74154689356416,66.8681349564304,16.768372626376845,47.806160665459046,58.79449777852347,65.212912659042,-1.2452297293266668,-48.85082131185636,-11.772925622515025,9.594154752152331,0.0,0.0,0.0,-0.6210742811702021,-3.5556682242908804,120
-72.49154689356416,68.955871342161,18.268372626376845,46.92932252195599,61.54449777852347,67.57826345239275,-2.7452297293266668,-48.270609887653954,-11.018159105155956,9.799316277874293,0.0,0.0,0.0,-0.9211855908019533,-3.8538396615467194,121
-75.24154689356416,71.46771707622283,19.768372626376845,45.987486088812965,64.29449777852346,69.43112408691645,-4.245229729326667,-47.77984215515324,-10.346033778809428,10.01361641727184,0.0,0.0,0.0,-1.2346295767420092,-4.21078541759049,122
-77.99154689356416,73.96576548870121,21.268372626376845,44.88497127353131,67.04449777852346,71.74319351605537,-5.745229729326667,-47.35166597519419,-9.568112126953933,10.331699876329397,0.0,0.0,0.0,-1.532733057638642,-4.612235942208676,123
-80.74154689356416,76.0259421497195,22.768372626376845,43.63329274217006,69.79449777852346,73.97652895425698,-7.245229729326667,-46.964535384368304,-9.15297009995499,10.613753527462126,0.0,0.0,0.0,-1.8079705706981506,-4.995758431997786,124
-83.49154689356416,78.51463133653402,24.268372626376845,42.25755672770289,72.54449777852346,76.11102675422799,-8.745229729326667,-46.45033644088266,-8.862022920309084,10.805061841330224,0.0,0.0,0.0,-2.0933620307684175,-5.361147771441774,125
-86.24154689356416,80.42523475606039,25.768372626376845,40.48921972464271,75.29449777852346,77.51669899180511,-10.245229729326667,-45.90456874801434,-8.012908324245547,11.01978050441709,0.0,0.0,0.0,-2.3328065969063796,-5.681077806771447,126
-88.59040923651085,82.56822821892702,27.268372626376845,38.30107836677851,78.04449777852346,79.34042198190633,-11.745229729326667,-45.32999257637132,-7.085046367811578,11.268175395266127,0.0,0.0,0.0,-2.4280331434090523,-5.948957147514007,127
-87.85553648791873,83.92259930406966,28.768372626376845,35.55107836677851,80.79449777852346,81.08436858619947,-13.245229729326667,-44.763581455774855,-6.307254183158166,11.505020099412256,0.0,0.0,0.0,-2.4374480392572555,-6.222306387551424,128
-86.49227402971741,85.421217784765,30.268372626376845,32.80107836677851,83.54449777852346,82.60460264868081,-14.745229729326667,-43.85112051021054,-5.762069259089879,11.765494564228161,0.0,0.0,0.0,-2.364389137843839,-6.427203745834486,129
-85.47379536184499,86.28802120914978,31.768372626376845,30.051078366778512,86.29449777852346,83.89540840324352,-16.245229729326667,-42.74833014853419,-5.5171416576449,11.951521885305185,0.0,0.0,0.0,-2.210534944559769,-6.469899045620071,130
-85.78512845155136,88.2061829570571,33.268372626376845,28.298822862089697,89.04449777852346,85.09025350934687,-17.745229729326667,-41.877614538031075,-5.13315759435374,11.977739963012885,0.0,0.0,0.0,-2.0954353934896983,-6.456629404838747,131
-86.22442481640802,89.79397508407047,34.768372626376845,28.298822862089697,91.79449777852346,86.19460190476262,-19.245229729326667,-41.02976751372565,-5.739918224731155,12.080474403301869,0.0,0.0,0.0,-2.0741860709571167,-6.49253723232961,132
-86.4855424106886,90.9433864143289,36.268372626376845,28.29882286208985,93.11971307537036,87.61889486475405,-20.745229729326667,-39.804786634454715,-5.554670477024786,12.057539731978911,0.0,0.0,0.0,-2.0417715914128536,-6.5113320099455505,133
-86.23670447472568,92.17719163347172,37.768372626376845,28.298822862089647,92.52948592379335,88.3428145908583,-22.245229729326667,-38.4282951436646,-5.951502079695308,12.184385523477996,0.0,0.0,0.0,-1.937731045490661,-6.555423010030054,134
-85.81723788959144,93.19096373328402,38.02168036521048,28.298822862089697,92.40035333960024,88.91401278492839,-23.745229729326667,-40.15276226162858,-6.451351227008074,12.401053382482903,0.0,0.0,0.0,-1.8267308102077238,-6.565386817963717,135
-85.51438635004448,93.8826661926522,37.894740132968835,28.298822862089697,91.88835403016665,89.41331774851027,-25.245229729326667,-40.02823094565884,-6.455123785468851,12.449183647552628,0.0,0.0,0.0,-1.7700709940459822,-6.448623238868637,136
-85.38114864035846,94.26315639283304,37.821062239592216,28.298822862089672,91.43889340407516,89.78217917698393,-26.745229729326667,-39.85722221453827,-6.655226827251887,12.451791704439325,0.0,0.0,0.0,-1.7289322985069504,-6.3235906848382175,137
-84.82831874170788,94.69340148463662,39.321062239592216,28.29882286208962,91.07124506834589,90.03827797337941,-28.245229729326667,-39.89943565075436,-6.447295809056546,12.389753139196857,0.0,0.0,0.0,-1.62430948154094,-6.228106167689765,138
-84.56138008693317,94.425146359872,40.20053708180774,28.298822862089747,90.69032024051701,90.11865397298678,-29.745229729326667,-40.088692174868775,-6.688922554709808,12.427072222058532,0.0,0.0,0.0,-1.498674817894435,-6.096581856617964,139
-84.37392992123634,93.9579373377319,40.25778260882183,28.298822862089697,90.37115645931283,89.87418910081281,-31.245229729326667,-40.37779103847841,-6.516201589043427,12.368906601381868,0.0,0.0,0.0,-1.3968956816389864,-5.937039576954209,140
-84.22496347937165,93.206488014306,40.370759873056414,28.298822862089875,90.10187359486581,89.6654947729143,-32.74522972932667,-41.2560859127453,-6.354724504690533,12.321099229899923,0.0,0.0,0.0,-1.3277345192764027,-5.742966244393161,141
-83.66515538058435,92.55643415710972,41.870759873056414,28.298822862089697,89.95254221818735,89.20816185265726,-34.24522972932667,-41.97420865315955,-6.635389443138446,12.24749378053215,0.0,0.0,0.0,-1.2804453578199524,-5.526920005558304,142
-83.49427298561976,91.28163340877812,43.09917981676538,28.298822862089594,89.8326342948478,88.51848333890725,-35.74522972932667,-42.61885740089501,-7.206203686899543,12.10707575199999,0.0,0.0,0.0,-1.1856260966852854,-5.252272436785771,143
-83.43653683670273,89.85828134980001,43.30622819572986,28.298822862089672,89.58951923912045,87.47043685412744,-37.24522972932667,-43.11101030225393,-7.276834085925463,11.889866801608862,0.0,0.0,0.0,-1.086019464919733,-5.014753991168301,144
-83.1091158824409,88.43225552442861,44.30545642955408,28.29882286208985,89.32642763742874,86.21579219966756,-38.74522972932667,-43.64133156941289,-6.979357452833382,11.712858848587803,0.0,0.0,0.0,-0.9971117935663197,-4.845664679015533,145
-82.79101318792692,86.61507092923713,44.11338768092904,28.298822862089672,88.6596013358419,85.47477110084994,-40.24522972932667,-44.343995112053214,-7.091417767162101,11.591998645799139,0.0,0.0,0.0,-0.8387993338659683,-4.6504685626622635,146
-82.16409774358064,85.03731272077823,45.61338768092904,28.298822862089747,88.6617049602807,84.00780699862516,-41.74522972932667,-45.11891810801337,-7.327001402973455,11.443533465882766,0.0,0.0,0.0,-0.6693491417383977,-4.4065545173036735,147
-81.98163053807477,82.9917536525662,45.95669967567983,28.29882286208962,88.61156603000074,82.31603676140024,-43.24522972932667,-45.72086060779619,-7.453680297159979,11.168496596443337,0.0,0.0,0.0,-0.5344428477553245,-4.1644045069475535,148
-81.32400291821322,81.25740158771305,47.45669967567983,28.29882286208972,88.65474881908446,80.48290832914462,-44.74522972932667,-46.407266023645306,-7.475458996216948,10.833139617779041,0.0,0.0,0.0,-0.4038632858849641,-3.941752914085139,149
-81.03782540107075,79.09561449983293,47.60184849414733,28.29882286208985,88.7526907350403,78.5926112211095,-45.68546444401118,-47.27370502922971,-7.894315605236103,10.58572370686305,0.0,0.0,0.0,-0.28576631991065593,-3.7639119692107115,150
-80.68883374069229,76.78732779711274,47.17874706894483,28.298822862089825,88.76573789470065,76.5337073608446,-45.645702307665985,-47.8294270511499,-8.540153896528187,10.432931170521927,0.0,0.0,0.0,-0.1658191023094721,-3.5669725307098923,151
-79.83434205150954,74.84569851986392,48.67874706894483,28.298822862089647,88.86830688759147,74.26594071989756,-45.63095653677301,-48.40903461937047,-8.788123688438182,10.234232168912355,0.0,0.0,0.0,-0.03399334493963361,-3.346683436763195,152
-79.75002561601116,72.89494083352129,48.461615650757935,29.421224299196822,88.38543772282537,72.49960258784994,-47.13095653677301,-49.12910256235173,-8.945575312313307,9.925566646095783,0.0,0.0,0.0,0.07810471686134732,-3.148271583050615,153
-79.94087256076737,71.08110586705179,48.09501215071815,31.27059104094194,88.59666243360626,70.08898241640341,-47.732160357850674,-49.82551341404175,-9.343495440141474,9.631217222444803,0.0,0.0,0.0,0.17023653796192445,-2.9840569257751497,154
-79.64542719817771,69.5579727129161,49.59501215071815,33.18910084689652,88.66259628293565,67.60993825780837,-47.6929653390451,-50.349363952657946,-9.776812255757733,9.490498371929718,0.0,0.0,0.0,0.23614388139751347,-2.8335291340315987,155
-79.67634868322443,67.46705664262812,49.409560023437756,34.802571482951286,88.00176187197674,65.663711501122,-49.1929653390451,-50.93677474543771,-10.091710414886032,9.341113843814036,0.0,0.0,0.0,0.30390971217705226,-2.6775995013946003,156
-79.21433870147821,65.6611844093927,50.909560023437756,36.24366863273101,88.08533948882824,63.005331262419766,-49.45401753669099,-51.563786335490555,-10.276471049882993,9.13669438059227,0.0,0.0,0.0,0.3334893052812285,-2.4707423929079386,157
-79.35786164092357,63.40007329025473,50.54899541935942,37.826445444427485,88.25108959934033,60.259603578534296,-49.40124009926256,-52.02019470078212,-10.494332809547284,8.876590117051013,0.0,0.0,0.0,0.3723428965471194,-2.264310571473639,158
-79.454118998575,61.00694849793489,50.0953515132512,39.10515529923509,88.4697377865473,57.509603578534296,-49.411960816319535,-52.684249713609276,-10.445643867506732,8.563177061115828,0.0,0.0,0.0,0.40943884909197265,-2.111564628209081,159
-79.02384619342408,58.95477359926317,51.5953515132512,40.484378968311304,87.57825540564092,55.32183388118292,-50.911960816319535,-53.28491200501926,-10.909194877417333,8.20810932688441,0.0,0.0,0.0,0.43488702337998847,-1.9426698363723076,160
-79.35099615258758,56.32860536586756,51.366034790618265,41.849196803656646,87.31366637285618,52.57183388118292,-50.51723549044597,-53.69233320107108,-11.481597599171595,7.84856284609516,0.0,0.0,0.0,0.46099428243417034,-1.7920096507659962,161
-79.58444652337725,53.623349384522115,51.07656570193418,43.06216673951472,87.01651406363052,49.82183388118292,-50.1041973870811,-54.078107782740936,-11.521248094625873,7.624695776670995,0.0,0.0,0.0,0.5189808679259633,-1.7076932042804491,162
-78.81999160059753,51.33022851041656,52.40009584997509,44.16496804607621,85.76643796276855,47.07183388118292,-51.22000577151677,-54.469666507091,-11.447880918654839,7.540617238047125,0.0,0.0,0.0,0.6209005890301282,-1.59633036931376,163
-78.78926842668545,48.58022851041656,51.85371827376884,45.06385662042268,85.55000341901493,44.32183388118292,-50.74846325882201,-54.905590055320715,-11.498040881845968,7.418063480871188,0.0,0.0,0.0,0.7447945928559466,-1.4432640875878329,164
-77.89628908627557,45.95189982462952,53.06134725365785,45.8264791025222,84.96599410157144,41.57183388118292,-49.976751055827044,-55.129379506994674,-12.069842489981648,7.191478784329011,0.0,0.0,0.0,0.8494825259423552,-1.34544110913805,165
-77.77991280671033,43.20189982462952,52.53956060242706,46.5835597365065,82.56460181294784,38.82183388118292,-50.341575673370684,-55.09066597941122,-13.039175626281672,7.042429090215396,0.0,0.0,0.0,0.9063867657793053,-1.2964778283034535,166
-76.52007221427658,40.45189982462952,53.38566023075563,47.418588764097464,81.208897574583,36.07183388118292,-49.7330843647653,-55.1551334455645,-13.655971835708032,6.9847785286364426,0.0,0.0,0.0,0.9803172880244122,-1.2389212732212187,167
-76.16343798971451,37.70189982462952,52.67526495335451,48.04635852710721,79.98160546868829,33.32183388118292,-49.2936547366423,-55.46943542458995,-13.701366171452985,6.8815307374368935,0.0,0.0,0.0,1.0496385521211182,-1.1975565701457351,168
-74.92693470037251,34.95189982462952,52.49207094953947,48.59237014836365,78.45255264023717,30.57183388118292,-48.58091638529473,-55.61734054626755,-14.031160929425454,6.771840508570805,0.0,0.0,0.0,1.1158776877164078,-1.1801061964442554,169
-73.66855511208843,32.20189982462952,51.943755521647034,49.02219788788165,76.55680965561156,27.82183388118292,-47.43364855960095,-55.748532543755964,-14.337054560962855,6.652348266935548,0.0,0.0,0.0,1.1655262134411977,-1.103826093003167,170
-72.33854347318601,29.45189982462952,51.30964798583859,49.484097907766326,74.27254319351763,25.07183388118292,-45.93364855960095,-55.88227916547493,-14.54330236105849,6.499808480213664,0.0,0.0,0.0,1.2044589290521874,-1.0403457826364098,171
-70.5922681969498,26.70189982462952,50.273469329066124,49.92285548821837,71.58352652477099,22.32183388118292,-44.43364855960095,-56.09716143844463,-14.392353986086336,6.3867301354523995,0.0,0.0,0.0,1.216666761560633,-1.05018072998815,172
-68.27955572504068,23.95189982462952,48.773469329066124,50.2533069930955,68.83352652477099,19.57183388118292,-42.93364855960095,-56.32227442040746,-14.282113531877199,6.365674955836378,0.0,0.0,0.0,1.1825247160872785,-1.041750775009158,173
-65.52955572504068,21.20189982462952,47.273469329066124,50.503210469523545,66.08352652477099,16.879271019390785,-41.43364855960095,-56.546500674994945,-14.281480253113607,6.305974760867404,0.0,0.0,0.0,1.1316051387194441,-0.9740431517098221,174
-62.77955572504068,18.45189982462952,45.773469329066124,50.794684513920785,63.33352652477099,14.498689171795723,-39.93364855960095,-56.84695802407996,-14.729757225253783,6.183292852159183,0.0,0.0,0.0,1.104791937100177,-0.9172688613246263,175
-60.02955572504068,15.701899824629521,44.273469329066124,51.033857505039094,60.58352652477099,12.2585006475147,-38.43364855960095,-57.262545363096564,-14.394363206768976,6.084898971046022,0.0,0.0,0.0,1.1290989149930695,-0.9033440114741823,176
-57.27955572504068,12.951899824629521,42.773469329066124,51.29968102424015,57.83352652477099,10.682417360912005,-36.93364855960095,-57.73897000187574,-13.284409850940655,6.0448037004866,0.0,0.0,0.0,1.1565270507404992,-0.9143142548424811,177
-54.52955572504068,10.822115381803403,41.273469329066124,51.51753654706648,55.08352652477099,9.802729231093991,-35.43364855960095,-58.353899404521655,-11.411770143231298,6.1044357911667495,0.0,0.0,0.0,1.1553485599002327,-0.9317750399759996,178
-51.77955572504068,9.03859349531276,39.773469329066124,51.7251645372339,52.33352652477099,9.610749110922045,-33.93364855960095,-59.06850983604827,-10.216894940765387,6.1649641410592375,0.0,0.0,0.0,1.1354095145346363,-0.973270413657,179
-49.02955572504068,8.907891815497136,38.273469329066124,51.91555714254688,49.58352652477099,10.147959192600295,-32.43364855960095,-59.768878882898164,-10.095493123384095,6.154259272216953,0.0,0.0,0.0,1.1046622031888587,-1.0059047470482005,180
-46.27955572504068,8.847807281581034,36.773469329066124,52.081813500455326,46.83352652477099,11.157620846815353,-30.933648559600947,-60.49775252928912,-10.91206223810675,6.1131528178712875,0.0,0.0,0.0,1.0956257448685,-0.9800324701766691,181
-43.52955572504068,10.549471251812431,35.273469329066124,52.20055278021322,44.08352652477099,12.615538895481526,-29.433648559600947,-61.269208635330926,-11.126037178666614,6.054960525336924,0.0,0.0,0.0,1.1052015948066194,-0.9429595754115438,182
-40.77955572504068,12.61146816617043,33.773469329066124,52.339997703865926,41.33352652477099,13.651142989645061,-27.933648559600947,-62.10168779822431,-11.22057467034581,5.956268621569784,0.0,0.0,0.0,1.124732608787341,-0.9038863511558874,183
-38.02955572504068,14.255833912704146,32.273469329066124,52.62012235157954,38.58352652477099,15.682338361848398,-26.433648559600947,-63.043195720418275,-11.766654944083264,5.899082117746676,0.0,0.0,0.0,1.1411196655836136,-0.8873184152126975,184
-35.27955572504068,16.721547692591262,30.773469329066124,52.96270300005235,35.83352652477099,17.709596951296653,-24.933648559600947,-64.15943183115051,-12.58852308235496,5.858797509886953,0.0,0.0,0.0,1.1531794428991018,-0.8982154195693725,185
-32.52955572504068,18.79670527348545,29.273469329066124,53.42433142067928,33.08352652477099,19.656509799012497,-23.433648559600947,-65.49486816354947,-13.710313640956578,5.776289197006284,0.0,0.0,0.0,1.2083511383830274,-0.9036545673827165,186
-29.77955572504068,21.230404677672254,27.773469329066124,54.0711676260824,30.33352652477099,21.70210737147559,-21.933648559600947,-66.85748471370042,-14.454072800307541,5.678451649134962,0.0,0.0,0.0,1.257783759818143,-0.9303037643705392,187
-27.02955572504068,23.238377327413087,26.273469329066124,54.84052451700843,27.58352652477099,23.055018012172987,-20.433648559600947,-68.23338859739624,-15.554877811678086,5.757573112488987,0.0,0.0,0.0,1.2928892495714501,-1.0139953418905447,188
-24.27955572504068,25.15586011668758,24.773469329066124,55.79302823888409,24.83352652477099,25.048816800508508,-18.933648559600947,-69.64125121806748,-16.285159020535872,5.67247569782911,0.0,0.0,0.0,1.332338920999589,-1.1405234397807038,189
-21.52955572504068,27.353754837044928,23.273469329066124,56.885572870028135,22.08352652477099,26.306642661301613,-17.433648559600947,-71.10746328798638,-16.75650441738627,5.714141778099333,0.0,0.0,0.0,1.3321169169738256,-1.2930157736694914,190
-18.77955572504068,29.10093374921764,21.773469329066124,58.15090059396764,19.33352652477099,28.228582721484138,-15.933648559600947,-72.63162510069417,-17.247785889262087,5.787495873739122,0.0,0.0,0.0,1.3857556481666957,-1.4696342671364075,191
-16.02955572504068,30.984642678150333,20.273469329066124,59.60617800201847,16.58352652477099,30.19153914332476,-14.433648559600947,-74.10098001972618,-18.014050893958995,5.82446716639438,0.0,0.0,0.0,1.4792277466273238,-1.663082379431704,192
-13.27955572504068,32.44995145390173,18.773469329066124,61.18979345656077,13.833526524770988,31.224079141073926,-12.933648559600947,-75.71654159312861,-19.076567893991147,5.910487775739685,0.0,0.0,0.0,1.568930141735208,-1.8986529885803147,193
-10.52955572504068,34.14880381904518,17.273469329066124,62.9340792419881,11.083526524770988,32.94832079538015,-11.433648559600947,-77.50749568164625,-18.98052059000832,6.136409479261499,0.0,0.0,0.0,1.6277400828961999,-2.171730392267147,194
-7.77955572504068,35.22921490252581,15.773469329066124,64.78673434617328,8.333526524770988,33.898111799518766,-9.933648559600947,-79.36629129222268,-18.237346420726546,6.3534941471594415,0.0,0.0,0.0,1.6551806842669536,-2.422960983541059,195
-5.02955572504068,36.06690161565746,14.273469329066124,66.84807962102296,5.583526524770988,34.82332666805192,-8.433648559600947,-81.19936889775255,-17.731831353712085,6.464423268314812,0.0,0.0,0.0,1.706910641318577,-2.5979856732261206,196
-2.27955572504068,36.805599288218126,12.773469329066124,68.9950030952073,2.8335265247709884,35.57569261118502,-6.933648559600947,-83.0745994070159,-18.178888453738917,6.527926206966218,0.0,0.0,0.0,1.795185235625426,-2.647531794995216,197
0.47044427495931984,38.01886459659955,11.273469329066124,70.90963171018375,0.08352652477098843,36.9468953969214,-5.433648559600947,-84.88995599705187,-19.33652956448241,6.511721230040806,0.0,0.0,0.0,1.9096275782168772,-2.5681739238743586,198
3.22044427495932,38.78285868534495,9.773469329066124,72.60199509667,-2.6664734752290116,37.35329387842308,-3.9336485596009467,-86.60773539935474,-20.321244830826622,6.383563087311673,0.0,0.0,0.0,2.0251013522001076,-2.4325275698283177,199
5.97044427495932,39.33058373833634,8.273469329066124,74.1918464552509,-5.416473475229012,37.7381311849097,-2.4336485596009467,-88.09171309644498,-21.60198834679924,6.186185673964372,0.0,0.0,0.0,2.1244942989558533,-2.252742225254086,200
8.72044427495932,39.77603465587155,6.773469329066124,75.5770431844305,-8.166473475229012,37.24825566679481,-0.9336485596009467,-89.28127410580655,-23.88386361354271,5.932358234706079,0.0,0.0,0.0,2.1728379308118932,-2.0598422334642033,201
11.47044427495932,40.31997509838137,5.273469329066124,76.51204366673515,-10.916473475229012,37.359110961041246,0.5663514403990533,-90.39511664796122,-26.62337243785518,5.660095562908204,0.0,0.0,0.0,2.1921416004698426,-1.8525608090776022,202
14.22044427495932,40.61860105626247,3.773469329066124,77.23689056892553,-13.666473475229012,37.53265600512275,2.0663514403990533,-91.08896150506463,-27.770673943652195,5.408534973729385,0.0,0.0,0.0,2.1015763255866142,-1.640702620970218,203
16.97044427495932,41.41979738937337,2.273469329066124,77.56405050976598,-16.41647347522901,36.750141373402286,3.5663514403990533,-91.55923168356462,-28.296634975873708,5.199711459745143,0.0,0.0,0.0,1.935546396253282,-1.4528429964738838,204
19.72044427495932,41.91595534601005,0.7734693290661241,77.23023548941815,-19.16647347522901,36.26601045877912,5.066351440399053,-92.1195186954111,-30.968710616514237,5.043881921830056,0.0,0.0,0.0,1.8741763973742676,-1.232120128225251,205
22.47044427495932,42.09072813450983,-0.7265306709338759,76.64576411146525,-21.91647347522901,35.10185373943373,6.566351440399053,-92.4811647794781,-33.678857262664025,4.792301360789804,0.0,0.0,0.0,1.857245141072292,-0.9968003931721383,206
25.22044427495932,41.78263259370287,-2.226530670933876,76.11094726028414,-24.66647347522901,34.830152579285176,8.066351440399053,-92.41275911945421,-34.23316802160697,4.493764331752284,0.0,0.0,0.0,1.786581766565749,-0.7086621296619179,207
27.97044427495932,41.47899418989689,-3.726530670933876,75.28073063846126,-27.41647347522901,33.77764640350164,9.566351440399053,-92.09307242559198,-35.4417725981907,4.22708215268266,0.0,0.0,0.0,1.6970393520469602,-0.4020550419860164,208
30.72044427495932,40.47390511704344,-5.226530670933876,74.27767818899952,-30.16647347522901,33.103379729698965,11.066351440399053,-91.63782342826288,-37.87617777526311,3.960671356132753,0.0,0.0,0.0,1.6220181053355047,-0.16441552357827946,209
33.47044427495932,39.74806305240035,-6.726530670933876,73.27339840120676,-32.91647347522901,31.74746910973046,12.566351440399053,-91.00421039812534,-40.318917621866326,3.5986777436488895,0.0,0.0,0.0,1.5351359972467153,0.04226852715379561,210
36.22044427495932,38.84953018313571,-8.226530670933876,72.26154363559617,-35.66647347522901,30.697001125410896,14.066351440399053,-90.37245865992101,-42.218015828101365,3.480936481375321,0.0,0.0,0.0,1.4603577663553695,0.2639834091910354,211
38.97044427495932,37.181026193138116,-9.726530670933876,71.30690790698893,-38.41647347522901,29.523407923669115,15.566351440399053,-89.68616505772454,-44.968015828101365,3.3975563497355457,0.0,0.0,0.0,1.393503326848225,0.478375925466639,212
41.72044427495932,36.06785427379896,-11.226530670933876,70.16956631035914,-41.16647347522901,27.846562462792274,17.066351440399053,-88.97526221366951,-47.718015828101365,3.344919346419508,0.0,0.0,0.0,1.3131116200929467,0.7101462134466222,213
44.47044427495932,34.3125847053628,-12.726530670933876,69.03809140497161,-43.91647347522901,26.51151395918632,18.566351440399053,-88.18300460654653,-50.468015828101365,3.285870014980951,0.0,0.0,0.0,1.200960379067462,0.945680642721891,214
47.22044427495932,32.45134239435809,-14.226530670933876,67.89504091604437,-46.66647347522901,24.615425820095613,20.066351440399053,-87.37593057151005,-53.218015828101365,3.272703675300358,0.0,0.0,0.0,1.1177434532717951,1.1331312437848948,215
49.97044427495932,30.92811019468488,-15.726530670933876,66.78227290876055,-47.408294802155,22.680476911804202,21.566351440399053,-86.50357600602389,-55.968015828101365,3.267686607901793,0.0,0.0,0.0,1.0492204059812757,1.2861865994872765,216
52.72044427495932,28.807741896265235,-17.226530670933876,65.67757999408808,-44.658294802155,21.284413729512497,23.066351440399053,-85.47202062630126,-58.718015828101365,3.2477729108856157,0.0,0.0,0.0,0.9859604783168266,1.464237731094067,217
50.845635725145605,27.228036539440915,-18.726530670933876,64.4630676192401,-41.908294802155,19.239366019431802,24.566351440399053,-84.42426617240638,-61.468015828101365,3.3099672576904937,0.0,0.0,0.0,0.9352244826589493,1.6290728601865343,218
50.017890028681464,25.15822286206391,-20.226530670933876,63.11141385750406,-39.158294802155,17.95497699523417,26.066351440399053,-83.28801015250541,-64.21801582810136,3.4044357212781216,0.0,0.0,0.0,0.9180220008645245,1.7471842948454583,219
48.86872256606027,22.919935699135237,-21.726530670933876,61.82032455608256,-36.408294802155,16.257035910662637,27.566351440399053,-81.98046292059372,-66.96801582810136,3.411714164859472,0.0,0.0,0.0,0.8959804815404019,1.7874180425077646,220
47.59085882438975,20.63865834733398,-23.226530670933876,60.609481654320305,-33.658294802155,15.552572707760785,29.066351440399053,-80.5871742918982,-69.71801582810136,3.4485333465263075,0.0,0.0,0.0,0.8614940989771497,1.8156788132687636,221
44.84085882438975,18.90398059341146,-24.726530670933876,59.415979193283654,-30.908294802154998,14.027343188466714,30.566351440399053,-79.19223213218514,-72.46801582810136,3.55900592653132,0.0,0.0,0.0,0.8627885362287452,1.8165805283642684,222
42.09085882438975,16.741912496350164,-26.226530670933876,58.155795551909016,-28.158294802154998,13.835102650621442,29.066351440399053,-77.77915849287021,-75.21801582810136,3.6296885622914234,0.0,0.0,0.0,0.9083120556119267,1.8250346354414424,223
39.34085882438975,15.19470353384452,-27.726530670933876,56.84505995503592,-25.408294802154998,12.817792802175164,27.566351440399053,-76.3037758863563,-75.63786899253326,3.641586817563529,0.0,0.0,0.0,0.9425908586392108,1.809822059415887,224
36.59085882438975,13.214902975638196,-29.226530670933876,55.459166726382705,-22.658294802154998,13.439554206642287,26.066351440399053,-74.78613282183589,-73.55082912821915,3.737772314613157,0.0,0.0,0.0,1.0047800833582015,1.7407775696478243,225
33.84085882438975,11.232979705913102,-30.726530670933876,54.16486672489273,-19.908294802154998,13.246549295980136,24.566351440399053,-73.1170005070257,-71.72980779230491,3.8158714179667417,0.0,0.0,0.0,1.0569040838158286,1.6689766637331267,226
31.09085882438975,10.218829736133511,-32.226530670933876,52.867802687129455,-17.158294802154998,13.596504684530187,23.066351440399053,-71.4930889570246,-69.0849135688478,3.8370504543771,0.0,0.0,0.0,1.1074782339897933,1.5973347797559732,227
28.34085882438975,8.79171104520012,-30.726530670933876,51.55215789244403,-14.408294802154998,15.542130466861586,21.566351440399053,-69.83102586936613,-66.3349135688478,3.961773218943579,0.0,0.0,0.0,1.213976998449842,1.551932461083095,228
25.59085882438975,8.700270762367603,-29.226530670933876,50.19580876096715,-11.658294802154998,16.47068235747164,20.066351440399053,-68.10234541558378,-63.584913568847796,4.056150389925159,0.0,0.0,0.0,1.391685645559283,1.5866651343152702,229
22.84085882438975,8.205831867042292,-27.726530670933876,49.33992651015514,-8.908294802154998,17.520961945298954,18.566351440399053,-66.23753900768136,-60.834913568847796,3.7266222649073293,0.0,0.0,0.0,1.292118640295475,1.3801321465150242,230
20.09085882438975,9.184603380148987,-26.226530670933876,48.101290799126396,-6.158294802154998,18.873439269825443,17.066351440399053,-64.82844304549667,-58.084913568847796,3.923093871602667,0.0,0.0,0.0,1.384760335737132,1.2132070448324046,231
17.34085882438975,10.568112119952541,-24.726530670933876,47.18832181714734,-3.408294802154998,20.251771995341603,15.566351440399053,-63.306228024472844,-55.334913568847796,3.986458163611011,0.0,0.0,0.0,1.4801615973148052,0.987764290743339,232
14.590858824389748,12.47219320029303,-23.226530670933876,46.45714376792066,-0.6582948021549981,21.603671804246726,14.066351440399053,-61.82478979963118,-52.584913568847796,4.107165022241171,0.0,0.0,0.0,1.4782119150444903,0.7532653788094662,233
11.840858824389748,14.542345734776392,-21.726530670933876,45.648082814635174,2.091705197845002,23.22335496443075,12.566351440399053,-60.487643078978714,-49.834913568847796,4.371657122357512,0.0,0.0,0.0,1.5132120234315158,0.5368172156768061,234
9.090858824389748,16.65417064899131,-20.226530670933876,44.755232622105034,4.841705197845002,24.918284276278612,11.066351440399053,-59.20821222587328,-47.084913568847796,4.719410308265385,0.0,0.0,0.0,1.5298886776762546,0.3282417954600464,235
6.340858824389748,18.881053361850608,-18.726530670933876,44.0259324634067,7.591705197845002,26.73018931161571,9.566351440399053,-58.02143574909586,-44.334913568847796,5.1831610487862365,0.0,0.0,0.0,1.5358017921593785,0.13411326188193576,236
3.5908588243897483,20.834280716207793,-17.226530670933876,43.52949414560004,10.341705197845002,28.66971915452364,8.066351440399053,-57.00840611601757,-41.584913568847796,5.656073529882698,0.0,0.0,0.0,1.553173577895478,-0.1022235539029857,237
0.8408588243897483,23.35637032792004,-15.726530670933876,43.06586882552184,13.091705197845002,30.028882366830697,6.566351440399053,-56.133499041602256,-38.834913568847796,6.116982794564416,0.0,0.0,0.0,1.594096697381109,-0.347414043624966,238
-1.9091411756102517,25.849505161345075,-14.226530670933876,42.566460941830734,15.841705197845002,32.11361019277476,5.066351440399053,-55.30851800335783,-36.084913568847796,6.527301694449907,0.0,0.0,0.0,1.6083062995417963,-0.5334519053047126,239
-4.659141175610252,28.212793833716454,-12.726530670933876,42.05702203383999,18.591705197845002,34.3325606969523,3.5663514403990533,-54.5721463457722,-33.334913568847796,6.902570677897509,0.0,0.0,0.0,1.593513404308459,-0.7368253586165349,240
-7.409141175610252,30.73614192217232,-11.226530670933876,41.56039608103427,21.341705197845002,36.15400844074179,2.0663514403990533,-53.86800668056666,-30.584913568847796,7.218052963066783,0.0,0.0,0.0,1.603834508024802,-0.9025579181670393,241
-10.159141175610252,32.88703745500747,-9.726530670933876,41.126316552855286,24.091705197845002,38.420329665627584,0.5663514403990533,-53.04118265003528,-27.834913568847796,7.471828638934882,0.0,0.0,0.0,1.6228354864398291,-0.9803164184053519,242
-12.909141175610252,35.46892699962687,-8.226530670933876,40.511650306747335,26.841705197845002,40.677671331826446,-0.9336485596009467,-52.36492765551724,-25.084913568847796,7.719731185026869,0.0,0.0,0.0,1.6282268185103,-1.0795557274117322,243
-15.659141175610252,37.97339760184679,-6.726530670933876,39.86794860847982,29.591705197845002,43.058082448500464,-2.4336485596009467,-51.830981653391866,-22.334913568847796,8.005417870370753,0.0,0.0,0.0,1.6404798479354008,-1.2387646937907653,244
-18.40914117561025,40.09770600650203,-5.226530670933876,39.43814437332636,32.341705197845,44.77868076857087,-3.9336485596009467,-51.04065657811531,-19.584913568847796,8.256705077169691,0.0,0.0,0.0,1.6627205412034445,-1.3373371942912773,245
-21.15914117561025,42.656497920966146,-3.726530670933876,38.7507430824159,35.091705197845,46.902942694128285,-5.433648559600947,-50.332235367022314,-16.834913568847796,8.456921668588059,0.0,0.0,0.0,1.636699214255333,-1.416315289539314,246
-23.90914117561025,45.070991339151924,-2.226530670933876,37.860111255876326,37.841705197845,49.17854127889648,-6.933648559600947,-49.86610087534237,-14.084913568847796,8.679607585543494,0.0,0.0,0.0,1.5647218650221413,-1.4955821314035502,247
-26.65914117561025,47.4728166996097,-0.7265306709338759,37.14756646298675,40.591705197845,51.567482095766394,-8.433648559600947,-49.400281566927525,-13.455447085888425,8.88429972904459,0.0,0.0,0.0,1.4957403251852563,-1.5954246450596152,248
-29.40914117561025,49.51625687083698,0.7734693290661241,36.52660076766037,43.341705197845,53.959884727371076,-9.933648559600947,-48.98371303203209,-13.098282374446729,9.083388811831629,0.0,0.0,0.0,1.4459957643806285,-1.6755154951660765,249
-32.15914117561025,51.96693177498559,2.273469329066124,35.94295462877625,46.091705197845,56.3212491777663,-11.433648559600947,-48.574004478848735,-13.07091022195614,9.236556994844534,0.0,0.0,0.0,1.3922831953508776,-1.7392098960876263,250
-34.90914117561025,54.060709774433796,3.773469329066124,35.5846932206374,48.841705197845,58.183242945270436,-12.933648559600947,-48.000583335591614,-12.991295753492347,9.359840539357146,0.0,0.0,0.0,1.3413732267935776,-1.8012220053293138,251
-37.65914117561025,56.579472413491644,5.273469329066124,34.91230076824762,51.591705197845,60.53664078885959,-14.433648559600947,-47.76350625605388,-12.591181873712868,9.347357661911962,0.0,0.0,0.0,1.2969153545290726,-1.860352784537781,252
-40.40914117561025,59.00157055639121,6.773469329066124,34.03757197543483,54.341705197845,62.91296024133599,-15.933648559600947,-47.680189882213476,-12.215110078959999,9.232751089124255,0.0,0.0,0.0,1.2657583263186367,-1.9067387993689051,253
-43.15914117561025,61.479028884092465,8.273469329066124,33.464069773665464,57.091705197845,65.26054790845004,-17.433648559600947,-47.44821874290925,-11.997832754310876,9.348801608633968,0.0,0.0,0.0,1.2223220389382008,-2.0062454981624906,254
-45.90914117561025,63.65160892608246,9.773469329066124,33.065508904637916,59.841705197845,67.05051718491687,-18.933648559600947,-47.26327258330111,-11.483430108243155,9.664724622725725,0.0,0.0,0.0,1.1221015772517422,-2.146929595933691,255
-48.65914117561025,66.14167907079054,11.273469329066124,32.596797371533555,62.591705197845,69.40301986158353,-20.433648559600947,-47.152789381429315,-10.889147043564943,9.897531487016815,0.0,0.0,0.0,1.0249913248001352,-2.292927472695425,256
-51.40914117561025,68.46800132605426,12.773469329066124,31.863096415211675,65.341705197845,71.21381431333204,-21.933648559600947,-47.07312238424453,-10.534806939998562,10.083073203118234,0.0,0.0,0.0,0.9305146102416387,-2.51547764928865,257
-54.15914117561025,70.70374961903225,14.273469329066124,31.07410257963122,68.091705197845,73.4728936300889,-23.433648559600947,-46.751775346337475,-10.46163548723608,10.422228990082266,0.0,0.0,0.0,0.8648509316711079,-2.8043017179143335,258
-56.90914117561025,72.96051541326467,15.773469329066124,30.309259828313937,70.841705197845,75.59186020075185,-24.933648559600947,-46.335137399248424,-10.331307451962948,10.872941834449726,0.0,0.0,0.0,0.8068798748191279,-3.1562068187701424,259
-59.65914117561025,75.05811356856266,17.273469329066124,29.200136811692,73.591705197845,77.11394796974379,-26.433648559600947,-46.022843960204426,-10.01602137145327,11.401095401826579,0.0,0.0,0.0,0.7274944865161688,-3.548508336697884,260
-62.40914117561025,77.13577059877953,18.773469329066124,28.29882286208972,76.341705197845,79.20460811709106,-27.933648559600947,-45.58133996694895,-9.756011467144434,11.982114816627648,0.0,0.0,0.0,0.6104961082805747,-3.9820929827929668,261
-65.15914117561024,79.47366659822018,20.273469329066124,28.29882286208957,79.091705197845,81.14663553935868,-29.433648559600947,-44.856248287453894,-9.516995806765525,12.482597409413671,0.0,0.0,0.0,0.5074623222142157,-4.368574831269439,262
-67.90914117561024,81.4655541510375,21.773469329066124,28.298822862089594,81.841705197845,82.87665938527493,-30.933648559600947,-43.75605556782175,-9.569840747505202,12.973138833905203,0.0,0.0,0.0,0.4104377039740457,-4.616539612469969,263
-70.65914117561024,83.698196024109,23.273469329066124,28.298822862089697,84.591705197845,83.9060581981904,-32.43364855960095,-42.77678636544802,-9.108024421105252,13.217704371886379,0.0,0.0,0.0,0.29057299462383374,-4.813841742092834,264
-73.40914117561024,85.75215446340876,24.773469329066124,28.298822862089697,87.341705197845,85.93010575515534,-33.93364855960095,-41.37808000293466,-8.576994869216229,13.398585650225815,0.0,0.0,0.0,0.15308238948298533,-5.030707294841557,265
-76.15914117561024,87.22675752116969,26.273469329066124,28.298822862089825,90.091705197845,87.3027559267689,-35.43364855960095,-40.07699867341258,-8.57526557769718,13.559985749737665,0.0,0.0,0.0,0.041258706056354226,-5.140011572890094,266
-78.90914117561024,88.91719044696741,27.773469329066124,28.29882286208962,92.841705197845,88.5964741109055,-36.93364855960095,-39.097507438000804,-8.789425913627465,13.610547986409767,0.0,0.0,0.0,-0.03627399298803384,-5.157479744633255,267
-81.65914117561024,90.2093035321471,29.273469329066124,28.298822862089697,92.88261085505081,89.1406659060015,-38.43364855960095,-38.366591103257825,-8.641504804878002,13.604731082038692,0.0,0.0,0.0,-0.0782559044422138,-5.157808102953542,268
-84.40914117561024,91.57531682825996,30.773469329066124,28.29882286208962,91.9361427792938,90.37037523689028,-39.93364855960095,-37.655566402572646,-8.244073924907637,13.571328575188815,0.0,0.0,0.0,-0.14287771125934315,-5.083211942012198,269
-85.19507786008234,92.68490266635254,32.273469329066124,28.29882286208972,91.56053817617942,90.99610052178981,-41.43364855960095,-37.59799635506015,-7.991611768809118,13.409253439979059,0.0,0.0,0.0,-0.19690663236774864,-4.938961866424898,270
-85.11774379926304,93.5195939787857,33.773469329066124,28.298822862089594,91.26711907909817,91.43345730801813,-41.451633991088606,-37.47316631012011,-7.859813455399827,13.203717630992134,0.0,0.0,0.0,-0.2116090615411349,-4.690697194223402,271
-85.0836332293924,94.1351563928899,35.273469329066124,28.298822862089825,91.2028866944141,91.70173159800879,-41.35994895369802,-37.49994482713067,-7.84313569480049,12.990347628377283,0.0,0.0,0.0,-0.17930311502894747,-4.357026740329786,272
-84.75696711377839,94.81464273920166,36.773469329066124,28.298822862089697,91.19163155776857,91.72867560133155,-41.30218577594214,-37.60103790681454,-7.749243615353629,12.595945040285034,0.0,0.0,0.0,-0.11618713364778552,-4.026403059117161,273
-84.84003046149824,94.86086730262558,38.273469329066124,28.29882286208972,91.2179552618935,91.58026048561548,-41.26255517360078,-37.97632803738689,-8.256065875570453,12.217196748599862,0.0,0.0,0.0,-0.043278186851653626,-3.7423338403002844,274
-84.5967240808982,95.04980728306843,39.773469329066124,28.298822862089825,90.80108201821069,91.7593819112796,-42.76255517360078,-38.41951554114996,-8.63109555976297,11.811914219247276,0.0,0.0,0.0,0.04121174502373648,-3.4077090159678107,275
-84.79356659651904,94.59148088651229,41.273469329066124,28.298822862089875,91.01708969934779,91.18888247453947,-43.531290160301694,-39.00214183111283,-8.82778847870688,11.381345737613051,0.0,0.0,0.0,0.1653622273059634,-2.9659639704949923,276
-84.62576732161578,94.24368702806944,42.773469329066124,28.29882286208962,91.27554034015066,90.43112778747135,-43.50974386456464,-39.744937085757506,-9.00631943564696,10.913215315059766,0.0,0.0,0.0,0.3059514122492661,-2.4987758744956348,277
-84.80502822700286,93.33129188308814,44.273469329066124,28.29882286208972,91.59719699670809,89.60164592214583,-43.47800344794482,-40.72635863314795,-9.48976632413894,10.415074846880596,0.0,0.0,0.0,0.4151075947243883,-2.0107895259472275,278
-84.96033802989871,92.14850303089754,45.773469329066124,28.298822862089594,91.29665301188962,89.15202155090664,-44.97800344794482,-41.361046311978185,-10.768894907604656,9.862705112925676,0.0,0.0,0.0,0.5238709255715739,-1.6195865539490273,279
-85.03018926498382,90.74372954752177,47.273469329066124,28.298822862089875,91.37927978239522,87.93427286734224,-45.723967101848565,-41.85866825202322,-12.269073820272965,9.404794678016577,0.0,0.0,0.0,0.5960536910852923,-1.325054140359434,280
-84.55447623379526,89.54646196029704,48.773469329066124,28.298822862089594,91.48868308860818,86.60116436685676,-45.658296336094345,-42.668621701620566,-13.411966664918028,9.102350199151498,0.0,0.0,0.0,0.6594461330619864,-0.9612368959277946,281
-84.54345999082712,87.85285690724581,50.273469329066124,28.29882286208972,91.63780595560529,85.20064111581686,-45.5671047787448,-43.56238672928112,-14.351754242794321,8.799711012136248,0.0,0.0,0.0,0.7743764574921325,-0.5395648637798899,282
-84.53913742162247,85.95272248093876,51.773469329066124,28.298822862089594,91.2174209273242,84.21426198408038,-47.0671047787448,-44.20824335505945,-15.55600945109122,8.450933957955318,0.0,0.0,0.0,0.8810114393371403,-0.1882786368657816,283
-84.15421901818858,84.19449707203185,53.273469329066124,28.29882286208962,91.34233021609963,82.49526764466366,-47.627583115825324,-44.87115410422484,-16.448235174134517,8.102155028130431,0.0,0.0,0.0,0.9384814002479013,0.15695119624053774,284
-84.20865569041162,82.11286612787038,54.69740408547954,28.298822862089594,91.53648756356964,80.67075805297921,-47.5139130809019,-45.70946524558319,-17.478668289693733,7.692075045340045,0.0,0.0,0.0,0.9882956868970024,0.5415306907262266,285
-84.24394314644398,79.92111727181847,54.37180074857171,28.29882286208972,91.19845546817831,79.37716630446802,-49.0139130809019,-46.71060522283343,-18.326412925857525,7.336741268884439,0.0,0.0,0.0,1.0220502523679724,0.8461256966689092,286
-83.72458318375392,77.88206075495532,55.87180074857171,28.298822862089697,91.44997640478576,77.48422099930562,-49.509477297551754,-47.79441320794968,-19.10140639185415,7.173165660385421,0.0,0.0,0.0,1.0473087387501798,1.1224734365738027,287
-83.11585000254414,75.73294757073292,57.37180074857171,28.29882286208972,91.66537260936788,75.47982507059541,-49.37474343522422,-48.75690849460734,-19.817090105691545,7.042112861825563,0.0,0.0,0.0,1.0558856230323854,1.4489299438564003,288
-83.03895002096465,73.2557883589703,57.46286167719452,28.29882286208962,91.93064552807564,73.31275923151831,-49.25511717185041,-49.74756125970431,-19.769306547838376,6.831974671327337,0.0,0.0,0.0,1.0563733537912214,1.7788587741959576,289
-82.96079369691248,70.68528439402657,56.93936814457617,28.298822862089697,91.34913009391933,71.6191899831298,-50.75511717185041,-50.64483941742359,-20.22011643217216,6.604874946825132,0.0,0.0,0.0,1.0685892207571805,2.0361089439444062,290
-82.50794132732663,68.81469357980373,58.43936814457617,29.665763101225707,91.42766394221195,69.17486069655737,-50.90246782687882,-51.358818823173436,-21.312910260256498,6.435352229918175,0.0,0.0,0.0,1.0976766087239158,2.2928545588567926,291
-82.77809713548302,66.95357435521231,58.04920009772898,31.905028737934675,91.63637215467232,66.64928451544213,-50.75107622014215,-52.22984919490391,-21.669821399084505,6.2622929471354665,0.0,0.0,0.0,1.0874913520476173,2.5523438250151673,292
-83.08898174764309,64.88690820862932,57.60665564391735,33.77285861630642,91.06795216752076,64.645293078154,-52.25107622014215,-53.24742132492021,-21.645732903064047,6.056628874074801,0.0,0.0,0.0,1.0561140246996654,2.781629816500073,293
-82.81078012873759,62.99553580538928,59.10665564391735,35.62487861819849,91.04919428123706,61.91281352959021,-52.19358015658641,-53.96941445251434,-22.09370936114184,5.843405278752816,0.0,0.0,0.0,1.046071629755844,2.984591589134034,294
-83.08635270504188,60.64539713142039,58.762730550594284,37.34325539054017,90.83368158528172,59.16281352959021,-51.690183215486535,-54.66198208499439,-22.241638716158377,5.736641591454141,0.0,0.0,0.0,1.0030078264532076,3.211153285418867,295
-83.1258943657423,58.202576813952874,58.153080115440964,39.000028304956444,89.83140227007999,56.76271249871007,-53.02267023821532,-55.34207652338959,-22.82201085931836,5.6713234726181545,0.0,0.0,0.0,0.9281547565579339,3.3827923315588833,296
-82.32018236913643,56.06604892696638,59.39554886661411,40.593086469624915,89.71333087093129,54.01271249871007,-52.65650908035906,-55.78738984095553,-23.94588866859301,5.664657545812568,0.0,0.0,0.0,0.8369114039438289,3.4970492178109662,297
-82.2770871142756,53.52349191617754,58.79795898455961,42.1498014805252,88.34636156485455,51.33544519603839,-53.69071147186047,-56.11565314989048,-24.26608204837089,5.649641144476452,0.0,0.0,0.0,0.7423433251543324,3.555698722032312,298
-82.14199604064746,50.9668753837531,58.17224111146615,43.757663204230155,87.94443690702896,48.58544519603839,-53.12771110383062,-56.34516840466297,-24.508548530997025,5.610095440455224,0.0,0.0,0.0,0.6847920935504699,3.563444810788387,299
-81.90672310226964,48.327012623962965,57.510697271588654,44.96537290600471,86.32710292977116,45.83544519603839,-53.86657610599882,-56.573720355178665,-24.201786218271756,5.605876834119356,0.0,0.0,0.0,0.6246244463254581,3.5694226509937526,300
-80.56706959722969,45.97981030155608,58.36200560833029,46.004043640018615,85.7366190891167,43.08544519603839,-53.10346817310766,-56.788712253295536,-23.85287907214109,5.698632976625713,0.0,0.0,0.0,0.5449576728554485,3.5438519988145964,301
-80.06587362368349,43.22981030155608,57.437364131754705,47.082046084181215,84.72622498106173,40.33544519603839,-52.47835217203362,-56.91450498510319,-23.71911313153632,5.865154137729152,0.0,0.0,0.0,0.4711124468704991,3.5437359574595715,302
-78.39580405255441,40.62089882977841,57.87066725766465,47.92850178422242,83.23267758791229,37.58544519603839,-51.80107094791188,-57.00705481611968,-23.424640121544105,6.002176151557133,0.0,0.0,0.0,0.4176081269693651,3.582336336310386,303
-78.69488341103063,37.87089882977841,56.37066725766465,48.79760754126361,81.460439784775,34.83544519603839,-50.83624772212063,-57.060363330860014,-23.0795958963348,6.125898064963913,0.0,0.0,0.0,0.3606836911354042,3.5826264501354808,304
-77.57550940318275,35.12089882977841,55.729988837043926,49.79167009353046,79.57658261050972,32.08544519603839,-49.74934391753153,-57.013347145008794,-22.93186974478737,6.2181526298399925,0.0,0.0,0.0,0.2873901134858356,3.597589311074228,305
-76.02558210139856,32.37089882977841,54.80069950119607,50.56692068377185,77.62511641102463,29.335445196038393,-48.60920548466822,-57.006113996027125,-22.77003496471072,6.1863047316535145,0.0,0.0,0.0,0.22588199747847137,3.622281567313912,306
-74.3637031296936,29.62089882977841,53.76147615134896,51.168958884709426,75.15455837364141,26.585445196038393,-47.10920548466822,-57.032180902426674,-22.90880588520331,6.08602484785548,0.0,0.0,0.0,0.17616946355855795,3.6452750918847094,307
-72.39613012664267,26.87089882977841,52.41958747574759,51.60938914115556,72.40455837364141,23.835445196038393,-45.60920548466822,-56.93166169656011,-23.125810719727983,6.007614816923473,0.0,0.0,0.0,0.08979886406954994,3.686704995258443,308
-69.79329245206539,24.12089882977841,50.91958747574759,51.917756980338204,69.65455837364141,21.085445196038393,-44.10920548466822,-56.795993205081395,-22.93379610820623,6.049981362516322,0.0,0.0,0.0,0.011119854305961947,3.7254440150043338,309
-67.04329245206539,21.37089882977841,49.41958747574759,52.319324016277264,66.90455837364141,18.335445196038393,-42.60920548466822,-56.72503707116649,-23.10053667200975,6.144601813012319,0.0,0.0,0.0,-0.03358983801297761,3.723593499443839,310
-64.29329245206539,18.62089882977841,47.91958747574759,52.7115811418908,64.15455837364141,15.585445196038393,-41.10920548466822,-56.73637815401718,-23.654601510794286,6.146327391546336,0.0,0.0,0.0,-0.07355635608474054,3.695255130015799,311
-61.54329245206539,15.95906455428481,46.41958747574759,52.96735066243773,61.40455837364141,12.835445196038393,-39.60920548466822,-56.72280733148042,-24.288018861045988,6.052546738865774,0.0,0.0,0.0,-0.10714128153184922,3.6350474442987184,312
-58.79329245206539,14.265785477163053,44.91958747574759,53.13453818380292,58.65455837364141,10.085445196038393,-38.10920548466822,-56.85066134425793,-25.015666451815942,6.0499056373556135,0.0,0.0,0.0,-0.1381692478223468,3.565979388193957,313
-56.04329245206539,12.1711250952482,43.41958747574759,53.22293247857375,55.90455837364141,9.447323370821097,-36.60920548466822,-57.25518549561862,-25.086076099531894,6.167999722821202,0.0,0.0,0.0,-0.18328046974614523,3.517128164719328,314
-53.29329245206539,10.309866759556934,41.91958747574759,53.1209219163588,53.15455837364141,8.642828715409426,-35.10920548466822,-57.7065081908004,-24.61686687542276,6.282930430619826,0.0,0.0,0.0,-0.2568846476587827,3.47714253087597,315
-50.54329245206539,10.19905901625272,40.41958747574759,52.94499364453573,50.40455837364141,9.542224417837975,-33.60920548466822,-58.132473742510065,-24.700008404466328,6.404213128818216,0.0,0.0,0.0,-0.30343496897101513,3.453669468347117,316
-47.79329245206539,10.027374499612549,38.91958747574759,52.810778551355355,47.65455837364141,10.052410277228976,-32.10920548466822,-58.7087781196288,-25.305089664285866,6.526622561136156,0.0,0.0,0.0,-0.3549245400646918,3.4138252753982568,317
-45.04329245206539,11.572539908013221,37.41958747574759,52.69548723880428,44.90455837364141,11.638482234833168,-30.609205484668223,-59.482021967979236,-25.776950602256324,6.618164030469956,0.0,0.0,0.0,-0.39204424880041744,3.30393158230923,318
-42.29329245206539,13.005920602846638,35.91958747574759,52.53343136425238,42.15455837364141,12.69550081709337,-29.109205484668223,-60.36759167787343,-26.11266478670649,6.682551169422247,0.0,0.0,0.0,-0.3876102222114885,3.194779063949343,319
-39.54329245206539,15.401799222466964,34.41958747574759,52.47922882931474,39.40455837364141,14.139043999502176,-27.609205484668223,-61.19454863596929,-26.114398610899357,6.814894636295889,0.0,0.0,0.0,-0.36028178444438774,3.124550399740767,320
-36.79329245206539,18.13957038059107,32.91958747574759,52.398834721941604,36.65455837364141,15.962559593523912,-26.109205484668223,-62.21707515483903,-26.397626481138346,7.083350097572911,0.0,0.0,0.0,-0.31739309228151114,2.9798787505316082,321
-34.04329245206539,20.389116876607652,31.41958747574759,52.437403199671,33.90455837364141,17.749081329827206,-24.609205484668223,-63.36471155053897,-26.182171917197223,7.385227238437971,0.0,0.0,0.0,-0.25782354689217757,2.79210804197082,322
-31.293292452065387,22.823777390015405,29.91958747574759,52.85446311731156,31.154558373641407,19.297905299806036,-23.109205484668223,-64.41279011940843,-25.589032726825675,7.548989869462469,0.0,0.0,0.0,-0.23774169180880175,2.6179072319824193,323
-28.543292452065387,24.810129706672768,28.41958747574759,53.46518382259118,28.404558373641407,21.23577503050647,-21.609205484668223,-65.52443436691424,-25.14815797570749,7.637339162875641,0.0,0.0,0.0,-0.26059488515695084,2.413558698470395,324
-25.793292452065387,27.278103356903895,26.91958747574759,54.123970949770715,25.654558373641407,22.55270878044002,-20.109205484668223,-66.86738837633482,-24.869121420956528,7.823202115445241,0.0,0.0,0.0,-0.3083420484288445,2.1500877823349627,325
-23.043292452065387,29.142510625627313,25.41958747574759,55.02956678041408,22.904558373641407,24.27086341466896,-18.609205484668223,-68.29528132433201,-24.16332632048724,8.05067043762688,0.0,0.0,0.0,-0.3970455270972275,1.9029034664754176,326
-20.293292452065387,31.199260060591012,23.91958747574759,56.20773302198517,20.154558373641407,25.446111351596844,-17.109205484668223,-69.94120724844879,-23.448189631204492,8.203446156284123,0.0,0.0,0.0,-0.45703073185864695,1.687925078225209,327
-17.543292452065387,32.54809328076949,22.41958747574759,57.73633686396922,17.404558373641407,27.031077994791204,-15.609205484668223,-71.61696913682812,-22.437355129469925,8.3485762560827,0.0,0.0,0.0,-0.5233119931426115,1.4738694515966109,328
-14.793292452065387,34.18842473590723,20.91958747574759,59.38114214186468,14.654558373641407,28.070790606476795,-14.109205484668223,-73.29843693921552,-21.750790226775422,8.650503831214252,0.0,0.0,0.0,-0.6184415556942892,1.3334653499328526,329
-12.043292452065387,35.31852229757588,19.41958747574759,60.9638804879894,11.904558373641407,28.953202826411026,-12.609205484668223,-75.0547786340386,-20.781359789471722,8.693499751031489,0.0,0.0,0.0,-0.6654630834479808,1.2187195440817535,330
-9.293292452065387,36.4070492224005,17.91958747574759,62.39822158506883,9.154558373641407,30.16576532613571,-11.109205484668223,-76.7848143999929,-20.03357856031295,8.741579844312717,0.0,0.0,0.0,-0.6761563072655147,1.0839443699341897,331
-6.543292452065387,37.3176751271459,16.41958747574759,63.731614306497406,6.404558373641407,30.88232757552814,-9.609205484668223,-78.346195857949,-18.954825367746228,8.666180158199777,0.0,0.0,0.0,-0.670952383514733,1.0012899423047263,332
-3.793292452065387,38.10090396074339,14.91958747574759,64.8697067985584,3.6545583736414073,31.436024922241607,-8.109205484668223,-79.84048713770447,-18.662422239011832,8.673824420432664,0.0,0.0,0.0,-0.6280674077535158,0.9567625802191629,333
-1.043292452065387,38.765234869481695,13.41958747574759,65.85261272326036,0.9045583736414073,31.86308694448652,-6.609205484668223,-81.22189725839138,-18.20132261530866,8.660974537861113,0.0,0.0,0.0,-0.5768305853802564,0.8950039613573934,334
1.706707547934613,39.3666802624486,11.91958747574759,66.55548727749206,-1.8454416263585927,32.06486182131466,-5.109205484668223,-82.50074204367084,-17.827366742461333,8.676680103475883,0.0,0.0,0.0,-0.5758299163294939,0.8141658960898853,335
4.456707547934613,39.96551241175072,10.41958747574759,66.86744619476282,-4.595441626358593,32.054729638847725,-3.609205484668223,-83.64057484673344,-18.813209874279057,8.755510544514113,0.0,0.0,0.0,-0.5865890267077378,0.7885341160501579,336
7.206707547934613,40.61280015642268,8.91958747574759,66.74876421883533,-7.345441626358593,31.75713125583139,-2.109205484668223,-84.72799944899408,-19.558033607962,8.613102436569143,0.0,0.0,0.0,-0.5880291002229902,0.8384049943999273,337
9.956707547934613,41.04821558949827,7.419587475747591,66.41434169513578,-10.095441626358593,31.40451198659598,-0.6092054846682231,-85.58869945321538,-19.975524477947793,8.50176054600523,0.0,0.0,0.0,-0.6217966731984611,0.885345811378514,338
12.706707547934613,41.193839896483766,5.919587475747591,66.02946634218935,-12.845441626358593,30.93664043741706,0.8907945153317769,-86.18813880734413,-20.012103165441893,8.438325928846139,0.0,0.0,0.0,-0.6813473829971279,0.9373455063327689,339
15.456707547934613,41.24531611139949,4.419587475747591,65.47504646795167,-15.595441626358593,30.115840524580943,2.390794515331777,-86.70900956874657,-20.230874542968376,8.342404979454592,0.0,0.0,0.0,-0.7143346985232807,1.0599238238894098,340
18.206707547934613,41.13949104920596,2.9195874757475906,64.74109356453368,-18.345441626358593,29.190021273140463,3.890794515331777,-87.0283198121314,-19.996341352531804,8.178805617612456,0.0,0.0,0.0,-0.7488976596432451,1.2341682238968694,341
20.956707547934613,40.33245754017925,1.4195874757475906,63.98625886820026,-21.095441626358593,27.630044592342824,5.390794515331777,-87.1381167908413,-19.73357426493377,8.040445161348687,0.0,0.0,0.0,-0.768952075741603,1.4492262241330112,342
23.706707547934613,39.69352807642739,-0.08041252425240941,63.33382766668143,-23.845441626358593,26.370299352389456,6.890794515331777,-87.19911970416736,-19.291244975667265,7.664556290812065,0.0,0.0,0.0,-0.7965286961072995,1.632142926624799,343
26.456707547934613,38.47639427069063,-1.5804125242524094,62.73139036255083,-26.595441626358593,24.34375876347392,8.390794515331777,-87.21246198690767,-19.711597131381257,7.4738832172448655,0.0,0.0,0.0,-0.7811701676742613,1.72487710655555,344
29.206707547934613,37.268142233198475,-3.0804125242524094,62.26749179726997,-29.345441626358593,22.86085736712637,9.890794515331777,-87.01664568860055,-19.21493433311969,7.286370308768861,0.0,0.0,0.0,-0.7977432237695277,1.836848549125459,345
31.956707547934613,35.601777757757546,-4.580412524252409,61.80359661990282,-32.09544162635859,20.67904564215465,11.390794515331777,-86.71402290549997,-18.633746322342056,7.111694852583148,0.0,0.0,0.0,-0.8580758075519795,1.9962098009994453,346
34.70670754793461,34.08628067890455,-6.080412524252409,61.368863459607866,-34.84544162635859,18.958399732206022,12.890794515331777,-86.43920297685887,-18.57471915052265,6.988634139950707,0.0,0.0,0.0,-0.9140323687495439,2.0867037890068088,347
37.45670754793461,32.026925137315395,-7.580412524252409,61.02315666510633,-37.59544162635859,16.552482870552833,14.390794515331777,-86.00954682797723,-18.45775524907486,6.828177299842009,0.0,0.0,0.0,-0.9569205257554761,2.1604185490787673,348
40.20670754793461,29.85475670619726,-9.08041252425241,60.64184354734061,-40.34544162635859,14.144545954162911,15.890794515331777,-85.51396668581874,-17.717050473110213,6.632751275055063,0.0,0.0,0.0,-0.9805381545145497,2.2441939618628957,349
42.95670754793461,27.617548768780132,-10.58041252425241,60.461732675834675,-37.59544162635859,12.837270735957157,17.390794515331777,-84.91224126690116,-16.73925658149067,6.508575697986405,0.0,0.0,0.0,-0.9650457578046056,2.307011862541007,350
45.70670754793461,25.064016801198097,-12.08041252425241,60.23766533342276,-34.84544162635859,10.902662051914389,18.890794515331777,-84.19585244489156,-16.43791138090364,6.454705026836257,0.0,0.0,0.0,-0.9655427215385146,2.3542816029010503,351
48.45670754793461,22.598559597577168,-13.58041252425241,59.84569646289276,-32.09544162635859,9.353301632888453,20.390794515331777,-83.33302613525879,-16.99077538562098,6.343345154327238,0.0,0.0,0.0,-0.9696861862292911,2.3643175364324764,352
51.20670754793461,20.424437859511727,-15.08041252425241,59.39069246198204,-29.345441626358593,9.719134188348928,18.890794515331777,-82.39308768883197,-17.68339256017934,6.300187353974736,0.0,0.0,0.0,-0.9372722181900234,2.392106169643619,353
53.95670754793461,17.92459830432883,-16.58041252425241,58.9003824535068,-26.595441626358593,9.567639928474716,17.390794515331777,-81.3373193065672,-17.48641514730597,6.31160541960409,0.0,0.0,0.0,-0.8682732134406969,2.4129661818781085,354
56.70670754793461,15.316735707011,-18.08041252425241,58.42280500336841,-23.845441626358593,10.24743133276349,15.890794515331777,-80.0893322166683,-16.882884033929113,6.373972855916517,0.0,0.0,0.0,-0.8176520709774405,2.345210445651664,355
57.53625332598635,12.566735707011,-19.58041252425241,58.04252512621737,-21.095441626358593,12.659918181848933,14.390794515331777,-78.75067368671918,-16.309064064524364,6.487903841077235,0.0,0.0,0.0,-0.7636418816646999,2.2558741689074666,356
54.78625332598635,9.883424019942298,-21.08041252425241,57.55491548008695,-18.345441626358593,14.22322877045344,12.890794515331777,-77.31930368205889,-15.88597180759978,6.6523775608166,0.0,0.0,0.0,-0.6909924548369712,2.162523190610894,357
52.03625332598635,7.656175534824304,-22.58041252425241,57.08550651979742,-15.595441626358593,16.39409123076618,11.390794515331777,-75.78425255832225,-15.384548452604971,6.863513210491377,0.0,0.0,0.0,-0.5944933747259185,2.0479420109867648,358
49.28625332598635,5.162243632462959,-24.08041252425241,56.76042369286913,-12.845441626358593,17.675677617850354,9.890794515331777,-74.15213275808486,-15.018570070270897,6.981837763548063,0.0,0.0,0.0,-0.49605258799780566,1.899189246190065,359
46.53625332598635,3.387061503926719,-22.85004006335971,56.410365390317565,-10.095441626358593,19.928817696213812,8.390794515331777,-72.4820883933318,-14.301357061782019,7.043999176362602,0.0,0.0,0.0,-0.41771469754081797,1.7872658562674415,360
43.78625332598635,4.508213947599427,-21.35004006335971,55.96314005903489,-7.345441626358593,22.06042287423104,6.890794515331777,-70.66482836412946,-13.162682446223236,7.1067255029106216,0.0,0.0,0.0,-0.3439736739213447,1.6944134513849844,361
41.03625332598635,6.076730327015559,-19.85004006335971,55.43318514522826,-4.595441626358593,24.240840093286796,5.390794515331777,-68.8582643692578,-12.498645385464243,7.153360141183592,0.0,0.0,0.0,-0.2336004096933926,1.5087688248373106,362
38.28625332598635,8.297889350360295,-18.35004006335971,54.949082379792934,-1.8454416263585927,25.68735219113568,3.890794515331777,-67.10923240223725,-11.429348281558495,7.31649824994147,0.0,0.0,0.0,-0.14031223940969223,1.2683078780726131,363
35.53625332598635,10.83158335788346,-16.85004006335971,54.56049273684745,0.9045583736414073,27.77566815355822,2.390794515331777,-65.30276081133927,-10.055697490748944,7.547168986458155,0.0,0.0,0.0,-0.07792311265508972,1.0307298828023892,364
32.78625332598635,13.58158335788346,-15.35004006335971,54.15011473644961,3.6545583736414073,29.84964486416614,0.8907945153317769,-63.581066388276476,-9.028418977600733,7.797615118491675,0.0,0.0,0.0,-0.03150429338742345,0.783621142522853,365
30.03625332598635,16.304439078974557,-13.85004006335971,53.654438713427865,6.404558373641407,31.375263771625214,-0.6092054846682231,-61.928881569747446,-8.726747780578146,8.111702724190511,0.0,0.0,0.0,-0.01392398067280032,0.5215608913343386,366
27.28625332598635,18.52238972742461,-12.35004006335971,53.1653812646888,9.154558373641407,33.61383172865121,-2.109205484668223,-60.46502220436742,-8.894675684515613,8.394987297140508,0.0,0.0,0.0,0.033160593947374396,0.23578220320972063,367
24.53625332598635,21.17721872036119,-10.85004006335971,52.82557839088975,11.904558373641407,36.09883963724154,-3.609205484668223,-59.23923384157693,-9.115046305636188,8.688745717739152,0.0,0.0,0.0,0.08201762479785252,-0.09954181453907386,368
21.78625332598635,23.91015123303618,-9.35004006335971,52.572482713394095,14.654558373641407,38.02988455484692,-5.109205484668223,-58.354056889069795,-8.846091433029974,9.00370529170958,0.0,0.0,0.0,0.1082103422552257,-0.4175919882719961,369
19.03625332598635,26.66015123303618,-7.85004006335971,52.45809973463168,17.404558373641407,39.79231220050527,-6.609205484668223,-57.43394629465814,-8.534473346147024,9.268712945317011,0.0,0.0,0.0,0.11422625165939028,-0.656023956599975,370
16.28625332598635,29.24366310919733,-6.35004006335971,52.320957620460035,20.154558373641407,42.09946739970548,-8.109205484668223,-56.48727472673103,-8.294363957227695,9.50837908547407,0.0,0.0,0.0,0.05964864629214509,-0.9191871659860017,371
13.536253325986351,31.99366310919733,-4.85004006335971,52.180373351698265,22.904558373641407,43.930624842172854,-9.609205484668223,-55.71307820396523,-7.980902662424725,9.780016404680154,0.0,0.0,0.0,0.005859473408971883,-1.2444691050608776,372
10.786253325986351,34.28763326341484,-3.3500400633597103,51.926231397519295,25.654558373641407,46.293002427014486,-11.109205484668223,-55.062085437023974,-7.580215004510685,9.978304064334022,0.0,0.0,0.0,0.00016219451641818333,-1.547765251330199,373
8.036253325986351,37.034121290212326,-1.8500400633597103,51.62764687849017,28.404558373641407,48.62831281818524,-12.609205484668223,-54.49097645397874,-7.799439341421166,10.265860658915553,0.0,0.0,0.0,0.023432360299359488,-1.8576424504880893,374
5.286253325986351,39.784121290212326,-0.3500400633597103,51.368157330057585,31.154558373641407,50.402366835707646,-14.109205484668223,-54.19581676596088,-7.26213612826007,10.491536020048386,0.0,0.0,0.0,0.03524996440414866,-2.194506482482977,375
2.536253325986351,42.119798257972654,1.1499599366402897,51.14267829313104,33.90455837364141,52.760898492559974,-15.609205484668223,-53.98734876103894,-6.627917905988917,10.836548907866538,0.0,0.0,0.0,0.06802127682692308,-2.441621308636759,376
-0.21374667401364889,44.84059525782703,2.6499599366402897,50.68341004007122,36.65455837364141,55.03162683692913,-17.109205484668223,-53.8088504172541,-6.1584604248130415,11.103508293485556,0.0,0.0,0.0,0.09582410288340903,-2.675287586340887,377
-2.963746674013649,47.50274902419993,4.14995993664029,50.13763532512945,39.40455837364141,56.74937551939285,-18.609205484668223,-53.674551011649,-6.137925650315587,11.30863204438578,0.0,0.0,0.0,0.14950724967036236,-2.954421868198002,378
-5.713746674013649,49.61810704225187,5.64995993664029,49.61236872901358,42.15455837364141,59.09491267962431,-20.109205484668223,-53.66554175592615,-6.132132083678875,11.51877095556462,0.0,0.0,0.0,0.23911838949558972,-3.2255511701666078,379
-8.463746674013649,52.20408121742701,7.14995993664029,48.97322937555855,44.90455837364141,61.46212117547055,-21.609205484668223,-53.876524606243834,-5.99679739941565,11.712139741246201,0.0,0.0,0.0,0.34471055573769016,-3.5138972661063086,380
-11.213746674013649,54.64794243751031,8.64995993664029,48.3296093925304,47.65455837364141,63.201419601018124,-23.109205484668223,-53.96110472408358,-6.198711496336538,11.939735830057437,0.0,0.0,0.0,0.4715223482638826,-3.768039546964,381
-13.963746674013649,57.081373184951744,10.14995993664029,47.87173686084035,50.40455837364141,65.6020901976399,-24.609205484668223,-53.96971505965784,-6.670315491986102,12.187556841681264,0.0,0.0,0.0,0.6169095200030803,-3.9675337580377725,382
-16.71374667401365,58.97522927603734,11.64995993664029,47.38145470476278,53.15455837364141,67.89548503352357,-26.109205484668223,-53.83061523928502,-7.134195920192825,12.352397118797668,0.0,0.0,0.0,0.7369080808942104,-4.164259861290315,383
-19.46374667401365,61.37534942906385,13.14995993664029,46.72527342439124,55.90455837364141,69.39423605460952,-27.609205484668223,-53.65010754013741,-7.316038635632184,12.409961295530465,0.0,0.0,0.0,0.8257388167914775,-4.29097899958578,384
-22.21374667401365,63.715708668650066,14.64995993664029,45.99102423721077,58.65455837364141,71.61846322211564,-29.109205484668223,-53.6280010502462,-7.584899132772732,12.376010479519397,0.0,0.0,0.0,0.9157721972585069,-4.351455370517138,385
-24.96374667401365,65.9926010213253,16.14995993664029,45.2296905000891,61.40455837364141,73.90563899116235,-30.609205484668223,-53.69628858308851,-8.090628634001689,12.353561618187523,0.0,0.0,0.0,1.008390569552872,-4.499131302312018,386
-27.71374667401365,67.72443454641441,17.64995993664029,44.62882197583867,64.15455837364141,75.46163574133126,-32.10920548466822,-53.71018945596378,-8.661117994529715,12.426261414927037,0.0,0.0,0.0,1.1079135757588452,-4.670086819088598,387
-30.46374667401365,70.02288512434606,19.14995993664029,44.19226913670064,66.90455837364141,77.59702353678026,-33.60920548466822,-53.5268426576662,-8.926463808226055,12.517125165224055,0.0,0.0,0.0,1.1923148865879236,-4.785887445250626,388
-33.21374667401365,71.76349828855629,20.64995993664029,43.52071030923653,69.65455837364141,79.56491396841609,-35.10920548466822,-53.334496064386414,-8.641909345111417,12.618160610556203,0.0,0.0,0.0,1.2374330961194615,-4.892367096560179,389
-35.96374667401365,74.010656980058,22.14995993664029,42.583520334430055,72.40455837364141,81.42908987298037,-36.60920548466822,-53.086043433970964,-8.390122979312492,12.7493980151325,0.0,0.0,0.0,1.2482132682545362,-5.07968329729916,390
-38.71374667401365,75.58561345481647,23.64995993664029,41.51985797989751,75.15455837364141,82.54783908104662,-38.10920548466822,-52.74847263093534,-8.385559482621142,12.88933174574673,0.0,0.0,0.0,1.2551379629452772,-5.29074997474836,391
-41.46374667401365,77.73210715942689,25.14995993664029,40.74163699848262,77.90455837364141,84.30648793508466,-38.266601832437786,-52.31159100243099,-8.440831991534855,13.053388638960499,0.0,0.0,0.0,1.246547684066375,-5.462588572102436,392
-44.21374667401365,79.95640700377886,26.64995993664029,40.02889906832641,80.65455837364141,85.83545956667605,-37.77695331863821,-51.76829486720082,-8.413998751920497,13.27145427747654,0.0,0.0,0.0,1.1376879520777523,-5.7360318920341955,393
-46.96374667401365,81.53984447629392,28.14995993664029,38.83824166051899,83.40455837364141,86.39022144578927,-36.27695331863821,-51.20842096695575,-8.179962068241577,13.536551612770396,0.0,0.0,0.0,0.9613131901408374,-6.083731283850055,394
-49.71374667401365,83.5014844688923,29.64995993664029,37.50312533830972,86.15455837364141,87.60877957188221,-34.77695331863821,-50.53004224919045,-8.124750497700125,13.765680440393368,0.0,0.0,0.0,0.7952743667920964,-6.486999738691865,395
-52.46374667401365,84.66657695581866,31.14995993664029,35.8528841566562,88.90455837364141,88.723970129719,-34.29496182374134,-49.580733352490846,-8.30039248143493,14.029917470787023,0.0,0.0,0.0,0.6972019445395325,-6.9169002184673785,396
-55.21374667401365,86.06169441731882,32.649959936640286,33.37366422246008,91.65455837364141,89.66746783202389,-33.89501036761129,-48.514680343851694,-8.131324158965239,14.3590340020456,0.0,0.0,0.0,0.6330336643832091,-7.311152992547041,397
-57.96374667401365,86.64050417226102,33.49628129537443,30.62366422246008,94.40455837364141,89.75857166419718,-32.39501036761129,-47.509826596817724,-7.66688621428525,14.725114430992658,0.0,0.0,0.0,0.5742466008107152,-7.690893456001141,398
-60.71374667401365,87.84784469143213,33.33412166877765,28.298822862089825,97.15455837364141,90.44775551325331,-30.99451514300519,-46.45219157644759,-7.271534420843988,15.065127538499278,0.0,0.0,0.0,0.5610881380062078,-8.013718564747268,399
-63.46374667401365,88.94919771437702,31.834121668777648,28.2988228620898,97.86800701776363,90.9477175133885,-30.757402300822232,-45.263306075379134,-7.02088294569488,15.37996559552441,0.0,0.0,0.0,0.6381972946065828,-8.289950341337217,400
-66.21374667401365,90.36072935722,30.69285889943715,28.298822862089697,97.12727612148058,91.32400188745414,-30.579435558266205,-44.526460497704406,-6.678560465250009,15.606460916273345,0.0,0.0,0.0,0.6831727618175418,-8.518217228798731,401
-68.96374667401365,91.00664902855937,29.19285889943715,28.298822862089697,96.77571160457596,90.8656270980453,-29.079435558266205,-43.8118474821386,-6.673480406876159,15.706433118006423,0.0,0.0,0.0,0.7125870033929069,-8.586669256904433,402
-71.71374667401365,91.93705865033095,27.825845879695937,28.298822862089697,96.44116443479936,91.08008366488635,-28.00494955068685,-43.76468588718022,-6.456989228961142,15.712892129368425,0.0,0.0,0.0,0.6533406788291144,-8.52177818437979,403
-74.46374667401365,92.48655555226871,27.74022169024231,28.298822862089697,96.15897613292276,91.24469229910386,-27.89151410184102,-43.51055280663754,-6.650854307996683,15.630670161294068,0.0,0.0,0.0,0.5606601436497285,-8.406595040000532,404
-77.21374667401365,92.78915915248128,27.700177354495995,28.29882286208972,95.99695895597435,91.30715937473698,-27.808917712585224,-43.5086311947468,-7.053076840088986,15.47687614790675,0.0,0.0,0.0,0.4836199152210994,-8.189674312105943,405
-79.96374667401365,92.90755376502412,27.694991227946943,28.298822862089825,96.3803965336269,90.5207260940286,-26.308917712585224,-43.84229119170471,-7.55332942749942,15.23369726468475,0.0,0.0,0.0,0.4126252803153649,-7.816656075330672,406
-82.71374667401365,92.80537625045976,27.719798769728374,28.298822862089697,96.48617130434805,90.2979986600618,-25.484072679882264,-44.294845201839955,-7.821000421782982,14.850417371635105,0.0,0.0,0.0,0.3995110164633983,-7.449320642230315,407
-85.46374667401365,92.91956831589162,29.219798769728374,28.298822862089647,96.51789145808164,89.98625868189649,-25.517477172277623,-44.95704371398182,-8.129233288757469,14.51191455455014,0.0,0.0,0.0,0.4774753849605507,-7.140397094817092,408
-87.88128632958444,92.34009439492104,30.240071325975613,28.298822862089672,96.53264553660578,89.55039140186494,-25.55692041098177,-45.67725756969219,-8.615682324236785,14.273853603056573,0.0,0.0,0.0,0.543349139296207,-6.760230468793214,409
-87.89747135271956,92.02190749223962,31.740071325975613,28.2988228620898,96.23267687929973,89.73155453095708,-27.05692041098177,-46.44457224591844,-9.17168985819958,14.000484204785916,0.0,0.0,0.0,0.5478416019586291,-6.322362951138999,410
-87.89178935114643,91.55637854945915,33.24007132597561,28.298822862089697,96.32101144424432,88.9994318273748,-27.943998042808026,-47.33137223447755,-9.561104240129339,13.680935304426024,0.0,0.0,0.0,0.5781332732217207,-5.879191640045826,411
-88.15290079201924,90.52888513295014,34.74007132597561,28.298822862089697,96.46786021755996,88.10266509839747,-28.055311927490315,-48.437575389000216,-9.811480372576689,13.317919175555526,0.0,0.0,0.0,0.7138203430380213,-5.435852403040367,412
-88.12161461683324,89.68522780986288,36.24007132597561,28.298822862089825,96.16855242963192,87.88647934225875,-29.555311927490315,-49.5033004507829,-10.321876210998768,12.836649369594165,0.0,0.0,0.0,0.8632743498357792,-5.013697039739329,413
