JMW9912/AVATAR/Dynamixel/dynamixel_control/data/csv/poppy/.data/waist_test/2DoF (2P+Ori)/0429_2054_gymnast_2_2DoF_Ori_smpl_motor_degree.csv
theta1,theta2,theta3,theta4,theta5,theta6,theta7,theta8,theta9,theta10,theta11,theta12,theta13,theta14,theta15,frame
-98.22452303326037,85.08099439795868,-4.311110495668683,28.298822862089825,96.71309616152853,86.19261092512723,6.069568915663552,-28.29882286208969,-44.36274582017552,1.217743553030377,0.0,0.0,0.0,-0.9407846655431982,-5.394260697766095,0
-102.92226286383345,85.29060250048364,-4.174214707606565,28.29882286208985,101.34716404046647,86.54789213857293,5.436565433413564,-28.29882286208971,-40.014119157569496,1.391546291127158,0.0,0.0,0.0,-0.8047609780248786,-4.020756019123266,1
-103.86003570365652,85.98797068168881,-2.830291442178454,28.29882286208972,102.46926670219736,87.6400453838574,3.187531501246261,-28.29882286208983,-36.17143211966845,1.5147464024239259,0.0,0.0,0.0,-0.7075774015398747,-3.7221333760196664,2
-104.07232474859487,86.21159765583043,-0.40530232045673453,28.298822862089697,102.67397335193488,87.39885914929339,3.1309189277835943,-28.29882286208983,-35.072248697778214,1.5449066731001921,0.0,0.0,0.0,-0.6967825822656775,-3.33445782400631,3
-104.83112461776625,86.27877805861824,-0.42904955202654005,28.298822862089697,103.4212934941744,87.5104946274727,3.1469311076252824,-28.298822862089672,-34.29902449964612,1.5726778109002566,0.0,0.0,0.0,-0.6745033936388234,-2.980662532835222,4
-104.65969731238584,86.25117908523129,-0.4202321206825349,28.298822862089924,103.21507380202691,87.54418274380909,3.1571229010146333,-28.29882286208971,-34.71113875445057,1.5462505782176776,0.0,0.0,0.0,-0.6598041457471362,-2.6355780928537285,5
-104.44277836291155,86.24128018631875,-0.41590064469939686,28.298822862089697,103.01001128519593,87.52963457260837,3.1561838903650035,-28.298822862089615,-33.48236667410579,1.5623404380497004,0.0,0.0,0.0,-0.6743307378597632,-2.5235193516949512,6
-103.74279016926617,86.378295351355,0.44691292537297095,28.298822862089697,102.45799411693977,87.49104705319569,3.1542673867111457,-28.2988228620898,-32.02015371383852,1.5733903219723075,0.0,0.0,0.0,-0.697247829337467,-2.357923337918132,7
-102.61485703673743,86.31715289403337,0.3850332890294001,28.298822862089875,101.55172112010544,87.3964354574965,3.144774771851522,-28.29882286208964,-29.901343647850506,1.6134942566088317,0.0,0.0,0.0,-0.7179918815418062,-2.2952885238989307,8
-101.22240683532029,86.35954702060805,0.26060836426014544,28.298822862089697,100.25012860725646,87.18714278311121,3.743048582989721,-28.298822862089725,-28.547241141521415,1.6599836926446674,0.0,0.0,0.0,-0.7507954779912106,-1.9925034498042933,9
-98.3550624077076,86.02180067693517,-2.3324378281131857,28.298822862089697,97.85104001936394,86.75300369134115,5.53455698966451,-28.29882286208971,-25.971676497642687,1.6860784100117516,0.0,0.0,0.0,-0.8269521751846077,-1.724537691758748,10
-90.09397805636972,85.51018208297802,-7.465572536324459,28.298822862089697,89.49743359691152,86.19114455521246,10.504096664782159,-28.29882286208959,-25.57271207905192,1.6709669133544436,0.0,0.0,0.0,-0.9040108899419073,-1.502080544709579,11
-79.09397805636972,84.71369908421428,-13.465572536324458,34.578951167202256,78.91394876190122,85.26363154585329,15.430794641660096,-37.6950254592615,-33.82262097670907,1.3390715978717218,0.0,0.0,0.0,-0.9150377694217681,-0.7417142413019435,12
-68.09397805636972,82.38660344605881,-19.46557253632446,34.260276380761226,67.91394876190122,82.79241319211204,21.430794641660096,-36.480410645081214,-44.82262097670907,1.0984046731747872,0.0,0.0,0.0,-1.0316382144467935,-0.5748321317437232,13
-57.09397805636972,85.44393948231668,-25.46557253632446,28.298822862089697,56.913948761901224,86.30819203607031,27.430794641660096,-28.29882286208962,-40.92479247662328,1.183507694804564,0.0,0.0,0.0,-1.0939903279206882,-0.5054448083820958,14
-46.09397805636972,85.27329196428191,-31.46557253632446,28.298822862089697,45.913948761901224,86.5130372949828,33.4307946416601,-28.298822862089835,-51.92479247662328,0.879124329136081,0.0,0.0,0.0,-1.08944087239706,0.6192438761249264,15
-35.09397805636972,85.10831391775187,-37.46557253632446,28.298822862089697,34.913948761901224,87.26288493752637,39.4307946416601,-28.298822862089697,-62.92479247662328,0.7907365377080716,0.0,0.0,0.0,-1.0824764488248524,2.642302624018483,16
-24.09397805636972,86.5558681194551,-41.31575240786097,28.2988228620898,23.913948761901224,89.07186823986386,45.19577219104479,-28.298822862089686,-73.92479247662328,0.8208320629822671,0.0,0.0,0.0,-1.09117447357602,1.5794286046644777,17
-13.093978056369721,88.98064048817871,-35.31575240786097,28.298822862089825,12.913948761901224,90.74881133746115,39.780431740134546,-28.298822862089605,-84.92479247662328,0.7667852830585659,0.0,0.0,0.0,-1.0574791209127088,0.21754968016046117,18
-8.450470586939593,90.70743239837743,-29.31575240786097,28.298822862089697,7.853409090699612,91.96421869678979,34.83721335364921,-28.2988228620897,-92.81493477717551,0.7337242475446297,0.0,0.0,0.0,-1.067710101334641,0.2516819596621202,19
-6.459062088961976,92.57710696906119,-26.406959578528287,28.29882286208985,5.8388152339097354,93.27256973297932,32.1243902587379,-28.298822862089708,-103.81493477717551,0.7318771607533223,0.0,0.0,0.0,-1.0549813238013759,0.6485520272887375,20
-3.9603468904102224,94.26967518503861,-23.827808099200613,28.298822862089647,3.8596044565179146,94.66279183393738,29.403461678547746,-28.29882286208985,-105.52718891775528,0.6811707193150139,0.0,0.0,0.0,-0.9876042851790675,0.5189777744225326,21
-1.8031148464307774,94.75291776567583,-23.442001168491657,28.298822862089697,1.5014459454323184,95.01842757313028,28.98226628662916,-28.29882286208982,-107.35938250906375,0.713922165394409,0.0,0.0,0.0,-0.9900283967522316,0.4612338568979754,22
0.044817069041598746,94.90930773178424,-23.46642364798132,28.298822862089875,-0.10706820434494141,95.23352705568463,27.98288418460407,-28.298822862089636,-112.32810871579665,0.7234665082816664,0.0,0.0,0.0,-1.0037888496093186,0.6506547302572191,23
0.8641017545772706,95.30720036872684,-21.07514423339882,28.29882286208972,-0.9009993747796188,95.52629130494128,25.643250544053135,-28.298822862089615,-115.2740360691027,0.7356431542026323,0.0,0.0,0.0,-1.0402709352170785,0.7390999145766659,24
1.056227750494952,95.40971006699951,-21.04730928054587,28.29882286208972,-1.1416558015146239,95.51137386188415,25.689179249201654,-28.29882286208973,-114.2414423972398,0.7282964159058033,0.0,0.0,0.0,-1.0903217734176245,0.7758961237203786,25
0.6407898445795264,95.37967867887758,-20.99963167049228,28.298822862089594,-0.8068900864066312,95.44039441546488,25.71532569384556,-28.298822862089708,-112.75877672393959,0.7258155786582839,0.0,0.0,0.0,-1.1298434794215741,0.8429453271379649,26
-1.3908030362810948,95.04272995256875,-20.890107191562024,28.29882286208985,1.3154496570456413,95.00295568603218,25.66327198358744,-28.298822862089814,-112.09709012661655,0.698999950122208,0.0,0.0,0.0,-1.1604773293827093,0.8686857083820421,27
-5.680601026752416,94.81852018963875,-19.113940877132137,28.2988228620899,5.281217890079836,94.48095504371844,25.028809678192566,-28.298822862089587,-104.86759047048966,0.6680432681688814,0.0,0.0,0.0,-1.1999985086213825,0.5202982171862898,28
-9.369841482438922,94.50555823750288,-19.655839971379727,28.298822862089697,9.049565785755405,94.47975406675357,23.35397627709274,-28.29882286208969,-104.03618330503569,0.6836506289735818,0.0,0.0,0.0,-1.2595739085752848,0.08612794331706866,29
-11.282267608946983,94.16235210155558,-19.854056954044776,28.298822862089697,10.704160992988186,93.62696165912868,26.02757284091649,-28.298822862089672,-115.03618330503569,0.7221733695347028,0.0,0.0,0.0,-1.3167078207202874,-0.11442654586869944,30
-17.52527581300952,90.70115100114371,-25.854056954044776,28.29882286208972,17.099662611845638,90.44480074018261,30.93658133254161,-28.298822862089832,-126.03618330503569,1.0610734963307271,0.0,0.0,0.0,-1.3055257387257335,1.6518155533358718,31
-23.22954691334934,90.52289262379864,-27.113958641114248,28.29882286208985,22.826041524158693,90.35660186071978,29.79881534650502,-28.29882286208971,-128.40169695215664,0.8916223357232428,0.0,0.0,0.0,-1.3622124740126795,1.341644340027297,32
-31.52475872036754,89.04967692882734,-26.889469142955416,28.29882286208985,30.916874300006242,88.7797075807844,29.42407473031227,-28.29882286208971,-117.40169695215664,0.7440567876932331,0.0,0.0,0.0,-1.3511994021939346,1.0690251632858778,33
-42.524758720367544,87.28214748574233,-21.74696119526569,28.29882286208962,41.91687430000624,86.57943849116229,26.383108922501474,-28.29882286208968,-106.40169695215664,0.7025409236617044,0.0,0.0,0.0,-1.339418630948618,1.1923024577197774,34
-53.524758720367544,85.07095164803883,-16.537367083664044,28.298822862089647,52.91687430000624,84.62368313285684,20.83107005476018,-28.2988228620897,-95.40169695215664,1.2012278454573542,0.0,0.0,0.0,-1.3542453173043596,0.2645648541217306,35
-64.52475872036754,83.51978064497182,-10.537367083664044,28.29882286208972,63.91687430000624,83.05271385306352,14.831070054760179,-28.29882286208971,-84.40169695215664,1.573491146328661,0.0,0.0,0.0,-1.3580569414393753,-1.0685543452970834,36
-75.52475872036754,83.72300335102175,-4.537367083664044,28.298822862089594,74.91687430000624,82.97706568079263,8.831070054760179,-28.29882286208969,-73.40169695215664,1.7957859427031408,0.0,0.0,0.0,-1.3497415196594826,-1.7525421470735887,37
-86.52475872036754,83.59678615954998,1.4626329163359557,28.29882286208985,85.91687430000624,83.53215455906111,2.831070054760179,-28.298822862089718,-62.40169695215664,1.6069353274973077,0.0,0.0,0.0,-1.31604503625973,-1.6481853426751478,38
-97.52475872036754,82.44775469218001,7.462632916335956,28.298822862089825,96.91687430000624,82.64960272765187,-3.168929945239821,-28.298822862089686,-51.40169695215664,1.2271747800547457,0.0,0.0,0.0,-1.2443785092385264,-0.9461838961535314,39
-108.52475872036754,78.93524856079856,13.462632916335956,28.29882286208972,107.91687430000624,79.2578843801546,-9.168929945239821,-28.298822862089708,-59.40300734241493,0.8357023878319537,0.0,0.0,0.0,-1.2506545408784842,-0.2941672659936116,40
-117.78885140300082,77.61513949705413,19.462632916335956,28.298822862089647,118.47314900983847,78.3639372443221,-15.168929945239821,-28.29882286208955,-70.40300734241492,0.7143678010937854,0.0,0.0,0.0,-1.2979619218853053,-0.09472219115861703,41
-122.59023828454596,76.57920793466633,25.462632916335956,28.298822862089672,123.44393322362659,77.72431414876591,-21.16892994523982,-28.298822862089587,-81.40300734241492,0.7922434401763415,0.0,0.0,0.0,-1.2456664773620538,0.2193493408813143,42
-127.3468371631662,77.21887516902102,31.462632916335956,28.29882286208985,127.7764391333211,78.64656189053368,-27.16892994523982,-28.298822862089597,-92.40300734241492,1.013121678730128,0.0,0.0,0.0,-1.2058784326386516,0.4230897031951584,43
-129.86781495509234,78.08436783288845,37.462632916335956,28.298822862089594,130.0381040943514,80.14112961275764,-33.168929945239825,-28.29882286208982,-103.40300734241492,1.1525622601487964,0.0,0.0,0.0,-1.1579320494637766,0.464803770174919,44
-131.2636544327078,79.4199223896337,43.462632916335956,28.298822862089697,130.99263941687457,81.71957575979222,-39.168929945239825,-28.298822862089683,-114.40300734241492,1.244079030320529,0.0,0.0,0.0,-1.1284200009244456,0.47404555570602086,45
-130.73579222032424,80.51801539258206,48.66101027660961,28.298822862089697,130.27897771248382,83.10112690605429,-45.168929945239825,-28.298822862089715,-125.40300734241492,1.2155826147561188,0.0,0.0,0.0,-1.087791427724382,0.5572812627648719,46
-127.41889237488132,81.98188019758007,46.144911741613605,28.298822862089697,126.87817456257386,84.33078115496876,-44.421924627157196,-28.2988228620897,-130.02859557614107,1.0391500987498203,0.0,0.0,0.0,-1.079502500796803,0.5071823773718316,47
-121.73658237819441,81.54143497740094,40.144911741613605,28.298822862089875,121.53175679204783,83.68107450132219,-38.421924627157196,-28.298822862089693,-119.02859557614107,0.8301942208913576,0.0,0.0,0.0,-1.070382643174338,0.12127133021084496,48
-114.9361102790473,81.46198134033112,34.144911741613605,28.29882286208985,115.29912852374964,83.10049516572315,-32.421924627157196,-28.298822862089658,-108.02859557614107,0.8923921407683614,0.0,0.0,0.0,-1.0868534646876569,-0.49111552423038535,49
-109.75300343618474,83.36402290626845,28.144911741613605,28.298822862089594,109.09534315458622,84.32976302077034,-26.421924627157196,-28.298822862089665,-97.02859557614107,1.4623064615675858,0.0,0.0,0.0,-1.0829687868596354,-1.6691298831320869,50
-102.62364337630859,84.30770484363576,22.144911741613605,28.298822862089697,102.43232164582723,84.64520953627526,-20.421924627157196,-28.298822862089622,-86.02859557614107,1.9947028554589283,0.0,0.0,0.0,-1.0913806783531386,-2.357052913213822,51
-94.81166558793649,83.94662639908967,16.144911741613605,28.298822862089697,94.04322069647559,84.35279743445506,-14.421924627157196,-28.29882286208958,-75.02859557614107,2.160603722558118,0.0,0.0,0.0,-1.0957783019621865,-1.99831360462094,52
-83.81166558793649,81.00460117297506,10.144911741613605,28.298822862089825,83.04322069647559,81.16730312886095,-8.421924627157196,-28.298822862089686,-64.02859557614107,1.614791636922883,0.0,0.0,0.0,-1.2389749667776098,-0.7546003433675023,53
-72.81166558793649,83.3465305349931,4.144911741613605,39.29882286208982,72.04322069647559,84.03966047136554,-2.421924627157196,-39.298822862089686,-53.02859557614107,0.9859530958827236,0.0,0.0,0.0,-1.236753501514237,0.497553316812671,54
-61.81166558793649,79.15240413195804,-1.8550882583863952,50.29882286208982,61.043220696475586,78.10200523721588,3.578075372842804,-50.298822862089686,-64.02859557614107,0.932368302095132,0.0,0.0,0.0,-1.2190444358228492,1.2288700061049591,55
-50.81166558793649,85.1978136577541,-7.855088258386395,39.29882286208982,50.043220696475586,85.17304020130854,9.578075372842804,-39.298822862089686,-75.02859557614107,0.9292059004680867,0.0,0.0,0.0,-1.3066223791367675,1.0665679429348967,56
-39.81166558793649,89.88706518480795,-13.855088258386395,28.29882286208982,39.043220696475586,89.22843602497899,15.578075372842804,-28.298822862089686,-86.02859557614107,0.7956143279691164,0.0,0.0,0.0,-1.3399942760349146,0.6072822156400026,57
-28.81166558793649,89.5883402864599,-19.855088258386395,28.298822862089697,28.043220696475586,88.73168436546139,21.578075372842804,-28.29882286208978,-97.02859557614107,1.304513174186541,0.0,0.0,0.0,-1.3159265485411158,1.5912798802208366,58
-17.81166558793649,90.48025937622904,-25.855088258386395,28.29882286208972,17.043220696475586,89.92724870099826,27.578075372842804,-28.29882286208975,-108.02859557614107,1.4526196467220414,0.0,0.0,0.0,-1.2849822182425166,2.059709212825012,59
-6.8116655879364885,90.96373504160887,-25.055814029896354,28.29882286208985,6.043220696475586,90.50996826361568,29.51802686250037,-28.298822862089633,-119.02859557614107,2.1756479463059875,0.0,0.0,0.0,-1.2690968983507729,2.5388283934400437,60
4.1883344120635115,92.29744223548494,-23.000147114075954,28.29882286208985,-4.956779303524414,91.37279795789848,29.57025003757183,-28.29882286208961,-130.02859557614107,2.375665908864353,0.0,0.0,0.0,-1.2123072110020356,2.513922669807215,61
15.188334412063512,93.79731701551144,-20.901447966600255,28.298822862089594,-15.956779303524414,92.94146500528089,27.40505172464421,-28.298822862089853,-141.02859557614107,2.5505568380105164,0.0,0.0,0.0,-1.202998228616437,2.475548346053744,62
26.18833441206351,94.66680139696534,-21.107052628820703,28.298822862089825,-26.956779303524414,93.8657624181479,27.568135859658277,-28.298822862089807,-152.02859557614107,2.729814355698336,0.0,0.0,0.0,-1.1991777077733705,2.705851214595533,63
33.56140710578378,95.40844545948376,-21.26401481245376,28.298822862089697,-34.06514744455609,94.58858616497362,27.712860708981527,-28.298822862089576,-163.02859557614107,2.815621043885055,0.0,0.0,0.0,-1.2118570458252735,2.8652174394493373,64
34.28239402929761,95.13881783545358,-23.63935515919391,28.298822862089594,-34.53999515798644,94.70154255460493,27.74555844744098,-28.298822862089683,-164.84896531761459,2.864183618191845,0.0,0.0,0.0,-1.2358619286180619,3.0251531128070837,65
35.16464055588006,94.84246118721883,-23.57084644668824,28.298822862089825,-35.330800784121735,94.28755929851941,27.670092489886127,-28.29882286208968,-165.49391716386378,2.963654740694841,0.0,0.0,0.0,-1.2665869272314203,3.3006374698362047,66
35.91408861935495,93.94848330609204,-25.811249540224797,28.29882286208972,-36.217374672854675,93.38619000104961,29.93663052899408,-28.29882286208986,-165.44617233575244,2.9980873784663484,0.0,0.0,0.0,-1.3021256692510887,3.3111838015360866,67
36.15798974049342,93.68743159753141,-25.72337833065179,28.29882286208962,-36.51621079429187,93.04588886210234,29.903177202537947,-28.298822862089732,-165.7118318518375,3.0476022732593884,0.0,0.0,0.0,-1.3592164016897863,3.396611348451398,68
36.24391287925951,93.40466963771411,-25.645862487490646,28.298822862089594,-36.5609210821939,92.79428090041249,29.874494392447602,-28.29882286208983,-165.61922704307696,3.0633269321007432,0.0,0.0,0.0,-1.3912931548542276,3.35731315782054,69
36.52581909654081,92.99185997573534,-25.559191007921893,28.298822862089697,-36.65954427886054,92.37616618593619,29.798653132901578,-28.298822862089857,-166.23558879576623,3.146300761325693,0.0,0.0,0.0,-1.404097068629293,3.2975198248371034,70
35.73062897361822,92.81444503833801,-25.487970448676986,28.29882286208962,-36.24699551350507,91.85796838992364,32.16683688750186,-28.298822862089903,-166.07060720244286,3.188799262935783,0.0,0.0,0.0,-1.4340445076151047,3.2431159620962107,71
33.81733369866136,92.47600441178805,-25.360218875919717,28.298822862089672,-33.9693525057913,91.78163754852314,29.775717099212223,-28.29882286208986,-166.80260996657495,3.282694253399616,0.0,0.0,0.0,-1.4679303830061,3.236482959333802,72
30.68795556366934,92.01434767016856,-25.18082003311466,28.298822862089594,-31.073366369663482,91.37399978730947,29.77739101820882,-28.298822862089686,-166.48568503653297,3.3092683864863783,0.0,0.0,0.0,-1.50763267287234,3.1774316238200555,73
22.13273095216419,92.68064251767959,-25.17759412685127,28.298822862089875,-22.756982918621578,91.50480685136998,29.93716826851579,-28.298822862089757,-165.4311065916577,2.9567662375355335,0.0,0.0,0.0,-1.503409803363736,3.3782067021723923,74
18.447376990693783,92.29035176972755,-22.539287300892866,28.298822862089672,-19.533840255102035,91.03493515023878,27.50445075526409,-28.298822862089914,-164.77066908343735,2.9854923274199665,0.0,0.0,0.0,-1.575520798012489,3.034161890413379,75
7.447376990693783,91.68970143209609,-17.27051650526037,28.298822862089697,-8.533840255102035,90.21226359558328,22.669491598949985,-28.298822862089686,-157.2015979583836,2.0471764829496246,0.0,0.0,0.0,-1.6156221032991704,2.697894493213919,76
-3.5526230093062168,88.56384722133394,-21.526290726520692,28.298822862089672,2.466159744897965,87.07921206482912,26.97087353809423,-28.29882286208981,-160.1168659660141,2.3228848584751294,0.0,0.0,0.0,-1.6285481515973226,3.6442980314268185,77
-14.552623009306217,87.87073039398852,-21.407241067516914,28.298822862089672,13.466159744897965,86.73559335586077,26.882927185843144,-28.298822862089693,-155.44708355247928,1.903895737680312,0.0,0.0,0.0,-1.6812927576977696,2.542444671105335,78
-25.552623009306217,85.69935202639059,-16.212800795559254,28.29882286208985,24.466159744897965,84.78506149046063,21.330922330749626,-28.298822862089825,-147.79482497738263,1.4787234389651942,0.0,0.0,0.0,-1.6685446997077187,2.0342322874922933,79
-36.55262300930622,82.25133566087142,-10.212800795559254,28.29882286208972,35.466159744897965,81.05306784346304,15.330922330749626,-28.29882286208971,-136.79482497738263,0.977747023745245,0.0,0.0,0.0,-1.6577743995558978,1.0554865401825795,80
-47.55262300930622,82.00316344153046,-4.212800795559254,28.298822862089697,46.466159744897965,80.80490300544791,9.330922330749626,-28.29882286208982,-125.79482497738263,0.846909014234651,0.0,0.0,0.0,-1.5709995348572052,-0.37079672406331265,81
-58.55262300930622,83.14639035718383,1.7871992044407463,28.298822862089825,57.466159744897965,81.95290736931791,3.330922330749626,-28.29882286208989,-114.79482497738263,0.8813843991831974,0.0,0.0,0.0,-1.492744463145869,-0.9937469941371008,82
-69.55262300930622,80.24437750080865,7.787199204440746,28.29882286208972,68.46615974489796,80.19092800097772,-2.669077669250374,-28.298822862089587,-103.79482497738263,0.7803896266112439,0.0,0.0,0.0,-1.4079886725146094,-0.22501339347580931,83
-80.55262300930622,71.66708121187743,13.787199204440746,28.29882286208972,79.46615974489796,73.41571238395504,-8.669077669250374,-28.298822862089704,-114.79482497738263,1.0362263154317137,0.0,0.0,0.0,-1.346117962103865,0.9142025551974806,84
-91.55262300930622,68.50565721481792,19.787199204440746,28.29882286208962,90.46615974489796,70.89254823047536,-14.669077669250374,-28.298822862089708,-125.79482497738263,1.2827503667012432,0.0,0.0,0.0,-1.2522551040319796,1.0199236468593194,85
-102.55262300930622,68.56509366526383,25.787199204440746,28.298822862089825,101.46615974489796,70.94386368096508,-20.669077669250374,-28.29882286208969,-136.79482497738263,1.548067348973127,0.0,0.0,0.0,-1.1991447924977703,1.1531952209006566,86
-113.55262300930622,65.17763091431246,31.787199204440746,28.29882286208962,112.46615974489796,68.04403701873758,-26.669077669250374,-28.298822862089686,-147.79482497738263,2.150932826283516,0.0,0.0,0.0,-1.1776297090456833,1.8136084550456322,87
-124.55262300930622,64.02563785427327,37.787199204440746,28.298822862089747,123.46615974489796,68.12945632078261,-32.66907766925037,-28.298822862089853,-158.79482497738263,2.5642139143940117,0.0,0.0,0.0,-1.1510798618415652,2.0411812961691123,88
-135.55262300930622,64.46693545515257,43.787199204440746,28.29882286208957,134.46615974489796,68.72291119053611,-38.66907766925037,-28.2988228620898,-160.76931927501732,2.674576176776618,0.0,0.0,0.0,-1.1732566470697416,1.9518242243601607,89
-138.3579670587339,66.95387576677287,49.787199204440746,28.298822862089697,137.74393270732025,71.76364374994554,-44.66907766925037,-28.29882286208968,-160.16862649234537,2.5954736172054433,0.0,0.0,0.0,-1.1400383492176085,1.7107643729648458,90
-135.47439080579105,71.41206911992042,55.787199204440746,28.29882286208985,134.94583091811188,75.51935446311192,-50.66907766925037,-28.29882286208971,-157.30457823331355,2.323791883006517,0.0,0.0,0.0,-1.1456702302714896,1.4039606977935084,91
-130.31666964009563,73.58388951032384,56.1681236238256,28.29882286208985,130.66771770587374,78.39531175574899,-52.53562973670627,-28.298822862089583,-153.52026724564607,1.9185255117495714,0.0,0.0,0.0,-1.1368125645849776,1.2897430183951986,92
-122.68094687682422,75.15190145781753,50.1681236238256,28.298822862089672,122.3622164689862,79.21720513813561,-46.53562973670627,-28.298822862089697,-142.52026724564607,1.306474456331199,0.0,0.0,0.0,-1.2134027675735022,0.6068612790986508,93
-112.39023527697552,76.86358639779752,44.1681236238256,28.298822862089647,112.83784814080916,80.44115862804314,-40.53562973670627,-28.298822862089633,-131.52026724564607,0.8780917478467788,0.0,0.0,0.0,-1.1709750069272418,-0.35841251262405116,94
-106.18147478131525,81.12654800570425,38.1681236238256,28.298822862089594,106.33362277286967,83.23296614367159,-34.53562973670627,-28.298822862089914,-120.52026724564607,1.3443416351876671,0.0,0.0,0.0,-1.1685082372442555,-1.5781606314281111,95
-99.08565813567306,84.6841072169411,32.1681236238256,28.298822862089825,98.55897756377176,85.70395792761175,-28.53562973670627,-28.298822862089686,-109.52026724564607,1.9832794001688332,0.0,0.0,0.0,-1.1458090561946577,-2.65835458322074,96
-91.40859800776663,86.41177549419263,26.1681236238256,28.298822862089697,90.62020349686017,87.51328486922634,-22.53562973670627,-28.298822862089708,-98.52026724564607,1.8345158102631276,0.0,0.0,0.0,-1.156796142872422,-1.904068854099289,97
-80.40859800776663,84.72731634111997,20.1681236238256,28.29882286208972,79.62020349686017,84.9906031065006,-16.53562973670627,-28.29882286208986,-87.52026724564607,1.0843244283914621,0.0,0.0,0.0,-1.2478860165810015,0.05563012097764764,98
-69.40859800776663,87.51448859839317,14.1681236238256,35.018113412447214,68.62020349686017,87.28177697284451,-10.53562973670627,-35.47216217311477,-98.52026724564607,1.3554291228994917,0.0,0.0,0.0,-1.3485916758261443,1.273067559481805,99
-58.40859800776663,88.04388060928285,8.1681236238256,28.298822862089697,57.62020349686017,88.28856533803551,-4.5356297367062695,-28.29882286208969,-109.52026724564607,1.8651063806239228,0.0,0.0,0.0,-1.3914967422254703,2.1228898629130697,100
-47.40859800776663,90.84632650030102,2.1681236238256005,28.29882286208985,46.62020349686017,90.60260537171487,1.4643702632937305,-28.2988228620897,-120.52026724564607,1.4977256249437747,0.0,0.0,0.0,-1.3473351292192477,0.9529046184847327,101
-36.40859800776663,90.69008741663126,-3.8318763761743995,28.298822862089672,35.62020349686017,89.98124390302546,7.4643702632937305,-28.29882286208974,-131.52026724564607,2.6541117556135703,0.0,0.0,0.0,-1.29884523141921,1.9119777961543651,102
-25.408598007766628,90.92065454504667,-9.8318763761744,28.29882286208957,24.62020349686017,90.68263950782871,13.46437026329373,-28.298822862089608,-142.52026724564607,2.401819393263775,0.0,0.0,0.0,-1.3148918976581274,2.120722020776884,103
-14.408598007766628,88.42414526026752,-15.8318763761744,28.298822862089697,13.62020349686017,88.02150563714815,19.46437026329373,-28.298822862089825,-153.52026724564607,3.4338571222288685,0.0,0.0,0.0,-1.299693163771543,3.1490365917866545,104
-3.408598007766628,88.56701676915876,-21.8318763761744,28.298822862089697,2.620203496860171,87.87759897176998,25.46437026329373,-28.29882286208986,-164.52026724564607,3.881939971546096,0.0,0.0,0.0,-1.318375658774995,3.206443954258436,105
7.591401992233372,88.48334436466583,-22.267024295861432,28.29882286208985,-8.37979650313983,87.32693160596054,28.71894227982755,-28.29882286208977,-169.3822731504923,4.208085506720784,0.0,0.0,0.0,-1.2757281031772796,3.511940790898301,106
18.591401992233372,87.14113932484173,-19.572464811208285,28.298822862089825,-19.37979650313983,85.83617435023667,25.90900393226258,-28.2988228620899,-170.23991309482574,4.501707622927849,0.0,0.0,0.0,-1.2624538492774546,4.104103619774681,107
29.591401992233372,83.93209600077861,-18.894378860605126,28.29882286208972,-30.37979650313983,82.06979730678039,27.630677896417016,-28.29882286208985,-170.77468556171942,4.784681269553275,0.0,0.0,0.0,-1.2955481839309528,4.921272977489571,108
40.53034889241535,78.42982052339309,-20.203603617856373,28.298822862089697,-41.20863222335414,76.73579342795138,29.06937142908213,-28.29882286208984,-171.26792660432133,5.14170160953737,0.0,0.0,0.0,-1.3325354842417572,5.744982337642024,109
42.51269138022617,68.63738384673721,-25.624243810688114,28.298822862089697,-43.31774685256223,67.09940419751013,32.17295968735972,-28.298822862089853,-171.48251418859257,5.596959312298454,0.0,0.0,0.0,-1.3707877859217001,6.376064780935742,110
45.364892074739096,57.63738384673721,-30.409387559513547,28.29882286208985,-45.40635902743628,56.099404197510125,36.20968862444228,-30.54052167146906,-171.85142229780294,5.977828250689281,0.0,0.0,0.0,-1.3810594264453981,6.885733159949145,111
43.945387112384665,46.63738384673721,-24.630091224732723,35.221855361490704,-43.22390235266537,45.099404197510125,31.968942056987263,-38.6102562013357,-172.48711158397498,6.350197080385875,0.0,0.0,0.0,-1.364195720988886,7.187816783447154,112
36.96483408147614,35.63738384673721,-18.630091224732723,40.066521865535144,-34.7866739623831,34.099404197510125,25.968942056987263,-43.718911303693496,-172.69675878690026,6.633301518888483,0.0,0.0,0.0,-1.3892893871898868,7.160254211012522,113
25.96483408147614,24.637383846737208,-12.630091224732723,39.96783094375304,-23.786673962383098,23.099404197510125,19.968942056987263,-44.45521243268097,-173.09823028714138,6.588879251204246,0.0,0.0,0.0,-1.3537108067612305,7.174866982471185,114
14.964834081476141,13.637383846737208,-6.630091224732723,37.25855428565399,-12.786673962383098,18.226116409157925,13.968942056987263,-42.468484354309105,-172.63282835169431,6.339456185502059,0.0,0.0,0.0,-1.3367464757432015,6.905224028054103,115
3.964834081476141,24.637383846737208,-0.6300912247327233,35.927430029813316,-1.786673962383098,29.226116409157925,7.968942056987263,-40.7030332825287,-172.6764275222444,5.821528011931615,0.0,0.0,0.0,-1.2985904778090451,6.70469881979828,116
-7.035165918523859,35.63738384673721,5.369908775267277,32.75863707841699,9.213326037616902,40.226116409157925,1.968942056987263,-36.694781368081564,-172.2200229860291,5.024059065826019,0.0,0.0,0.0,-1.306163687861826,5.998632952661825,117
-18.03516591852386,46.63738384673721,11.369908775267277,28.298822862089647,20.213326037616902,51.226116409157925,-4.031057943012737,-28.298822862089704,-169.7315177685103,4.031061823773307,0.0,0.0,0.0,-1.3896979939628549,4.6920625896151344,118
-29.03516591852386,57.63738384673721,17.369908775267277,28.298822862089825,31.213326037616902,62.226116409157925,-10.031057943012737,-28.298822862089676,-165.34494694056906,2.7601547159922,0.0,0.0,0.0,-1.4401989702505276,3.205274407630801,119
-40.03516591852386,68.63738384673721,23.369908775267277,28.29882286208972,42.2133260376169,73.22611640915792,-16.031057943012737,-28.29882286208976,-154.34494694056906,1.612187736530002,0.0,0.0,0.0,-1.380385834725591,1.4584868672601743,120
-51.03516591852386,79.63738384673721,29.369908775267277,28.298822862089594,53.2133260376169,84.22611640915792,-22.031057943012737,-28.298822862089686,-143.34494694056906,0.8034659526159094,0.0,0.0,0.0,-1.3353239630602656,0.23540189509245948,121
-62.03516591852386,89.85480814086773,23.834821943081483,28.298822862089953,64.2133260376169,89.30349196442339,-18.355439065913878,-28.298822862089743,-132.34494694056906,0.8606413308739307,0.0,0.0,0.0,-1.386555293624635,-0.8358896913161865,122
-73.03516591852386,91.33970699557314,17.834821943081483,28.29882286208985,75.2133260376169,90.95265447706164,-12.355439065913878,-28.298822862089857,-121.34494694056906,0.6695906450111117,0.0,0.0,0.0,-1.3241228124407398,-0.16519387142748704,123
-62.03516591852386,91.52933373210442,11.834821943081483,28.298822862089697,64.2133260376169,90.5199600585027,-6.3554390659138775,-28.298822862089697,-132.34494694056906,1.0344073010342163,0.0,0.0,0.0,-1.3125229184182217,0.12668611200116445,124
-51.03516591852386,94.49984031895823,5.834821943081483,28.298822862089697,53.213326037616895,92.78133567073229,-0.3554390659138775,-28.29882286208983,-140.27789555392206,1.0916709704905339,0.0,0.0,0.0,-1.291876448051166,-0.4356867968911746,125
-40.03516591852386,94.79393534937182,-0.16517805691851706,28.29882286208962,42.213326037616895,92.72454625487863,5.6445609340861225,-28.298822862089693,-151.27789555392206,1.5335199648602207,0.0,0.0,0.0,-1.275348357742601,0.5284653547204128,126
-29.03516591852386,95.07355179702992,-6.165178056918517,28.29882286208972,31.213326037616895,93.52687377004703,11.644560934086122,-28.29882286208982,-162.27789555392206,2.254978508068524,0.0,0.0,0.0,-1.273666519667291,1.197290602597964,127
-18.03516591852386,97.04465670455407,-12.165178056918517,28.298822862089697,20.213326037616895,95.90241908283305,17.644560934086122,-28.298822862089704,-162.70983150118772,2.412533767814035,0.0,0.0,0.0,-1.2879914701933,0.1333648017309143,128
-7.150875531586053,97.750430176811,-14.806202967156237,28.298822862089647,9.213326037616895,96.67575316846951,18.37209775252106,-28.29882286208983,-163.25942228189217,2.482617996354697,0.0,0.0,0.0,-1.2936469073721657,0.20234256338572837,129
-3.7167114967955803,99.46409456851251,-11.822770375083667,28.29882286208972,3.0468326653127855,98.1820126021224,17.72140496588946,-28.298822862089697,-165.0743671402304,2.766526453216762,0.0,0.0,0.0,-1.2825140828430353,0.4495077437097246,130
-3.184534987222888,100.13660103418991,-9.385227116758374,28.29882286208985,2.48992744491099,98.83473724607401,15.263937622691552,-28.298822862089697,-164.67913177655694,2.777520666656953,0.0,0.0,0.0,-1.2775024192475877,0.3378395068370793,131
-2.9081089798669044,100.10667393130353,-9.325243614635347,28.29882286208985,2.262331693206796,98.87478746092677,15.143781853158286,-28.29882286208982,-165.49031096883309,2.8681752897744692,0.0,0.0,0.0,-1.2387393473080643,0.5130672774901321,132
-3.1245949322964495,100.42198402617248,-6.9685905665219225,28.29882286208972,2.3468675708198328,98.67178637400737,15.173690158268181,-28.298822862089825,-165.50509309950593,2.9486251006530324,0.0,0.0,0.0,-1.264317195778585,0.5484334845395964,133
-4.699935096113859,100.89747515375961,-4.893381693647894,28.29882286208962,3.798185519619474,99.25091561131022,13.128432027395343,-28.298822862089825,-165.06140320397236,2.8513142962717533,0.0,0.0,0.0,-1.295954342987603,0.6050390388758925,134
-6.375572874148079,100.80729043121505,-5.200914263915998,28.298822862089697,5.476009855560416,99.11149932069415,13.514698033582803,-28.298822862089683,-164.1958477735417,2.7400809223447697,0.0,0.0,0.0,-1.3391500172227944,0.5613477235523787,135
-9.525463811120005,100.19067185831638,-5.844681998890503,28.298822862089594,8.906507388804831,98.73258942321033,11.841170170259117,-28.29882286208969,-162.90876381005145,2.4680293820073054,0.0,0.0,0.0,-1.3505508395369907,0.07402149780514129,136
-16.975731322925846,96.91873044927421,-11.201961826922547,28.298822862089697,15.972009296232745,95.72262085293279,17.33475441158884,-28.29882286208984,-163.82125868148822,2.648473888184938,0.0,0.0,0.0,-1.4004034992500178,0.9692918437219464,137
-24.75101500218425,94.96770506592732,-13.26146419243127,28.298822862089825,23.572329281126514,93.56354216572362,20.730602381512146,-28.29882286208993,-162.99353011536223,2.531942653920938,0.0,0.0,0.0,-1.4260492211442464,1.1058083225263697,138
-34.7026953515854,93.84786504331207,-10.635603351403347,28.29882286208972,33.727279494353276,92.44334275973391,17.954363950162925,-28.298822862089704,-157.80527243149928,1.8929642062093792,0.0,0.0,0.0,-1.4201147712183058,0.9442963387571953,139
-45.7026953515854,90.6445968330032,-7.647487974865093,28.298822862089825,44.727279494353276,89.7490687638974,12.244358395471098,-28.29882286208972,-146.80527243149928,1.2563488406856742,0.0,0.0,0.0,-1.4040312706208078,1.0465256101260254,140
-56.7026953515854,87.34343266596295,-1.6474879748650926,28.29882286208972,55.727279494353276,86.0704763100891,6.244358395471098,-28.298822862089708,-135.80527243149928,0.7636807516110748,0.0,0.0,0.0,-1.380475896400409,0.31887578485853124,141
-67.70269535158539,83.18403902768192,4.352512025134907,28.29882286208962,66.72727949435327,82.33656305513436,0.24435839547109772,-28.298822862089846,-124.80527243149928,0.7371682611622176,0.0,0.0,0.0,-1.337177517687134,-0.08384109519385467,142
-78.70269535158539,74.9104757317787,10.352512025134907,28.29882286208972,77.72727949435327,74.54199918236225,-5.755641604528902,-28.29882286208988,-133.40837161069214,1.0168101009731914,0.0,0.0,0.0,-1.3764411511295274,0.3753623789104474,143
-89.70269535158539,63.9104757317787,16.352512025134907,28.29882286208985,88.72727949435327,63.54199918236225,-11.755641604528902,-28.298822862089605,-144.40837161069214,1.7945438866471366,0.0,0.0,0.0,-1.3763942352015013,2.109572820753908,144
-100.70269535158539,52.9104757317787,22.352512025134907,28.298822862089697,99.72727949435327,53.81536654122879,-17.755641604528904,-29.199245176998716,-155.40837161069214,2.4752371473878654,0.0,0.0,0.0,-1.3683483666058656,3.444607322141892,145
-111.70269535158539,41.9104757317787,28.352512025134907,30.264589777458735,110.72727949435327,45.4025739866216,-23.755641604528904,-36.00290826133137,-163.47114964957862,2.8986353800396136,0.0,0.0,0.0,-1.3836271380571532,4.304742691859479,146
-122.70269535158539,32.30750945307865,34.35251202513491,32.658552492800666,121.72727949435327,36.05523397562602,-29.755641604528904,-38.18926700359291,-165.34484455372302,3.3169881417769864,0.0,0.0,0.0,-1.4092478186233146,4.890262335788249,147
-133.7026953515854,24.858466546466197,40.35251202513491,32.303665432163044,132.72727949435327,28.547641122026857,-35.755641604528904,-38.078949103344705,-166.71627727657378,3.823290710460115,0.0,0.0,0.0,-1.4425999539709058,5.178150056154118,148
-144.7026953515854,17.706327675606378,46.35251202513491,32.60110025694028,143.72727949435327,21.034608303455848,-41.755641604528904,-38.498463477966325,-168.4463854628514,4.5624360403073325,0.0,0.0,0.0,-1.4352658817101982,5.760379110080402,149
-133.7026953515854,15.071612951096062,40.35251202513491,31.684575726171637,132.72727949435327,16.778352932142358,-35.755641604528904,-37.27567241067572,-169.86386904015268,5.155477715768679,0.0,0.0,0.0,-1.4632493573924572,6.17963976550189,150
-122.70269535158539,21.48724910983649,34.35251202513491,30.267961145177363,121.72727949435327,18.262471549809163,-29.755641604528904,-35.94633882916996,-170.75753270791725,5.523185702825652,0.0,0.0,0.0,-1.4722653841885087,6.663546413755078,151
-111.70269535158539,32.48724910983649,28.352512025134907,28.29882286208985,110.72727949435327,29.262471549809163,-23.755641604528904,-30.355489416640527,-171.65967715520026,5.932118449905735,0.0,0.0,0.0,-1.517332868166921,6.907048805774671,152
-100.70269535158539,43.48724910983649,22.352512025134907,28.298822862089825,99.72727949435327,40.26247154980916,-17.755641604528904,-28.298822862089697,-171.75378376796277,6.275456545872609,0.0,0.0,0.0,-1.5684130138066699,7.111409728545784,153
-89.70269535158539,54.48724910983649,16.352512025134907,28.298822862089672,88.72727949435327,51.26247154980916,-11.755641604528904,-28.298822862089807,-171.80947156958769,6.520700510651001,0.0,0.0,0.0,-1.6132884536464123,7.060367383708742,154
-78.70269535158539,65.48724910983648,10.352512025134907,28.298822862089672,77.72727949435327,62.26247154980916,-5.755641604528904,-28.298822862089605,-171.91250407936474,6.670371389500964,0.0,0.0,0.0,-1.6263159806867031,6.764922770743712,155
-67.70269535158539,72.942957069956,4.3525120251349065,28.29882286208985,66.72727949435327,71.26050578854685,0.24435839547109595,-28.29882286208973,-171.81605335627947,6.7271971783514095,0.0,0.0,0.0,-1.6201548892020645,6.3605255601150805,156
-56.70269535158539,76.85423521194893,-1.6474879748650935,28.298822862089924,55.72727949435327,75.11480476325363,6.244358395471096,-28.298822862089686,-172.13350328509344,6.8256463875698925,0.0,0.0,0.0,-1.6215458420195643,6.215213134117238,157
-45.70269535158539,80.8171533916282,-7.6474879748650935,28.298822862089697,44.72727949435327,79.63437271806922,12.244358395471096,-28.298822862089796,-172.16348752369726,6.836453440340521,0.0,0.0,0.0,-1.5705900637885801,5.9007733578040265,158
-34.70269535158539,86.57519291221848,-13.647487974865093,28.298822862089953,33.72727949435327,85.1394734281469,18.244358395471096,-28.29882286208982,-172.12884091196022,6.576819449986825,0.0,0.0,0.0,-1.6116461448743267,5.169147455307437,159
-23.70269535158539,93.30149933766171,-19.647487974865093,28.298822862089672,22.72727949435327,92.23381981216934,24.244358395471096,-28.29882286208998,-171.1706221353394,5.737787021391726,0.0,0.0,0.0,-1.6144786722900142,4.34132599111632,160
-12.70269535158539,97.1225445902115,-13.647487974865093,28.29882286208957,11.727279494353269,95.35695600661572,21.21028821641219,-28.298822862089903,-170.51223735566876,5.351774515492359,0.0,0.0,0.0,-1.684075373795096,2.8971760870438765,161
-1.7026953515853904,99.92059475211092,-9.235222260926216,28.298822862089825,0.7272794943532688,97.4129261692385,19.317046314041473,-28.298822862089803,-169.55169700603994,4.447126397232286,0.0,0.0,0.0,-1.6524459322416518,1.5169981896148341,162
-9.60426931401888,96.8767069884616,-15.235222260926216,28.29882286208962,9.522008430843224,95.55717298890814,21.433543947041798,-28.2988228620897,-169.18408882776703,4.390163150616123,0.0,0.0,0.0,-1.6435211046558944,0.6695908686682285,163
-20.60426931401888,94.52779710243543,-15.37725967650127,28.29882286208972,20.522008430843222,92.90522436389963,20.830077907869374,-28.29882286208986,-170.04282300223545,4.532279742853458,0.0,0.0,0.0,-1.6545792496291836,1.160674990966204,164
-31.60426931401888,95.02254319209185,-9.37725967650127,28.298822862089697,31.522008430843222,92.75555317904211,15.669081735208229,-28.29882286208971,-167.99293602159088,3.55057561246928,0.0,0.0,0.0,-1.5630434246311873,0.26356572967123676,165
-42.60426931401888,92.24557624081547,-3.3772596765012697,28.298822862089697,42.52200843084322,90.94486528405616,9.669081735208229,-28.29882286208962,-163.2350799697442,2.502354530386441,0.0,0.0,0.0,-1.4469750134531398,-0.4729978684154362,166
-53.60426931401888,89.81078152417673,2.6227403234987303,28.298822862089594,53.52200843084322,88.76710741290242,3.669081735208229,-28.2988228620897,-152.2350799697442,1.1411870163874052,0.0,0.0,0.0,-1.3760107007911593,-1.840386147712929,167
-64.60426931401888,89.96726902194222,8.62274032349873,28.29882286208985,64.52200843084321,89.13230968065476,-2.330918264791771,-28.29882286208983,-141.2350799697442,0.7134170236402553,0.0,0.0,0.0,-1.3295787144130466,-2.744855810287753,168
-75.60426931401888,86.68759428945489,14.62274032349873,28.29882286208962,75.52200843084321,86.61659949736003,-8.330918264791771,-28.298822862089875,-130.2350799697442,0.7475430088623066,0.0,0.0,0.0,-1.2778112049488943,-2.1841753650881977,169
-86.60426931401888,79.22106542485527,20.622740323498732,28.298822862089697,86.52200843084321,79.90734977392778,-14.330918264791771,-28.29882286208961,-133.99471954254307,1.010331405240756,0.0,0.0,0.0,-1.2987784685972816,-0.9447122849887005,170
-97.60426931401888,71.04959834255283,26.622740323498732,28.29882286208972,97.52200843084321,72.64506746162532,-20.33091826479177,-28.298822862089846,-144.99471954254307,1.6820539164364492,0.0,0.0,0.0,-1.3037824608214892,0.15446063467160182,171
-108.60426931401888,69.5696903569114,32.62274032349873,28.29882286208972,108.52200843084321,70.45461362709896,-26.33091826479177,-28.2988228620897,-155.99471954254307,2.0798224675714674,0.0,0.0,0.0,-1.291156003930208,0.2980687091958496,172
-119.60426931401888,66.86017401087695,38.62274032349873,28.298822862089825,119.52200843084321,68.06930307905604,-32.33091826479177,-28.298822862089875,-163.25687074223242,2.6057743599198604,0.0,0.0,0.0,-1.2728467581954084,1.0063467787092542,173
-130.6042693140189,66.0567433171258,44.62274032349873,28.29882286208962,130.52200843084321,67.83861776086593,-38.33091826479177,-28.29882286208966,-165.88928751093735,3.1277140312871956,0.0,0.0,0.0,-1.256042159552815,1.3850208377196365,174
-136.910908640698,66.73689573372747,50.62274032349873,28.29882286208972,137.5495070960686,68.04737311620939,-44.33091826479177,-28.29882286208971,-166.18024051414818,3.3300820119139405,0.0,0.0,0.0,-1.2746243617886768,1.4397587242960321,175
-137.865257310469,67.77111776487158,56.62274032349873,28.298822862089672,138.1623704928313,69.4875956345862,-50.33091826479177,-28.298822862089644,-167.0264044570063,3.4356057517542156,0.0,0.0,0.0,-1.2747989806794082,1.578499932250472,176
-135.75950274119947,71.02117081997584,62.62274032349873,28.29882286208972,136.1940537656537,72.87027950677047,-56.33091826479177,-28.298822862089708,-166.94169862061017,3.2922837285394513,0.0,0.0,0.0,-1.2825086122940688,1.4250844948283918,177
-132.53661793232317,73.13732539140283,68.62274032349873,28.298822862089594,132.96796179341504,74.58308820132528,-62.33091826479177,-28.298822862089853,-165.3475191992721,2.9750078548610603,0.0,0.0,0.0,-1.3289469292698055,1.3896048893520299,178
-126.53750984991191,74.34040887723438,66.87862104619339,28.298822862089825,127.21821688898692,76.28048616944892,-66.6371292120283,-28.298822862089725,-163.569937133353,2.5120792841970623,0.0,0.0,0.0,-1.3267257488815551,1.0863768241323675,179
-119.66404480710428,76.51504741776805,60.87862104619339,28.29882286208972,120.0418276111056,77.49293821718709,-60.6371292120283,-28.298822862089605,-155.52493008793576,1.8264385007296084,0.0,0.0,0.0,-1.3436830460790303,0.3377090987982966,180
-111.56064782894012,78.80495806342054,54.87862104619339,28.298822862089594,111.6337192626271,79.418617066308,-54.6371292120283,-28.29882286208962,-144.52493008793576,1.1265745324287681,0.0,0.0,0.0,-1.3610440323448822,-0.5096035740384285,181
-103.22449078081327,81.27436903151953,48.87862104619339,28.298822862089697,103.24684574149947,81.25983797677273,-48.6371292120283,-28.298822862089736,-133.52493008793576,0.7745909169888598,0.0,0.0,0.0,-1.3804080300893253,-1.2934527134817808,182
-104.58153365551192,77.28310416272754,42.87862104619339,28.298822862089594,105.99907410607712,80.46284693368727,-42.6371292120283,-28.29882286208961,-122.52493008793576,0.945724673697617,0.0,0.0,0.0,-1.193023722480603,-2.060316705912106,183
-105.60118713594521,72.26051397215849,36.87862104619339,28.29882286208985,106.80640499199328,79.77926365661213,-36.6371292120283,-28.298822862089697,-123.57152129802681,1.3517542224424035,0.0,0.0,0.0,-1.324587186218438,-3.704267056059611,184
-104.9173662190583,65.62229219051456,30.878621046193388,28.298822862089697,105.85406327518687,78.23962817508252,-30.6371292120283,-28.298822862089718,-134.57152129802682,2.0312840862180073,0.0,0.0,0.0,-1.7005247799338463,-3.5340117828420894,185
-104.8458433323918,57.665772012363824,36.87862104619339,32.82114621681225,107.56974447208137,78.466319706181,-24.6371292120283,-28.2988228620896,-137.26857181715965,2.378898635373835,0.0,0.0,0.0,-2.116414669866498,-2.6848856222426574,186
-106.97024770909579,52.350125791498776,42.87862104619339,29.939064726096166,109.17132381948355,78.64282731167515,-28.057712746198145,-28.298822862089825,-135.52496526434214,2.541386692944705,0.0,0.0,0.0,-2.951820094935862,-2.4987739069378767,187
-107.92898705395812,46.34430165616446,48.87862104619339,32.530786215745664,108.95406067372826,78.17638031048169,-30.657885513481467,-28.298822862089658,-135.41485024074638,2.6892194414038686,0.0,0.0,0.0,-3.662028511978019,-2.360208105391408,188
-112.6197221754102,39.383306801132136,54.87862104619339,34.086767600067446,109.76260545563984,77.70427893814714,-36.13431564271902,-28.29882286208987,-139.09510946900213,2.9828137142922744,0.0,0.0,0.0,-4.427211734871983,-2.053514331989111,189
-111.48455111191493,28.536778775831145,60.87862104619339,41.340543719189604,109.39204118661354,76.65911198134664,-36.251142681218816,-28.298822862089718,-148.17069153527464,3.233859930453608,0.0,0.0,0.0,-5.545736568201525,-1.7248756850877103,190
-111.94001576131751,20.219533132058814,66.87862104619339,43.24028153180378,108.14684084812566,75.3503266342157,-36.2799080728849,-28.298822862089594,-148.38139437704692,3.5012297047929137,0.0,0.0,0.0,-7.060885562551002,-2.104825158518347,191
-116.3005366114899,11.606977943458979,72.87862104619339,43.98892762161694,108.4265777062958,74.50543118320032,-39.14645440979444,-28.298822862089715,-151.99669882540806,3.6622384328336928,0.0,0.0,0.0,-8.892007598819124,-2.011883765666577,192
-126.98510915057706,3.9452763742345347,78.87862104619339,44.48354014398802,107.45917849966818,71.24722572403005,-39.80808655232978,-28.298822862089658,-151.62231218622546,4.073294797646447,0.0,0.0,0.0,-11.829920508561653,-2.4653396695102603,193
-115.98510915057706,2.3448676849911627,72.87862104619339,43.611609053705585,104.82867925603627,67.66227238615008,-42.34972107304621,-28.2988228620898,-149.91713339231097,4.268236420852788,0.0,0.0,0.0,-14.982252319830668,-3.88173025821843,194
-104.98510915057706,6.555308054495093,66.87862104619339,43.39888574281803,105.4534008102477,64.05164231134167,-43.932394407991964,-28.2988228620897,-149.55531314167948,4.395555925772054,0.0,0.0,0.0,-18.18623342215519,-5.12127658679769,195
-93.98510915057706,9.644905915038413,60.87862104619339,43.01937000071552,106.0953895030587,60.67186128355879,-48.10268379610922,-28.29882286208971,-147.7427118100238,4.515322659085559,0.0,0.0,0.0,-21.184167699529677,-6.39153882327032,196
-82.98510915057706,12.525404352380116,54.87862104619339,42.99152017644608,105.50758896971915,56.69264368819629,-49.196138902215175,-28.29882286208967,-145.71715809845608,4.642867935073972,0.0,0.0,0.0,-23.99012978083282,-7.874108332112965,197
-71.98510915057706,17.37160976714093,48.87862104619339,42.871475940101824,104.28661057210073,53.78111817703123,-49.28413481539725,-28.298822862089594,-146.18943061726654,4.6951563502757026,0.0,0.0,0.0,-25.924339857205755,-8.716908911472688,198
-60.98510915057706,21.47444457859051,42.87862104619339,42.77885912258059,103.90476445115549,51.07338875209568,-47.41845162407422,-28.298822862089715,-147.57453278973344,4.799730808074223,0.0,0.0,0.0,-27.30462269999696,-9.5573078036122,199
-49.98510915057706,24.392040993709006,36.87862104619339,42.97262924461032,102.81459696728069,49.825003030381694,-47.12590148730074,-29.382155173790203,-148.69943697046614,4.916591523088329,0.0,0.0,0.0,-28.14801184759175,-10.250130632233097,200
-38.98510915057706,25.168712857019393,30.878621046193388,42.96690768488516,103.2446865400652,49.09821669002072,-45.31476562425521,-30.855469039347568,-148.8972405613885,5.06343882529941,0.0,0.0,0.0,-28.493008138964107,-10.677104857659673,201
-27.98510915057706,24.7893333533267,24.878621046193388,43.07752652963269,102.9173307398023,49.112683561724836,-45.176670705935386,-31.820540938763376,-149.0658725530316,5.18387972378298,0.0,0.0,0.0,-28.40289074467574,-10.88118996220712,202
-16.98510915057706,22.732219420662137,18.878621046193388,43.65286870160469,103.06990206248729,49.188565201549736,-45.286920403494676,-32.328283843264984,-148.7469911796016,5.333363326340624,0.0,0.0,0.0,-28.08729036246746,-10.715371853300303,203
-5.98510915057706,19.74095225524605,12.878621046193388,43.96265367470024,103.19792091335867,49.719000891282995,-45.201242766171404,-32.11925991426825,-148.36083204182054,5.450155581936466,0.0,0.0,0.0,-27.31521952288977,-10.353966466505653,204
5.01489084942294,16.457671558221474,6.878621046193388,44.633686903475684,103.071759981715,50.40690460056278,-44.905662776594134,-31.64990768034118,-148.87652573101255,5.429326530774425,0.0,0.0,0.0,-26.17237079213153,-9.98304729988676,205
16.01489084942294,10.987843483429378,0.8786210461933877,44.98956660370749,103.41486402512396,51.165352992329794,-44.98362890836286,-30.274990592275486,-148.97447530309145,5.4161525581251295,0.0,0.0,0.0,-24.506934375730822,-9.553876918845424,206
27.01489084942294,5.9412268076428765,-5.121378953806612,44.871169327378055,102.92338171336851,53.54700207434344,-46.47990123800495,-28.29882286208983,-150.9887855248475,5.305590308278436,0.0,0.0,0.0,-21.808577960611014,-8.9163508983001,207
35.866041285485316,2.4344988666297174,-11.121378953806612,45.00770775451657,103.70963801323356,56.73244681009098,-46.17654165993598,-28.29882286208969,-155.34721991601626,5.149951446257643,0.0,0.0,0.0,-18.7038666122128,-8.157524798958896,208
24.866041285485316,4.194623835079207,-5.121378953806612,45.830482146162794,103.62245962368931,60.2789026063701,-45.04128795898233,-28.298822862089676,-157.0664538859755,5.000535525961939,0.0,0.0,0.0,-15.536678527706718,-7.291655848876768,209
13.866041285485316,8.791014540714778,0.8786210461933877,45.44366192422514,103.91484327621768,63.420042450428106,-44.16224007824208,-28.298822862089725,-159.52074090051724,4.847108615684568,0.0,0.0,0.0,-12.65552410005119,-6.287007192385643,210
2.8660412854853163,13.85013048665119,6.878621046193388,45.37927075174078,104.97469307859038,67.41962838570046,-46.01111953087425,-28.298822862089686,-165.88771644199866,4.601798068667976,0.0,0.0,0.0,-10.258943962272836,-5.570343205690341,211
-8.133958714514684,22.630141036414898,12.878621046193388,43.589513574565444,104.99319496628706,70.53024758731688,-44.95093830178447,-28.298822862089825,-165.3088814751785,4.479919910826703,0.0,0.0,0.0,-8.16450436617685,-4.921413532857417,212
-19.133958714514684,31.72726410608512,18.878621046193388,40.383754834178546,105.1327283829729,73.82089130408164,-43.81284360614186,-28.298822862089708,-164.4544309932705,4.194578790041136,0.0,0.0,0.0,-6.243632580491771,-4.0952498785252684,213
-30.133958714514684,41.017272531473665,24.878621046193388,35.39416891899866,106.15337231428589,77.0324461661022,-43.009988871612656,-28.298822862089587,-160.93172832397195,3.8256829896978215,0.0,0.0,0.0,-4.525885351328361,-3.186734605127454,214
-41.133958714514684,49.12113651783536,30.878621046193388,31.09575044236054,105.11200489187014,80.8205750436895,-39.08936410889977,-28.298822862089832,-161.04190222989308,2.9843773422022366,0.0,0.0,0.0,-2.7093901636700735,-3.6304738082973116,215
-52.133958714514684,59.15238232455444,36.87862104619339,28.29882286208972,102.41395737294008,82.89044713131548,-33.08936410889977,-28.298822862089587,-150.04190222989308,2.446594248667997,0.0,0.0,0.0,-0.7507630234357511,-3.9678211835271164,216
-63.133958714514684,68.61617731956507,38.455646606153756,28.29882286208985,101.60153966555579,84.77760489599103,-27.089364108899773,-28.298822862089636,-139.04190222989308,2.1309171792432453,0.0,0.0,0.0,0.6875692489156108,-3.6697399207787074,217
-74.13395871451468,76.31466362610503,32.88974068105228,28.298822862089747,100.21655552164584,86.44180611324626,-21.089364108899773,-28.298822862089757,-128.04190222989308,1.9849638446224882,0.0,0.0,0.0,1.8601833554148877,-3.72923933971747,218
-85.13395871451468,82.18301213064015,32.948860296313434,28.29882286208962,100.5186388571569,88.20511035248242,-16.23653031529852,-28.298822862089708,-117.04190222989308,2.133761033939527,0.0,0.0,0.0,2.8288108188652306,-3.8038141867729394,219
-96.13395871451468,86.8252609111154,32.51942826516823,28.29882286208985,100.67890403495322,90.11716126606183,-15.771774440659986,-28.298822862089704,-106.04190222989308,2.3115530708860064,0.0,0.0,0.0,3.3032411567700533,-3.638383003290828,220
-101.77285972679984,88.22792116087416,31.217369318793224,28.298822862089697,100.35508194121985,90.46318001818658,-13.238056809487805,-28.29882286208962,-102.01499829636447,2.352981051834072,0.0,0.0,0.0,3.9036206019538606,-3.8589741131347113,221
-100.09053530516323,87.09604042088827,29.741976975541395,28.298822862089697,99.28652122884945,89.51910728801849,-10.951200705276394,-28.29882286208971,-102.62018791705913,2.216477408768122,0.0,0.0,0.0,4.052156282736689,-3.961352986041064,222
-99.9156462790723,84.13376095741779,30.434452955634228,28.298822862089697,98.92669566477174,88.34628487081977,-11.183257713671498,-28.298822862089708,-103.2055730790109,2.2086186728831825,0.0,0.0,0.0,3.9603981443697642,-3.8870602672056043,223
-98.65502635390276,79.81105886356005,33.537252391150695,28.29882286208985,98.1202116168093,86.66919478198706,-11.391973331204891,-28.298822862089725,-106.22732441284532,2.1717748562542085,0.0,0.0,0.0,3.517306080121114,-3.537298549505031,224
-95.47072359210028,73.85855558295297,38.39213497724527,28.29882286208962,97.89074820313554,84.67961942559876,-11.683946317702985,-28.29882286208962,-112.03757192657338,2.0102986820920727,0.0,0.0,0.0,2.7288349998993677,-3.351659821088511,225
-92.60918110437402,65.91059775030266,42.81551636367624,28.298822862089697,97.60476725761849,82.96216248427096,-11.891560117207822,-28.29882286208971,-117.12620897725017,1.9110023334330695,0.0,0.0,0.0,1.9231927001598295,-3.181248726231191,226
-90.0798070634577,57.5151222451634,46.4878511577828,28.29882286208985,98.69310770992679,81.9406415099041,-14.612080582411071,-28.298822862089814,-126.78516826418942,1.8171815624206518,0.0,0.0,0.0,0.8418826869403858,-2.78402504093169,227
-90.74886457924265,51.2377537499165,52.4878511577828,31.657662335501506,100.47256531804177,80.77012759808811,-15.070614744006825,-28.298822862089832,-134.643633264353,1.956647468185083,0.0,0.0,0.0,-0.4776828511130618,-2.3209801085306885,228
-91.88662238620586,44.93798208808931,58.4878511577828,36.64921209964238,101.72229659175116,79.58720776796969,-17.96797809629839,-28.298822862089587,-140.8712092948185,2.1959957831862287,0.0,0.0,0.0,-2.052234880165321,-1.8926841658352398,229
-93.60861806466556,38.891446530203865,64.4878511577828,38.56400266656728,102.56906125936621,77.90413887941624,-21.020804376659978,-28.29882286208962,-144.5868659585108,2.445643637792914,0.0,0.0,0.0,-4.021753339644518,-1.8504221352033998,230
-96.64587766267837,33.38197147455201,70.4878511577828,39.98788123025317,103.89444497408438,75.73357111891826,-24.411503461979784,-28.298822862089626,-143.771181135551,2.8452496404578573,0.0,0.0,0.0,-6.172911008657558,-1.7700616775487945,231
-96.70374220881284,26.026700479937574,76.4878511577828,42.23770451454843,103.8792241822621,73.67810949024214,-27.411556346095313,-28.29882286208969,-145.6244949997736,3.2078346403425386,0.0,0.0,0.0,-8.077596721932677,-1.833819931824698,232
-97.69600306551287,20.084014267646136,81.21615992334641,43.35618007975575,103.7416871218932,71.38734300580595,-30.462556841771498,-28.298822862089708,-144.07923256808596,3.5395784045141085,0.0,0.0,0.0,-10.330944696722211,-2.1426007991912566,233
-94.18645213161228,13.561924462167775,82.91626692555502,43.92213711088611,104.78246362535037,68.84209659155371,-34.152310745644094,-28.298822862089608,-147.3892824064457,3.6660497221720654,0.0,0.0,0.0,-12.91548995635697,-2.5684435097506038,234
-93.96152300394738,7.047673350845114,85.56239216846971,43.799980956161704,103.61446651660815,65.56528359860803,-36.98583041143187,-28.298822862089676,-145.82015781636588,3.9338238007379855,0.0,0.0,0.0,-15.659915387018058,-3.1799235215553416,235
-82.96152300394738,1.4851724128485189,79.56239216846971,43.46935341238403,103.68534265044624,61.67917088666527,-38.17612346786307,-28.298822862089725,-144.55984305552525,4.106972966498875,0.0,0.0,0.0,-18.677881171754287,-4.203473930713274,236
-71.96152300394738,3.197043301754886,73.56239216846971,42.58215556029895,104.22346164156089,58.58502235773277,-42.04613886447662,-28.298822862089832,-143.52371018141426,4.226942514803244,0.0,0.0,0.0,-21.44711310781551,-5.341970687384239,237
-60.96152300394738,7.4594250306371785,67.56239216846971,41.6050120670162,105.32346684799082,55.62957052994092,-46.21873296331758,-28.29882286208962,-142.67918779376654,4.41310022949885,0.0,0.0,0.0,-24.020139281807673,-6.059845040835539,238
-49.96152300394738,11.12721464313943,61.562392168469714,41.953486997699095,104.91561187969737,52.12954341802248,-47.20497801485965,-28.298822862089615,-142.39153257896572,4.403357717548502,0.0,0.0,0.0,-26.567350436759384,-7.485133253275567,239
-38.96152300394738,15.407289748430772,55.562392168469714,42.377030892300056,102.55998270842953,49.037814845967326,-46.66068125622101,-28.29882286208961,-142.65403059441527,4.386998188123849,0.0,0.0,0.0,-28.562231186261045,-9.22666733272869,240
-27.961523003947377,19.82023745032799,49.562392168469714,42.81766131608538,101.89777779140344,46.826270661761114,-44.53638305099218,-30.640262685217717,-144.08195013241632,4.434398130196149,0.0,0.0,0.0,-30.134343100160795,-10.447410006281958,241
-16.961523003947377,25.371167921973093,43.562392168469714,42.56752483497927,101.89049356770917,45.073778396144164,-42.710860891063675,-33.30459216800107,-147.73770377641046,4.581882025850613,0.0,0.0,0.0,-31.077616200263595,-11.171767877187877,242
-5.961523003947377,29.424977259152847,37.562392168469714,42.35091270520061,100.51543880039364,44.09128639663675,-42.11493025562097,-35.897076435650675,-149.3030308073144,4.791699528309529,0.0,0.0,0.0,-31.90317109611093,-12.088098024067598,243
5.038476996052623,31.332631925158086,31.562392168469714,42.59039754961488,99.28110916313499,42.769225645155444,-39.24307069364952,-38.005643797951436,-149.25433313240862,5.004681852908464,0.0,0.0,0.0,-32.671886664902026,-13.24150692068648,244
16.038476996052623,31.578359280545936,25.562392168469714,42.875235930689094,99.07229522229679,41.761530141048304,-37.012687307880455,-39.21098278035892,-149.08366448924068,5.282084616346739,0.0,0.0,0.0,-33.07895303221207,-13.907603249118361,245
27.038476996052623,30.47183589342308,19.562392168469714,43.33624254527768,98.54952859534009,41.667063311863835,-36.70217059866258,-39.79017408050314,-148.86858268008345,5.504978037621716,0.0,0.0,0.0,-33.10092744373834,-14.180700728930574,246
38.03847699605262,28.040048516831344,13.562392168469714,43.99167943634489,98.67287531026852,41.76041140948784,-36.86659091675319,-40.15109608326717,-149.01171552490146,5.6825490840461885,0.0,0.0,0.0,-32.84136634116713,-14.22386108318037,247
49.03847699605262,25.842523103131803,7.562392168469714,43.87492457534364,99.16536589477884,41.95193815303711,-37.232661348651504,-40.14602663385071,-149.00660997068493,5.827554075802456,0.0,0.0,0.0,-32.22067475958385,-13.877732311254752,248
60.03847699605262,22.020131271573575,1.5623921684697137,44.383930371175445,100.65703496998015,42.29737305215172,-38.35990121588227,-39.88715365449331,-149.4619352765956,5.964013603227412,0.0,0.0,0.0,-31.306982114758203,-13.2513301693484,249
71.03847699605262,17.686485337844132,-4.437607831530286,44.67473025777062,101.63645233955408,43.20684190318286,-38.8273443403654,-38.96072463427876,-149.63573175729596,5.988456675543311,0.0,0.0,0.0,-29.85246661617519,-12.389751152578327,250
80.89018321492166,12.622596794572065,-10.437607831530286,45.40750273606063,101.98186038675574,45.32258373021191,-41.01294545463675,-37.79275098862947,-150.66546140757347,5.9386381478742365,0.0,0.0,0.0,-27.618944695651134,-11.439583982505884,251
79.35165374614844,7.119506472878494,-16.437607831530286,46.19481465531149,102.69302563811158,47.47791573384727,-40.7857475390475,-35.5209868120754,-153.54595978294375,5.778154316605186,0.0,0.0,0.0,-24.72554376195931,-10.11127771239681,252
73.45432678261898,3.081690688972687,-22.437607831530286,46.17920828390863,102.50082233630414,50.4845192785532,-42.30852116208532,-32.271392121613125,-158.1864602502302,5.467377752870524,0.0,0.0,0.0,-21.592378803247893,-9.269823954369055,253
62.45432678261898,0.7826077591376653,-16.437607831530286,46.02338426600682,101.96257726628937,53.0039190875086,-41.09462649337964,-28.29882286208968,-165.16502333045338,5.123285277858625,0.0,0.0,0.0,-18.55472491919512,-8.417273656221672,254
51.45432678261898,3.6777027972192644,-10.437607831530286,46.70165841111126,102.99685614783549,56.769292427202465,-40.6212272949741,-28.298822862089718,-169.1897480932706,4.851370467467826,0.0,0.0,0.0,-15.667542367249348,-7.354162539786843,255
40.45432678261898,7.663235642706826,-4.437607831530286,45.87595527993879,103.43885015426062,60.61622489076815,-42.21324580295297,-28.298822862089708,-173.20374761364832,4.6932857079004835,0.0,0.0,0.0,-12.788996777806558,-6.403523466483953,256
29.454326782618978,11.743039326081632,1.5623921684697137,45.738503475159284,105.35483388328299,65.11946404325789,-41.80282128357107,-28.298822862089605,-162.20374761364832,4.495642485613343,0.0,0.0,0.0,-10.280983169222752,-5.386119468496524,257
18.454326782618978,19.008890857079013,7.562392168469714,43.77122169496969,104.79439284616988,68.04949637552824,-38.01359686928207,-28.29882286208968,-151.20374761364832,4.299815661713301,0.0,0.0,0.0,-7.992692354899037,-4.893735519554393,258
7.454326782618978,26.738154780514865,13.562392168469714,41.843724302161256,104.18717014303411,71.77231371544356,-36.5749691645469,-28.298822862089594,-140.20374761364832,3.983156794341107,0.0,0.0,0.0,-5.961746040790629,-4.512008560042783,259
-3.5456732173810224,35.53253610293771,19.562392168469714,37.23062608002719,104.05417310476928,75.14282831139887,-35.38273024366554,-28.29882286208985,-151.20374761364832,3.5700892907749373,0.0,0.0,0.0,-4.070954655060965,-3.794302966191194,260
-14.545673217381022,43.08651975131175,25.562392168469714,32.52614499416067,103.9210182054357,78.61692236930246,-31.856885476265667,-28.298822862089636,-162.20374761364832,2.908077091834701,0.0,0.0,0.0,-2.3586755873412466,-3.7719871508930383,261
-25.545673217381022,51.32299690345614,31.562392168469714,28.298822862089697,102.415146643432,81.34550130794544,-28.229210827584225,-28.298822862089708,-165.93308836845415,2.3279695169660526,0.0,0.0,0.0,-1.206500718879449,-4.029507307635676,262
-36.54567321738102,61.11292916594295,37.562392168469714,28.298822862089697,100.9499384866419,83.64833080214484,-22.391057810867714,-28.298822862089587,-155.41278422382257,1.8642075345144835,0.0,0.0,0.0,-0.2528075717576573,-4.48213332860056,263
-47.54567321738102,69.79632712271737,36.889398710526,28.29882286208962,100.70269127755894,85.43062904371796,-19.3521868910345,-28.298822862089636,-144.41278422382257,1.7285406513544925,0.0,0.0,0.0,0.5041816841890058,-4.075007558719596,264
-58.54567321738102,76.21460836537962,31.360260472911783,28.298822862089825,99.59473233326386,86.75315696495302,-16.38277223482356,-28.298822862089644,-133.41278422382257,1.5900842417571206,0.0,0.0,0.0,0.888260194380146,-3.95637881908088,265
-69.54567321738102,81.17719302482232,28.615248122522157,28.298822862089697,99.95319156611468,87.9496905521493,-16.1572448523709,-28.29882286208969,-125.1697903027235,1.5718999237652191,0.0,0.0,0.0,1.1109790482790285,-4.044318937392888,266
-80.54567321738102,85.00383893441706,28.17279808740874,28.298822862089672,101.27183731221905,88.81129372866707,-16.063216860721678,-28.298822862089594,-120.69699595539662,1.486826000138828,0.0,0.0,0.0,1.3105073583060556,-4.00252788485332,267
-91.54567321738102,86.59155890637747,25.356998724858553,28.298822862089594,100.85466260752992,88.51292039182465,-13.63056941345016,-28.298822862089683,-119.6869027306672,1.3530228464968759,0.0,0.0,0.0,1.5884140007175616,-4.040566122475674,268
-102.54567321738102,86.36575378979175,25.51853488514251,28.29882286208972,100.7081519749315,87.5814143420819,-13.909503351247636,-28.298822862089594,-120.95609244440708,1.2868206568797722,0.0,0.0,0.0,2.2581156514370293,-4.024077814701502,269
-103.30556636796872,84.80475158109228,28.51798923804375,28.298822862089594,99.0343659892421,85.6098642436971,-16.762217819333628,-28.298822862089676,-122.42769680909771,1.3399275041527092,0.0,0.0,0.0,3.297605834347854,-4.039812863149751,270
-103.00666350695387,82.40288849027762,31.646951487323236,28.29882286208985,97.33897266528895,81.58600627732878,-22.364735472139905,-28.298822862089608,-123.38783513700962,1.4198871141114058,0.0,0.0,0.0,4.3996992810581155,-4.146376388025355,271
-102.54407178584542,79.11711193498431,34.99363705783598,28.298822862089697,94.94797667852771,73.82647743208102,-28.364735472139905,-28.29882286208983,-126.95109589160461,1.4567635070151075,0.0,0.0,0.0,5.909742801813108,-4.585074051621925,272
-102.37802576579004,75.51900735873869,38.45610281069673,28.298822862089875,94.3786595285948,64.27896118160729,-34.364735472139905,-28.298822862089647,-135.3877286719332,1.5085974201920171,0.0,0.0,0.0,8.012407422279054,-5.03325977739072,273
-102.49713857699352,72.15792062226738,39.37905053913143,28.298822862089672,94.42544439391396,55.257840199951225,-40.364735472139905,-31.71166141907041,-144.12189103148958,1.632937244496577,0.0,0.0,0.0,10.370010870627912,-5.3760109665501705,274
-103.18417378471483,69.5721755486889,42.803999604235514,28.298822862089672,99.99735485986083,49.296824212715215,-46.364735472139905,-35.82823055535663,-155.12189103148958,1.891658541758612,0.0,0.0,0.0,12.32643919844532,-5.267879419351568,275
-102.7326106979685,66.35998137251417,43.492368330267745,28.29882286208985,101.5413045716403,41.01195504215483,-52.364735472139905,-42.14080441837512,-166.12189103148958,2.3114076249738296,0.0,0.0,0.0,14.209203756474663,-5.765076650841647,276
-104.24438954215387,63.86589082318635,47.5930105336564,28.298822862089825,104.38121753847415,33.760151294480174,-58.364735472139905,-44.65436349974453,-177.12189103148958,2.735150608852988,0.0,0.0,0.0,16.403464228390764,-6.1695767774622405,277
-104.7321617118275,61.216042088178824,51.11775458009409,28.298822862089697,108.2130491553816,24.305596855955205,-64.3647354721399,-46.617650066890995,-166.12189103148958,3.209634963303789,0.0,0.0,0.0,18.221730039231296,-6.227408146177355,278
-105.4187077002526,58.219558243498305,55.001528988893355,28.29882286208972,115.21318317208124,16.834919727013535,-70.3647354721399,-46.890816047032686,-155.12189103148958,3.6267448124548096,0.0,0.0,0.0,20.405518253010793,-6.606818504029891,279
-106.33206605690246,55.298346202910395,56.77396541903005,28.298822862089594,126.21318317208124,11.296388585467984,-76.3647354721399,-46.27507789083866,-144.12189103148958,3.907567101828419,0.0,0.0,0.0,22.52569664985959,-7.5601516088887175,280
-107.27659065715069,52.65148418482957,58.393964444277366,28.29882286208985,137.21318317208124,8.227790875095664,-82.3647354721399,-45.25258710781951,-133.12189103148958,4.266124478590053,0.0,0.0,0.0,24.40797360295244,-8.07985396382318,281
-107.35547516383156,50.30209817946857,59.192934557507044,28.29882286208985,126.21318317208124,7.969362840758648,-76.3647354721399,-44.84855478823535,-122.12189103148958,4.576957776051803,0.0,0.0,0.0,26.14510376642192,-8.47073627166925,282
-106.9698439557157,47.81519169993741,59.80722698314433,28.29882286208972,115.21318317208124,11.381821698117152,-70.3647354721399,-44.46118310318102,-111.12189103148958,4.8484964645265105,0.0,0.0,0.0,27.685611671771127,-9.193207555798633,283
-106.58071810132111,45.09854796837104,58.051216297346215,28.29882286208972,104.21318317208124,15.743863724842683,-64.3647354721399,-44.21217141526154,-100.12189103148958,5.047634190769033,0.0,0.0,0.0,28.98879446226973,-10.1446891196653,284
-106.13721820410305,42.766091539220376,56.01913265577863,28.29882286208972,93.21318317208124,20.921087777949165,-58.3647354721399,-43.59228212155798,-89.12189103148958,5.236451050904642,0.0,0.0,0.0,29.706452868669526,-10.719974356285755,285
-105.24764460538974,41.011215154537894,53.44740217598624,28.527433438094572,82.21318317208124,25.670222901705106,-52.3647354721399,-42.58139044355022,-78.12189103148958,5.3653535112838275,0.0,0.0,0.0,30.12480799325564,-11.2989887422551,286
-104.10894885944585,40.261895301684326,50.55146834074108,30.86150061138873,71.21318317208124,29.058273689829782,-46.3647354721399,-42.07868305412763,-67.12189103148958,5.472996962870315,0.0,0.0,0.0,30.37340287502935,-12.095772562041434,287
-102.62714367769472,39.94404594232786,49.66925647538919,32.44753466720769,60.213183172081244,31.60370575206629,-40.3647354721399,-41.67261922909091,-56.12189103148958,5.564844174701588,0.0,0.0,0.0,30.49746151888726,-12.747199081436259,288
-102.36280364203029,39.572251319211404,47.1719804726857,33.177684385967815,49.213183172081244,32.28064958320327,-34.3647354721399,-41.64147760342877,-45.12189103148958,5.700685509263279,0.0,0.0,0.0,30.346036783508854,-13.022961156041625,289
-102.5109047177671,39.84531169761773,47.21311424119816,33.1085754681137,38.213183172081244,31.19547481331863,-28.3647354721399,-42.00558793917019,-56.12189103148958,5.861694408448077,0.0,0.0,0.0,29.898767074767623,-12.836352580118534,290
-102.75974053421562,40.32570211025307,47.152539943380084,32.85425215199251,27.213183172081244,29.954354991200105,-22.3647354721399,-42.64705430166545,-67.12189103148958,6.038112440961588,0.0,0.0,0.0,29.096418853388307,-12.293591268805143,291
-102.9020139605749,40.94231988992748,47.09524947240444,32.09934605412118,16.213183172081244,27.275275664949156,-16.3647354721399,-43.350499950933006,-78.12189103148958,6.100258045999807,0.0,0.0,0.0,28.06903657040947,-11.974514145993991,292
-103.3182049361808,41.795111010762824,47.217459777735506,30.660561976599016,5.213183172081244,22.66644159688891,-10.364735472139898,-44.63125849210143,-89.12189103148958,6.094651686529824,0.0,0.0,0.0,26.628683237148774,-11.582405524431254,293
-103.40979594923773,43.20984947388242,46.808833628451175,28.830623349600803,-5.786816827918756,17.21911804319399,-4.364735472139898,-46.14681058119203,-100.12189103148958,6.073755254199184,0.0,0.0,0.0,24.43259167970775,-10.880037407692962,294
-103.51121231515012,46.379170496217014,48.677977424285906,28.298822862089697,-16.786816827918756,12.397696097406335,1.6352645278601017,-47.150551925893474,-111.12189103148958,6.012086779176878,0.0,0.0,0.0,21.666714248944693,-10.435696406516758,295
-104.36041907162058,50.72453906709823,47.874630752619396,28.29882286208962,-27.786816827918756,8.06764874316596,7.635264527860102,-48.31998947866933,-122.12189103148958,5.8646706697223605,0.0,0.0,0.0,18.540068328470568,-9.271380965865143,296
-104.30752859501413,54.50823709771875,46.50669906249239,28.298822862089825,-38.786816827918756,5.1145385789868945,13.635264527860102,-48.7714622137756,-133.12189103148958,5.749171575041669,0.0,0.0,0.0,15.360017471075125,-8.172936277847299,297
-104.03811421507154,58.69815621521596,44.85353489588726,28.29882286208985,-47.79505470398531,1.2493487317990848,19.6352645278601,-49.565533641877934,-144.12189103148958,5.601130611895997,0.0,0.0,0.0,12.592536785926592,-7.18806216135292,298
-104.62484613994008,61.803927835153274,44.129240735515964,28.298822862089697,-36.79505470398531,3.2410306088892082,13.635264527860102,-49.97491398923716,-153.90061343366298,5.44806305314019,0.0,0.0,0.0,10.009111522018534,-6.306256356909597,299
-105.94476315939131,66.41185176598867,45.63949114894042,28.298822862089825,-25.795054703985308,9.695158278944412,7.635264527860102,-50.180784818441644,-148.92434729326806,5.294184945104552,0.0,0.0,0.0,7.640720048318713,-5.056146930375957,300
-105.76048622363565,69.98375364403445,44.37126462601532,28.29882286208962,-14.795054703985308,19.081468149945813,1.6352645278601017,-48.660785790877405,-147.63829902299486,4.986030981299789,0.0,0.0,0.0,5.340798114468305,-4.64540003048834,301
-105.23208122339297,73.6899474401139,42.913498500659244,28.298822862089697,-3.7950547039853078,29.103470355083793,-4.364735472139898,-46.84115790974663,-146.38063317821192,4.553413865671523,0.0,0.0,0.0,3.483446525735843,-4.324630678430339,302
-105.90422866202773,77.09891746606652,41.808427700957594,28.298822862089697,7.204945296014692,39.73029479226364,-10.364735472139898,-41.63659295072494,-146.36526758152547,4.0584229525476,0.0,0.0,0.0,1.8207116234740417,-3.2943687479117827,303
-105.89735642762797,79.9170227043163,38.437712334510934,28.298822862089647,18.204945296014692,46.76479481658479,-16.3647354721399,-36.524379722391515,-143.41109215387425,3.375624877345035,0.0,0.0,0.0,-0.08312887513982603,-3.28881442038188,304
-104.44260889751345,82.5077918745145,34.79579149078353,28.298822862089697,29.204945296014692,52.67723617931249,-22.3647354721399,-29.334510281354905,-142.27047597376736,2.624084371052014,0.0,0.0,0.0,-2.074329687316832,-3.452893612885141,305
-102.84510340603495,84.49022136107848,28.79710282697529,28.298822862089697,40.20494529601469,60.768511523029396,-28.3647354721399,-28.29882286208959,-147.45521430695547,1.8020723978825202,0.0,0.0,0.0,-3.8715251136873676,-3.1753560591262238,306
-102.45596083373044,86.39911215559617,23.294944715622165,28.29882286208962,51.20494529601469,67.68020116093703,-32.29886714365134,-28.298822862089832,-144.70707469436658,1.2973632351236,0.0,0.0,0.0,-5.1877278454624935,-3.4010536740538817,307
-102.21909186688768,87.69236024798049,17.95147841755675,28.298822862089697,62.20494529601469,73.92501523983704,-26.298867143651343,-28.298822862089686,-143.07018958368437,0.8840957562635444,0.0,0.0,0.0,-5.886844136052273,-3.5336977683835973,308
-101.67360279809465,89.26721437999511,17.521887940102612,28.298822862089594,73.2049452960147,78.82003457361004,-20.298867143651343,-28.298822862089708,-142.45512477647497,0.5452013438730458,0.0,0.0,0.0,-6.2018129984021115,-3.7249839603997525,309
-102.62214175668001,90.25452909087754,17.32999156891399,28.29882286208972,84.2049452960147,83.34888747741773,-22.05855683835558,-28.298822862089832,-153.45512477647497,0.23237159871351343,0.0,0.0,0.0,-6.125282733336697,-3.8601296907968994,310
-102.4254938716172,90.15387344788726,17.317249279496334,28.29882286208985,95.2049452960147,83.66327375236598,-19.430231808674222,-28.298822862089615,-142.45512477647497,0.2217072140144541,0.0,0.0,0.0,-5.869116845793321,-3.7921381234539537,311
-102.08884844839703,88.96079639678005,17.602533184125047,28.298822862089594,97.96972083506402,81.65608145648386,-19.30157217750918,-28.29882286208961,-131.45512477647497,0.37418451621517657,0.0,0.0,0.0,-5.104429330040602,-3.909562638865121,312
-102.42684315770653,87.24055762341483,20.570440368678273,28.298822862089697,98.94173217347725,78.28140184063629,-25.30157217750918,-28.29882286208969,-140.88116955898212,0.42195594483136895,0.0,0.0,0.0,-3.992639815971201,-3.902006446711133,313
-102.32947429472553,84.35538782632392,21.312679646461664,28.298822862089672,95.46385787809646,70.40030348425752,-31.30157217750918,-28.298822862089587,-129.88116955898212,0.6905742087677293,0.0,0.0,0.0,-2.624950584422477,-3.9875679649035907,314
-102.39145751494709,82.01904845884792,24.468450066471796,28.298822862089594,90.22294150932862,59.94912394665692,-37.30157217750918,-28.29882286208956,-120.90237109293678,0.9656501248939868,0.0,0.0,0.0,-0.8832798959909278,-4.295642789284995,315
-102.99809893371534,80.16649928232768,27.5653883238068,28.298822862089825,90.73820741942129,52.56632273103996,-43.30157217750918,-31.333881015488092,-131.07661398781292,1.1893252199570654,0.0,0.0,0.0,1.1503304565259118,-4.379201169361803,316
-103.51050897269604,77.46553754542172,28.435284590363178,28.29882286208962,92.99919448730809,45.88740206457684,-49.30157217750918,-37.255509673166735,-141.20080942823327,1.5738205271314891,0.0,0.0,0.0,3.4654240248447667,-4.628166392733331,317
-103.52208085861714,75.01944962666265,31.667412101071143,28.298822862089697,94.18629195628533,39.36060333796066,-55.30157217750918,-41.55628025613464,-147.93049774946155,1.9590775541634813,0.0,0.0,0.0,6.044758627068392,-5.1537042940906845,318
-103.23322379077459,72.43878742422456,34.77865490292423,28.298822862089825,93.34051270106553,31.045293583621266,-61.30157217750918,-45.54362605557651,-153.20983397172685,2.3419899993028355,0.0,0.0,0.0,8.456602837544086,-5.518959843233941,319
-102.76447591226204,69.07341152461372,35.37313302115655,28.298822862089697,98.79696990912045,24.027301350627905,-67.30157217750917,-47.485967151402036,-164.20983397172685,2.7757193752736455,0.0,0.0,0.0,10.988479376635707,-5.605820833420678,320
-103.11107948805378,66.38488748136764,38.75658764236701,28.298822862089594,101.77136265393972,15.907791927767695,-73.30157217750917,-48.26476216560524,-173.7239963929036,3.196248908489826,0.0,0.0,0.0,13.245339322337523,-5.8681530848441765,321
-104.18552828757085,63.36053794521265,42.70639249801845,28.298822862089672,112.06278837541596,9.686440970219964,-79.30157217750917,-47.801033078069146,-178.0694157087851,3.5524588678521627,0.0,0.0,0.0,15.837296858571268,-6.22690650909498,322
-104.58731042819905,60.53490386898485,46.37870339025594,28.29882286208985,123.06278837541596,4.88046329435456,-85.30157217750917,-46.77126735341646,-167.0694157087851,3.7152417377673763,0.0,0.0,0.0,18.387090179961387,-6.925311472914055,323
-105.94129628600082,57.22363155185024,48.55006125477767,28.298822862089697,112.06278837541596,4.106690003511067,-79.30157217750917,-45.387100106711564,-156.0694157087851,3.9964025729775647,0.0,0.0,0.0,20.667217915656384,-7.984360620923348,324
-105.90271754105756,54.69294903898265,51.958220735815075,28.298822862089697,101.06278837541596,6.9635103499153495,-73.30157217750917,-44.40627362779513,-145.0694157087851,4.279510168080417,0.0,0.0,0.0,22.57028988360777,-8.611968794606367,325
-106.12834691122882,51.91625036080508,53.106780384970314,28.29882286208962,90.06278837541596,10.564970284365417,-67.30157217750917,-43.792756480070274,-134.0694157087851,4.537892610725232,0.0,0.0,0.0,24.391985119325184,-9.261399352654783,326
-106.04567218490105,48.6198122846985,51.75656956693482,28.298822862089594,79.06278837541596,14.784083671004378,-61.30157217750917,-43.10528486155543,-123.0694157087851,4.786674559267423,0.0,0.0,0.0,26.08126043465202,-10.17723681102257,327
-104.29880106061141,45.79549419948512,51.48882420379212,28.298822862089953,68.06278837541596,19.301521643114828,-55.30157217750917,-42.71252229047443,-112.0694157087851,4.96419031976106,0.0,0.0,0.0,27.500741411508965,-11.258368113358078,328
-103.14893343451679,43.152746390717795,49.10295052699387,28.298822862089697,57.06278837541596,22.511951815109505,-49.30157217750917,-42.320460393749556,-101.0694157087851,5.047879542451083,0.0,0.0,0.0,28.583043853144357,-12.309207532596735,329
-101.73539349145882,41.32419746627116,48.550886806559,28.29882286208962,46.06278837541596,26.334890069412463,-43.30157217750917,-41.65813850174497,-90.0694157087851,5.213640888686363,0.0,0.0,0.0,29.191735634218652,-12.780811179825996,330
-100.7698172248975,39.80551246898276,45.72390753091822,28.298822862089594,35.06278837541596,28.474830098234637,-37.30157217750917,-41.46430508855752,-79.0694157087851,5.340497867457847,0.0,0.0,0.0,29.492270091244666,-13.127126734859498,331
-99.96102747491854,38.916693175572874,43.04500129204023,29.782025198096544,24.062788375415963,30.836908931826397,-31.301572177509172,-40.892718636449494,-68.0694157087851,5.399022945959729,0.0,0.0,0.0,29.653484537017043,-13.726434039318413,332
-99.16609978334483,38.67507692946853,42.55703875712696,30.89683273251508,13.062788375415963,32.35646889169263,-25.301572177509172,-40.532954499127136,-57.0694157087851,5.4895497236854105,0.0,0.0,0.0,29.62828764663177,-13.954971462517168,333
-98.99076613366441,38.70486011617171,42.35742954834994,31.459929736439932,2.0627883754159626,32.11029536318465,-19.301572177509172,-40.74446691230498,-46.0694157087851,5.620907942442097,0.0,0.0,0.0,29.36549107206104,-13.760907127459554,334
-99.32540812839244,38.7194605190456,40.06530396043953,31.568821852538004,-8.937211624584037,31.81662644395734,-13.301572177509172,-41.068067070888965,-57.0694157087851,5.7011226874949195,0.0,0.0,0.0,28.781608665032675,-13.446239665139519,335
-99.77114239878014,39.273591090017206,40.26524474025091,31.102481550742624,-19.937211624584037,29.939010493136582,-7.301572177509172,-41.89803831797148,-68.0694157087851,5.771625529031085,0.0,0.0,0.0,27.980376444612617,-13.08429067053695,336
-99.51303619655928,40.25577006601354,42.21527459310906,30.40823108825764,-30.937211624584037,27.254203493477778,-1.301572177509172,-42.75507462465069,-79.0694157087851,5.741946169192898,0.0,0.0,0.0,27.060691721997483,-12.621327824134971,337
-100.54279501795594,41.71600796223507,42.44584119434454,28.919583363466806,-41.93721162458404,22.511921865848596,4.698427822490828,-44.964146510605396,-90.0694157087851,5.750582346800924,0.0,0.0,0.0,25.307737798647494,-11.594786838434656,338
-102.18784357089153,44.217711191203115,43.100568588524546,28.298822862089825,-52.93721162458404,16.46880222135138,10.698427822490828,-46.345968860834375,-101.0694157087851,5.722176931825429,0.0,0.0,0.0,22.792190988253076,-10.745851174829255,339
-104.23084001285514,48.73738354760344,45.87635773261847,28.298822862089594,-63.93721162458404,10.095206870489072,16.698427822490828,-48.51796072549656,-112.0694157087851,5.6695514697476055,0.0,0.0,0.0,20.013818468637126,-9.745364225812772,340
-105.12508513601577,52.48902168003339,45.233648764823236,28.298822862089697,-61.389724000419044,6.598645173503057,22.698427822490828,-49.554630164667806,-123.0694157087851,5.575221705520988,0.0,0.0,0.0,17.10655285458026,-8.655061349884177,341
-105.19507775132804,56.592467593206585,43.770236362974714,28.298822862089697,-50.389724000419044,4.510650994575631,28.698427822490828,-50.70509598027928,-134.0694157087851,5.519119414853324,0.0,0.0,0.0,14.118647944449416,-7.5366477280798,342
-106.05822457117635,59.778966329838234,43.11574864967539,28.29882286208962,-39.389724000419044,5.4210262318695905,22.698427822490828,-51.03382344633002,-145.0694157087851,5.455746802923564,0.0,0.0,0.0,11.5291885662507,-6.523617979601748,343
-106.83448765051745,64.539249370071,44.42474920405397,28.298822862089647,-28.389724000419044,11.0655398338266,16.698427822490828,-51.100028782179145,-147.95944642413724,5.303040264806023,0.0,0.0,0.0,9.045909455248742,-5.732995974528218,344
-107.73967099237098,67.71570247442905,43.5712481684374,28.298822862089647,-17.389724000419044,19.55641191722987,10.698427822490828,-49.52124932133124,-146.0314799993342,5.044390827932628,0.0,0.0,0.0,6.792721919495286,-4.719118636932067,345
-107.04985998877535,71.5213791843608,41.73947808617031,28.29882286208962,-6.389724000419044,29.325238656549594,4.698427822490828,-47.342728175678964,-142.24230645250546,4.654562392683305,0.0,0.0,0.0,4.923025159292321,-4.079651331225464,346
-106.9743905950813,74.96572181029738,40.40395276432969,28.298822862089697,4.610275999580956,40.325238656549594,-1.301572177509172,-41.72661954355697,-140.23032969164356,4.110097761231973,0.0,0.0,0.0,3.3475703021964773,-3.531175315840731,347
-106.86226127326806,78.2591860204141,39.18899396212448,28.298822862089825,15.610275999580956,48.859553538270156,-7.301572177509172,-33.37542752676976,-136.8231811414005,3.523361909284266,0.0,0.0,0.0,1.5655929870785752,-3.1386493508756432,348
-105.47652281789688,80.2048178929998,33.18899396212448,28.298822862089697,26.610275999580956,55.380433263327966,-13.301572177509172,-28.298822862089708,-132.46705849819463,2.8079793312996815,0.0,0.0,0.0,-0.2526734243939389,-3.091628750305519,349
-104.71148074682219,82.02130405731997,27.32047023392138,28.298822862089697,37.610275999580956,63.460137723762394,-19.301572177509172,-28.29882286208961,-132.3543598677184,2.1408201634132658,0.0,0.0,0.0,-1.7980222349479569,-3.180319266968942,350
-103.20000270242326,84.22386767516677,23.835510101215757,28.298822862089697,48.610275999580956,69.50515925076283,-25.301572177509172,-28.298822862089647,-130.1232568702081,1.4791248152776182,0.0,0.0,0.0,-3.175088550981017,-3.032746343897195,351
-102.11338302183624,85.30960134244853,18.363277148992815,28.29882286208985,59.610275999580956,74.52801635032476,-28.356789267101924,-28.29882286208968,-125.51438522309284,1.0354617452373986,0.0,0.0,0.0,-4.019671172086269,-3.0027288528795957,352
-102.58758468313721,87.02391669602153,17.952369833163072,28.29882286208972,70.61027599958095,78.83584707199641,-25.40386768567685,-28.298822862089686,-127.89153318546559,0.7694888305707761,0.0,0.0,0.0,-4.563467939819918,-2.809322713200581,353
-103.79864541500284,88.45714521035525,17.729183998910415,28.29882286208952,81.61027599958095,82.62491977081612,-25.10285914062912,-28.298822862089672,-126.26731779097233,0.5250822333801323,0.0,0.0,0.0,-4.878324238524992,-3.0031090183265823,354
-103.8780176834463,88.90946683064104,17.65042117004475,28.29882286208985,92.61027599958095,84.35414409896423,-22.171508414744498,-28.29882286208968,-115.26731779097233,0.5014045702631992,0.0,0.0,0.0,-5.12342038725721,-3.205656865718354,355
-101.97599421270326,88.40620350919166,17.67387854047653,28.29882286208962,102.4934908775333,84.64290475168393,-21.87346850253386,-28.298822862089597,-104.26731779097233,0.5628368876131028,0.0,0.0,0.0,-5.641813747644766,-3.3409691762870755,356
-99.77244143816705,88.17295542231776,12.452108818013325,28.298822862089825,98.13465313633868,86.07680523301664,-15.87346850253386,-28.29882286208966,-93.26731779097233,0.7377537267169499,0.0,0.0,0.0,-4.236392625224947,-3.262108355144152,357
-99.69709441384391,88.96950857255338,9.7289328391172,28.298822862089953,98.32515781381575,88.50034634564416,-9.87346850253386,-28.298822862089914,-82.26731779097233,0.6467760820920859,0.0,0.0,0.0,-3.195390347112514,-3.323236466112866,358
-97.8180926234872,88.94395111910397,9.567211487679263,28.298822862089697,96.97433736280134,88.867530150359,-6.214769996676574,-28.29882286208961,-71.26731779097233,0.5502220238084659,0.0,0.0,0.0,-2.270715814632849,-3.2398774321086266,359
-97.98353701353562,87.30658896844481,12.251409145594216,28.29882286208962,98.01931318755238,87.12521999048968,-8.433241670720047,-28.298822862089807,-60.26731779097233,0.3938676485784554,0.0,0.0,0.0,-1.8873334861263797,-2.5225967045252045,360
-99.3901131688121,83.89556763034608,18.251409145594216,28.298822862089825,100.80985454766721,84.47103361603911,-14.433241670720047,-28.29882286208971,-71.26731779097233,0.3661814898799638,0.0,0.0,0.0,-1.6596787620381772,-1.8799932612087493,361
-99.91744134880602,77.07843578324551,24.251409145594216,28.298822862089697,102.55210504766383,78.08806645304757,-20.433241670720047,-28.298822862089622,-82.26731779097233,0.46612698092295657,0.0,0.0,0.0,-1.9110882772604063,-1.5825751291676218,362
-99.75370106435716,71.22750730069775,30.251409145594216,28.298822862089647,103.64352178486372,72.68013214709889,-26.433241670720047,-28.298822862089665,-93.26731779097233,0.6549709533118209,0.0,0.0,0.0,-2.357351806029228,-1.6905732765108052,363
-100.33266797708028,66.39385375404679,36.25140914559422,28.29882286208985,105.87395947861107,68.62894389932656,-32.43324167072005,-28.298822862089587,-104.26731779097233,0.9700474655155995,0.0,0.0,0.0,-2.7661507708322475,-1.654000296280511,364
-100.44857740397006,61.71663965208664,42.25140914559422,28.298822862089594,107.51228277788927,65.43148159141914,-38.43324167072005,-28.298822862089594,-115.26731779097233,1.2906958516273277,0.0,0.0,0.0,-3.069722936100223,-1.5371282534464905,365
-102.16928330748362,58.2152421234963,48.25140914559422,28.29882286208972,110.22763197921995,63.665464784755216,-44.43324167072005,-28.298822862089835,-126.26731779097233,1.80289656946907,0.0,0.0,0.0,-3.2659981800767928,-1.4357678394168518,366
-104.89741200585408,55.731677495187895,54.25140914559422,28.29882286208985,113.42060617166305,63.45620953287219,-50.43324167072005,-28.29882286208958,-137.26731779097233,2.3402822654966267,0.0,0.0,0.0,-3.368570798132703,-1.5393083033380808,367
-111.21940476658644,54.49871602568688,60.25140914559422,28.298822862089825,119.50837004995137,64.15412579108374,-56.43324167072005,-28.2988228620897,-148.26731779097233,2.905913410049368,0.0,0.0,0.0,-3.5486338144795018,-1.410531191470747,368
-117.2544611364292,54.59204255634151,66.25140914559421,28.29882286208962,125.70600487625171,66.60559550351643,-62.43324167072005,-28.29882286208971,-159.26731779097233,3.303759844809471,0.0,0.0,0.0,-3.9595422496186004,-1.7078610788521071,369
-124.19239974719298,58.85754039317242,72.25140914559421,28.298822862089697,131.21262880111993,70.83885643194782,-68.43324167072005,-28.298822862089686,-161.5469828413988,3.648310041347935,0.0,0.0,0.0,-4.348844824630844,-2.244946819577013,370
-126.93990906797926,62.24617720472525,78.25140914559421,28.2988228620898,134.33726406213918,75.24125719761238,-74.43324167072005,-28.298822862089704,-164.7709517439005,3.5882406709092254,0.0,0.0,0.0,-5.035501416202306,-3.147566075440443,371
-128.1764851428686,67.39679047431237,84.25140914559421,28.298822862089672,134.45365922451015,81.15128814952973,-80.43324167072005,-28.29882286208983,-167.1134135723589,3.3783751877996986,0.0,0.0,0.0,-5.816720594058767,-3.6058703627575284,372
-125.53247132076999,71.27130161068744,90.25140914559421,28.298822862089825,130.44128477122976,87.35800321899856,-86.43324167072005,-28.29882286208983,-168.14599353939468,2.883355448413716,0.0,0.0,0.0,-6.568628886267161,-4.141107912755518,373
-123.28905883241987,74.72811695759475,90.10414186399224,28.298822862089594,128.2320153717124,91.97359638499488,-92.43324167072005,-28.298822862089736,-169.46589645257055,2.360162151758523,0.0,0.0,0.0,-7.377889491491036,-4.682274347143678,374
-119.92565824993814,78.3701304938743,84.10414186399224,28.298822862089697,126.01124738531256,93.91795788020396,-87.95361731536656,-28.298822862089605,-162.65750389980673,1.494215468227402,0.0,0.0,0.0,-7.884063749410366,-5.903411854611424,375
-115.61662519542925,81.41730967587395,78.10414186399224,28.298822862089697,122.76492128128194,94.06864350216765,-81.95361731536656,-28.298822862089725,-151.65750389980673,0.6554638344394703,0.0,0.0,0.0,-7.946461350860913,-7.0184646280035095,376
-111.28329120381807,83.78327789794565,72.10414186399224,28.29882286208985,119.97057999072639,93.64777282366823,-75.95361731536656,-28.298822862089708,-140.65750389980673,1.1233010912921284,0.0,0.0,0.0,-7.713642190356934,-9.135013289769924,377
-102.81398195820307,85.49121201696867,66.10414186399224,28.29882286208962,113.77142603130346,91.9480898317834,-69.95361731536656,-28.29882286208968,-129.65750389980673,2.5197001964869896,0.0,0.0,0.0,-7.473933653115068,-12.177216285827873,378
-91.81398195820307,86.94232264451206,60.10414186399224,28.298822862089825,103.71529491819584,87.67907377233274,-63.95361731536656,-28.298822862089708,-118.65750389980673,3.828409656914853,0.0,0.0,0.0,-8.017818887275592,-16.089816269888615,379
-80.81398195820307,90.42670681880753,54.10414186399224,28.29882286208985,92.71529491819584,82.58039802642197,-57.95361731536656,-28.298822862089597,-107.65750389980673,4.590340316067587,0.0,0.0,0.0,-8.97329430224659,-19.95314450094975,380
-69.81398195820307,95.13044346910256,48.10414186399224,28.298822862089594,81.71529491819584,78.82097274611317,-51.95361731536656,-28.298822862089605,-96.65750389980673,4.379636753497341,0.0,0.0,0.0,-9.78259226245588,-20.03780072689442,381
-58.81398195820307,98.579957926932,42.10414186399224,28.298822862089825,70.71529491819584,74.79753299387359,-45.95361731536656,-28.298822862089725,-85.65750389980673,3.7598504162342423,0.0,0.0,0.0,-10.260858788575714,-17.91110310139417,382
-47.81398195820307,99.2166775185676,36.10414186399224,28.2988228620898,59.71529491819584,70.23000745257188,-39.95361731536656,-28.298822862089697,-74.65750389980673,3.2707526487323917,0.0,0.0,0.0,-10.01198991075746,-16.205077290123903,383
-36.81398195820307,100.4488896470737,30.10414186399224,28.29882286208972,48.71529491819584,68.30909162332793,-33.95361731536656,-28.298822862089597,-63.65750389980673,2.6956713205581497,0.0,0.0,0.0,-9.498709639095761,-14.29449068018216,384
-25.813981958203073,101.32360142088702,24.10414186399224,28.29882286208972,37.71529491819584,65.5033633138456,-27.953617315366557,-32.67305588899333,-52.65750389980673,2.155938491886687,0.0,0.0,0.0,-8.999396437601373,-12.578623336964522,385
-14.813981958203073,97.02696749715169,18.10414186399224,28.298822862089594,26.715294918195838,57.93776608559522,-21.953617315366557,-39.482365703081776,-41.65750389980673,1.355378675420822,0.0,0.0,0.0,-8.440363596822914,-10.229247312309052,386
-3.8139819582030725,96.08339258690927,12.10414186399224,28.29882286208972,15.715294918195838,57.290362117302884,-15.953617315366557,-40.06096955002697,-30.657503899806727,0.8468342507744961,0.0,0.0,0.0,-8.030517695384376,-8.60132386364363,387
7.1860180417969275,95.82116106374541,6.10414186399224,28.298822862089697,4.715294918195838,55.220736697037346,-9.953617315366557,-41.76440155931803,-19.657503899806727,0.9201778014514164,0.0,0.0,0.0,-7.610215410486105,-6.176714602506188,388
12.553715502404334,93.66343564418106,0.10414186399223979,28.298822862089953,-6.284705081804162,55.07118511648959,-3.9536173153665572,-42.428474105362,-8.657503899806727,1.2464384772002828,0.0,0.0,0.0,-6.9477245209639555,-4.147379248534794,389
14.864047031266931,91.67092460959253,-5.89585813600776,28.29882286208972,-17.284705081804162,54.84220844822959,2.0463826846334428,-45.04382729058862,2.342496100193273,1.7541432492010782,0.0,0.0,0.0,-6.274657038964911,-2.171517500962276,390
15.89370598805888,90.84311945442067,-11.89585813600776,28.29882286208972,-18.018553221953,54.28363057224426,8.046382684633443,-49.15082331918437,13.342496100193273,2.2615845591162627,0.0,0.0,0.0,-5.611004230882587,-0.46590743814826296,391
15.315656103265852,90.5053433919988,-17.89585813600776,28.29882286208962,-15.123909218740982,53.72409817282072,14.046382684633443,-54.64237895049121,24.342496100193273,2.6355006742410607,0.0,0.0,0.0,-5.068209242734101,1.1973285696630915,392
9.39594250460443,87.9377910457741,-23.89585813600776,38.48461992843113,-8.496018378273861,52.41758127898268,20.046382684633443,-63.2259915434275,35.34249610019327,2.996970368272656,0.0,0.0,0.0,-4.529230644490415,2.7438976560973667,393
1.350776267259188,84.8234911377182,-29.89585813600776,49.28327443568982,0.9546374737209553,50.49744337336313,26.046382684633443,-72.82194399543832,46.34249610019327,3.2024847974980104,0.0,0.0,0.0,-4.18360621990169,3.965606154262477,394
-7.137561630074175,82.2860136067885,-33.40105319022396,58.27239933485331,11.954637473720956,49.667505595588885,23.0970712520278,-80.8918646236962,35.34249610019327,3.4056984841058195,0.0,0.0,0.0,-3.9414130122262736,4.9030888581662975,395
-18.04550951796913,79.7223870880669,-27.475999849515368,69.2723993348533,22.954637473720958,49.24854727800531,17.0970712520278,-91.83362386069004,24.342496100193273,3.526722027776903,0.0,0.0,0.0,-3.7660962165868472,5.091239269019607,396
-29.04550951796913,77.67507439019766,-24.263336383405512,80.2723993348533,33.95463747372096,52.604016644567004,11.0970712520278,-102.83362386069004,13.342496100193273,3.5416721604027557,0.0,0.0,0.0,-3.4324910504479735,5.082110874404869,397
-40.04550951796913,74.7302662519696,-19.449986214532085,91.2723993348533,44.95463747372096,55.88329005422735,5.097071252027799,-113.40410390317216,2.342496100193273,3.690736857219239,0.0,0.0,0.0,-3.2569357214655534,4.875792990680787,398
-51.04550951796913,73.87236648791483,-15.625673649221294,100.73923664083688,55.95463747372096,59.62510830849009,-0.9029287479722008,-119.54180170125538,-8.657503899806727,3.74093816412824,0.0,0.0,0.0,-3.1525638691061992,4.179662676618621,399
-58.272646911667714,70.66895761221741,-12.584221188216885,106.10939005556182,66.95463747372096,62.69168629433285,-6.902928747972201,-124.51066833884244,-19.657503899806727,4.018854423849523,0.0,0.0,0.0,-3.046286561293631,3.8104984072289576,400
-61.54765305097801,69.68512228880967,-7.743865015071165,108.36052489062325,77.95463747372096,63.91677798149118,-12.9029287479722,-126.474327489582,-30.657503899806727,4.303368944240857,0.0,0.0,0.0,-3.073593531561344,3.508204286814361,401
-61.89332689300145,66.11302405364107,-6.459463530998483,110.04614219825058,88.95463747372096,62.4040205559645,-18.9029287479722,-127.68422852438303,-41.65750389980673,4.589859876813759,0.0,0.0,0.0,-3.010497433847847,3.2004382448109387,402
-61.360983432358644,62.84470812179717,-6.040989554431796,110.04900723442883,96.0880888559461,60.44227367614904,-24.9029287479722,-127.09322037294224,-52.65750389980673,4.772465318168426,0.0,0.0,0.0,-2.9711973323281606,2.8096061014366263,403
-62.302690533455916,60.11917287080709,-5.49006838985283,109.84098950104502,100.3911182987946,57.46773214117215,-30.9029287479722,-125.6548100655687,-63.65750389980673,4.915113984779842,0.0,0.0,0.0,-3.0488850509091723,2.3536914603474375,404
-64.49557320938789,58.24753081158844,-5.197525539338353,110.57384344153263,105.32181752371883,55.587642837075165,-36.9029287479722,-123.42016555022516,-74.65750389980673,4.892835403838452,0.0,0.0,0.0,-3.2290993757007826,1.8120821755811907,405
-67.2134597581289,54.81008486930512,-6.055890281252443,108.86515602286198,107.77563286910356,55.57251836419368,-42.5958112622362,-120.01603136387914,-85.65750389980673,4.8379429997731505,0.0,0.0,0.0,-3.403940149094231,1.2601780560773044,406
-75.91555516438167,52.01134938092194,-2.869078335433146,109.0217336634311,116.61075369071477,55.454895041259434,-47.24642325966746,-114.97543653066298,-96.65750389980673,4.800405117068641,0.0,0.0,0.0,-3.6958532619459734,1.0645337213146193,407
-85.42544959746122,49.51217772566644,-0.39975981252288434,103.99927767153093,121.21686094201974,57.0122161368654,-49.910530451886906,-106.12364612738706,-107.65750389980673,4.688371932532918,0.0,0.0,0.0,-3.909591830555677,0.5820604467682376,408
-96.42544959746122,49.54380912809557,5.600240187477116,95.56279707073276,125.66878344359193,58.337931813398384,-52.495899463025474,-95.12364612738706,-118.65750389980673,4.539569311972541,0.0,0.0,0.0,-4.173939598919857,-0.2989374520228773,409
-106.77601772343455,49.872980253618174,11.185539952188847,84.56279707073276,129.9636285161315,58.441050610558776,-51.69503950414084,-84.12364612738706,-129.65750389980673,4.37978810833568,0.0,0.0,0.0,-4.468240725827074,-1.0335348194669742,410
-115.26189142098207,51.20246500549137,17.185539952188847,73.56279707073276,132.75709198038095,60.118057008719326,-54.38852108116444,-73.64962980109061,-140.65750389980673,4.133622893313532,0.0,0.0,0.0,-4.869768274087899,-1.8655186452155512,411
