JMW9912/AVATAR/Dynamixel/dynamixel_control/data/csv/poppy/.data/waist_test/2DoF (2P+Ori)/0429_2054_Anysong_2_2DoF_Ori_smpl_motor_degree.csv
theta1,theta2,theta3,theta4,theta5,theta6,theta7,theta8,theta9,theta10,theta11,theta12,theta13,theta14,theta15,frame
-81.09217125753575,82.0474318801841,-23.94982548664439,28.29882286208985,87.67260594573864,77.51201664742565,14.877033123571456,-53.49768680120026,23.419372763203793,3.222704843225001,0.0,0.0,0.0,-0.9800611137301977,-9.24078234703794,0
-83.89635358997835,79.22632958634942,-23.52498457416811,28.298822862089697,86.56575369404602,74.91944196848608,18.8032517636283,-56.93983629602806,20.02857926321645,3.508652130630519,0.0,0.0,0.0,-0.6101966225977962,-9.103037115260008,1
-86.68039736780285,75.92221422698017,-21.074985801644612,28.298822862089697,86.21229074918787,69.88345105526663,20.479645694324088,-67.93983629602806,13.161004729009083,3.1867067602712247,0.0,0.0,0.0,0.3815904151489268,-8.48420341863942,2
-87.75677622188726,71.82796375917552,-18.329981693575295,28.298822862089647,85.84792279171093,65.15806772321537,18.2660541257634,-78.93983629602806,7.9444373110681985,2.788077766952451,0.0,0.0,0.0,1.1879230147468596,-7.678033374880293,3
-93.72582779185679,66.95407540662166,-16.058318121214484,38.61077765507868,81.35517427032738,61.2256702012978,19.632149058911157,-89.93983629602806,6.86269974586388,2.569706229440203,0.0,0.0,0.0,1.771002534596856,-7.102663845279793,4
-101.39825455018945,61.65825559405894,-17.351550694469243,49.61077765507868,73.80970652612811,58.98721858142406,19.261857819277235,-100.93983629602806,8.441529122490183,2.256289830096498,0.0,0.0,0.0,2.2789761542776734,-6.191482474664004,5
-107.55325590910337,55.69451790843666,-20.801000391848117,60.61077765507868,62.80970652612811,55.255146875819335,20.939293970964485,-111.93983629602806,6.647573034581525,1.8558072795620766,0.0,0.0,0.0,2.9896103085479084,-5.484130237920369,6
-115.97697169101932,52.312564780666804,-18.44619512768697,69.57603204986523,51.80970652612811,53.29071482736086,15.21859924730766,-122.93983629602806,4.571757327450696,1.4037430303630312,0.0,0.0,0.0,3.9967413224966637,-5.046219504699334,7
-123.40621283593379,49.466922692970684,-16.24037128247109,76.19082530349804,43.870169854575174,47.30768624108021,10.137773986356375,-133.93983629602806,1.4679815202802913,0.9192624751889165,0.0,0.0,0.0,4.6979490854988635,-4.507889221705442,8
-127.51208205057512,48.48109236742677,-16.58236090567211,80.0388689825722,33.3433228625366,47.22883680238959,7.680276360820588,-136.54866751663513,-9.532018479719708,0.7035861820719098,0.0,0.0,0.0,5.219702418421322,-4.268037534172152,9
-129.24375567783216,48.675617565212654,-15.939907821162924,82.787846140469,27.918422078856498,46.20136291428858,5.601639066561617,-136.5667945392401,-20.53201847971971,0.6225797149031801,0.0,0.0,0.0,5.434768720000963,-4.168056966271774,10
-128.10620763127613,50.25202166429546,-17.83599104640349,83.87421842762464,26.56845560793229,47.88186223964282,3.7001430355651115,-136.86874666055164,-30.348816508586058,0.7658398056588386,0.0,0.0,0.0,5.4042163470282825,-4.174195038734266,11
-123.30675301362496,51.05296704364525,-23.66974377973759,85.53095847543965,30.723717714017084,52.20519912636968,1.197891540848406,-138.1976824577635,-22.413140542875066,0.983310037349202,0.0,0.0,0.0,5.332219434204304,-4.380173348519083,12
-118.40248334582529,53.5044095446079,-27.051084061941847,86.52228333778632,38.68835525789787,55.15794630171854,-0.3503460198475852,-139.05258578180533,-12.933414888880021,1.1684215347473141,0.0,0.0,0.0,4.902251109604783,-4.553434875458794,13
-111.78413806843784,56.39056736880286,-30.285659322745957,87.23706074387616,49.68835525789787,60.69070771660763,-2.8456589783596797,-138.8935217751352,-1.933414888880021,1.2118414647502103,0.0,0.0,0.0,4.0961488252001255,-5.408205718487883,14
-105.71960179734674,60.589154935360504,-30.21183126309217,87.56647221752087,60.68835525789787,66.84479633122942,-3.609245214123462,-137.1775583740126,9.066585111119979,1.3363667189087645,0.0,0.0,0.0,2.947994690152925,-6.6675825207595425,15
-103.38552078896326,65.22514510143903,-26.840231998056005,91.67154428451117,71.68835525789787,70.41604513662926,-3.7225311803206127,-134.2322543442363,20.066585111119977,1.446515312371229,0.0,0.0,0.0,1.9419722221290785,-7.442036447868011,16
-99.06314648134385,67.68554246754307,-25.30835784452988,97.9334330596434,82.68835525789787,73.8341696922618,-1.1279596392136908,-128.9844347892964,31.066585111119977,1.577228824864144,0.0,0.0,0.0,1.3032765461153109,-7.56457443551236,17
-95.39076021550763,71.83568054339234,-22.185264858316184,104.54610816386416,93.68835525789787,77.85184406072102,1.320391882656977,-122.94724560825232,42.06658511111998,1.5391361757605297,0.0,0.0,0.0,0.9495781399423314,-7.326319739691498,18
-90.09764228256897,73.52545219301987,-20.642974747149385,114.2272908497498,104.68835525789787,80.91793410269251,1.7351735565404154,-118.12849058184312,53.06658511111998,1.5516762001600835,0.0,0.0,0.0,0.860265431017706,-7.21057757201104,19
-86.62192249822296,76.08703210521706,-20.110149785057967,120.96886425794631,114.04644949560371,83.44133615202533,1.2505624387709353,-113.1591373120728,64.06658511111998,1.6344542215809028,0.0,0.0,0.0,0.8782054279435254,-6.826567531162344,20
-76.65357019292257,79.61818159531865,-24.291951063074695,127.06182121412382,115.19799501837632,84.72082422018262,2.8583853070233545,-107.60672468419352,75.06658511111998,1.980527433034404,0.0,0.0,0.0,0.77234210212455,-6.524491267819208,21
-65.67368572466839,81.95840603200799,-26.99173905805055,134.49848496562154,118.18574409841017,86.00666286575077,1.0079807163488683,-103.71286409452063,86.06658511111998,2.646532476669949,0.0,0.0,0.0,0.41366433858197965,-5.368928888498414,22
-54.67368572466839,85.93949424644384,-28.429454981337848,141.13686382600366,120.8143024955219,85.53380466190933,0.7340204414289875,-97.55717216643183,97.06658511111998,3.1725075805801777,0.0,0.0,0.0,0.46519240805499334,-4.474342398159334,23
-43.67368572466839,88.30080476644231,-28.81412002933112,145.27652683313036,121.17669119243034,84.07852816216483,2.749338353301074,-93.62316712852184,108.06658511111998,3.5817463698489327,0.0,0.0,0.0,0.6716491223662968,-3.8470976164767197,24
-34.8999498303159,88.98362067759565,-27.91914408482877,147.21786334295814,121.75659039090712,85.25879935456159,0.7274311839303647,-90.06182551735242,119.06658511111998,3.946689196338918,0.0,0.0,0.0,0.547638787998738,-2.7134472680053237,25
-33.14067851557543,89.78328044627196,-24.31583448704295,148.93193786578166,122.08296491599818,84.72644770361555,1.4990465041788024,-87.05942039595047,130.06658511112,4.20340237265227,0.0,0.0,0.0,0.6095737666953993,-2.0349550560308205,26
-32.17257053814553,90.43903492167045,-24.315350648833967,148.0105906767131,120.03776739363859,85.76769327409521,1.2839102741290305,-84.22925633362146,141.05657378026172,4.347015634156689,0.0,0.0,0.0,0.5521769179475912,-2.174234816425337,27
-37.66039127896391,93.61872140183834,-23.300174806438953,146.7094632775218,116.6899565284745,86.12179685345185,1.4990712580597867,-85.15022459130891,142.45274699293427,4.185250556653419,0.0,0.0,0.0,0.49774996650312914,-2.8326045172665335,28
-48.08667891637845,92.10353042219839,-27.567728827354117,143.3996142166513,113.7747252445597,85.80959462255021,1.2563887017402382,-88.24059603854779,148.88444111108555,3.9183180933506803,0.0,0.0,0.0,0.15713092828403433,-3.3670782327706763,29
-59.08667891637845,90.07401448395828,-30.047794912042114,134.97396148229612,109.83094427705252,84.29685369735533,3.3565171922340906,-94.63353738696836,154.41454915561724,3.7260544932044337,0.0,0.0,0.0,-0.6289809909009411,-3.3886728411932805,30
-70.08667891637845,88.11677246263385,-33.27241146265448,123.97396148229612,103.04465088216467,82.50326818544751,5.497536010925654,-103.41213365669812,159.80993102829302,3.164533458596691,0.0,0.0,0.0,-1.359759726574321,-3.405063562566368,31
-81.08667891637845,85.10721779063348,-34.6565058983995,112.97396148229612,96.02045838886424,81.60049946491061,5.318820814874605,-112.85635272144862,161.97315112719932,2.64056491073937,0.0,0.0,0.0,-1.9960378732308066,-3.997571716523765,32
-89.4138341579272,82.817743020358,-34.19893777635493,101.97396148229612,90.55364301175008,78.81320450783593,2.901834516271862,-121.3429020479646,162.950603676895,2.1845710659379365,0.0,0.0,0.0,-2.6093057616432436,-5.0767471567195015,33
-92.46408215438684,80.63046364904051,-34.16247145062693,90.97396148229612,81.29610930789636,74.75035306828413,-1.1560224885566333,-127.94376823105709,157.01464902607515,1.5979463918090937,0.0,0.0,0.0,-3.3265215965093176,-7.041581402943576,34
-96.75510855067027,78.14021627167149,-35.157681086646264,79.97396148229612,70.63571002757512,66.87357639844338,-3.1614289075421445,-136.1425986575994,146.61041402441282,1.2955220483719354,0.0,0.0,0.0,-3.9648331703240127,-8.511189097682738,35
-99.47836059581577,74.29276401449884,-35.93305000788681,72.09245415259345,59.635710027575115,55.873576398443376,-3.3040441230544144,-138.37586736061542,135.61041402441282,1.1703097075325348,0.0,0.0,0.0,-4.5550449054886535,-9.504945580588052,36
-103.378262348648,71.2050877789769,-36.82293098351899,72.85263654726802,48.635710027575115,47.65062271808249,2.6959558769455856,-140.02136324375638,124.61041402441282,1.0191142492123575,0.0,0.0,0.0,-5.347500851969601,-9.970286214598687,37
-106.84932703776686,67.13727418353669,-37.40387981507928,74.71149194957391,37.635710027575115,42.42787158512167,8.695955876945586,-136.49968460746473,113.61041402441282,0.9583927282319311,0.0,0.0,0.0,-5.837317230479511,-10.963508643557233,38
-110.03752740114906,62.8145961900748,-37.39540804661225,77.65889622244596,26.635710027575115,37.546211044554084,14.695955876945586,-132.6393080209907,102.61041402441282,1.119900019883396,0.0,0.0,0.0,-6.344902702994199,-11.49192801771367,39
-114.37412885064494,61.53813928847857,-35.917476101663354,81.43022859834961,15.635710027575115,34.15074114994599,20.695955876945586,-131.02077993563555,91.61041402441282,1.3025154214821866,0.0,0.0,0.0,-6.805576900535543,-11.992973557399356,40
-116.7134225440591,59.152448945249624,-33.89120408895778,86.78133120209347,4.635710027575115,32.37677939201617,26.695955876945586,-130.06049341632746,80.61041402441282,1.7581678255690434,0.0,0.0,0.0,-6.804988077370449,-12.118832235334406,41
-120.23771260243544,59.78793029246104,-31.0021106905743,91.1183431305883,-6.364289972424885,29.953848892036298,32.69595587694559,-130.58304905420525,69.61041402441282,2.202339733015239,0.0,0.0,0.0,-6.565400123763182,-11.644756764450866,42
-120.70551609260369,59.70543800944357,-31.410647151037438,94.61028189365084,-17.364289972424885,26.594330553870314,38.69595587694559,-131.83247541097333,58.61041402441282,2.592626285501212,0.0,0.0,0.0,-6.047520367073568,-10.892740388691202,43
-119.1786422164542,60.5074343960775,-32.79321216897643,98.68195704297692,-8.996720715506138,26.217651517710358,35.34082301116532,-134.97353401853002,49.992098013981206,2.9022888564476137,0.0,0.0,0.0,-5.348069904429861,-10.347248273469853,44
-116.40419478818049,62.64795289030162,-31.723369314473832,102.16541092370498,2.0032792844938623,28.298032713864863,29.34082301116532,-139.85890202264184,52.8880378851779,3.347030303579117,0.0,0.0,0.0,-4.333784933802224,-9.933352967248695,45
-111.87389662519982,63.39870846414038,-33.11922019366,105.58185674113933,13.003279284493862,35.64575944839335,23.34082301116532,-142.6466033505703,52.413079305718206,3.5982496656766116,0.0,0.0,0.0,-3.21799868790739,-9.992707346156564,46
-108.09005366512129,66.15163017132714,-32.1113303244861,109.87313545107403,24.003279284493864,44.72707908932564,17.34082301116532,-142.8881291742582,52.61345459175523,3.6840472405571285,0.0,0.0,0.0,-2.4535898649855334,-9.434407555406262,47
-104.65394206140721,68.49202015069788,-31.061548017141728,114.51200525760655,35.003279284493864,53.29286322614008,11.34082301116532,-142.157721603138,54.92421872677245,3.6026955180025393,0.0,0.0,0.0,-1.7966520657131544,-8.552044151161432,48
-99.86272474036232,69.74086355734292,-29.275741543712048,119.71535821037206,46.003279284493864,60.2099362667481,5.34082301116532,-139.661923480221,58.18740720796944,3.643952224879827,0.0,0.0,0.0,-1.1236543340170726,-8.192163602307009,49
-96.3015578219268,72.93631336509402,-26.272183652361434,125.30546937782324,57.003279284493864,69.20358536522207,2.742013066018512,-136.66258656428587,61.69290860053125,3.547909661978932,0.0,0.0,0.0,-0.4050958891739532,-8.065703032712335,50
-92.17122874719597,74.96251714155255,-25.66265919495618,130.7675179761684,68.00327928449386,75.53039040588615,6.807491959844835,-132.47860993914423,69.30490707462457,3.6318929571244767,0.0,0.0,0.0,0.1287393619035432,-7.941845091183689,51
-84.97319173182196,79.44843252602571,-24.356792212105084,135.8920536659178,79.00327928449386,81.83884149634838,10.359063365737384,-125.94610976748966,79.57432037966507,3.697286500890219,0.0,0.0,0.0,0.6092335019853504,-7.833496987992907,52
-76.03172193111806,84.14820797493196,-23.150162846627335,140.34197945502808,90.00327928449386,86.69605494630675,12.049474941319248,-121.34055684580424,90.57432037966507,3.9410860806947974,0.0,0.0,0.0,0.7962681192111145,-7.417694843524898,53
-65.07031418670839,87.16540757541594,-23.014696672561506,144.30171242818977,97.36406130962273,89.08086565487064,14.777366597946552,-118.26809587512412,101.26476565783997,4.2525321925480855,0.0,0.0,0.0,0.5931611737144602,-6.35606571281935,54
-54.07031418670839,89.77691520474572,-19.5745338367423,147.40211956137654,100.66960494214274,88.6503915376682,14.41441292313351,-116.91200481499843,106.09979813391655,4.864894824628026,0.0,0.0,0.0,0.3956059379448383,-4.96196883108465,55
-44.8903372849094,90.99034752434787,-17.81488411896133,148.90723946975277,103.20052996893459,90.3932957917355,12.557221108065121,-115.60285353601677,110.31286384407638,4.95991819458583,0.0,0.0,0.0,0.5770176329803864,-4.299207233318761,56
-41.84543078744604,92.79085503238444,-17.83126514636419,149.682449653745,105.37764497167167,90.04446638066486,12.419154186240116,-116.0831516157998,115.21102791249695,5.043558749115779,0.0,0.0,0.0,0.3470689456278206,-3.439585524669665,57
-40.16661696541104,93.37895521580712,-20.367100206654367,150.0649128713414,106.09104795897576,89.69204390236483,12.426241832889982,-117.31041983126235,119.38683800602689,5.082900572612389,0.0,0.0,0.0,-0.03630232465085351,-2.956078462467981,58
-42.96126298239329,94.62341036706296,-22.311361153251692,149.71997468769575,106.3852843988829,89.3110043172332,12.248136435207485,-118.47017984400466,124.0824944989213,5.03070859515312,0.0,0.0,0.0,-0.24530635562814926,-2.3383628706012884,59
-47.091789690021145,95.65730327855871,-25.008156269118036,148.37206395589396,104.08674434779161,88.98469205165118,12.351132136865841,-120.58973895037651,128.29850933052572,4.842217782640736,0.0,0.0,0.0,-0.6059922113189229,-1.9435227417428764,60
-50.854281627008326,95.77654784960708,-27.10540986285266,146.22155823434915,101.38691446342398,88.4444058848791,12.068606923575864,-121.65070714460634,131.04727920213716,4.665819747818145,0.0,0.0,0.0,-0.8573019155489274,-1.6357000729247289,61
-56.58281681268282,93.60659389965033,-27.628939514314588,143.38706738791447,98.84490844146448,86.98101603578216,10.987201994527656,-123.1167033180222,129.89534737928324,4.178465587450975,0.0,0.0,0.0,-1.358954512188192,-1.563624244074933,62
-61.91723385605309,90.7858990814009,-31.85569456118254,139.4719516165481,94.98565635744231,85.60858283496364,10.203801292941105,-126.50360552215616,126.77429126506172,3.53370058340694,0.0,0.0,0.0,-1.8954496055175982,-1.5157266547299744,63
-66.83849774155796,89.34327952595908,-33.70387617669798,133.5361631228953,87.61497517964683,81.78275404496642,10.554511044690441,-129.76063323339645,117.82865527552443,2.9916673266468012,0.0,0.0,0.0,-2.590772376788476,-2.2649228443356404,64
-71.3736027827341,85.80648044968807,-34.719822596153534,126.79875583359741,79.53972747670596,77.62490012320366,7.260781670646058,-133.617388382311,106.82865527552443,2.7373151686949933,0.0,0.0,0.0,-3.755819961388284,-3.4463657162793586,65
-75.33850742011626,83.96184031613772,-33.834427402969055,117.18627990925573,70.73505374592743,72.85152840587669,7.309636464480697,-135.9030013645756,99.58612578187218,2.9620367847916684,0.0,0.0,0.0,-5.013787216121846,-4.4856675030501805,66
-75.40019600493972,82.10733515613688,-30.36129124157263,106.86203589456768,59.73505374592743,69.95952931257283,9.405316826859577,-136.04842450434782,89.06221683221831,3.3135276110381655,0.0,0.0,0.0,-5.909448620516529,-6.406622925369191,67
-79.11116175938518,78.93886917848687,-26.902986563793476,104.91649763292149,49.590472706137035,64.19519589598494,7.393007680837541,-139.94526525124218,86.05452016343425,3.5198137350478484,0.0,0.0,0.0,-6.9412774999753974,-6.770684171755703,68
-81.21694377429009,76.7063453454287,-24.366636025124034,104.32073112709878,38.590472706137035,59.02535787451532,9.13403083642121,-141.9661228302956,81.59560887176434,3.7201015585650845,0.0,0.0,0.0,-7.756755974410691,-7.408669807865005,69
-82.08886003314616,76.28482453359285,-18.366636025124034,103.19584727881397,27.590472706137035,59.71410482889789,14.65025520671232,-143.83056497655357,77.38140279746655,3.8937227571986703,0.0,0.0,0.0,-8.175299850914687,-8.507100116488704,70
-82.3598814062109,73.46521857332816,-12.366636025124034,105.56608650942175,16.590472706137035,55.330766404613165,20.65025520671232,-144.68122253525783,73.4948201508717,4.211988162110446,0.0,0.0,0.0,-8.48234434392131,-8.85013405549589,71
-75.02307918644694,65.92033359165222,-6.366636025124034,96.86802290077587,5.780585858247052,57.35020438367452,26.65025520671232,-144.0002400143359,69.27680666888425,5.084088657640158,0.0,0.0,0.0,-8.651824508752517,-9.179694217283958,72
-73.23459399424978,63.71845063066777,-0.36663602512403415,92.17070300616653,-0.41515307468147883,62.43346975511873,32.650255206712316,-144.5393110563583,66.32510849493083,5.577065586745529,0.0,0.0,0.0,-8.932611130943863,-9.313684546234459,73
-72.6806730488856,66.41911692825973,5.633363974875966,100.29602536477343,-0.37355527397996563,66.22338681582843,36.26028232620877,-145.23593003015526,63.44770913709875,5.489120337246295,0.0,0.0,0.0,-8.169359744812011,-9.140154919792868,74
-72.73552039315935,65.93408666393711,11.633363974875966,105.57423616767683,1.1582217922474116,67.64533096444777,36.90246760071888,-145.81363458589885,61.15674202729878,5.282588988771762,0.0,0.0,0.0,-7.246957891798108,-9.07825544950822,75
-75.55072885997795,68.43162413084798,17.633363974875966,113.6062462027758,3.2085288383354222,66.07592058153199,38.320482607428104,-147.1128384915416,60.76223258155273,4.827020608266811,0.0,0.0,0.0,-6.506465466169676,-8.33614224371297,76
-75.97233725072245,67.21635962554524,23.633363974875966,115.66413830805871,12.100826499016149,65.02406567056786,37.23574600730619,-146.48533521111798,62.75416371553164,4.795683070993986,0.0,0.0,0.0,-5.8360641658092,-7.712720396170264,77
-75.24227256233635,68.63286890183994,22.97348647087447,116.69515907008274,23.10082649901615,68.33633057881617,40.604812223564416,-143.28602326638912,63.04596612385576,4.350061734994836,0.0,0.0,0.0,-5.1129200729177535,-6.962132988535968,78
-71.70282321514037,67.25201063752687,18.193958168130422,118.52813381050123,31.409575138401053,74.31772645985632,46.604812223564416,-136.94476335009176,62.65538426882037,3.766937999105042,0.0,0.0,0.0,-4.08805948246698,-6.89508201472419,79
-71.5660295428379,69.70988063559003,12.193958168130422,122.13046936401393,34.34730210530974,80.15455911639673,52.604812223564416,-130.8446634993636,63.9694988615949,2.751732998553346,0.0,0.0,0.0,-3.6750050848609277,-6.395215580432346,80
-68.28155561985123,67.98654208159431,8.481616593954552,125.63895122973668,36.62366766422865,81.50114614794626,58.604812223564416,-129.1232028326591,74.9694988615949,2.6589230575567204,0.0,0.0,0.0,-3.1402544732870354,-5.59977803551663,81
-64.22694531221101,66.14833942404917,7.1240963810880595,126.41275161532819,36.686558915367875,82.10955575663627,64.60481222356441,-128.31726568212005,85.9694988615949,2.775900498617773,0.0,0.0,0.0,-2.5508865389458935,-5.181144859940351,82
-61.18791196907165,64.85395721733359,5.60690979948865,124.14872850267511,38.974998863394376,83.09006261481795,62.65759875187108,-127.74326442728508,96.9694988615949,3.140234301550722,0.0,0.0,0.0,-1.9529237712368328,-4.439478012042885,83
-58.82938751932195,64.64712757243201,2.931809131432935,116.67781231549733,41.34949384407713,85.11801744666559,60.88970825694238,-123.45018293825954,107.9694988615949,3.547526639661348,0.0,0.0,0.0,-1.1669148411234456,-3.9149164900206372,84
-58.833148751524625,71.22556549347112,-3.068190868567065,120.1805759075908,45.70835879926846,87.99734862454719,58.40094570769553,-122.28904391875682,118.24075593309306,3.698741501674826,0.0,0.0,0.0,-0.5892437449543626,-3.2657654827499902,85
-57.08808138719542,75.35800890602854,-9.068190868567065,121.22265571131045,46.76108397656726,90.41785302469621,60.82713872399404,-119.56172505736485,127.7510295448446,3.8062862174874117,0.0,0.0,0.0,-0.07524697686838698,-2.6561720432519844,86
-55.641580317792666,77.89782263985651,-15.068190868567065,119.67471570634117,50.57024006354992,92.04312725882312,56.44250914110205,-115.96423903150082,133.07030491865575,4.058050412825745,0.0,0.0,0.0,0.41459754227583284,-2.054589032595053,87
-55.56484905797311,79.39993274206448,-19.77925571813385,116.72909962918506,52.35088163441827,92.53540654916725,52.84285738883049,-115.85913304352977,138.12897245456372,4.494041952422366,0.0,0.0,0.0,0.6105427679059866,-1.0032465293487798,88
-55.49271446945751,81.10682403208028,-21.452033323273625,114.27525230417992,54.48765513493158,93.13417386548157,50.587274397519295,-116.92873872220542,141.85324254876687,4.950612969619956,0.0,0.0,0.0,0.6780570007694071,-0.28417005640353016,89
-55.11606271614541,81.82281338944325,-24.4040060813293,111.81604535326304,56.254001731412856,94.69019475372379,49.15394585669762,-116.68680281038237,145.74794356139893,5.3100693425888865,0.0,0.0,0.0,0.6556337657480023,0.4455696710364358,90
-55.116130110352216,83.3704088382643,-26.23631604412593,109.22439264848481,56.02601744814507,95.17949304886133,49.1937924942093,-115.67539124735517,149.08899567998185,5.597627087329929,0.0,0.0,0.0,0.5402083579777391,0.771148209554621,91
-55.53993650413237,84.67912994027368,-27.803230349391512,107.85382846861955,57.671007564894055,96.33638747299096,47.528341003080804,-115.13248710630151,150.758824039377,5.800189986129152,0.0,0.0,0.0,0.41216483434539525,1.300280629256186,92
-56.16013785587887,85.58773580804201,-29.11009848182747,108.11080216059594,57.3578294264886,96.44017785136882,47.18823986148115,-115.83414326167379,152.23283007161953,5.916960639085776,0.0,0.0,0.0,0.28018139410507065,1.5477006911385212,93
-56.37537701414734,86.1204516521642,-29.822466378249587,107.88673355387591,56.732026642652094,96.5112023780542,46.92288386733542,-115.09169552009176,153.43582265808033,5.87093393391186,0.0,0.0,0.0,0.11866759727354055,1.3760962151302547,94
-57.087741848146386,86.34028214812139,-30.450958767280635,109.10130998958542,55.269911760085144,94.58617476205636,48.09159119426217,-114.19208524727074,154.559895652742,5.904917905948475,0.0,0.0,0.0,-0.11864428642888872,1.036205156597482,95
-57.520900569515305,86.54002478230525,-31.28617060956873,111.45341709162439,55.136885450729025,94.08455570694366,48.47303541586396,-114.40226890713807,154.7547777025534,5.822486074210791,0.0,0.0,0.0,-0.3242798067871282,0.34701360756011246,96
-57.85513361783476,86.46903850850872,-31.61975413805985,113.42038940390313,53.254051295752056,93.1979474589415,51.31368887646082,-115.35013358286254,156.15661040868085,5.531333172124155,0.0,0.0,0.0,-0.6103467827107573,-0.5244985260258342,97
-56.63079248546414,83.85508639743023,-30.952879422791966,112.92396202843491,51.95010896734814,93.13635473148716,51.56716872366002,-117.90161119403977,155.75487525277094,5.192054849445738,0.0,0.0,0.0,-1.0490518017552863,-1.4396720193921348,98
-57.770614871436415,83.87939194401773,-27.730499087976096,113.85033216471415,49.70474486709329,91.74384269933209,53.65075081492314,-120.17192193955083,155.00149436944264,4.836057996204316,0.0,0.0,0.0,-1.4744030781423183,-2.3268253220798445,99
-59.3030532975437,81.64309415860515,-25.568262371081456,119.04402815845128,46.822029320103205,89.6440997828917,53.852724636332994,-124.2154867535393,154.51677816701604,4.3773215677939445,0.0,0.0,0.0,-1.8791991643126653,-2.936436064793575,100
-62.39410019318105,80.47606265135987,-20.54697232901676,122.91984963492288,43.927547634480035,88.37206103405147,50.95081309805833,-127.06636718391094,153.02972695054493,3.85417593488009,0.0,0.0,0.0,-2.3786240257739486,-3.8370561976633946,101
-63.68480756582556,76.38986058877508,-15.425756865933257,126.78596494478509,39.56014735161045,85.07516277932288,49.035739578344945,-131.2408298916125,149.1593170619905,3.357755505479345,0.0,0.0,0.0,-2.824532792556136,-4.739387101634243,102
-64.30770889881919,73.63859680192604,-9.425756865933257,127.3747063451424,35.010072530780825,81.99901501914259,43.80219937454281,-133.85851488396335,139.9443032348609,2.86046930751984,0.0,0.0,0.0,-3.267691101605086,-5.842935844550346,103
-63.64528082080026,70.8979298199114,-3.4257568659332573,125.1975348358434,29.508043622408234,79.11218239940594,39.18189754387478,-136.10363307895176,128.9443032348609,2.6723074818545425,0.0,0.0,0.0,-3.8991418088265224,-6.6878159814740865,104
-61.9278919631848,67.66345504686079,2.5742431340667427,123.31157862675435,26.0748083253561,76.84382509712614,36.483110924239455,-137.36265845214479,117.94430323486091,2.6630533814065687,0.0,0.0,0.0,-4.050945321556629,-7.839936882269729,105
-60.667024331063054,66.12121423630448,8.574243134066743,122.76523169550146,24.353461755568,76.83818022887831,35.82179350325054,-138.0655473963487,106.94430323486091,2.8154079127765836,0.0,0.0,0.0,-3.9457368800416543,-8.462773629739862,106
-59.205344620653165,67.2834548139847,11.490178579467308,123.42687802039298,23.731448298576783,78.02761795633391,36.343084855286016,-139.262943063852,95.94430323486091,3.0716135760227306,0.0,0.0,0.0,-3.854932707229765,-8.75448936384692,107
-58.46566320275708,67.97948850820778,9.05529958246491,127.23038555069292,24.638123927189348,79.65173475190905,37.51064436184348,-140.6446587654439,84.94430323486091,3.2531506195636184,0.0,0.0,0.0,-3.5797596365962367,-8.705125838955158,108
-57.293883962029206,67.74831759332695,3.05529958246491,130.7612758695839,28.781556416697484,80.82459220871681,43.51064436184348,-139.1017985307949,87.77063227437733,3.180794790080968,0.0,0.0,0.0,-3.0919072587940253,-8.49680682589662,109
-54.70965501947481,67.71804763291783,-0.10775587831821226,130.8537881222631,34.897442668000885,83.23955345488199,49.51064436184348,-135.98333173799355,92.4433639751434,3.099513600993764,0.0,0.0,0.0,-2.3792303774561496,-8.411879713287393,110
-51.749203417037855,70.16023753470068,-1.9788894421223802,130.5899165800387,40.93386188497188,85.71356753823716,53.826367253185914,-130.62539701403014,93.20806475408308,2.7490535534353975,0.0,0.0,0.0,-1.645667635288662,-8.752785281952454,111
-53.40501219490634,71.81191277414219,-7.499321508583191,131.75215361421695,43.22819162577961,87.07199588227452,52.59929160376098,-131.61409859819088,99.93992045785843,2.684730731406168,0.0,0.0,0.0,-1.5787417204106848,-8.106894732277604,112
-52.48880283327693,79.23052932830646,-13.49932150858319,130.3278853512205,43.559725619389454,90.61349901405625,57.11858260275396,-127.1338178153052,102.6138677301906,2.3479508217597527,0.0,0.0,0.0,-1.157480265023751,-8.491991167672106,113
-49.86845845192849,81.59895264873012,-19.49932150858319,129.10281105865755,44.72982816884407,92.26620462076431,54.824615835660694,-126.3876454981748,105.7418969842859,2.5685748614141306,0.0,0.0,0.0,-0.7792616960996936,-8.246652242558431,114
-47.584481320614394,82.8263015432096,-24.554363137644152,126.91772879982207,47.34792041573323,93.55776640228405,49.67002278522571,-126.39470256295711,109.63032789223514,2.8746901344381737,0.0,0.0,0.0,-0.5994072632455482,-8.101160981106371,115
-45.81264537824101,83.35816085140998,-24.814394735433048,125.28424198282144,49.28700736470819,93.26358612376796,45.85985146349072,-127.09069241575435,116.20986638394106,3.166395960686161,0.0,0.0,0.0,-0.31046486802420104,-7.703791257361974,116
-44.95581468398176,84.27970416521734,-25.964560571284647,121.47911260405093,52.05743758127394,93.45368280866288,43.30764319668475,-125.56436055961883,120.20562118094065,3.330360434546255,0.0,0.0,0.0,0.02406754163992499,-7.203898190527577,117
-44.54319260417705,83.490350079988,-25.436689717217785,116.8494554465939,56.6473604411734,92.37935443322354,39.96882628202597,-123.10640889215004,124.19876414875822,3.506609166447522,0.0,0.0,0.0,0.6518845767755446,-6.643034564561954,118
-46.43899674138822,82.66273350864964,-25.941867789031694,115.26174041574728,61.2156493158224,91.83813676887563,36.872468528487545,-123.04774737215826,130.8361085579022,3.646101191877296,0.0,0.0,0.0,1.278641234067308,-6.095844941478676,119
-48.216974123908074,80.88949477931486,-25.557118550886717,106.21502909883462,63.67045735865615,91.11067448451631,35.79546839529865,-117.43126954781813,135.8052212716232,3.543963937504883,0.0,0.0,0.0,1.8824460301353618,-5.493667391615939,120
-51.2474593596839,79.20445171071403,-27.88399576734138,101.90208204009414,68.82507213166275,90.68946616492114,32.11183696669215,-110.4861893348053,140.06873008611672,3.394717827542256,0.0,0.0,0.0,2.6619997578477212,-5.19932456721374,121
-56.35449521083568,80.03135803615716,-31.909763070100652,101.05241405829817,69.4657142819951,90.87625914316553,29.11970810334131,-112.7018641057993,144.1225025761952,2.8458816668625477,0.0,0.0,0.0,3.065104616139043,-4.923590190222891,122
-61.38102332428878,80.04851578131225,-37.63160428051523,98.19550566346872,72.49076019727435,91.07872628508112,23.127848314274118,-116.35339436415693,140.02122771197426,2.4356060683782417,0.0,0.0,0.0,3.378605840096965,-4.80471065436766,123
-71.34278252638988,78.5502818367845,-41.610658674220105,93.30511037238914,76.48174453202267,87.07374975921056,22.246333509958284,-118.26015302240957,133.35560596562038,2.0719607127073827,0.0,0.0,0.0,3.7864094866901667,-5.3365144661665065,124
-79.38370729995016,76.88686648721018,-41.82148232778507,82.30511037238914,77.30891880004953,85.47346016234839,19.794862795235332,-111.66354473323312,122.35560596562038,1.4619292146125629,0.0,0.0,0.0,4.088006524529968,-7.230089112392333,125
-86.19076841271693,74.12375893173699,-44.42000649197151,71.30511037238914,82.34739649926694,81.60924296298256,23.25992672200838,-110.12224114890462,111.35560596562038,2.13284064557683,0.0,0.0,0.0,3.814064690872937,-7.938350709145627,126
-89.60699403089072,74.11516023144206,-40.955183049048536,60.30511037238914,83.6490314977822,79.17663734023402,27.49543459067976,-107.04792254950684,100.35560596562038,2.145487067223426,0.0,0.0,0.0,3.8035513406411896,-9.333784037492814,127
-85.96419166014572,76.98368538167993,-39.09276426601386,49.30511037238914,79.17913487540035,78.11507562475215,33.299017482906436,-108.07913890488148,89.35560596562038,2.334517838555156,0.0,0.0,0.0,3.2195448109243836,-11.013700646483029,128
-91.28899430589686,74.0555105795544,-33.09276426601386,38.30511037238914,72.13411150053507,74.58697798874383,36.74312837187165,-115.02895624586793,78.35560596562038,1.3901243772164282,0.0,0.0,0.0,3.343019194210617,-12.120408973036907,129
-92.88580665721648,72.66119135901972,-27.09276426601386,28.29882286208962,61.13411150053507,69.37717864192811,39.18503860018279,-118.71569086148494,67.35560596562038,1.005368220715603,0.0,0.0,0.0,2.8915019270205007,-12.849250545246225,130
-92.62162196728747,72.35400750888024,-21.09276426601386,28.298822862089825,50.13411150053507,68.01571364738498,35.804388054183775,-117.617132965068,56.355605965620384,1.3501396496076659,0.0,0.0,0.0,1.943977589450432,-12.538525296622378,131
-91.76167379529724,72.61451023987487,-16.409559314918127,28.298822862089825,39.13411150053507,66.90848647937874,39.561632516480344,-115.01047711860528,45.355605965620384,1.3546793792166136,0.0,0.0,0.0,0.7630125985305986,-12.22024026638037,132
-92.54337182528803,72.76535847198713,-18.523234150696496,28.298822862089747,28.13411150053507,68.73887845979512,39.550424608879354,-109.92820201551464,34.355605965620384,1.8148852732155425,0.0,0.0,0.0,0.11350750164131014,-12.638977372485497,133
-93.3899148796195,73.32557353569631,-20.766240872307957,28.298822862089875,17.13411150053507,72.270269878136,37.65078113147311,-102.12996960688842,23.355605965620384,2.337032562572239,0.0,0.0,0.0,-0.4000186189843307,-13.15051107245567,134
-96.71161923194289,72.86397772490666,-22.417846515478665,28.298822862089697,7.276591158721929,73.53134914273079,42.60447433624479,-98.68835212978081,12.355605965620384,2.8113058312792605,0.0,0.0,0.0,-0.670988380601159,-12.887521673347145,135
-98.20958812378336,72.15283804854629,-26.834699969893396,29.101110493795524,0.6819994679002024,76.08509638071507,42.98419077822176,-87.81273709879852,1.3556059656203843,3.736139565067112,0.0,0.0,0.0,-1.1092539649403401,-12.974895200424488,136
-100.46935486235992,72.75236934589608,-29.284031739407816,35.04480896899559,-3.22069155652024,76.94354375790256,43.73805001913353,-86.29785366934802,-9.644394034379616,4.192817082568027,0.0,0.0,0.0,-1.5567015974076188,-13.319773529041123,137
-103.62305952757592,72.58492156600359,-31.717680339866693,38.98818490461615,-6.734278951667464,77.88649514579514,44.818621090235034,-88.69544271661832,-20.644394034379616,4.663422842062217,0.0,0.0,0.0,-2.0208399999093136,-13.455326505235455,138
-106.13557217406424,72.97077161436124,-31.748161419502278,41.80521285613705,-7.578280925073596,81.9210302389055,42.49982641939425,-95.03871427360554,-31.644394034379616,4.920187528109885,0.0,0.0,0.0,-2.223594471745095,-13.625274518617143,139
-107.91919418604219,73.25520277575444,-31.64815699448958,46.47444617596315,-5.763938449284133,84.18433017642228,39.31302296947043,-102.7030713093404,-42.644394034379616,4.896484172149193,0.0,0.0,0.0,-2.058481324128507,-13.822452754341397,140
-109.59410226613508,73.56666302510256,-29.23635614178532,44.84733005979569,-3.259566430643404,85.58335478402381,35.1283232357673,-109.24105596396215,-53.644394034379616,4.910572163954818,0.0,0.0,0.0,-1.5834454175068244,-14.215126670861174,141
-110.44952881550225,73.9645431770387,-26.77084131741585,44.261037963431946,0.13631653591387569,85.0695758477608,32.011753530713534,-114.07678908159392,-64.64439403437962,4.967205991709507,0.0,0.0,0.0,-1.2202632431304061,-14.472532293128634,142
-110.7150585279203,74.34092389895771,-24.162205051942237,45.79024613349361,5.333707741131326,84.85934431986387,28.873367660714166,-119.71601432824023,-74.58688318160154,4.770100155246484,0.0,0.0,0.0,-0.711719162844991,-14.167919886725405,143
-111.32548541285782,74.18770870100431,-21.21891867864574,49.95309257818712,9.855288591772139,83.56592811064756,27.35279941487127,-122.71485518444078,-73.49240886650026,4.709892160799855,0.0,0.0,0.0,-0.20314158657849332,-13.358753705448969,144
-111.58440151859378,73.99232475392658,-20.825358740467422,56.203800964402575,17.426121679803273,84.26019309712,24.671859217156168,-126.34194463585574,-73.45117585033799,4.511778405568463,0.0,0.0,0.0,0.10710849532404325,-12.506531079448802,145
-111.87286454536384,75.01384186625062,-18.23651354129775,64.91312064107449,24.500117857799854,83.99177931555826,24.02974266872343,-127.65518479915265,-73.01205993971836,4.49877522404699,0.0,0.0,0.0,0.3996328133531784,-11.511121045226504,146
-111.54657013752619,76.7288125654543,-15.432216985369545,74.57160809612246,33.28850953926844,84.87092397278344,23.880614940337136,-128.54408701758047,-73.54012842175325,4.300893654864536,0.0,0.0,0.0,0.6587456960601478,-10.359074531910556,147
-110.73532370900048,78.198354911901,-14.165433328858786,85.44486755829278,42.11548270719534,85.02166878214953,27.20009914369794,-129.61888557094096,-75.1376659807012,4.033479984960326,0.0,0.0,0.0,0.8056609702858051,-8.86543741964345,148
-109.30228930141583,78.6087476154778,-11.499080720887246,96.44486755829278,52.99161470100619,84.8103548847813,26.949146091249318,-127.57566104907899,-76.52720970824379,3.8151322990158585,0.0,0.0,0.0,1.0884484099948035,-6.956354558639953,149
-103.56318623729943,78.9155503574036,-11.733275796399067,107.34027810364196,62.6630744300994,83.23783484169076,29.441617088281188,-126.13579487005674,-75.53328885974862,3.3820963787217613,0.0,0.0,0.0,0.7357367885534238,-5.345360235548954,150
-97.75823280406529,80.0763064850035,-12.394823307663609,115.00917173688816,72.44971147881411,82.94982202131041,30.178734925666426,-125.20054810684779,-76.6093495998745,3.1119258299168027,0.0,0.0,0.0,-0.0948885605776059,-3.449238031384357,151
-92.40756543783363,80.02716788548503,-15.10678227232385,120.3945003248691,83.44971147881411,82.31134017716961,27.024664459133923,-123.23509342712957,-80.67531656923458,2.8211788776216276,0.0,0.0,0.0,-1.0157900296840299,-2.2645154989092275,152
-86.11645190364219,80.3785073137022,-14.649774815934132,125.16089917365741,94.1077591532595,79.80744047881188,24.65432790743721,-119.87446529106708,-84.84642128418092,2.4410852196833708,0.0,0.0,0.0,-1.7467254526084388,-1.5083530796465088,153
-79.4693384543567,82.4153523865492,-15.876704279360203,128.09918847446087,101.13465241290636,77.59874570127783,22.605785905037525,-117.10116535426445,-90.48265998793573,2.2750496854338094,0.0,0.0,0.0,-2.5660566599982233,-1.348713583421383,154
-73.28575979444312,80.44961464082509,-16.426552409898132,131.2832584955494,109.31750329132491,75.47418886277364,20.187769714395262,-114.53312656366391,-99.59979071679682,2.1989806911766965,0.0,0.0,0.0,-3.1119595576114567,-0.5209072456771476,155
-67.80218664476313,80.244927670218,-15.422930872324159,133.52955551855024,116.81136776148956,76.17676871871967,16.924788615559912,-110.58610865757878,-110.59979071679682,2.2130049670867695,0.0,0.0,0.0,-3.540221762097244,0.7671203354870426,156
-63.90677376217556,80.65313008598082,-15.228299752118982,134.3332989128319,119.98787306235432,75.9313976029314,16.421580775609247,-107.56335509731841,-118.79003285238602,2.364917511382897,0.0,0.0,0.0,-3.936281536335861,1.2917987236665611,157
-62.22409456364392,80.96046593543737,-15.665947381775029,134.53368325439084,120.40432545641156,76.42255574156094,16.73953935120028,-105.56303022659748,-121.81442805902785,2.5869368616538275,0.0,0.0,0.0,-3.8776296259718395,1.1525378488105025,158
-62.24435830497574,81.70858041568378,-17.1996199821449,133.87988598520914,117.48071780124629,75.92344846306223,19.665749357594116,-105.22791518126692,-119.40816359168295,2.7023657131882675,0.0,0.0,0.0,-3.467395365830526,0.5765853615531565,159
-66.06441439930421,82.45682946133023,-15.760409872488946,132.65140969084695,114.11457160089243,76.9689462106115,20.484187545142028,-104.98601961241175,-111.54462127112123,3.054579825541646,0.0,0.0,0.0,-2.548368646655397,0.05544780427092353,160
-71.32487104401508,81.42359384742271,-15.81336216343613,129.1496037958597,109.31754777189799,78.57565473324506,21.765884911206676,-105.47196834670055,-104.3591344639089,3.170404605236504,0.0,0.0,0.0,-1.6535287433682528,-0.3731623302416367,161
-76.95503536743065,81.9379046244575,-16.78170490353034,121.7463413059014,100.97983378557477,79.14528947467757,25.55462176493604,-106.66171454366787,-95.84379246611972,3.2856285822881284,0.0,0.0,0.0,-1.2179061372208637,-1.2701040686624816,162
-82.12918975089889,82.03775238509313,-17.280661706470287,116.22573670960351,91.65862798817838,81.83208330579858,28.06697614088009,-110.32075876211695,-85.06054910375042,3.8412965452594863,0.0,0.0,0.0,-0.7337002651572787,-2.7527295555262756,163
-86.52060378173188,79.67858401686526,-18.354325449193155,108.89978638946394,80.65862798817838,83.24521528039949,32.5797428340605,-113.23306164192557,-77.0969835635779,4.311630753236383,0.0,0.0,0.0,-0.433987788106627,-3.879384520665388,164
-93.53213944536846,78.48868766282509,-17.450232457432957,103.29072120234177,70.82543322106108,87.11668586479915,33.24975518330655,-118.0183356343638,-70.86264447449422,4.86769660978709,0.0,0.0,0.0,-0.025583697035851692,-5.3120688810794565,165
-99.51062080505393,77.88599252080536,-14.320129546162816,99.7232075328015,63.9875512733154,90.98177145996445,32.645375829242454,-120.8318589823432,-67.32705107209732,5.428046860107049,0.0,0.0,0.0,1.0383708805095913,-6.327113634050783,166
-103.84148854954068,76.60889962299493,-13.543859077996858,97.76000231323623,55.050732239479665,94.45673093636577,34.920478144568065,-123.29447901570278,-63.6620542606038,6.170479793273093,0.0,0.0,0.0,1.7871748014123512,-7.522865514212761,167
-108.85942083096904,75.10255293284918,-12.378686359750239,96.04712905701889,47.881892734491345,97.60738163865038,36.53633996428,-124.73551102752432,-61.68493132230684,6.718285727831417,0.0,0.0,0.0,2.462196160162577,-8.143499552053033,168
-114.23400475625829,74.4298392510463,-11.630122739129522,93.47187950229916,40.710522448809385,101.14629616042579,34.47623453100136,-126.48969869078279,-60.11016362384838,7.131169209727181,0.0,0.0,0.0,2.702437436547827,-9.105740063212073,169
-118.67987866077142,73.9218055060775,-10.349901290438694,91.16647962458012,34.3840514433962,103.05042509028962,34.14410844890576,-127.87676338823978,-59.863391160510375,7.338327426157231,0.0,0.0,0.0,3.1005024370496965,-9.268928490294822,170
-121.53724881344094,75.00229677110605,-7.776677226805192,90.5942426787663,29.955496857385658,105.76713668125822,32.16646368283391,-128.17096217956907,-60.39779394763788,7.682459465544566,0.0,0.0,0.0,3.551402616041089,-9.286171255557457,171
-123.65702775372039,74.70492348130351,-7.287645973086818,90.63273555721526,27.377141023567166,105.95092198991222,32.56841092781949,-128.71437030416115,-61.030893273253376,7.759605056776887,0.0,0.0,0.0,3.928320411481379,-8.767002678351501,172
-125.07905592436535,75.51998586445364,-4.607810410071317,91.72775874483374,26.840220034772003,106.91936594074761,32.018951823003526,-128.5368004024716,-61.62779592787094,7.788010047997387,0.0,0.0,0.0,4.149215899965985,-8.113423526720997,173
-125.65748893784058,74.94763009761468,-4.0188711174425595,92.54106845521578,25.891990659113088,105.07408729689536,32.745709384223126,-128.7102010779194,-61.82450387094868,7.78918720446579,0.0,0.0,0.0,4.1179779437873165,-7.569695876777979,174
-124.98939630173952,75.89079477046852,-1.7675449733392974,93.9567034375438,27.572170408819183,103.86199937049905,33.2613766643588,-128.66662810789444,-61.9557136170082,7.690917219045303,0.0,0.0,0.0,3.9242202962167636,-7.26705440757945,175
-124.40477349994967,76.75450110883723,0.49842335231084905,96.57643219570538,34.28055676119835,101.84073843814052,33.597208878454545,-129.2374096643171,-63.07238562332565,7.273245853665393,0.0,0.0,0.0,3.7348625003414653,-6.680240832902026,176
-121.96433934802235,74.76194497776359,-1.5634216133938068,100.18316844280264,41.58250961165334,98.11391003372664,36.29682055539083,-128.34027623109858,-63.50168571036375,6.6868429880674,0.0,0.0,0.0,3.4268896816121255,-6.160047758170953,177
-117.8155371268715,73.9778156780359,-4.008391440937118,102.71594317114935,48.246709669711194,96.76185474986256,37.92058817512529,-126.70472776336545,-63.92590077796532,6.282189238112171,0.0,0.0,0.0,2.617006048776339,-6.021141429472398,178
-113.25255329412309,73.10169567988564,-6.320099634014134,105.42644133995427,55.83115455438551,94.32238909812149,38.714921273348615,-124.49313517248433,-65.1158212056995,5.825816551333952,0.0,0.0,0.0,1.8403503937978756,-5.599230281766502,179
-106.84077373531923,72.49348652087019,-8.711283310226445,110.15631565901806,62.072054405068506,90.81405966985017,41.76559209693343,-123.23396758561407,-67.06920029372768,5.48238618272771,0.0,0.0,0.0,1.0254770917934688,-5.128975747910396,180
-98.18514079045597,74.03998841400762,-9.225640558506468,114.80000126927672,69.36534629996375,87.2863081498572,40.39299353497541,-123.1188343347581,-67.62615758809277,4.8466644019348815,0.0,0.0,0.0,-0.2560194343007502,-5.3176760099801355,181
-90.88583643245487,75.20982202853251,-9.002946109064574,118.3674946783824,77.52575504932074,85.05268741959927,36.64890388758357,-122.3433922943912,-69.64277305350832,4.267348167787833,0.0,0.0,0.0,-1.5016520805316562,-5.19862141077113,182
-84.57233839439571,77.2231934308833,-9.484582257003547,121.93972158830321,84.19670027065068,81.21048876274904,34.09935101031485,-121.28316730534134,-69.04533668453273,3.8092688263706216,0.0,0.0,0.0,-2.79729228600743,-5.709704107158603,183
-80.05651792763838,78.36572038730598,-9.027964448209454,125.05816632561009,93.08654739093106,78.90152686563202,29.221545778178164,-120.29972212890057,-68.0479319947864,3.3226550648350845,0.0,0.0,0.0,-3.9592113138289315,-5.785737568286225,184
-78.94377587845007,77.489736545926,-6.405730977277403,127.2634958990296,99.93363219749993,75.63182702323721,26.22373743871912,-120.22938263748843,-70.16491966833453,2.87636498522513,0.0,0.0,0.0,-4.908715789411034,-5.289331561540012,185
-77.82177646916858,79.05243938316043,-3.0025516552768594,128.94327749329463,106.541924737391,74.40943837759167,21.44270994061372,-119.67829116432951,-78.55091635526348,2.3471373983827775,0.0,0.0,0.0,-5.750065024571305,-4.482593824020025,186
-77.59361566072845,78.83567194348556,-2.2190562309505046,131.12208578173892,112.29570943770604,73.21945547880436,19.573421963554956,-119.40038997064666,-89.55091635526348,2.125264162567382,0.0,0.0,0.0,-5.984824572897401,-3.3093044275333057,187
-76.77528668336795,78.52901731493736,-1.7979695895984789,133.18484357556093,116.32931694586325,72.77121835276648,18.45352328221346,-118.87921787509046,-100.55091635526348,2.277625561318523,0.0,0.0,0.0,-5.88357750024816,-2.316795799957667,188
-75.99057063765851,78.12964450834,-1.616441225618727,134.4612885747655,118.33164648330637,72.75544027853714,18.02215441480902,-119.0007782586825,-111.55091635526348,2.6528303948189773,0.0,0.0,0.0,-5.580233430843398,-1.7005199632778931,189
-75.34747104845248,78.15627435988776,-2.0935313021118462,135.26044703111347,119.13128270306268,72.76423785134546,17.78172743358155,-118.85985189178432,-122.55091635526348,2.9732415864942676,0.0,0.0,0.0,-5.2722532049870034,-1.3077282993789607,190
-76.03934875015955,77.48430233989386,-1.5946395989094386,135.52244128561864,119.51527280667561,74.2092789088683,15.638801457215692,-119.24850169042348,-133.5509163552635,3.061610117863487,0.0,0.0,0.0,-5.005900287307914,-1.1814206131153995,191
-75.02707763538868,76.92294086485859,-1.2963645553680978,135.41831057111455,118.5067888537128,74.23086069227422,15.654002543772638,-119.97300692158271,-144.5509163552635,2.8922189354957495,0.0,0.0,0.0,-4.66459910496409,-1.2472659561471027,192
-74.62086069722397,77.47823913518661,1.472571292988421,134.36619087527583,116.42876861775517,73.6726738951413,15.15065987236686,-122.55350049383664,-145.3883048834455,2.6094709335842783,0.0,0.0,0.0,-4.269380953941846,-1.5209571814063085,193
-76.66959200687867,74.87872451159177,4.395456630894702,134.0211346579437,114.4940917538585,74.15545372932577,11.956574705875697,-126.37496734030343,-141.2697899148147,2.474858588313303,0.0,0.0,0.0,-3.7686567885446394,-1.9243939500961476,194
-75.24359326700949,72.02386581291132,8.071177351080724,133.78435455271807,112.1628983216095,75.52299523868176,5.956574705875697,-130.2096627207254,-135.7532213674909,2.0935409102416975,0.0,0.0,0.0,-3.2839822534261085,-3.1918677517996747,195
-72.74288091438316,69.38931919974758,13.242920883231648,134.97050735772268,108.89498478073254,76.62562123010298,-0.04342529412430274,-133.68616788729022,-124.75322136749091,1.925890097486637,0.0,0.0,0.0,-2.703430810493899,-4.484683293795831,196
-67.86987707039881,66.8338614971196,18.69601687720645,135.95125706762653,102.72223554242623,75.54318403955202,-6.043425294124303,-137.26798547446194,-113.75322136749091,1.8331106534647248,0.0,0.0,0.0,-2.0091595855258264,-5.468038673067917,197
-63.86304126773137,60.550244598810295,20.781368188896444,139.10000435014592,98.87507681585403,75.58193837749944,-12.043425294124303,-139.9694102103792,-102.75322136749091,2.0181857244634127,0.0,0.0,0.0,-1.437298079202709,-7.151896091787305,198
-58.38855865234724,54.35389209586966,19.953619227733174,142.2110567028629,98.71082863131271,78.31410189546332,-18.043425294124305,-142.25548490509235,-91.75322136749091,1.844887181761294,0.0,0.0,0.0,-1.074208222478505,-8.081143194208195,199
-49.15538522931566,50.672003396853235,16.78777433074433,144.63345823515078,96.78083784092799,81.32704641292017,-24.043425294124305,-144.09151827028975,-80.75322136749091,1.7856893414247517,0.0,0.0,0.0,-0.8625214802795066,-9.160649743721137,200
-39.85538685170398,46.264314580350565,10.78777433074433,145.41573460248844,94.9182116422306,82.2289730003912,-30.043425294124305,-145.03788813207535,-69.75322136749091,1.7244911717910885,0.0,0.0,0.0,-0.48565193866436496,-9.698872983673915,201
-33.73475208983492,41.97180067706116,6.683442871170454,145.61146252856003,93.29629943926162,82.7750768100243,-31.11595381852601,-146.07623777533064,-58.75322136749091,1.8342233651471367,0.0,0.0,0.0,-0.11959907364015206,-9.817747407865854,202
-28.279358519861788,41.22070886765033,3.3472343065499,145.88674110231312,91.785714117935,81.91686070371483,-29.028350864795843,-146.96412359370134,-47.75322136749091,2.045531728378561,0.0,0.0,0.0,0.15887998568632106,-9.737612555483159,203
-22.00804381347838,39.542529660396475,-1.9631533188632826,146.09177738968043,87.30023632690116,82.37575891548367,-28.73175530062547,-147.683797095704,-39.41759383442744,2.3157101959804534,0.0,0.0,0.0,0.4176256618223337,-9.481715493338859,204
-15.967690142120723,38.79486531133578,-7.831140123860468,146.78374535193572,85.7116319380111,81.73119742785033,-26.30555825806265,-148.25140130595622,-39.93669226214682,2.4002523223367564,0.0,0.0,0.0,0.689496726010399,-8.794318807414138,205
-11.974628171269744,40.1268181945767,-11.473584739988944,147.24331420401288,82.64798755342574,80.37417586827655,-24.565708846421067,-148.69853617391223,-43.07652339354574,2.5177273914090237,0.0,0.0,0.0,0.7725215867235845,-8.070746501253247,206
-10.041173448780096,44.36562906746129,-14.250909534529093,148.18074895951744,80.41085794527957,79.78003692850439,-21.068707169749587,-148.9993523882802,-43.966269062245175,2.3462034494905217,0.0,0.0,0.0,0.4825981163914755,-7.415555592816928,207
-9.734157151183327,48.82787573681553,-16.302506513718704,148.6707953947208,75.96899672313403,79.43111664701131,-16.712337943738902,-149.17039009210404,-49.90977035695783,2.156324242643969,0.0,0.0,0.0,-0.04547628322638521,-6.715702225805039,208
-10.297451325438075,53.88554556484704,-18.831594376721732,148.44465043349587,72.63363787225492,80.60079916743643,-10.712337943738902,-148.01074781925638,-58.69674083968338,1.894351629603687,0.0,0.0,0.0,-0.5031468545545107,-5.5450084310522065,209
-11.964605552311331,59.13501988061098,-21.002073265252097,147.68570252330133,70.64677716727381,81.4705801646324,-4.712337943738902,-146.3748381882964,-69.69674083968337,1.7008042004854447,0.0,0.0,0.0,-1.0252331802835906,-4.270429008135357,210
-16.029634919676703,64.04654446252694,-22.176737685315025,147.09596245463698,69.5398921627483,82.11578083902106,1.287662056261098,-144.46412361049747,-80.69674083968337,1.6669768699151648,0.0,0.0,0.0,-1.6792373585999596,-2.5031151106093334,211
-18.161664389090035,70.49241458307276,-25.24071105691976,145.55233037166073,66.79745393378256,83.50213042127744,7.287662056261098,-141.7373037467576,-91.69674083968337,1.9107016735255633,0.0,0.0,0.0,-2.1807101328971648,-1.3135193580615148,212
-21.005542780041086,74.72249902885021,-25.80763560104668,145.11407592881477,64.32649279224064,81.8375941797427,13.287662056261098,-138.9551437796874,-102.69674083968337,2.4938600702976563,0.0,0.0,0.0,-2.5347488014911805,0.09853131047153145,213
-21.649357742484504,76.95402423468882,-27.894822758473264,144.1146948209423,62.413310808313796,83.48051432349676,17.90186933898356,-135.74566358732974,-113.69674083968337,3.0525629470181377,0.0,0.0,0.0,-2.7986961957297787,1.171189871907319,214
-24.305673939533104,80.70419377813961,-28.06880227821002,142.96501468484394,60.75737533072233,82.70228711730242,20.967770945531193,-132.18817615762458,-124.69674083968337,3.690653105186324,0.0,0.0,0.0,-3.0701244039529407,2.1261083632652977,215
-26.718191169815313,82.14986137922186,-29.490380169771417,142.37180485205604,60.479440855141775,84.88393476590137,24.086463159342745,-128.3118393108781,-135.69674083968337,4.431984922266954,0.0,0.0,0.0,-3.117875266304539,2.885370834594175,216
-28.910425726057873,82.40131921898178,-29.565992344357763,142.3931088752656,58.627858691438995,84.80089353846732,27.244110242837873,-125.13863041601755,-146.69674083968337,5.053254044960685,0.0,0.0,0.0,-3.2161850211513294,3.653887116803167,217
-32.43646880297669,84.5660495318933,-28.228955656965187,141.82145211150794,57.02615771042051,83.70489527053321,28.571855507659155,-119.5715997232918,-154.28343862694123,5.510169251595381,0.0,0.0,0.0,-3.0858433209110427,4.227315980993806,218
-34.99214717097704,85.96746048967296,-27.46240916103892,141.74018154857723,57.06801656870099,84.55226618098051,29.1002459278471,-114.79105057958914,-155.36475609042625,5.907622480673642,0.0,0.0,0.0,-2.8605190765258666,4.469307380757913,219
-34.95160865787543,86.00777562130403,-27.756895301146994,141.58822178512747,56.77910696224909,85.36955197386386,29.560853721040665,-110.26681332147119,-156.28015986068908,6.080597667732416,0.0,0.0,0.0,-2.6463008715467833,4.412999009984573,220
-34.509214911984145,85.35869793788837,-27.606693044131024,141.71625880316995,56.76537608206138,86.19395472466732,30.3517756661475,-108.25644313396727,-157.18066369729743,6.067263028340138,0.0,0.0,0.0,-2.393370343982308,4.061821995916369,221
-34.32930095815579,86.03904533868563,-25.657935794868077,141.73458271990722,56.665205044151676,86.4692962010243,30.556156628929706,-107.91312237856613,-158.18889900201071,5.923860007919183,0.0,0.0,0.0,-2.086419626481145,3.3512246693019256,222
-32.05415315645726,83.7763245605282,-26.167772150474732,142.24255454078295,56.81674430499446,86.79885146895919,31.25991856193369,-109.52518363848479,-159.4577516244912,5.64791776846818,0.0,0.0,0.0,-1.8129218859358245,2.471440469407534,223
-30.867680104363806,82.28840790292146,-24.917407349097505,142.4205647737314,57.03239450562913,86.56822670350643,31.28798723838801,-111.35319410427302,-159.8870653495157,5.283211524554764,0.0,0.0,0.0,-1.5029929992379618,1.4451494504261289,224
-29.89879155949993,81.20196075471041,-23.964933071969362,141.8294697395983,57.95344528331223,87.74888379510297,29.649605101762116,-114.10176335023468,-159.63086261103697,4.739438712409748,0.0,0.0,0.0,-1.287589731598167,0.23518321329605105,225
-28.681600371630623,79.7497445306695,-22.850632875470943,141.4329953947529,59.19259073522602,86.749673409059,29.085945012718707,-116.46138072178061,-158.04212200015414,4.090738362311581,0.0,0.0,0.0,-0.8809347131099836,-1.00012618116793,226
-27.054818681593442,78.25008047072573,-21.6467256386635,140.72211851916308,60.745484828829284,87.52065144237844,26.726303640952654,-118.53140035102932,-153.42003169970653,3.2760681117600594,0.0,0.0,0.0,-0.47676862158172745,-2.4277338641356447,227
-24.997248564837193,76.52206727763249,-20.299163198906427,140.4664174051955,61.58723093006683,86.27694989074719,26.282680879318285,-120.50088899403376,-143.80243918775392,2.55392998702083,0.0,0.0,0.0,0.038100383227428626,-4.04162565352573,228
-22.48292219874071,73.30529818022691,-20.820752330682474,140.83479709112382,62.79164175452717,85.27715143682006,24.907002876746866,-122.88764236262377,-132.80243918775392,2.085491328262891,0.0,0.0,0.0,0.46497504136117096,-5.456482755652692,229
-20.824535915778334,72.30555980841795,-19.94071440187627,140.67760320220225,63.28066792288328,86.03755957444184,22.120934168571765,-124.98876160302652,-121.80243918775392,1.8415627586284784,0.0,0.0,0.0,0.7236601386940891,-6.852270090791076,230
-18.658590540061855,68.87403384142986,-19.64848279348163,140.94434239878015,61.81451148005234,84.65742488276199,20.64187677095083,-126.7669362925423,-110.80243918775392,1.9378289355278893,0.0,0.0,0.0,0.7728079520316051,-7.804047850620258,231
-16.073614635106658,65.69445359825603,-19.80200533102608,141.36636818870164,62.140632044936766,85.3298150049155,17.708474346324238,-128.5564300623305,-99.80243918775392,2.158405665251429,0.0,0.0,0.0,0.9133641134140031,-8.081056986312856,232
-14.279526284389972,62.9622844066229,-20.398933501337332,141.37018224338797,62.106516843145016,84.11198404973067,16.287417515705467,-129.88367920737602,-88.80243918775392,2.395327568431556,0.0,0.0,0.0,0.9425667515828398,-8.181350521597851,233
-12.935258676875936,60.1865073575398,-20.75726581632593,142.28205923642818,61.73317585260334,83.00839358186577,15.218708167181537,-132.08453196349518,-77.80243918775392,2.609568506879821,0.0,0.0,0.0,0.8283605459525286,-7.893806206406327,234
-13.21583107083558,59.336463413189705,-19.492677461759275,143.066615240434,61.010009909739736,82.06467589898982,14.195201004644362,-133.18912677512327,-66.80243918775392,2.7981482138970186,0.0,0.0,0.0,0.7572929063426607,-7.357420576568455,235
-13.811655885191398,59.502560633706715,-19.308981594288102,143.82207940541852,60.3873878973629,81.60683731168426,14.106738865897517,-134.23453656328118,-60.042698741827856,2.8976278134573716,0.0,0.0,0.0,0.46968827226656007,-6.916954572689001,236
-14.36065308164826,60.151251353560724,-19.690818375946627,144.26250077269808,59.32034141448986,81.4030517002318,14.422854663051409,-134.6211261538931,-60.007229703595584,2.958127077250119,0.0,0.0,0.0,0.11713196232590796,-6.633058686317921,237
-15.81069104704525,63.587642037421695,-19.666561310165417,144.958547141684,60.29985396985867,82.86507935606049,16.71071517743597,-135.28840107343828,-63.56413859687708,2.855539408171416,0.0,0.0,0.0,-0.15387295396655998,-5.904167441292138,238
-16.464682804853435,64.97171714413358,-21.108729863042747,145.18030398666164,59.950431453824734,84.03423632106485,18.521126378395277,-134.79270155920958,-67.18589575725956,2.9396502230742945,0.0,0.0,0.0,-0.3959347295075714,-5.3935604462945115,239
-17.35700264767201,66.71273376047651,-22.917150256550745,145.52139326609677,60.45553099553722,85.48757766768004,20.640843166666873,-133.96574285765547,-72.97626664809036,2.9622967038504293,0.0,0.0,0.0,-0.6442476255615041,-4.696777059655148,240
-18.143399999946162,68.2263045218562,-24.5764461000434,145.45114705595415,59.19941482319066,85.74955194373696,24.113198958081327,-132.48582290735544,-78.72737185712269,3.032323389912839,0.0,0.0,0.0,-0.7489712886083246,-3.772539425357326,241
-19.711183430918574,71.87537521741541,-24.67572912314301,144.87186187712624,57.47734594494752,87.34404703382152,26.135537296657706,-130.6564555230078,-83.25229602761539,3.1505959741602556,0.0,0.0,0.0,-1.0137451082478146,-3.27012689048125,242
-20.016823194885813,73.1821506485339,-25.96974467080073,143.97782282290322,55.36924690592109,86.31764015352599,27.835532727507296,-128.97054564658964,-88.89531581401253,3.1976273102942385,0.0,0.0,0.0,-1.1608320548833586,-2.7455337546866554,243
-19.799669893474302,73.53283916825757,-26.358783446107942,143.8212920060689,54.165275574103056,87.14371068114589,27.94566671847714,-128.49647120587713,-95.03768402883485,3.2386591053485634,0.0,0.0,0.0,-1.168550360721703,-2.1890619994630383,244
-18.698794892815812,74.37733299577026,-27.399398447171674,143.57157039128134,51.858182324261996,86.50349559013631,29.74549434129829,-127.77981678881427,-100.55628193576813,3.30506445618955,0.0,0.0,0.0,-1.108825397257502,-1.9006174328907384,245
-17.58521341082159,74.80704216106732,-27.988366953475783,143.18903124947755,50.71495972887753,87.25419262498009,29.71695616525853,-127.62812792220323,-108.13114468777621,3.367182334298608,0.0,0.0,0.0,-1.0333569975615526,-1.6471216013194527,246
-15.607931923033629,75.21832889118956,-28.55097915879195,142.9567532592904,48.189626278643026,86.14527333702289,30.77352803500133,-127.99280793962403,-115.37578877460703,3.4703898933766655,0.0,0.0,0.0,-0.9669855897532763,-1.5448877099986749,247
-13.82938860558162,75.39717381915501,-28.92554120945671,142.63769175799845,45.61661780791073,85.09486190253459,31.79939237874958,-127.98495470618715,-121.64874010665466,3.6059840418438887,0.0,0.0,0.0,-0.8414279088173193,-1.4579293868526062,248
-11.896311460457673,74.98326074431868,-28.716097830857425,141.92848518440948,44.79725972359032,85.23980119350716,31.149223918309904,-127.57456781986458,-127.31476614641588,3.6507794748540947,0.0,0.0,0.0,-0.6569868301607693,-1.370623751080931,249
-9.34508215344577,72.8466930034434,-30.123704937825934,141.8361151074071,44.44109708221471,83.95571876104914,33.135291117735115,-126.72738348953509,-131.78264170035322,3.5615857022373296,0.0,0.0,0.0,-0.5193538451496758,-1.1520853989657365,250
-9.610844768286753,71.54111192435975,-29.079876117181854,141.81045077530368,44.345137751291105,81.80904908925449,33.97713843540395,-126.53314011907752,-137.06052622059366,3.499849907148544,0.0,0.0,0.0,-0.21425784780727966,-0.7068951336861732,251
-11.172041044931758,69.82361209458837,-27.454998484966133,141.0716776607467,47.01977694706848,80.22678872937763,33.081514491011376,-126.86660789101111,-141.59461990285857,3.3916297453539785,0.0,0.0,0.0,0.019697349750570275,-0.34538433390749296,252
-15.20696124040398,66.38490306150103,-27.26627740348913,140.3554399400044,51.01861287340728,78.227734790378,32.60404177164468,-126.1107391116682,-143.16535239095109,3.3387297277665917,0.0,0.0,0.0,-0.006385538449275834,-0.19989539964076838,253
-26.206961240403977,64.06895545451192,-24.03351094329396,139.2505311860285,56.26414883045364,76.11162274826282,32.93712818215778,-124.64559817990465,-142.3903815548411,3.3808363958426413,0.0,0.0,0.0,-0.33518727076501054,-0.4407019340386424,254
-37.20696124040398,62.336346368145065,-18.03351094329396,134.88854252166206,64.21827073488583,75.4844397389914,29.883710947430256,-120.09211944331138,-137.86216708169306,3.363817596204642,0.0,0.0,0.0,-0.7689280703297429,-1.0206843974311135,255
-48.20696124040398,62.340384346399155,-12.467050078610974,132.67308552534107,70.67644790121338,73.6924703060349,31.503506830413116,-118.75438612318287,-135.90327441604347,3.1953147344796147,0.0,0.0,0.0,-0.8915389964128845,-2.497107048015991,256
-59.20696124040398,64.24498809084018,-11.00910386024734,129.09635871874974,74.85753396429386,73.85334269225164,34.68411337033912,-116.3703556749988,-135.93157494520565,3.02691326119188,0.0,0.0,0.0,-0.9402280164580551,-3.945086431954195,257
-70.20696124040398,68.20602325050726,-12.378710807637367,125.16228512600071,78.16298725476365,75.56799278501718,35.86065509816333,-113.6134279215376,-137.61673678805633,2.815868497773423,0.0,0.0,0.0,-0.9682640162112789,-5.4499869773439755,258
-81.20696124040398,70.30181538737779,-15.076018270776709,119.61711680751623,82.45744880739291,76.23665562669436,36.27980849011514,-112.06451355801022,-146.74433916426148,2.3933850613336682,0.0,0.0,0.0,-1.0636224903662093,-6.345171771457677,259
-92.20696124040398,73.19584857167135,-14.761781884790713,115.38474823579057,89.6525775389797,78.15918089474603,31.46175669799904,-109.74220124325838,-152.62243422279025,1.7801405765697924,0.0,0.0,0.0,-1.1550693834270631,-7.456905597187319,260
-102.50433191734064,75.8280578812854,-13.989554524943998,108.4381759321488,95.31597643183159,78.15467062626307,27.967760538371596,-104.9186730424954,-163.62243422279025,0.9434387239585426,0.0,0.0,0.0,-1.3787473256361407,-8.759637321952088,261
-106.97092139433086,78.82294219105323,-13.507954863890076,101.1119765201402,98.79197816137406,80.23318441702094,23.176194941131453,-100.40076982478041,-152.62243422279025,0.5135879338966064,0.0,0.0,0.0,-1.6137483174273453,-9.20836564848113,262
-106.52732615954005,81.67305035248643,-12.474622917575465,91.02591867808421,97.60958537942923,79.62513956324742,22.738741390374518,-95.41495822731962,-141.62243422279025,0.42200619734641315,0.0,0.0,0.0,-2.1651090550164893,-10.58755645467982,263
-106.14927265258609,83.07460975806299,-13.314890018552948,80.02591867808421,97.96530891768013,80.11937287082431,20.049124191839987,-89.0822226612785,-130.62243422279025,0.8342423426600398,0.0,0.0,0.0,-2.7521969468469507,-10.708872756786318,264
-103.63163082600573,84.09914663034623,-16.504765059543523,73.77323804014063,98.40377675303414,79.38684561365001,19.731106516130055,-86.88835955872531,-119.62243422279025,1.521583199148301,0.0,0.0,0.0,-3.3714432855267975,-12.534384297411645,265
-98.26908404190975,85.00924712924655,-19.318976815739138,71.82152441511056,97.0768978367279,80.43346463665121,17.801982881652183,-85.8853748007434,-108.62243422279025,2.1144952575354248,0.0,0.0,0.0,-3.802396239715141,-13.888290650376284,266
-95.40810636048666,86.08361794909932,-19.74448298940436,74.7559877753448,95.72880405114627,80.17471531487996,17.93097742594413,-88.375577880113,-97.62243422279025,2.54352097762444,0.0,0.0,0.0,-3.9461122859069304,-14.848433316448094,267
-93.92720631429636,86.50604787462122,-20.009268509497872,79.71010277739501,96.68562349346338,80.9254936542447,15.594519708742917,-90.65637928212581,-86.62243422279025,2.9085526405469415,0.0,0.0,0.0,-4.051888865104998,-15.587751169948945,268
-93.90092543789818,86.58064110693526,-20.162070364957668,83.1370665428092,99.01779317409542,81.61991768075032,13.052910590881135,-93.2567598326091,-75.62243422279025,3.2804431462952315,0.0,0.0,0.0,-4.111670235864738,-15.618798996331378,269
-93.42917175544251,85.08703224151365,-22.156110777712673,86.19248433648978,99.22834614990016,80.74526609451944,12.464520836766303,-96.4362940348391,-64.62243422279025,3.544883641950922,0.0,0.0,0.0,-4.142540030157495,-15.380023210311093,270
-93.28792292732759,85.92702616484058,-22.865953249731255,91.24545666513764,99.53444938541699,79.50185759617793,11.673185500282313,-101.17501716594978,-53.62243422279025,3.7347878558472094,0.0,0.0,0.0,-4.3647940734181345,-14.680103937346331,271
-93.55003604271275,84.33844540112338,-24.73083226167016,95.92272713246452,102.58187242135887,79.22671410764583,8.20098768124363,-106.10378572773693,-42.62243422279025,4.143612372558985,0.0,0.0,0.0,-4.739961137411052,-13.928529936032833,272
-94.41964279270937,83.07126659986496,-23.861869050741884,100.29869934083185,105.09446534126837,77.667488518509,6.58638914945639,-110.80653632961692,-31.622434222790247,4.561011826176786,0.0,0.0,0.0,-4.980858874901678,-13.579460029202501,273
-96.5370321216178,83.40686089808811,-21.503199092040102,107.57231982330738,109.76032603495415,78.08856546963696,2.907834215041615,-116.41341964139505,-20.622434222790247,5.0241537652107215,0.0,0.0,0.0,-4.969822155872125,-12.791653536122668,274
-96.87129092140121,83.14398969459079,-21.647518991767416,114.02442315335256,112.38521050423783,77.51191781835306,1.8229869206030955,-121.46016069276033,-9.622434222790247,5.515449679569712,0.0,0.0,0.0,-4.932620562908758,-11.97304863878694,275
-94.3470525676773,82.34690043643809,-20.819796487918598,119.86626109358296,110.45577532187825,76.35692914099133,0.5438017055796938,-127.03576368414113,1.3775657772097532,6.01214070045101,0.0,0.0,0.0,-4.99977135650757,-11.310041029618365,276
-92.72167730845977,80.58915301410936,-22.238561289869367,124.06301211676299,112.38425795873464,75.39345733955297,-0.8510981876395757,-131.83680785340812,12.377565777209753,6.920460725456778,0.0,0.0,0.0,-5.295599378199042,-10.843216249184236,277
-89.46388197158903,79.14439029946072,-24.00480092996048,126.70992810122334,110.93625779967007,72.98434454417925,0.11263286163968526,-134.60736982035533,23.377565777209753,7.543908137717963,0.0,0.0,0.0,-5.35449059563376,-10.281651846652249,278
-84.52146865547714,77.425368552045,-21.882042728321522,127.90219935538974,109.21921514806382,72.1373147497309,-1.0735996602329803,-136.95742201625376,34.37756577720975,8.270974087499404,0.0,0.0,0.0,-5.199232575834766,-9.758362159709044,279
-82.67837563272138,75.83876246712848,-19.998674826815545,128.15296586061652,109.03902961202786,71.12914484576194,-2.614814956715506,-138.39023572244662,45.37756577720975,8.71717221156885,0.0,0.0,0.0,-5.138400777305974,-9.04737099401057,280
-81.18149863151876,74.80381609554685,-19.015055457366056,127.49907210270258,106.2830926281846,69.64965184383223,-0.47731658097070023,-138.92852128522026,56.37756577720975,8.957006996605177,0.0,0.0,0.0,-4.869582213896413,-8.557158589608724,281
-80.29095578492894,74.2295390833902,-18.597137717662918,127.6360619123437,105.92469627472845,68.07037030256049,1.2595926641155373,-139.31676137615338,67.37756577720975,9.176467257450827,0.0,0.0,0.0,-4.629278810626362,-8.450801941601128,282
-79.03826495820807,74.62749246260452,-19.509647710693276,127.10403234036426,105.26824040749737,69.66417112695524,3.2263074559160114,-138.495214704442,78.37756577720975,9.187456514175498,0.0,0.0,0.0,-4.231047024573856,-8.38809911595446,283
-79.48094107041717,75.40489598287627,-20.597982231665956,126.78030317030654,104.46186532259378,71.05343987380532,5.14662799810178,-137.48165323231754,88.74460710898754,9.033214730198878,0.0,0.0,0.0,-4.097636188700292,-7.513311676869865,284
-80.8869344478027,77.81635499944896,-19.65506601445171,125.47332888872404,104.23280131774219,72.42663725212861,7.0882437192711985,-135.61163505934582,87.11043066087916,9.033160447922858,0.0,0.0,0.0,-4.106764214298044,-7.484412596172699,285
-82.07569077910091,78.73380530748433,-20.62806580531975,123.09271412106995,103.45835575482936,74.39098728659637,9.790892262352516,-133.0105040258769,85.39964277408416,8.809613505397246,0.0,0.0,0.0,-4.136143377419984,-7.551940390716481,286
-82.94565271552747,79.00848840265239,-21.18141616550396,120.88359730949217,103.44087417007889,76.02314202915996,11.555689736509205,-128.86548596423194,82.68875240479616,8.656601712151375,0.0,0.0,0.0,-3.892649459536774,-8.045591009377913,287
-83.56955619192728,81.1557955383315,-20.408271071748135,117.64016979118699,101.91892899279544,77.98524224009753,13.407865349935157,-124.4492026286035,79.89245606623773,8.323572111172313,0.0,0.0,0.0,-3.365008584090981,-9.479473248453624,288
-83.32654894626981,81.4696986592312,-21.261707428499548,114.37447307771436,98.99186692793741,80.01950724493541,15.07499923895527,-119.28385871142935,76.53410599326357,7.829550556920491,0.0,0.0,0.0,-2.71844361033795,-11.629838870466502,289
-83.64116698631281,81.28265175135499,-21.861282612037744,112.35137281486476,97.90636922836732,81.59412023940321,15.801682002566276,-114.50887802114805,72.50855684991383,7.494227799180152,0.0,0.0,0.0,-1.8961290087124758,-13.716016753320964,290
-85.34908177212084,82.01317084299832,-22.58572344595771,108.58682959942095,96.53164348357541,82.58935428740514,16.346976035347517,-109.40956238806966,68.87147838044933,7.025931760853271,0.0,0.0,0.0,-1.6675872216031158,-14.219084284475233,291
-85.8103314289372,83.40892607201927,-23.680298125723876,106.22496082134697,94.39973766959396,83.3653508298929,16.937022337196684,-105.99191306565251,66.3614300702614,6.931379665793688,0.0,0.0,0.0,-1.6701037331612887,-14.699264507846562,292
-87.30198206342686,84.41113275680263,-24.356887227953706,106.13178032366105,93.57929721777708,83.40435766077817,17.181162465059092,-105.33183871253134,65.85810650466148,6.858411236212145,0.0,0.0,0.0,-1.9319277585609,-14.483061369205371,293
-89.09745149366817,83.11646260745493,-26.231504660554684,107.629849786771,96.3218386651521,84.05574093851867,14.829490778993767,-106.85983018521479,67.52536519358463,6.7399132975827465,0.0,0.0,0.0,-2.320401560766105,-13.12617435487475,294
-91.47155076519199,82.57241763684897,-25.60347890091557,109.85176883208484,99.03393669482682,84.42850642971669,12.299753736552011,-109.91226116863969,70.23358870389696,6.587346351388355,0.0,0.0,0.0,-2.809892938344299,-11.796941516357483,295
-93.67587988590921,81.82120456546245,-24.96847035413093,113.65955893766515,101.92976070013835,83.00087303295537,11.15291567260964,-113.2597781604425,74.33962874299846,6.438276759807551,0.0,0.0,0.0,-3.201815189711595,-10.550275686727977,296
-94.56759035330025,81.02848233060385,-24.027080348167267,116.885246323594,103.91056395354339,83.88007162244116,9.03840441693811,-117.70014240581938,78.54133132156684,6.360794654642472,0.0,0.0,0.0,-3.6964307471038915,-9.120065259724438,297
-93.71841825346813,80.52211746600885,-23.04473918131607,119.44062084831839,103.73467129493902,82.63636138222363,8.306339454688773,-121.5995477395261,83.10377980060004,6.359288348938089,0.0,0.0,0.0,-4.284574336397456,-8.119056782910981,298
-91.32854912276767,77.91310533319297,-23.549925747648047,122.7461123499241,102.65899563583994,81.25514437108261,7.117218120949868,-125.48589001636918,89.2781095195016,6.360272588764887,0.0,0.0,0.0,-4.540047508537321,-6.999193027750663,299
-86.42934348033823,75.84831444839536,-20.96810203360533,124.2297890152151,98.69827529980009,77.9159659444602,7.241127153283853,-127.70728077926285,94.95323768907943,6.4420915467757505,0.0,0.0,0.0,-4.532508814103518,-6.477982392359863,300
-84.1004524533824,73.74767121863003,-18.468276647543654,126.54576396921212,97.00735264503835,76.32682185384141,5.325980046534495,-130.8514535518435,100.55290082630589,6.460399492458543,0.0,0.0,0.0,-4.492919622757409,-5.957682317461563,301
-77.58017312536069,70.6879633638758,-18.545679920225208,126.57520770574533,91.64192193570034,71.84700612238774,7.67086699969487,-131.3540409109707,105.40096795760847,6.453790689170888,0.0,0.0,0.0,-4.284521727645478,-5.680548508561013,302
-72.53018789271141,69.76459194623865,-17.310938908817786,127.87407426858226,87.83320925102268,70.59049924250071,6.096862142126403,-132.57944844728647,109.87297501973283,6.473747107838753,0.0,0.0,0.0,-4.168273810264331,-5.610411976211688,303
-68.12778027385075,69.01976319822037,-16.273670279529195,127.25856622298032,85.16177407702676,69.47581174913569,4.646044310102288,-133.55256976824663,113.21804566426293,6.513827858299749,0.0,0.0,0.0,-4.12000840777745,-5.752447354243243,304
-65.79748023570775,69.9901772074067,-17.57018196619333,127.9518954991119,83.22150043835325,69.65658837748032,4.818333232194323,-134.27854215442332,117.22404063652989,6.3699281593464825,0.0,0.0,0.0,-3.999850806792537,-5.822061340194092,305
-64.87098367919484,71.41348726978114,-19.29321630911721,128.00169643242467,82.41978908917056,69.6478006462367,4.787477983756452,-134.97249233245842,120.6465379799756,6.28383403060855,0.0,0.0,0.0,-3.970647696973613,-5.663256783928918,306
-63.41396464790741,73.11533004437956,-21.117708120070574,126.92481589394265,82.0700479345952,69.84149249540003,5.153873632565407,-135.1168222552763,123.35586506661468,6.113824721111115,0.0,0.0,0.0,-4.0211821468614355,-5.819564537068289,307
-62.89526320112282,75.68231926872524,-23.75473489933511,125.65651332669731,81.48800528327892,70.73391571074201,6.570255252915962,-134.50428703767662,127.41632275741549,5.896036362007593,0.0,0.0,0.0,-4.104670157276927,-6.097906070535507,308
-60.702523663076164,76.74769898148809,-28.13787871825045,123.32505700199346,79.3097510645348,72.3514292261915,8.89263745677572,-132.79865948374868,130.50168091042906,5.574036997478678,0.0,0.0,0.0,-4.098301459712993,-6.754619967435697,309
-60.5165653191796,79.54098429017807,-30.56426116475656,120.28617354235622,77.90643026956633,72.15990711845268,12.73081664460969,-131.15480417898945,133.1503153216756,5.193114462597359,0.0,0.0,0.0,-4.098328614667581,-7.332528484570082,310
-61.854347812127486,82.49061455983954,-32.76442079965228,117.0810170958997,77.7270778030337,74.1765274508092,15.434540223164575,-129.64116206945548,133.8334539402106,4.781180900186124,0.0,0.0,0.0,-4.244072013629915,-8.03151421423943,311
-63.41719507425963,84.23654738601125,-36.813961787630085,114.65333288028376,78.29166022494839,76.81275929708194,18.689426710312482,-127.41424023318042,132.96508624888898,4.147784277830294,0.0,0.0,0.0,-4.4132693895778985,-8.68511140357366,312
-64.65724443185444,87.74704207531019,-38.938776217449856,109.98335826850578,76.80536351926567,78.59979162821465,24.047616712887002,-122.30835900298308,131.57636374035104,3.2910126341579287,0.0,0.0,0.0,-4.458039173202812,-9.740772389532577,313
-65.65109130415186,88.89767583934541,-41.462862217510384,103.49452922408493,76.66477385352574,78.85123421747224,30.047616712887002,-117.3865742367282,128.05110310620654,2.5861068345061398,0.0,0.0,0.0,-4.589146316470576,-10.411070244208334,314
-67.98634964210663,89.91916181365717,-41.21214189621112,96.6527085108439,78.82127742442071,80.01071194500965,34.149911537780326,-112.84729692016205,118.60843268114581,1.8318032328347627,0.0,0.0,0.0,-4.651985205504135,-11.827313693146152,315
-70.12385003801437,89.93279416888026,-40.35883929211675,88.48728240093817,80.09834509304227,81.60191886702563,34.40330173673105,-106.5306882410843,107.60843268114581,0.9659970716157755,0.0,0.0,0.0,-4.516617757715824,-13.858333694398612,316
-71.12459071088544,90.09985550119413,-39.38239866927151,78.78127626277018,80.26236218812551,83.0889233657127,34.232905149608854,-97.67363175705707,96.60843268114581,0.8314523515708203,0.0,0.0,0.0,-4.447978557855433,-15.598537580880611,317
-73.93210053215815,90.89758299599276,-36.96077003080383,74.27142975533881,81.27892383975536,84.00620056557399,34.06767854834991,-93.03211015535685,85.60843268114581,1.2262294974379122,0.0,0.0,0.0,-4.330188067359904,-16.830782464606354,318
-74.17161734605925,89.6278028396556,-35.45320574687496,63.271429755338815,79.5416400260682,83.96474851032445,35.421795377773236,-82.94162868541217,74.60843268114581,1.7820261568942304,0.0,0.0,0.0,-4.193753247236711,-17.468831963320696,319
-78.48216422358142,88.10089329832702,-31.939582145929727,52.39172063224156,81.49906503591214,84.91864623718745,36.97583142320612,-71.94162868541217,63.608432681145814,1.9604603397412455,0.0,0.0,0.0,-4.103150883961684,-16.490847567581646,320
-78.68763490806366,88.02997718676656,-31.589092128322296,41.39172063224156,78.95392494901769,86.17261044790641,42.601448561582394,-60.94162868541217,52.608432681145814,2.4436302327002486,0.0,0.0,0.0,-3.851967334255798,-16.47356095451237,321
-79.06992365438938,87.7825159140663,-29.17285746867457,33.03469102562103,76.47384027989237,89.83439505511542,43.14522203627431,-49.94162868541217,41.608432681145814,2.792812721359551,0.0,0.0,0.0,-3.315749253505225,-16.661074353891156,322
-81.1050791211853,86.79158821406621,-24.348876774708817,32.78017263293482,74.36880131697136,92.25452119702207,43.22286346693476,-38.94162868541217,30.608432681145814,3.2470143786432293,0.0,0.0,0.0,-2.5898858762334225,-17.119974280499328,323
-84.88097393020905,85.64083820172335,-19.447486886464805,37.6290490901768,76.8158953817959,92.00119945818952,40.94521127244019,-28.298822862089697,19.608432681145814,3.5146577561396275,0.0,0.0,0.0,-1.8697796519515268,-16.730495844313612,324
-90.16562171422633,84.16528258605402,-16.77756920755649,47.5635321800304,78.86473122533262,92.03012460631182,40.96398240473994,-28.29882286208982,8.608432681145814,3.6373233032893766,0.0,0.0,0.0,-1.1444722489799617,-16.002172614368185,325
-95.22532367505201,82.4527412136112,-13.591424584532264,58.5635321800304,81.61189212518416,90.67764254491544,38.5425303860299,-34.82451128244723,-2.391567318854186,3.6687554726959593,0.0,0.0,0.0,-0.6411432444141594,-15.838546414759087,326
-100.77233753713716,80.35138621855171,-9.766429549008576,69.56353218003039,85.69922731603195,87.4583752605299,38.17153662401187,-45.82451128244723,-13.391567318854186,3.660637352179869,0.0,0.0,0.0,0.07627056529106216,-15.527404578451169,327
-106.6975865373766,79.97170998226858,-3.766429549008576,80.56353218003039,90.68901909350497,84.82155594537836,32.54482690026158,-56.82451128244723,-24.391567318854186,3.809631400196762,0.0,0.0,0.0,0.8922050627337229,-14.845989716826468,328
-112.97723498725477,81.63846396177676,2.233570450991424,91.56353218003039,97.70156903708619,84.0357248261227,26.544826900261583,-67.82451128244723,-35.391567318854186,4.1923209167831645,0.0,0.0,0.0,1.4910434990876231,-13.814369309376053,329
-117.31840375011606,82.79063291949798,8.233570450991424,102.56353218003039,103.35809653932782,83.57808211198262,20.544826900261583,-78.82451128244723,-46.391567318854186,4.53731305264796,0.0,0.0,0.0,1.9396889685478491,-12.579585867704028,330
-119.96533204060385,83.78118547354072,13.57450150012508,112.34203587795223,108.4420873907886,82.95209913589744,16.862069936166808,-89.82451128244723,-57.391567318854186,4.966237271799442,0.0,0.0,0.0,2.330151481912372,-11.191880292136283,331
-121.20563645997221,83.06634204096838,14.1321153962003,119.94075918844086,111.53245397838589,83.41852847263876,14.235127101643032,-100.82451128244723,-68.39156731885419,5.389852563359128,0.0,0.0,0.0,2.626343486600491,-9.951755903106147,332
-121.34412113607772,81.57828509194468,14.80836923988757,126.39377511757095,113.67055418646076,82.9372398188961,13.982948809655499,-111.82451128244723,-78.94549325565094,5.536396153320913,0.0,0.0,0.0,2.7203069226035455,-8.263982772975595,333
-122.29853606204748,80.3561953645279,15.826150305943866,131.79179995550786,115.28830234138151,82.55594080556254,14.044597037631586,-121.18035090159167,-86.44044382059202,5.558785722585043,0.0,0.0,0.0,2.3491641216502517,-7.2583147340785,334
-122.68534480930118,78.9665438411423,16.83330160296113,135.4153851070282,114.43354991412676,80.32491282158567,15.403853333439658,-125.68109290841306,-92.63881036257902,5.807502927127329,0.0,0.0,0.0,2.108678575658395,-6.624175730276335,335
-121.04322561819137,76.57650233622812,17.58546642086256,137.34797694079313,111.59358671673648,79.84051530412113,14.725754157032647,-128.1233662223536,-95.99038983436506,6.187228117307358,0.0,0.0,0.0,2.11782118585154,-6.160849442713232,336
-118.71200436771935,74.92458597036982,17.527939537064693,138.54729254320392,108.72107308950376,78.47543661218545,16.779928098479235,-129.77832115645916,-98.15956065152832,6.441320297882008,0.0,0.0,0.0,2.1344858358706036,-6.186445355589828,337
-115.81710048634241,73.2111652730514,15.899287815942204,138.8398112953389,104.45572850317014,77.32457542402564,18.91913415403593,-129.97323967019602,-98.94792467900744,6.795462269525755,0.0,0.0,0.0,2.2316338957273505,-5.8981076259692,338
-112.23546711135643,71.89087682857,13.631748333755915,138.6529023564278,101.02743974239851,77.64133838755906,19.263466467246626,-129.89117063808152,-99.62211239414596,7.043166167516095,0.0,0.0,0.0,2.0835908702183583,-5.491624070221531,339
-106.04863330714483,69.91246042545826,8.093186679344122,136.50598615984447,95.36972839723761,76.74079783672003,22.062757063178104,-127.41762077778888,-99.58147186918815,7.216523969552427,0.0,0.0,0.0,1.6481642927160303,-4.885973086567922,340
-100.6863911970339,69.33098629855456,4.504342865400628,133.8532643721693,92.01103477999108,76.42089318665454,25.306588518108406,-124.59500115486837,-99.4175134852595,7.347658376214915,0.0,0.0,0.0,1.4103394286265583,-4.315981260231966,341
-95.38185734755596,66.6428409207119,-0.29994046480000036,129.78310639130797,87.95995747214212,76.20039740643209,28.42862014151395,-120.49899746819143,-98.8734787317964,7.446979739348086,0.0,0.0,0.0,1.1648362449927407,-3.8205241308458304,342
-93.37542794913043,67.31580347946763,-1.2381308503946344,126.46205641642675,84.7741414843869,76.21746928658075,31.73828703317916,-117.2839267220466,-97.01829588805568,7.59238718071274,0.0,0.0,0.0,0.8782845216146605,-3.957767258170396,343
-91.72876710401248,66.20262565692423,-3.9548788956805425,122.92765961573853,82.94154615525227,77.52618677741337,32.70382158316378,-113.0837925615395,-94.56909462427943,7.553229922649584,0.0,0.0,0.0,0.6808515793647252,-4.2854826312910195,344
-90.1349485118725,67.49774238714942,-5.5388892080254974,119.82204225964877,81.7622420518195,78.62192740634679,33.60938142606209,-109.61820918562756,-92.13151979621415,7.457079477996272,0.0,0.0,0.0,0.3453113429709616,-4.545412957718344,345
-88.71776714678403,69.00851608636852,-7.346989885828425,116.63579068429809,81.77629180155837,79.77063758620412,34.52955906535814,-107.07717371034747,-89.7833198450956,7.341086552560661,0.0,0.0,0.0,0.0689049857407695,-4.995580981581356,346
-88.83436106988178,70.48883181745254,-8.958402129244506,113.16249742128447,82.63912948888641,80.6476271440411,35.1490688583558,-104.03408058803636,-87.37384884502357,7.319864519377556,0.0,0.0,0.0,-0.23546562765294426,-5.1449840139724685,347
-90.2837771414888,73.43987343655103,-8.268309821534272,109.58794321945086,83.38941753192061,80.760116534545,35.37606074615071,-101.86465398468106,-84.20751216993682,7.2195739286045155,0.0,0.0,0.0,-0.6875563165111785,-5.744846372354941,348
-92.86493257407085,76.69702346384942,-7.704174628605229,106.85271150888923,85.3909196027819,81.62054381917609,33.33552649197995,-99.65428294900249,-81.80748516852101,7.059595661963803,0.0,0.0,0.0,-1.2922914533636458,-6.511757412732688,349
-93.11880661224797,78.67910714295671,-9.197447268362628,104.47327440084567,87.091830780911,82.71897684993341,31.529995989091443,-98.06475837599358,-77.8143045450158,6.745505633350418,0.0,0.0,0.0,-1.9233259934306313,-7.617171705465748,350
-93.39103116284157,80.10092907343788,-10.047733364913643,101.72320489655287,87.43235044967506,82.35958240694406,31.60992276705199,-96.67176862681787,-73.74360418616178,6.324843942912613,0.0,0.0,0.0,-2.5875832258318856,-8.476521077292452,351
-94.6061667575792,81.07994797245337,-10.779765560754898,100.53241068556055,88.60090953874305,82.48196947033502,31.846612628511267,-96.37209892393071,-68.71728253573527,5.990128968780983,0.0,0.0,0.0,-2.898011047935347,-9.34148519561431,352
-96.26641369342074,83.16379752582144,-9.563252789800783,100.07995363475679,90.60981086870763,82.74884482996761,31.76297102929072,-95.53194965545195,-64.65525115758068,5.736447762342669,0.0,0.0,0.0,-2.7942035239303484,-9.686019105305249,353
-98.62151540699827,84.4980530126304,-7.6620461576541725,99.1307889290755,93.93988326494686,83.48120415451949,29.01302642265988,-93.78781518348204,-60.94915603294632,5.413214157460032,0.0,0.0,0.0,-2.7425716352784146,-9.570191666928022,354
-100.43363435207829,83.86625632792804,-7.184825852110273,98.73346048753046,95.93934205258569,81.79079208520646,27.594992782562976,-92.93549695602688,-59.17042522265843,5.192440615931601,0.0,0.0,0.0,-2.7507184250862133,-9.180580279556446,355
-102.90483719737239,84.0780507310026,-4.2388654752221,99.6149842454988,99.14829833985212,82.29474199330208,21.96825910907224,-94.47570289357837,-59.701641064056986,5.079404164069472,0.0,0.0,0.0,-2.6790463621235534,-8.57471046439635,356
-105.6990390119736,84.53346092278828,-1.4624678631030221,102.47387694316554,103.24166994606205,81.56483240286629,18.277564144405392,-98.23607946525551,-62.186666083346765,4.828187345464075,0.0,0.0,0.0,-2.5326838878888123,-7.611202564302933,357
-107.58558034373135,83.59605376316303,-0.46736290730825697,107.00605715880828,107.91192753800657,81.01864389064262,14.542223149678215,-102.7568329772533,-66.19133303949339,4.551993270858672,0.0,0.0,0.0,-2.4182060571623776,-6.476981544268388,358
-108.38316946220891,82.9586183355483,0.31752082440302604,112.12323449105504,111.14973575121114,80.55924349367463,10.644061652806359,-107.4674553335964,-70.99617052611782,4.380314812845381,0.0,0.0,0.0,-2.1972000521443458,-5.319305358585832,359
-110.13134169804383,83.87842694738013,2.945105372648776,116.87180480766297,114.47597790356363,81.02081840921375,7.412855421429107,-112.04767524862858,-76.87212485393466,4.207143617396724,0.0,0.0,0.0,-1.9314371053985078,-4.297553454195811,360
-109.93576586381502,82.42267880432847,4.725175547976408,120.8162887004544,115.74888587646568,81.66344185554797,4.2737398214352575,-116.34016500487999,-83.99832290335314,4.118106225066166,0.0,0.0,0.0,-1.5889964326164234,-3.620492246735227,361
-109.87272932645196,81.11144786273793,6.467326504203987,124.77653760181936,117.0526073357622,81.2129972827312,3.471622647763675,-120.97315600581054,-91.27281337630401,3.9481762187683445,0.0,0.0,0.0,-1.2862723140299954,-3.2761780543257344,362
-108.83915732069701,79.28729844147183,9.002952934042824,128.24359899229185,116.15135430903385,80.59660213341863,2.5107568585579907,-123.90831993961292,-96.5981496693867,3.9063822987268355,0.0,0.0,0.0,-1.0050090932163052,-3.5109125673103168,363
-106.25442243554907,77.10003501195243,12.140681498300788,130.85606839381694,112.00904088157645,79.23202079413265,0.5683497750828231,-127.00094355420522,-103.60401508060069,3.8168528830940214,0.0,0.0,0.0,-0.7341200988540165,-3.7695063184642064,364
-102.83375733355601,73.3332740136855,13.438937654656698,133.14828250150532,107.9373849522483,76.91494672533159,1.0849987904845575,-129.3369520022069,-109.6158008291284,3.7433415849614096,0.0,0.0,0.0,-0.3064022657075195,-3.595668449293084,365
-98.49908571570008,70.79260267088478,13.038219584882667,134.55263283601371,103.01652462819115,75.69163598492223,3.214627677064172,-130.87281251078554,-113.82119081891254,3.8055941963258952,0.0,0.0,0.0,-0.06043688355479559,-3.93136193547172,366
-94.85999224660964,67.91073619426265,12.91787309853946,135.08651645748887,97.87941565392084,74.12105994751995,4.704169250852727,-132.20914861724327,-117.13516056225671,3.8632783296106004,0.0,0.0,0.0,0.3051958664060669,-4.282524112578022,367
-89.80525203294931,67.73790525639811,12.358943183351917,134.13316173456843,92.36872716467674,75.18889315812062,5.587657405048927,-132.36508186823391,-117.65535620789298,3.804481684710958,0.0,0.0,0.0,0.7141968907524348,-4.963171170346781,368
-84.87806750380862,65.85580806881835,10.149664642905186,133.06170497057985,85.72684544664924,74.447223778659,8.072544405649824,-132.14816961970328,-116.44489672483188,3.785112811706133,0.0,0.0,0.0,1.0973215395973952,-5.652667229982906,369
-79.26573715247277,64.49683203658857,6.734709859612746,131.32392073325926,79.6051006242813,74.2071111917756,11.083774709906177,-130.31483904567003,-114.43253521311001,3.6581203286644475,0.0,0.0,0.0,1.542364410932195,-6.445055199411795,370
-73.09370476343044,65.30869396825715,4.296890136251711,129.51731287911636,73.8269863005593,76.32939207016005,13.045554603198957,-128.35605660515452,-111.79364358728753,3.5157633971974898,0.0,0.0,0.0,1.9532572861482664,-7.601548829417092,371
-67.82793596895523,64.92667207869549,-0.5180556994479801,126.3297485459245,68.8171746446177,77.38499209396015,17.496969684005695,-125.08623923212298,-108.2659473181308,3.3340101468328514,0.0,0.0,0.0,2.258465997808038,-8.37344549328481,372
-65.34511401403248,65.86822001262315,-2.578643243437208,124.03727248615554,65.16739170538648,79.55411502956306,19.397438464897256,-122.37238537385515,-102.54256009184667,3.179450303326466,0.0,0.0,0.0,2.4986190764194016,-9.419191511694867,373
-64.22224526407591,67.74212765955859,-1.674251769732998,123.41390493470344,62.475292825105846,80.21469523525661,22.9884474347984,-120.55558817239307,-96.16140507386689,3.1306905790310116,0.0,0.0,0.0,2.8294037842262956,-10.06316059901895,374
-63.14627594308994,68.40910547762991,-3.0125643602864427,122.26563888406314,60.63727113969242,83.34629365287454,25.63436630730149,-118.088923965987,-86.1578465805663,3.2381716108304848,0.0,0.0,0.0,3.017920516673255,-11.095760136948869,375
-64.25411865839354,69.32477276483355,-4.330263336257332,121.57916033956025,60.18111484190341,84.32751530608002,29.447960467725487,-115.58938218973763,-80.79232464942514,3.2959889870435557,0.0,0.0,0.0,3.072069786611473,-11.234184000224632,376
-65.83447002462086,72.31677380164905,-4.256674322473303,120.69222558039962,60.56877300834431,87.06059571932988,31.511259687883587,-112.7525231486426,-74.46051022655541,3.5435676530155247,0.0,0.0,0.0,3.104296490547432,-11.410208739791507,377
-68.07861572975102,74.28201956096827,-6.398836520343618,119.74615314316962,60.38968215661364,88.36219282244129,35.35524261891208,-109.91521275430556,-69.70574397392247,3.818002271033618,0.0,0.0,0.0,2.9442280932643716,-11.857898072278848,378
-67.27437367676771,76.53447312094771,-12.125471317618882,118.86708844114912,59.552615671031795,90.94587181760713,40.25809035652532,-107.25056675418352,-64.17862689945139,4.040016733421142,0.0,0.0,0.0,2.479373376911629,-12.84303888760485,379
-71.51367855440478,78.94623074906383,-14.099790107141205,118.60065862974943,61.790592316101105,91.64337166309626,41.03791699414077,-105.54682514009771,-63.30001494740911,4.184100811996219,0.0,0.0,0.0,2.0307265015413285,-12.720906088792344,380
-73.55047930751265,82.16245100725256,-16.83691806839836,117.7411466002444,62.55861925660505,93.3765047293731,42.583449102618026,-103.82296624018132,-59.74770704907745,4.278041763672555,0.0,0.0,0.0,1.5117099053921277,-13.055512939304293,381
-71.70076106995617,85.0724062284798,-22.378183562480533,115.81527936422512,64.01664513794451,94.6902744107663,43.50910436727189,-100.16024331667789,-54.582493431550404,4.2192852204882785,0.0,0.0,0.0,0.8806921795872164,-13.353375447310553,382
-71.58832785640317,86.69104012527467,-25.758254513899768,112.50603672402625,65.32227599599092,93.69410108329261,43.358191619064016,-98.05925535692904,-49.87847252636136,4.113088609828965,0.0,0.0,0.0,-0.022782703184386206,-13.868272440353794,383
-72.84004085601438,88.30787850607231,-28.33189369584058,107.67939582106773,66.89541471062583,93.3289531402224,41.39426406900692,-95.973563283281,-46.18851410220624,3.978621164962954,0.0,0.0,0.0,-1.2415746645923134,-13.869604444991314,384
-75.74635285085412,86.12322167280712,-31.26407274673532,104.28112062578174,69.2936707611954,92.15079767363696,41.230482803714025,-95.28707188186408,-44.39723262664432,3.8506016943399968,0.0,0.0,0.0,-2.0644707075960587,-13.632164767829673,385
-77.34304611219817,85.35024179136491,-34.939093336283776,100.15876495405912,69.85504394682833,90.01391485308152,42.88897401107849,-92.15933515546604,-42.30463177376222,3.540008897012666,0.0,0.0,0.0,-3.228036013410461,-13.680129019179095,386
-79.15937459516027,83.90754610937952,-38.61504836669923,97.08865499727636,73.43568627417872,87.63438385809964,44.18924260106797,-90.21864703383022,-39.26916571188415,2.9681178548983445,0.0,0.0,0.0,-4.0781055576340215,-13.343406338960728,387
-81.07384154197085,81.10404709088651,-41.474936957350614,93.94746354322508,75.3070247752289,85.01176013590525,45.5975919969013,-88.33454328788511,-36.27955721843239,2.320514785047717,0.0,0.0,0.0,-5.113911720625,-13.150133007056558,388
-84.54065235768735,78.01431778216411,-44.942132837025646,93.57448796124551,79.23986009616691,82.54070747800895,44.5949175630178,-88.39156928390497,-27.782489911298274,1.595308686062208,0.0,0.0,0.0,-6.037938107159422,-13.191434199736017,389
-79.9311395468147,79.71835796485878,-47.14416951053082,87.35652013048453,77.7569598678198,82.88377013479897,44.69226131345866,-82.70532564254536,-16.782489911298274,1.435027744996251,0.0,0.0,0.0,-6.876332196108447,-15.514406442570062,390
-78.24058076719545,82.8062135701169,-47.31635210895302,76.35652013048453,77.38249514502998,83.38972302776314,43.656145845894365,-76.09868196784478,-5.782489911298274,1.5208583937143658,0.0,0.0,0.0,-7.404427138771757,-16.831959653804518,391
-76.57005669008294,84.70070320723447,-49.53107800364564,65.81086259875005,76.81701781110627,82.95601898001858,41.58141557842431,-71.48655996746061,5.217510088701726,1.3795709002426393,0.0,0.0,0.0,-8.002921336049694,-16.69519875171253,392
-75.5428057972676,86.64971276036299,-49.30876268061201,55.24554477700036,78.08568929024715,83.04579643118247,36.28512098513851,-68.299518898724,16.217510088701726,1.309235215216327,0.0,0.0,0.0,-8.430551101918258,-15.595484943166477,393
-75.1403787503988,87.55790628115025,-49.02208770509135,46.72755025719785,78.63029685699857,82.51690983775615,33.63991508091785,-68.29612611753043,27.217510088701726,1.5996325394081279,0.0,0.0,0.0,-8.808441185524378,-15.601721628454579,394
-75.33626552679497,88.16223309445746,-48.85198400981867,39.65602516271261,78.07895043194283,81.51680070563226,34.1955705945761,-74.25016238973713,38.21751008870173,2.0673911882720315,0.0,0.0,0.0,-9.199584815409827,-16.52327783737755,395
-76.66708940590559,89.90343163488072,-44.158391121856035,31.13510930169614,76.19021654432963,82.0699869209883,31.51335211811603,-85.25016238973713,49.21751008870173,2.609443021452334,0.0,0.0,0.0,-9.578565374244318,-16.059623554898213,396
-77.79401777145202,89.14246797898485,-41.71764042584592,28.298822862089697,72.93647797686084,84.05301249138263,29.875700547940166,-96.25016238973713,60.21751008870173,2.9931599367136474,0.0,0.0,0.0,-9.600590743184032,-16.855388971959442,397
-80.88829245544254,88.97242097006558,-36.504014188685375,28.29882286208972,69.56109848256594,87.94542789681122,27.209191820877223,-107.25016238973713,71.21751008870173,3.19985971636649,0.0,0.0,0.0,-10.012358676054268,-18.132674475608088,398
-81.68301791568632,87.93786606849628,-36.16447870831435,28.298822862089697,66.72384296510599,87.79580543128932,28.99596867580228,-118.25016238973713,82.21751008870173,3.6582302293775326,0.0,0.0,0.0,-10.419853805183063,-19.645961317263243,399
-82.80237679469474,87.0124800593085,-33.38269157818702,28.298822862089697,65.15773495910528,90.51023569410415,30.729848793783194,-127.70381284504084,88.50580849339885,4.107052948945507,0.0,0.0,0.0,-10.582110744298191,-20.880588838780636,400
-82.20649089695713,85.78587375931157,-33.094618613873024,28.29882286208972,55.660662114498564,92.51782594291403,34.485681863065736,-134.0103327834824,87.8879116717256,4.124980453062911,0.0,0.0,0.0,-10.32551538925081,-21.326696441218274,401
-82.05970541398673,85.12508620407012,-33.10865712247109,28.29882286208962,44.660662114498564,94.42357790601687,36.6094043088473,-139.142198042547,90.75070476306055,3.8697398382134565,0.0,0.0,0.0,-9.959214458255568,-21.02311641281157,402
-82.01957496155168,84.2871489917093,-35.58028935124949,28.29882286208962,33.660662114498564,94.6195279260512,34.501099592037015,-141.13073563112997,92.70688397229414,3.2728500424533795,0.0,0.0,0.0,-9.511069955754838,-20.977365151948327,403
-82.71312526978244,84.30293456715773,-35.72598007302487,28.298822862089697,22.660662114498564,91.91074730233414,33.52664658702725,-140.43937725540286,90.08285322372821,3.0625263634639435,0.0,0.0,0.0,-9.362814055835193,-20.45268504817668,404
-83.63953879459176,83.99566712469407,-38.24991813361856,28.29882286208985,11.660662114498564,89.27338476290714,33.90221345114291,-135.85528353542804,91.61243851367314,2.507143524094266,0.0,0.0,0.0,-9.553108066492488,-19.40653712920956,405
-83.35341613654168,83.82086575055868,-38.29522830995449,28.29882286208962,0.6606621144985638,89.4178537896876,32.13808248657488,-131.15853343885505,84.95970778887688,2.480077134068087,0.0,0.0,0.0,-9.324126945859145,-19.28725275568823,406
-84.11167517678423,83.26049099346838,-38.344857647925906,28.29882286208962,-10.339337885501436,88.89968062807608,33.28480683355304,-129.7739568972685,84.44002522673519,2.4327840292990075,0.0,0.0,0.0,-9.143872147274877,-18.560944007579682,407
-85.16589421569302,82.2142879156898,-38.36552705083244,28.29882286208972,-19.90714765669658,87.93815322952159,34.04996272814152,-127.23339802218898,84.97360478408866,2.533220829681993,0.0,0.0,0.0,-8.92288395213213,-17.36586061828464,408
-85.7497309449624,81.58929371430959,-38.477584580373836,28.298822862089594,-24.14588422455274,86.55427405056193,34.82375168962788,-125.9010934696261,82.83685134299567,2.5851089797732656,0.0,0.0,0.0,-8.596533178598284,-16.375893288694133,409
-87.00124981650785,81.83757781337633,-36.23413104320843,28.29882286208972,-28.33319143581715,85.76043555425039,36.207634377627066,-124.00117143305678,80.74864269668207,2.42698690221715,0.0,0.0,0.0,-8.286343966812417,-15.60152649270552,410
-88.42041240421591,81.68571952782553,-36.43608991531443,28.298822862089594,-32.67414921984131,83.5482913736035,36.32629996223551,-122.28259420824797,82.82535184444119,2.3751156729093448,0.0,0.0,0.0,-8.18099402624359,-14.148700002321878,411
-88.83889348115447,81.240527585893,-36.513983622977754,28.29882286208985,-39.645100417147596,80.53528284156177,38.547699184296974,-120.0655492455722,83.75393490906595,2.2200153546751,0.0,0.0,0.0,-8.045393428570513,-13.2115296147268,412
-89.69957440168226,80.61356449987441,-36.52870297414724,28.298822862089697,-44.220111055100084,79.50769562346936,39.89415197125719,-118.81833949700219,83.66085017506576,2.130201367022322,0.0,0.0,0.0,-7.885365017149028,-12.39749340061044,413
