JMW9912/AVATAR/Dynamixel/dynamixel_control/data/csv/poppy/.data/waist_test/2DoF (2P+Ori)/0429_2054_WMCA_Dance_2DoF_Ori_smpl_motor_degree.csv
theta1,theta2,theta3,theta4,theta5,theta6,theta7,theta8,theta9,theta10,theta11,theta12,theta13,theta14,theta15,frame
60.84778560393216,40.722065448581176,-76.37743931713337,62.85962355253468,-51.46688861068229,32.284409270961305,70.89534379459322,-83.3544757704676,-14.399867671922687,1.0813944719734754,0.0,0.0,0.0,-1.1823844231307195,-6.960736768844729,0
70.41778433792446,35.60179489144993,-82.37743931713337,57.37605023663332,-62.46688861068229,28.21977097200136,76.89534379459322,-74.90130368992392,-15.051734202611833,1.1059971859270903,0.0,0.0,0.0,-1.2761731369240323,-7.404619301658928,1
71.46062140829986,36.778339646303635,-88.37743931713337,54.567104061469806,-63.60378162836878,29.497728650124277,82.89534379459322,-70.7967369741632,-24.779662095786115,1.0261160234263607,0.0,0.0,0.0,-1.0561382660419776,-7.643961006780055,2
75.40876317588489,46.344406055078174,-91.50356580676177,43.567104061469806,-70.40350655733768,38.1624766706247,88.89534379459322,-59.796736974163196,-35.779662095786115,0.6985397505650603,0.0,0.0,0.0,-0.4136613634958284,-6.486428837149217,3
78.39364390786366,56.08272698695321,-91.97470501672018,32.567104061469806,-74.71305125758846,46.369946251663734,90.5656017237235,-48.796736974163196,-46.779662095786115,0.6416915861276343,0.0,0.0,0.0,0.36667838673809844,-5.764445795882354,4
78.98131507324335,59.95321626704495,-88.426725970798,28.29882286208985,-76.4207456988386,53.254275816047844,89.99538572089604,-37.796736974163196,-57.779662095786115,0.5370528673696668,0.0,0.0,0.0,0.9662003353997543,-5.512796099359464,5
78.49657379343803,61.88276085160179,-86.07213488939732,28.29882286208985,-75.89068488125656,55.37023824083019,87.47555449275566,-31.49078193018397,-46.779662095786115,0.5150597848614308,0.0,0.0,0.0,1.390713069036011,-6.309001027817905,6
78.15623599979452,61.042507434124836,-85.54672867037621,28.298822862089875,-76.37642296203472,53.93846118252292,86.90343968348351,-30.976425934027716,-51.66091983917275,0.4930419239919572,0.0,0.0,0.0,1.324309824416534,-6.79518770959764,7
77.56692917399744,59.29725587436815,-84.80082015921491,28.298822862089647,-76.84070044165449,51.06194577984601,88.79389060109946,-32.76804312006538,-62.66091983917275,0.46859404563944224,0.0,0.0,0.0,0.920396832569072,-6.860577799197421,8
76.86916878211089,57.689445167250554,-84.04636940779727,28.298822862089647,-77.0034707820679,50.43859702681777,88.33908205201988,-31.616180645916817,-73.66091983917275,0.6625983065078438,0.0,0.0,0.0,0.10525561628495372,-7.001409238707076,9
75.21572260348,56.5998833057722,-83.06665937193729,28.29882286208972,-76.79896854379709,50.03633780637955,90.37915954738709,-31.41296452642995,-84.66091983917275,0.861357535422686,0.0,0.0,0.0,-0.7712757181995297,-7.11854138183509,10
72.99717045782174,55.13260567078538,-81.83339618055082,28.29882286208972,-75.08756556845762,48.90620076645286,89.4067820042242,-32.263506182917716,-95.66091983917275,1.044799674438712,0.0,0.0,0.0,-1.5629537405464295,-6.67415759221743,11
71.82019036765932,54.79926705874009,-81.77531537961109,28.298822862089647,-73.74516714730669,49.372601403325035,88.91120474070003,-32.03939084788016,-106.66091983917275,1.1248897191266194,0.0,0.0,0.0,-2.1230166637897643,-6.4525336728748215,12
70.40314880938286,54.87885042093581,-78.91355161016794,28.298822862089697,-72.80313958445636,50.218285300726606,88.84388171203133,-31.78059819341656,-109.99476735177609,1.1659707487656967,0.0,0.0,0.0,-2.424407917005438,-6.142567701107497,13
69.86872809519383,54.65495283865247,-78.8491933159639,28.298822862089875,-71.11177054068496,50.878134902908066,85.97206070739448,-31.31947532433201,-107.21787973607596,1.1721809730643165,0.0,0.0,0.0,-2.4955371324719127,-5.664197834810801,14
70.54143755509072,53.09155955677307,-80.52090918957896,28.298822862089825,-70.93794463229068,50.11529800846251,85.81106625176638,-31.899427093223423,-106.86297282986821,1.1921270693574557,0.0,0.0,0.0,-2.6169153451318783,-5.402304216920444,15
70.72430482785349,51.30738315240947,-80.0163193876948,28.29882286208972,-70.92194593271918,48.577398151930566,85.52604861236341,-32.98934655150767,-107.62486907483974,1.2106473210493265,0.0,0.0,0.0,-2.7013719246725096,-5.129563263565723,16
71.74993524303113,50.11641000441902,-82.60143529743698,28.29882286208962,-71.59172976393613,47.482905543040076,88.09336756004723,-33.61181076561507,-107.17990729638726,1.2046074033865184,0.0,0.0,0.0,-2.681691952183236,-5.021869851619897,17
72.99617618286167,46.19535290324293,-83.69462716759348,29.654483692366785,-73.90135489653302,43.482025765327954,89.75695679521071,-36.01578291913187,-96.17990729638726,1.2848343882339,0.0,0.0,0.0,-2.956303127806211,-6.678540096556327,18
75.34024369540303,42.15547821070933,-85.52771970822585,30.985421127917704,-76.83656551354593,40.49133861351816,92.06070754554138,-36.73794221879063,-85.17990729638726,1.4126077540975988,0.0,0.0,0.0,-3.32513216271704,-8.213977336857353,19
77.39339876668423,40.039953224306,-88.29192167765142,31.049583442158582,-78.07243067429619,38.997301874853505,91.96893475446383,-36.597102690994056,-78.19380352522455,1.4548663362872376,0.0,0.0,0.0,-3.4009376764987245,-8.780739471311854,20
79.20008875849705,40.021916860721674,-88.65447425056111,30.517233833129517,-79.25236751725674,39.13508099755173,91.84433535328117,-36.406482965498014,-75.52186138079381,1.5603789904415957,0.0,0.0,0.0,-3.5588342490356824,-10.047617291908916,21
80.48992160454418,40.49593523346701,-89.03998945244402,29.623073761349097,-79.60282417465316,39.49057122726878,91.54691498354501,-36.04019706492452,-73.6956156712389,1.6006008547624508,0.0,0.0,0.0,-3.6401354336392435,-10.869221621343911,22
79.5522559737473,45.24999607576236,-87.1681499347582,28.58743123844455,-79.03572849377717,43.43229456415194,92.2173769946081,-36.55359349685781,-78.83019128018977,1.4433945965776058,0.0,0.0,0.0,-3.8529663287598592,-11.29614985443309,23
78.26176236165297,51.08263288405713,-86.21904293533417,30.56396717734144,-75.8189014731915,47.97810997046949,87.82664269032789,-41.64098631018183,-87.2001124109033,1.2898840097604563,0.0,0.0,0.0,-3.9457310075153713,-11.82259500459705,24
76.34507606880854,57.25584534130075,-84.23100400125513,38.24930645975836,-72.63196283686051,53.06482016550236,83.19282571942374,-50.760891757708656,-96.93941190746737,1.1561478834654324,0.0,0.0,0.0,-3.8542331085323633,-12.085718998801239,25
72.84430818022024,59.543818512629606,-81.41341836253896,49.24930645975836,-69.52491528177636,55.33535472641972,80.26066007545836,-60.384022940136546,-102.1291688628585,1.1402866652110437,0.0,0.0,0.0,-3.462287296999727,-11.252219191007697,26
71.03067315960865,60.55658736185905,-78.7544854229499,54.01073041572723,-67.84412290484258,56.08093800657002,77.25806432213045,-64.16486387862511,-102.46336702444634,1.1601035433356364,0.0,0.0,0.0,-3.0911577496854417,-10.741192395362102,27
69.71482906268969,63.57008637842782,-79.11164273601439,62.84048720408579,-65.49949918458869,59.04914442782358,74.60266291672907,-72.62279986392706,-113.46336702444634,1.1130433142993135,0.0,0.0,0.0,-2.581098867794794,-8.690568838486461,28
67.64250202112034,64.1805870106732,-76.66750358417333,72.42817559571257,-65.57262556534121,59.31369815275852,74.47784684581383,-81.95092536515853,-124.46336702444634,1.266445409441645,0.0,0.0,0.0,-2.0837505604162776,-6.564268659072002,29
65.7283445643209,63.86833258782268,-74.1192126434653,80.15445598757547,-66.33325014799001,59.28791101856672,74.38878869091543,-88.67242455715143,-134.2640260590041,1.2682989495323211,0.0,0.0,0.0,-1.7482813026852424,-6.237967004713984,30
65.83589664930956,61.189585249574435,-73.81920991082363,85.56482174343479,-66.37976863520282,56.03498685808408,73.63408089227632,-93.64170689072687,-132.11234960831013,1.0666958561690059,0.0,0.0,0.0,-1.4167028762257385,-6.665779746313004,31
66.51474095933314,59.499140513782834,-73.57714290907677,86.58675330478822,-66.96037187179938,53.99724256717163,73.08793963014313,-95.31004172016266,-127.79299342371772,0.9672220763934359,0.0,0.0,0.0,-1.2068736555061865,-6.643397613572684,32
69.92084463479466,53.76816223805331,-75.49339286916388,85.68061085188788,-69.54319355305543,46.800912780395684,74.41308816263096,-95.38270893919879,-116.79299342371772,0.555102704420536,0.0,0.0,0.0,-0.917876682628975,-9.138105484037952,33
74.46699929890964,49.09788163854303,-77.88570437244763,84.35894272840771,-72.52159220546429,38.73013485903828,75.80092547980891,-97.63768440068736,-105.79299342371772,0.22608133584829088,0.0,0.0,0.0,-0.6764704528286141,-10.540662972019357,34
76.80640682494456,49.15994619009851,-78.01142442388633,78.12307206082973,-68.61432619941296,31.48962538334136,73.41902335720717,-98.17611967611082,-94.79299342371772,0.29272899887035275,0.0,0.0,0.0,-0.46809478463463855,-10.912587302168635,35
81.34600552419991,51.31521674615954,-81.51837583037955,70.97868634658954,-57.61432619941296,23.68029319645578,67.41902335720717,-101.09023863819793,-83.79299342371772,0.9739699875603305,0.0,0.0,0.0,-0.3732871024890998,-11.205066285730805,36
82.17028447486037,53.862555360918556,-81.79504864809309,66.56049658521027,-46.61432619941296,21.785357823768273,61.419023357207166,-104.92845635377523,-72.79299342371772,1.5933192841701407,0.0,0.0,0.0,-0.3676047945101983,-11.525116786446581,37
80.38838997931208,58.606225606087264,-79.40464756713293,55.560496585210274,-35.61432619941296,22.30247037909246,55.419023357207166,-107.82323519492368,-61.79299342371772,2.584574818764021,0.0,0.0,0.0,-0.6516018013756857,-10.039137685119442,38
77.46280346368553,62.01263361534146,-76.92989123135187,46.134176838158474,-24.614326199412957,25.72959677521978,49.419023357207166,-113.72468325010051,-50.79299342371772,3.6040033205214224,0.0,0.0,0.0,-1.1180808390298262,-7.913357133617772,39
72.97592034492367,62.59073000704497,-74.13721306496517,46.91651371308851,-13.614326199412957,34.302795437670035,43.419023357207166,-117.848221971014,-39.79299342371772,4.307031547432698,0.0,0.0,0.0,-1.3388292737631875,-6.448770531317507,40
70.05900043632151,61.58786911960048,-73.82098918189588,53.47741636783394,-2.6143261994129574,42.29670009523832,37.419023357207166,-122.81897698073392,-28.792993423717718,4.729478806883958,0.0,0.0,0.0,-1.5445550091159772,-4.741322885096427,41
69.44931051282177,61.525784787252014,-73.84890224232907,54.170792985411325,8.385673800587043,42.89510893341954,31.419023357207166,-124.94940676101285,-17.792993423717718,4.9916936285589735,0.0,0.0,0.0,-1.3269243080820174,-3.947112124387861,42
68.2649254566235,60.54627131324754,-73.63755932452348,65.17079298541132,19.385673800587043,50.59081297558694,25.419023357207166,-127.4187902489766,-6.792993423717718,5.055070906049893,0.0,0.0,0.0,-1.2991118195590838,-3.3244464797683073,43
70.12156416368745,59.65772311101793,-76.47406391723054,70.52056395559653,30.385673800587043,54.92643522191215,19.419023357207166,-130.10626682930626,4.207006576282282,5.093791184175506,0.0,0.0,0.0,-0.7518724925379516,-3.40503671175912,44
73.27084190147576,59.38996945932234,-79.37713748767796,71.80434844222007,41.38567380058704,52.39995776312377,13.419023357207166,-132.39065694473587,15.207006576282282,4.984653227522808,0.0,0.0,0.0,-0.35467101065086776,-4.276377477899786,45
74.58285287084405,59.77923726801554,-79.48653152269728,70.38873139859017,52.38567380058704,42.78706865541351,7.419023357207166,-132.93686665699414,26.207006576282282,4.5558123167433,0.0,0.0,0.0,-0.0649174620526776,-6.124264842417785,46
75.79149800745219,60.183412582197484,-79.5578569835694,70.78559888540173,62.9588101513813,39.477138882952026,1.4190233572071662,-131.71416502481344,37.20700657628228,4.338680091414873,0.0,0.0,0.0,0.07808775037793887,-6.776430777407084,47
76.12595360419294,60.28425028476272,-82.31424554927094,67.29594241648745,51.9588101513813,28.477138882952026,-4.580976642792834,-126.89089083260963,48.20700657628228,3.3994485371932917,0.0,0.0,0.0,-0.14787966782915413,-7.680506313141631,48
74.48057425097753,62.102528644159634,-79.63105710045787,65.09523137524522,40.9588101513813,22.46142502396791,1.4190233572071662,-117.90867725319781,59.20700657628228,2.683761812637927,0.0,0.0,0.0,-0.5059987449135458,-8.286899920124364,49
72.41752625234501,64.85767265082363,-77.07203746946283,62.15432311493433,29.9588101513813,33.382100836325854,7.419023357207166,-106.90867725319781,70.20700657628228,2.0379973331074495,0.0,0.0,0.0,-1.0563007890129286,-7.667268351315431,50
70.27591983225774,69.66240887929234,-74.82897366022449,58.698548807889765,18.9588101513813,44.382100836325854,13.419023357207166,-95.90867725319781,81.20700657628228,1.537240621705144,0.0,0.0,0.0,-1.5917034492465938,-7.097126273190499,51
69.00797766569889,70.65550099272448,-72.33029571830522,59.64263865335255,7.9588101513813,50.89394103928138,19.419023357207166,-89.81531454885422,92.20700657628228,1.366124125438795,0.0,0.0,0.0,-1.8431049244543396,-6.874486922914602,52
65.0866118713143,77.93807801230419,-68.24478983127823,57.12713753047999,-3.0411898486187,61.89394103928138,25.419023357207166,-78.81531454885422,103.20700657628228,0.9203698537436751,0.0,0.0,0.0,-2.048440522220069,-6.151871179518662,53
59.20327462577938,83.38074876177636,-62.244789831278226,58.22282789549163,-14.0411898486187,72.89394103928137,31.419023357207166,-69.62358445080979,114.20700657628228,0.6557759511624554,0.0,0.0,0.0,-1.8420296036054393,-4.783619242825439,54
55.185850398391004,87.9134297881542,-58.38671056324565,57.78046966528987,-25.0411898486187,83.34108650782616,37.419023357207166,-64.05778236106929,103.20700657628228,0.5251284366951858,0.0,0.0,0.0,-1.439008883130442,-3.626428499624774,55
52.18944490705081,87.29692730410905,-56.13626539773272,58.55623633405966,-36.0411898486187,86.30532762791039,43.419023357207166,-61.447984196809756,92.20700657628228,0.4331472090721586,0.0,0.0,0.0,-0.830211860235217,-3.8328482998601276,56
50.27905536605557,87.59518724348881,-53.9676111045749,58.24321902626484,-46.65081394838852,86.89435595740242,47.12017076695021,-60.98994488040751,81.20700657628228,0.5509085816637269,0.0,0.0,0.0,-0.4313737005970243,-4.022493838586888,57
48.19465880927953,85.93928557454507,-54.01900992401253,62.584029630836945,-44.560519341460804,85.49187798290897,46.73201162464552,-63.91205903682097,70.20700657628228,0.5593558582352367,0.0,0.0,0.0,-0.06426146598792781,-4.768343441082874,58
47.737181065203806,83.49392195567167,-56.17695819996346,65.45264080394242,-43.94201452215211,83.9152429583946,48.5445458368257,-65.65537561695125,59.20700657628228,0.6178150862171772,0.0,0.0,0.0,0.4675330766587013,-6.303086263091212,59
46.70560066753461,82.94601872056633,-56.30585549811337,65.76704276455875,-41.95384397490173,83.990065272411,48.1316722702723,-63.98123766106766,48.20700657628228,0.7475656184410155,0.0,0.0,0.0,1.0165723702999818,-8.119049616298836,60
44.77679703256591,79.99372843396675,-58.5899035311784,70.4398112612339,-37.77205057538469,85.83995757992069,48.27183612861063,-63.776292457255394,37.20700657628228,0.9627065373177467,0.0,0.0,0.0,1.7184445649828237,-10.723549226875264,61
43.390928685278496,78.63179750490943,-61.24625904030837,73.1639184288874,-34.339115172983796,87.58886689866924,48.22860967874528,-62.625162686410306,26.207006576282282,1.2597796698574248,0.0,0.0,0.0,2.394256788354206,-12.506451782951958,62
38.32510148785214,75.32340185387852,-63.36186375914995,76.97194442540973,-27.671972656603703,90.16924082446073,48.39335687432557,-60.10127004205556,15.207006576282282,2.1552412719927205,0.0,0.0,0.0,2.6400769923882765,-12.9836440950189,63
29.381799101873987,70.56988113024417,-62.74522702203783,85.68616537877305,-18.073211819007124,91.32617678662646,48.735861369965285,-63.412979966507486,4.207006576282282,2.688355953207475,0.0,0.0,0.0,2.7459791429746057,-12.21183549330806,64
21.724843933019244,65.31080261722457,-64.1674604067579,93.69411607684215,-9.280034595473946,93.6628790943515,49.80225053005651,-63.95964680907277,-6.792993423717718,3.333310661221192,0.0,0.0,0.0,2.6001094211728484,-10.914051809414364,65
10.724843933019244,62.90969722637882,-58.1674604067579,102.61062427487211,1.7199654045260537,97.43171475873442,50.33892923686615,-66.98814886161567,-17.792993423717718,3.968522257415537,0.0,0.0,0.0,2.021106378762634,-9.145232660737358,66
-0.275156066980756,62.65851459873728,-54.619871258008516,107.95846014880655,5.842199622226885,100.50691509315439,50.24739730443214,-66.90932464585627,-28.792993423717718,4.451421874031132,0.0,0.0,0.0,1.6644464757215631,-8.059448155262254,67
-8.087098240514894,63.03624494984374,-53.761150868978255,109.95501264672114,7.3737289244783515,103.97319940227952,51.90426834678683,-65.55610919211315,-39.79299342371772,4.857860284665791,0.0,0.0,0.0,1.1267557701806725,-7.004642037099965,68
-15.483970077118762,66.30228950646526,-49.60346794423164,112.91533826770937,8.594233670307542,105.4814127016402,55.071355381584276,-69.28299291281508,-50.79299342371772,5.322403960440657,0.0,0.0,0.0,0.6181629735363797,-5.519555233765654,69
-20.42287106715344,66.65897112656687,-46.9561173816107,116.27861803939984,8.822845309996389,105.35539693645381,56.90020130679632,-72.96547269864037,-61.79299342371772,5.759711557203588,0.0,0.0,0.0,0.25814412201066894,-3.9097938223999456,70
-24.488241520851126,67.42563462248357,-45.028520535066136,116.41063804817394,11.020566619014692,104.86189131523224,56.215119709628034,-74.05860172221995,-72.79299342371772,6.13770267969466,0.0,0.0,0.0,-0.095953233296327,-4.250986885348425,71
-25.63223080321741,67.87038912300281,-45.64131049300139,116.8214153196999,10.733523383423684,103.29445861562932,58.821567597968,-75.13131521066441,-83.79299342371772,6.414358965975055,0.0,0.0,0.0,-0.265298682568974,-4.659323607035821,72
-26.71568804785299,70.7001392775414,-44.54699230057854,116.12750679666856,10.878367649670421,101.5309316340819,59.611105901816714,-75.94365946362942,-80.4219865956007,6.3929694306225695,0.0,0.0,0.0,-0.6128422860215222,-5.764482017897056,73
-25.772667748895863,71.33996783065929,-44.71667808198209,115.82283914010068,12.276261481324916,98.49373901844427,59.396628790889785,-78.99744169330695,-77.19277081545518,6.176052688429188,0.0,0.0,0.0,-1.3368943729113367,-8.328415786426378,74
-25.68273206078731,72.59065226896901,-45.338698005859165,114.44430706975399,13.350603235222046,93.99109613832955,58.461816550179186,-82.175705835653,-74.89856561984443,6.029725318080875,0.0,0.0,0.0,-2.4290599391118866,-10.8897294039323,75
-24.648214159510253,75.9278106786671,-46.45975559509271,115.8164001060051,17.222317346671552,85.0472838679605,55.85355178023102,-93.175705835653,-78.38589618115302,4.866937835133436,0.0,0.0,0.0,-3.7202568668185028,-11.758248197560546,76
-23.741078926156725,79.51506549147797,-48.43513740216096,115.06639876754451,18.47656850172147,81.17824632368914,55.635090996894995,-99.93311308653136,-80.57058176575896,4.158041698603833,0.0,0.0,0.0,-4.398215201412773,-12.209566565140559,77
-21.366700011151867,85.24570232506278,-50.55742844315215,110.0995701614445,18.677035213985572,79.21331780738471,55.79362181967544,-106.30573950774757,-79.69842971258694,3.2700225035669033,0.0,0.0,0.0,-5.177673144148817,-12.452662307227959,78
-22.63831231245485,91.04461938900846,-51.239598695202645,102.94659588834999,21.500972249807113,74.6309019716816,54.60445187686107,-109.64693559068846,-87.23003993746624,2.322227618097684,0.0,0.0,0.0,-5.530642147465297,-11.772110583179357,79
-19.100242780031344,95.32209022550998,-53.86191480817334,91.94659588834999,21.998458546791767,69.83536978113366,52.15556908812482,-111.59699655876453,-96.63403958709442,1.235897153174556,0.0,0.0,0.0,-6.05562847987392,-11.946290722274895,80
-17.715510204519667,101.00641905151652,-55.106338644955734,80.94659588834999,27.560320640589318,63.72445888855917,46.15556908812482,-117.97316819100773,-85.63403958709442,0.5694042358069344,0.0,0.0,0.0,-5.856410184585124,-10.815669846207939,81
-17.363911375455505,104.74052410338116,-56.1468088424059,74.37396097854582,30.05996607555846,60.690412480006074,41.435203797620616,-123.15375427296198,-74.63403958709442,1.5123683987669867,0.0,0.0,0.0,-5.391998747049788,-9.78766077783148,82
-17.624057086606772,105.71946663477357,-59.84922024706209,75.35986819308518,33.31109078420675,59.6754026820662,39.48215191989592,-126.54572233916582,-63.63403958709442,2.0227260164663083,0.0,0.0,0.0,-4.526257041101569,-8.777894025985931,83
-19.69021534349514,107.06540940382068,-61.735714030152195,76.80288622154902,37.161755779497746,61.8095915429955,37.25690860571262,-128.16132973806967,-52.63403958709442,2.255684385877967,0.0,0.0,0.0,-3.8597088626005944,-7.414234668413819,84
-22.02885511827141,107.81698084588821,-63.4791178178538,79.10383560474945,39.47984073244441,65.00380683425799,36.10905762464393,-129.10280684234996,-41.63403958709442,2.3987511960601036,0.0,0.0,0.0,-3.2530825941459924,-5.91948668923521,85
-24.190587542473793,107.49629358386434,-62.509653523244964,80.43616309565259,39.9694578103491,67.07043993225845,37.256767470106574,-129.63513703378104,-30.63403958709442,2.3451840702042275,0.0,0.0,0.0,-2.4497528208633694,-5.37328700573049,86
-24.340344383566503,106.30385941623233,-62.37865946273743,81.798381410735,41.14626717783513,69.99010804930816,35.96309697872687,-129.69019818579005,-19.63403958709442,2.234587999185002,0.0,0.0,0.0,-1.8949217974270731,-5.102162587408224,87
-24.43963974177207,102.14058308729898,-63.11382444277621,86.20598009152735,38.716448824803436,71.82132127092946,41.02787762778607,-128.7478084071864,-8.63403958709442,1.9687003527638225,0.0,0.0,0.0,-1.1422363929596997,-7.005811482954853,88
-21.26807047200126,98.5262714547767,-61.5366850332089,84.1238019777231,36.16145714034485,75.35930799295438,43.724374183108125,-122.90414802993484,2.3659604129055793,1.8358291628869259,0.0,0.0,0.0,-0.24446360276189877,-9.67279914026295,89
-22.0503613702042,93.86697658393422,-61.162493193068244,90.81985062515753,35.90536355742627,78.7180202651369,45.85461508548194,-118.67424531626402,13.36596041290558,1.250400004690481,0.0,0.0,0.0,0.7655354317949147,-9.833271408322437,90
-22.027200655651008,90.10722559115062,-60.69406116519291,97.1967440224566,32.40982284845592,82.46150177060879,50.30062277475136,-111.21936404610433,24.36596041290558,0.38484252697311594,0.0,0.0,0.0,1.6134005601004613,-10.455479812832843,91
-21.179586123288786,88.08159086169263,-60.123955219966774,99.90322210340966,31.62810343165623,84.50914178824705,50.91703397178182,-103.81173480483825,13.36596041290558,0.38123074784296246,0.0,0.0,0.0,2.2120379675468813,-11.140874670754375,92
-21.59773601582887,80.43785036157301,-56.43932994286116,100.44044542272057,28.89006287505194,86.93479794469235,50.27609588347846,-92.81173480483825,2.3659604129055793,1.3261444675399743,0.0,0.0,0.0,2.508937300759729,-12.072213113367967,93
-25.8463256129842,75.15614198150533,-52.23693802430754,104.42402976117224,27.72120061291718,91.22569616672492,48.8236375407329,-81.81173480483825,-8.63403958709442,2.484310661862506,0.0,0.0,0.0,2.8674190174863297,-12.681795022497347,94
-28.724483291466697,71.914224506967,-50.99327171520921,110.07928597893921,26.10756203355033,94.78859665369806,50.48405878249203,-75.83483418283596,-19.63403958709442,3.203428061582482,0.0,0.0,0.0,2.7483299324360937,-12.720596894957309,95
-33.49448497357837,71.92702647253148,-48.9164936911121,112.93234230255834,26.30216866596921,99.00525329130505,50.4621960694881,-71.91765587147142,-30.63403958709442,3.709445564363569,0.0,0.0,0.0,2.310893309487247,-12.294530809250904,96
-35.4114927566975,71.7550592480597,-49.05491163188396,114.58671295458667,25.839497184537503,100.57744718787504,51.36570852372893,-70.88435124605839,-41.63403958709442,3.883757452229746,0.0,0.0,0.0,1.85895039942064,-11.884910469286647,97
-42.27854475905359,72.47079298710706,-47.96907798077885,110.66462336325822,29.647314835475207,100.39275011689219,49.888870133399614,-67.22737676415069,-52.63403958709442,3.8578565603958066,0.0,0.0,0.0,0.6955256848959432,-9.207549129007331,98
-48.57884786060617,76.47357754152137,-43.4077480137601,107.67042766071789,32.8916454853515,99.71447787466339,51.56758192018537,-65.89073352879745,-63.63403958709442,3.7633576702685536,0.0,0.0,0.0,-0.3581580063988076,-7.430593620448391,99
-54.80857264197415,79.26852633944456,-38.59988544093915,106.5623531377561,35.66832556843961,98.39459737012416,50.71348373475578,-68.84828028710706,-74.63403958709442,3.7340681729383873,0.0,0.0,0.0,-1.18311256859859,-7.505291293506759,100
-63.86726386894385,79.25950070392753,-32.59988544093915,111.87834572963827,41.595827079542715,94.60964020905432,47.945172670242414,-79.84828028710706,-85.391851901756,3.8506162218464706,0.0,0.0,0.0,-1.8701963645888378,-8.288183659453864,101
-67.66689953687965,81.3834564192406,-26.599885440939147,113.80878131868823,42.888374419207096,92.66048420884741,48.63594345313271,-88.00555145680102,-78.65817033658851,3.8564601029057135,0.0,0.0,0.0,-2.2226161850630364,-8.977478027790573,102
-65.99730863556105,74.9753166853334,-20.86621355035304,121.19748758263172,50.37720655857453,81.66048420884741,42.63594345313271,-99.00555145680102,-74.6870134804123,3.7260021265196053,0.0,0.0,0.0,-3.0216016036259146,-10.596960213389018,103
-55.60675675773097,64.89852330954837,-14.866213550353041,123.75895215476403,52.90409497128392,70.66048420884741,36.63594345313271,-110.00555145680102,-74.80929490744725,3.345659771418125,0.0,0.0,0.0,-4.1864413006520165,-12.96927908250633,104
-44.60675675773097,53.89852330954837,-15.621667114719042,118.5063817525726,48.80294943088875,59.66048420884741,30.63594345313271,-118.4656588926989,-81.27970761831308,2.6295106199374705,0.0,0.0,0.0,-5.242171189792861,-15.15888379221633,105
-33.60675675773097,42.89852330954837,-21.621667114719042,107.5063817525726,37.80294943088875,48.66048420884741,29.28600483034022,-112.50485289422686,-92.27970761831308,2.1540673162996935,0.0,0.0,0.0,-5.28178870791852,-15.307302641487116,106
-22.60675675773097,35.62735126518793,-27.621667114719042,97.72949446598149,26.802949430888752,37.66048420884741,28.408538528326485,-109.36458006914879,-103.27970761831308,1.8980698427608174,0.0,0.0,0.0,-5.333178086620203,-15.80370527683089,107
-11.60675675773097,30.36284434314899,-33.621667114719045,89.2487458768714,15.802949430888752,26.660484208847407,34.40853852832649,-102.36854987322542,-114.27970761831308,2.47618447729986,0.0,0.0,0.0,-5.003496842843231,-15.265560010774408,108
-0.6067567577309703,29.858731393410665,-39.621667114719045,78.2487458768714,4.802949430888752,17.697632057578975,40.40853852832649,-93.30144727396561,-125.27970761831308,2.743577528721191,0.0,0.0,0.0,-4.595179320426894,-14.31956973810276,109
10.39324324226903,33.919996594524136,-45.621667114719045,67.2487458768714,-6.197050569111248,22.887407788334475,46.40853852832649,-82.30144727396561,-136.27970761831307,2.7821706553403263,0.0,0.0,0.0,-3.945271295126193,-12.76096715109679,110
21.39324324226903,43.34714742995953,-51.621667114719045,56.248745876871396,-17.197050569111248,33.22628189488814,52.40853852832649,-71.30144727396561,-147.27970761831307,3.1741873498038387,0.0,0.0,0.0,-2.81550673869623,-9.882076940952706,111
32.39324324226903,48.554052212042286,-57.621667114719045,45.248745876871396,-28.197050569111248,38.76511743492776,58.40853852832649,-60.30144727396561,-152.68722452899752,3.2429067442333497,0.0,0.0,0.0,-2.3712450783870906,-8.644530427166067,112
43.39324324226903,51.252874335811015,-63.621667114719045,34.248745876871396,-39.19705056911125,43.43930959281151,64.40853852832649,-49.30144727396561,-152.09378924091985,3.4698413713722465,0.0,0.0,0.0,-2.0870740221993187,-7.511174267126086,113
54.39324324226903,51.217710549148656,-69.62166711471905,28.298822862089825,-50.19705056911125,46.185078542801556,70.40853852832649,-38.30144727396561,-150.88230046047175,3.4256557353183505,0.0,0.0,0.0,-1.6464894016336116,-7.3284918363317715,114
65.39324324226902,52.570967854203914,-75.62166711471905,28.29882286208985,-61.19705056911125,49.17273127885493,76.40853852832649,-28.64203688247223,-151.07550847377172,3.2078521335475054,0.0,0.0,0.0,-1.01215255261147,-7.657957123614266,115
76.39324324226902,52.841414936485535,-81.62166711471905,28.298822862089697,-72.19705056911124,50.53910097378105,82.40853852832649,-28.298822862089708,-150.21892022972315,2.8799663826645863,0.0,0.0,0.0,-0.3065749814804763,-9.73859843510125,116
83.65685413632568,52.56111902346619,-87.62166711471905,28.298822862089594,-80.71359012266348,50.66169806137178,88.40853852832649,-28.298822862089597,-148.95209103913888,2.7911908636526297,0.0,0.0,0.0,0.11656005939708901,-10.785845269804273,117
84.67328244983584,52.07315988780668,-93.62166711471905,28.298822862089875,-82.3486430371295,49.99159848901105,94.40853852832649,-28.29882286208974,-147.8929476380148,2.667537624519309,0.0,0.0,0.0,0.5800662517910796,-11.77836874161466,118
85.69388896952785,50.465988891111785,-97.78446835432227,28.298822862089697,-82.69458951689953,48.360466470095474,94.71166884080087,-28.29882286208971,-146.23886561388804,2.5653194647919437,0.0,0.0,0.0,0.7824356775467916,-12.648739050107341,119
87.17742945053052,48.25184817396901,-100.30546139413872,28.298822862089697,-82.57917444958005,45.51009188322794,96.18317305706447,-28.53121626702748,-143.96007904266787,2.5456066947184564,0.0,0.0,0.0,0.9647983737949459,-12.790289130231578,120
86.17479914127495,47.03791511860901,-99.70188619234874,28.29882286208972,-81.56885665016566,44.08330541227525,97.80589584491311,-29.288162358122914,-142.97399869803684,2.515223541596034,0.0,0.0,0.0,0.684443390751182,-12.463107321105705,121
86.16919901340941,46.00345764891213,-99.82896660276944,28.29882286208985,-80.14280849754533,42.768005866658925,96.92819112848137,-30.119673064337775,-143.90491491074542,2.483371951897366,0.0,0.0,0.0,0.38290214623749824,-11.890332013183128,122
85.90017567839332,45.04999167753361,-100.10052987058826,28.29882286208962,-79.41280043018236,41.271968345413654,99.1424558006647,-31.05835772760804,-147.59300763232386,2.5436204386033845,0.0,0.0,0.0,0.06182390028194794,-10.865227345361713,123
85.50059902887679,44.60881603197835,-100.7507135886463,28.29882286208972,-77.80644009670043,41.120858800253686,99.09038850279954,-31.292778555266395,-151.61202479153212,2.664822594211755,0.0,0.0,0.0,-0.2400879782312507,-9.255352199538622,124
83.97180041318454,44.55887922514937,-98.15945702638686,28.298822862089697,-75.64122602345275,41.50465360044752,96.17379907145673,-31.282428672712385,-155.02520426436567,2.770807701333544,0.0,0.0,0.0,-0.4858555275106218,-8.017253690050296,125
81.71642798839419,44.737422229466866,-95.30398286195856,28.29882286208985,-74.01574531732564,42.318548242399665,93.82013817857691,-31.190052897611245,-156.2371000292972,3.025436351120931,0.0,0.0,0.0,-1.008005927976982,-6.6137758755734115,126
80.61266047217413,44.56156613302959,-94.99136526176751,28.298822862089647,-72.01424893893817,42.39373898594654,90.58326464423983,-31.622142666654607,-156.83596131640218,3.1456130419870765,0.0,0.0,0.0,-1.3015718141199166,-6.010362485769743,127
78.91487631951722,44.21922434584294,-91.52498295906229,28.298822862089594,-71.63879722347282,42.23734992576967,90.44067159607644,-32.471752797997816,-154.44044773854748,3.160644465117481,0.0,0.0,0.0,-1.577222629045693,-5.949325847690426,128
77.19692378251688,43.14711608526421,-89.80873378551946,28.29882286208972,-71.34985688046967,40.884032492869075,89.4569353379799,-33.79350053248521,-150.9866859867226,2.9998637652216447,0.0,0.0,0.0,-1.9388085128478643,-6.684034640444746,129
77.59398029875175,40.18289867478446,-90.75511136465877,29.56732959620764,-72.93934456393056,38.606834657629335,88.58051768949692,-34.99636831164596,-146.12491185096206,2.838237956607241,0.0,0.0,0.0,-2.3351343113779186,-8.488660207284282,130
80.3308613414221,36.955599658750806,-95.80489324648498,30.874090698457316,-77.68870060756264,35.69861508108716,94.58051768949692,-35.88315761028082,-143.20309885151818,2.8224324828044867,0.0,0.0,0.0,-2.776060911932057,-10.024357862172067,131
81.91956105992487,35.68593916023955,-98.44758294181851,31.0720637365246,-80.47292665138376,34.4735864410337,98.06221551075282,-35.955427849819294,-141.70604119153697,2.7536959398254224,0.0,0.0,0.0,-2.9744808881605422,-10.957660767052198,132
83.56516333401918,35.692304869497356,-101.36664096290565,30.725257780767876,-81.98514843341529,34.28097068593697,98.31587231003178,-35.76135362363598,-142.25080916631097,2.694972611995489,0.0,0.0,0.0,-3.096323305579158,-11.926481973348949,133
83.65644859014121,37.067033408409785,-101.15723064732248,29.85461552783819,-81.82876130581869,35.386819722009555,97.81060856715719,-35.36514220221768,-143.33109349867985,2.574072058688778,0.0,0.0,0.0,-3.2527277528637155,-12.747144641989951,134
81.58412201450555,39.79910635671839,-97.94999316041844,28.81160997537161,-79.64528074994278,37.5934097223448,94.42311520810227,-34.97468784915114,-147.78838480757508,2.5317528914138334,0.0,0.0,0.0,-3.3567349104925133,-12.78270413131654,135
78.05444294304965,46.94653397116619,-91.94999316041844,28.29882286208972,-76.12537411688174,44.57055135222892,88.42311520810227,-35.31364273873799,-154.49043614191345,2.614326665552208,0.0,0.0,0.0,-3.188540559612002,-11.883604608754613,136
76.5241298672247,52.606481750812115,-85.94999316041844,28.29882286208962,-73.92732298593275,48.95028656524128,84.51623621873236,-37.256674226090915,-157.0135649361494,2.631287715334522,0.0,0.0,0.0,-2.9655612174623416,-11.2430567740282,137
74.04543116510476,59.37665835778522,-81.90540550080868,29.709046041354465,-70.56082027728226,53.28562214311362,80.15978492296139,-42.34190199190444,-161.50105560408616,2.5814073822966255,0.0,0.0,0.0,-2.610388127721966,-10.418061322150987,138
70.01961311997687,62.83037065583937,-79.25684453415955,39.67937912513166,-65.14186572969592,55.855461988616575,74.37560445608531,-51.32027602554519,-166.16232693807314,2.596507717190319,0.0,0.0,0.0,-2.165541472224726,-8.968652566634812,139
66.120573428471,65.75119646239762,-76.77453380885204,48.961917845634204,-61.27629246101774,58.52349394586416,71.66854703303656,-58.40386815004203,-169.9705719469949,2.5281758975827646,0.0,0.0,0.0,-1.7823413118461617,-7.410544956693612,140
65.13963054422152,66.06036249877542,-77.03163397257124,59.961917845634204,-60.18563634835961,58.94611297374961,71.36071427262038,-69.40386815004203,-175.65016205200618,2.7971549815906456,0.0,0.0,0.0,-1.2257257444495784,-5.747899431204979,141
63.71839798253137,66.73421473792065,-77.26060304291606,70.9619178456342,-59.90948131208757,59.58016830790671,71.39821262466008,-80.32577161122512,-175.85772286669595,2.7808970638883768,0.0,0.0,0.0,-0.9474678144602703,-5.46762472614528,142
62.786067097505025,65.48536770671355,-74.71668767703352,79.5017817119927,-60.79944267170024,58.27864800624441,70.96891199490082,-86.53683563234986,-175.832578846691,2.6869402744512314,0.0,0.0,0.0,-0.5229745949648409,-5.881126081239707,143
64.18568301809238,64.04636397788882,-74.61679009160315,81.54769658000582,-63.82659842620581,56.135836149813684,73.29492906029057,-88.33080173274608,-175.88275884723333,2.4201372109338615,0.0,0.0,0.0,-0.22342988159371088,-6.750974566340925,144
65.98329599334544,61.93499429515528,-74.31646897595563,79.62961463400924,-64.8230405836872,53.18484848287312,72.51969419355498,-86.91457124558562,-177.87075782006008,2.1750816071809993,0.0,0.0,0.0,0.08807983045352606,-7.686313636455335,145
69.66511571542848,58.26688158974788,-76.57360251888792,73.91923181883496,-64.86739173020129,47.80240200815671,71.12124647164457,-83.11104884192011,-166.87075782006008,1.8804356237009463,0.0,0.0,0.0,0.3799335757590415,-9.198443806997401,146
71.46080394482793,57.64858756547977,-76.53023299079182,70.24325597607825,-64.96652518243484,44.74517231074071,70.25282429018347,-81.08353919692611,-155.87075782006008,1.7096409126023528,0.0,0.0,0.0,0.5929865826702173,-10.325755002909862,147
74.6521281196583,59.32839897243613,-79.61166267671322,63.2506843239434,-62.40588342162264,42.31095744825112,69.57807730378043,-77.37455068088958,-144.87075782006008,1.6701420516801455,0.0,0.0,0.0,0.6839787939857721,-11.410558725457358,148
76.33280720883027,61.01460624250952,-79.76586773115206,56.21087827281106,-56.215139847013575,38.024719292604296,64.41558254796679,-76.28941825434748,-133.87075782006008,1.6954527349498814,0.0,0.0,0.0,0.5666881000654411,-11.91558792805577,149
75.91343295879211,64.33749069810933,-77.35630526986186,47.70044591580313,-45.215139847013575,34.27887149677747,58.41558254796679,-77.54282996101568,-122.87075782006008,2.022349101561678,0.0,0.0,0.0,0.33054959817251583,-11.01557291559151,150
71.26331513207451,67.12592923831983,-74.8255816579111,45.24487705081176,-34.215139847013575,33.922924257522524,52.41558254796679,-87.33450433091878,-111.87075782006008,2.821225673241787,0.0,0.0,0.0,-0.37534117524673083,-8.669333134715632,151
68.77922080726337,67.77138343320044,-74.70609797079628,43.380035293949696,-23.215139847013575,38.270030576068656,46.41558254796679,-92.7552010117401,-100.87075782006008,3.467417793113322,0.0,0.0,0.0,-0.9581138356056026,-7.829641346255941,152
65.25860749848566,65.6489023941092,-74.3377518188278,49.52152266805881,-12.215139847013575,43.85485213830349,40.41558254796679,-98.22213635282837,-89.87075782006008,3.8849870750911526,0.0,0.0,0.0,-1.1287382300116675,-6.577977515889566,153
61.70855975033798,64.5396670979095,-71.38769100304575,55.65961328022875,-1.2151398470135746,47.68066254405037,34.41558254796679,-105.12292132466935,-78.87075782006008,4.255675183714754,0.0,0.0,0.0,-1.27489280485733,-5.566895116482537,154
60.672380430043866,65.78208358765943,-71.58747079860562,61.00781375888157,9.784860152986425,55.569243007937835,28.415582547966793,-108.75303893882824,-67.87075782006008,4.6677915101883825,0.0,0.0,0.0,-1.2195336843511067,-4.947251165896757,155
61.40257786157661,64.50638079684376,-71.43481098902582,66.26663840149835,20.784860152986425,59.95162252527185,22.415582547966793,-115.37209027264431,-56.87075782006008,4.883233963600756,0.0,0.0,0.0,-1.2107734723372343,-5.929428917148423,156
64.28214656768766,64.62507993150359,-74.2842829616864,67.106256125139,31.784860152986425,61.240749654590154,16.415582547966793,-118.32553197466918,-45.87075782006008,4.934696922349069,0.0,0.0,0.0,-0.956250008633557,-6.289586057153398,157
65.32127759810004,63.42381630991811,-74.15917781836073,66.40950533368016,42.784860152986425,60.88202032099441,10.415582547966793,-120.55474483209619,-34.87075782006008,4.81670134185654,0.0,0.0,0.0,-0.8343382484683896,-7.134644915295462,158
67.48773352798443,62.96822081150545,-76.91712245884062,64.58400556747901,53.784860152986425,57.88875057481753,4.4155825479667925,-122.54538555073282,-23.870757820060078,4.46624235473037,0.0,0.0,0.0,-0.5593348228976613,-8.34467331670808,159
67.9404318335482,63.163284641996185,-77.04047749245674,63.24761279061557,50.41056060410549,47.60172909540375,-1.5844174520332075,-122.43298758943321,-12.870757820060078,4.0240439826102685,0.0,0.0,0.0,-0.24345279043858217,-9.051058541095063,160
69.19497318685501,66.73930279260122,-80.0041159835404,59.28547222320765,39.41056060410549,36.60172909540375,1.3369045165900042,-117.40968512373587,-1.8707578200600778,3.1343433055491516,0.0,0.0,0.0,-0.44315445651949664,-9.832238694041507,161
69.63662965641497,68.18092994938984,-77.42052611317142,59.30410631135674,28.41056060410549,29.910463795119888,7.336904516590004,-112.33866645259053,9.129242179939922,2.7501064279764496,0.0,0.0,0.0,-0.8390996938118837,-10.842744903485608,162
69.94342109392785,70.95199673652145,-75.04036813282184,56.567624684826384,17.41056060410549,33.65224441562709,13.336904516590003,-104.73851371938537,20.129242179939922,2.5077989340377345,0.0,0.0,0.0,-1.214626301043515,-10.893000948682122,163
68.48491660607355,75.04196604165976,-70.37539289222863,53.598513489212515,6.410560604105491,43.90819642600111,19.336904516590003,-95.31224543966918,31.129242179939922,2.251597903720356,0.0,0.0,0.0,-1.5831010449619491,-10.586561270272536,164
67.27883841892137,79.65242296633681,-68.49020929972667,52.17014611649365,-4.589439395894509,54.90819642600111,25.336904516590003,-84.84820163819907,42.12924217993992,1.9750380558595495,0.0,0.0,0.0,-1.718960008175859,-9.659762421195337,165
63.4304516062803,85.58896266874173,-64.73704500669447,54.113858425270905,-15.589439395894509,65.90819642600111,31.336904516590003,-74.22707649327754,53.12924217993992,1.6180476542678972,0.0,0.0,0.0,-1.651408392093713,-8.223169798238146,166
60.63445658921789,88.21318829653757,-60.690808036000604,55.38556383627034,-26.58943939589451,76.12384593729553,37.33690451659,-68.6211662172319,64.12924217993992,1.374488878256693,0.0,0.0,0.0,-1.483883310572375,-7.307289927759562,167
59.12571758927812,90.80538107560244,-59.6873657319961,54.555622270984486,-37.58943939589451,81.50403499983858,43.33690451659,-63.874069664387434,75.12924217993992,1.1882392900806942,0.0,0.0,0.0,-1.1184985705159807,-6.085273272646373,168
56.15767609725746,91.57804961832701,-56.83407656518671,53.5063583818862,-48.399212005556336,84.4943499057948,49.33690451659,-60.64350741175464,86.12924217993992,1.0753358698305222,0.0,0.0,0.0,-0.7543968827132432,-4.7964272267874755,169
54.14346217437918,91.55819034915459,-56.73941024713652,52.31229568797819,-47.03205888301554,87.00174173659641,51.740597844011425,-56.59229936362358,97.12924217993992,1.0846600179112176,0.0,0.0,0.0,-0.6266017203977389,-4.234398358660562,170
50.27303092721904,88.27482275441686,-56.6206236786185,57.88701008370517,-42.91255657732407,86.97179438766855,49.32368127610426,-59.50005122246307,86.12924217993992,0.8251077584083428,0.0,0.0,0.0,-0.11682608098491314,-5.40210886406895,171
48.13492799574741,87.13311451143444,-56.69289758116308,60.02805994861353,-41.81222016332491,85.74502507312505,51.274584346772315,-60.98747516207253,75.12924217993992,0.7934186607158146,0.0,0.0,0.0,0.29958249255802827,-5.860108413329926,172
48.245150596398524,85.03152432047787,-59.133312354594395,64.18575560177882,-40.36609649876819,84.61667725496032,50.77788873109182,-63.597109937414075,64.12924217993992,0.7082670270351209,0.0,0.0,0.0,0.9357577178316797,-7.74296893942408,173
47.49885016244336,83.62255396359166,-59.30512952971612,67.32985730245936,-38.430499409027234,84.81945813515334,48.09518635950825,-64.7133696860226,53.12924217993992,0.5502082444681953,0.0,0.0,0.0,1.5967128679913822,-10.257616905352528,174
46.878336625069124,81.05351317957084,-61.56680204637026,71.64780258649243,-34.60284465037716,83.87044307120286,47.51025004631473,-66.43572727118452,42.12924217993992,0.5484388981317972,0.0,0.0,0.0,2.098365940227302,-11.770542808493687,175
42.55229951972519,78.92734469342874,-61.382280064315914,73.83656125089989,-29.355059223294514,88.50357744174256,45.978383627567304,-62.44232200982381,31.129242179939922,0.9955296946333148,0.0,0.0,0.0,2.353638114180558,-12.76158756753648,176
39.11510140822685,76.47964151319766,-63.50621151148507,77.09712408093687,-25.426341401664217,91.23326765365131,46.31010807116647,-58.525614431028934,20.129242179939922,1.6442164504876622,0.0,0.0,0.0,2.3829912065500296,-13.101748879919986,177
34.25558462185097,71.66146053389281,-65.13030689140456,84.76549390049442,-19.823016331666008,92.54829793695792,46.901720241562415,-60.29388099286345,9.129242179939922,2.2733261961528552,0.0,0.0,0.0,2.2586578184685204,-12.305652604801182,178
26.8995646973302,68.11579897227041,-61.673202108853616,91.71434708316497,-12.892848341658366,94.96508412366948,46.27592476959034,-62.68915393900324,-1.8707578200600778,2.7428951952386336,0.0,0.0,0.0,2.013028744913906,-10.891084431379914,179
18.75929681048392,66.55135124434457,-58.293136792901464,96.51210359776172,-5.8032546048184885,98.10626126618224,44.811005080121404,-64.43402731773277,-12.870757820060078,3.151842630569482,0.0,0.0,0.0,1.505711450128144,-10.00829105459,180
7.759296810483921,66.5573843152315,-52.33892228522244,103.1821724686543,4.006697517756998,101.41855359444735,47.43679997852625,-69.87373235383376,-23.870757820060078,3.751894112434927,0.0,0.0,0.0,0.6333897976478218,-7.944033570599906,181
-3.240703189516079,66.11912617439448,-51.923258592110926,108.43093275416348,8.049361187959306,103.47487347776219,49.87654993041776,-72.31266641858608,-34.87075782006008,4.2455716235264065,0.0,0.0,0.0,0.17656042064664862,-6.604534873037085,182
-12.898983129556987,66.85207399217546,-50.70437609800475,112.85453880408663,12.875143283477591,103.05825160450136,52.108349674769386,-75.76717134494045,-45.87075782006008,4.488095314626677,0.0,0.0,0.0,-0.3168100963484663,-4.756797739248158,183
-21.386114755170937,69.69172744878853,-47.6984656724578,115.18425250829053,16.941664021074285,104.71690927239437,55.60428336072982,-77.86153454132327,-56.87075782006008,4.898713892946554,0.0,0.0,0.0,-0.8578646371375606,-4.201413026866641,184
-27.723815964019337,70.97855738636892,-43.14659662095266,116.85925654556245,19.28854823542708,102.27483391176175,59.54590174489799,-81.27389455552003,-67.87075782006008,5.166565178015049,0.0,0.0,0.0,-1.4158387521650446,-3.6124115103971564,185
-33.99104814608074,76.10511977312098,-39.12639866772974,117.17963462952342,23.524629041317006,100.42393444961104,55.56623210770361,-83.1981383187229,-78.87075782006008,5.279877015337169,0.0,0.0,0.0,-2.147908541320477,-5.678822606012698,186
-36.067103390483105,78.78752279161218,-38.910991680834975,116.76522830183352,23.545669577986487,98.80977127393788,56.0986222816588,-84.27204353330423,-85.95364458691941,5.4635484189780055,0.0,0.0,0.0,-2.58653411487468,-6.719790664510149,187
-37.09457292592765,80.63374782766581,-37.74352746439652,116.28690257077271,22.233648727726905,94.98274713681771,54.558686369873705,-84.59803532436379,-82.37069964935014,5.589937351073634,0.0,0.0,0.0,-2.9182582825173013,-8.038115646110583,188
-36.121028329075415,82.2892567970258,-39.59635744030551,115.66281440974214,23.084240446341575,91.08797685408103,54.4045249153211,-87.44149509803034,-83.16217478069419,5.325075907252476,0.0,0.0,0.0,-3.157504467190329,-9.50346388646207,189
-34.89077692648358,84.19897104067438,-41.30665892493593,116.0400897442189,23.669954630818214,85.16361047648451,55.77992393516938,-95.15590470192043,-83.69162999522105,4.892450802783674,0.0,0.0,0.0,-3.431598009241506,-10.556357412212268,190
-28.629015195367423,88.5745388062661,-44.14759211265616,109.03265139636581,22.358941764024824,78.79856895919573,56.25662777640933,-101.63206663558614,-90.50474299428825,3.69253482710904,0.0,0.0,0.0,-4.467021805541873,-11.509819972536334,191
-24.491605827346145,92.27654727096225,-47.50747293905834,103.86633917700992,21.673209967008457,77.10126842112369,55.57797647915559,-105.48251503433015,-95.99267030462198,2.9343316498473158,0.0,0.0,0.0,-4.871970610561538,-11.961584150067512,192
-22.37478369431592,94.34392871674234,-50.25897059773073,96.9845103140846,23.02744525934461,74.41829109781494,54.24278130746518,-108.17221564489887,-106.99267030462198,2.245959558174409,0.0,0.0,0.0,-4.8874657034622055,-11.472659307394826,193
-17.59310058471138,97.0693760122521,-51.39777163509654,85.9845103140846,22.276992013077376,71.93235246985682,52.30077303083137,-109.71235859307089,-117.99267030462198,1.629134377659405,0.0,0.0,0.0,-5.014742523944727,-11.77735483407784,194
-14.983137524327377,99.65524668244795,-50.70602219967089,75.81691306246698,22.60602016667046,69.61864892900832,47.29839743835323,-111.92204976078402,-128.99267030462198,1.3603907172176322,0.0,0.0,0.0,-5.155713948541507,-12.00080082219933,195
-13.39162389636944,103.53699006163495,-51.04117298658662,65.72802858957134,30.421343714985163,68.3944689903422,41.29839743835323,-114.39192950514398,-117.99267030462198,2.0021669717757287,0.0,0.0,0.0,-4.547502262407166,-10.89924413829705,196
-12.758582615314992,105.8468451571938,-51.3309063128427,59.58818681996273,35.1747796772969,68.08185449756468,36.71917557762048,-116.77251249261217,-106.99267030462198,2.7622055451750844,0.0,0.0,0.0,-4.139285543695942,-10.186803672140853,197
-15.720406909480166,107.94425963530422,-54.01555124834518,61.086934607539966,42.10399913465452,71.04395849071193,32.61808298318577,-120.9973409439851,-95.99267030462198,3.2442716561875335,0.0,0.0,0.0,-3.336400543460173,-8.738493871024403,198
-19.619400295805907,109.04864259938616,-57.52877216493478,66.72849323833489,45.373875602200634,73.34916351342612,31.401614574670393,-124.5557206830097,-84.99267030462198,3.348992773871883,0.0,0.0,0.0,-2.7382854797244276,-7.817432667182171,199
-23.25861131643699,108.94184560492397,-58.17248495778719,69.53602189838475,49.59038294375465,77.2877205160008,29.130448458356426,-124.55328121689028,-73.99267030462198,3.248437100319788,0.0,0.0,0.0,-2.252959536656593,-7.846449123922532,200
-26.969267227596116,104.53694823967572,-58.505780931648566,75.27368681548234,51.10596784360939,81.71076242293603,30.568667447205144,-122.0582109602168,-62.99267030462198,2.5887429679727645,0.0,0.0,0.0,-0.9070982797373672,-8.929064327743994,201
-27.520634162607685,101.78114751045398,-58.88403492610732,78.30084044836504,50.68906976192041,83.27368243920225,31.992974209564565,-119.65122120052813,-51.99267030462198,2.0740784178233023,0.0,0.0,0.0,-0.16683627979012516,-9.617973715596875,202
-28.5632139697854,99.66220010552962,-60.12788689217094,83.77186490856796,50.31332260023635,84.84896353812748,33.857902523532765,-118.84437781242282,-40.99267030462198,1.6614767912997488,0.0,0.0,0.0,0.45374760757226756,-10.270523676209644,203
-28.13090595194487,97.6675969525508,-62.28072794839789,86.43822979002215,48.7493458483522,84.55309776652025,36.70511760634654,-118.45421273368865,-29.99267030462198,1.4179105443217248,0.0,0.0,0.0,0.7192490899480458,-10.237202071765802,204
-27.390995103789024,95.00970306706317,-63.51547022467435,89.42019272244376,45.844454439446885,82.821949098717,40.863697831754806,-116.75101971374548,-18.99267030462198,1.0616154118332675,0.0,0.0,0.0,0.8802730620019595,-10.050136170153376,205
-27.649749231861048,94.23661060629259,-63.25234924583396,91.72912433765715,45.47361956909192,83.23673134443604,41.08683392763271,-115.79363766921578,-7.992670304621981,0.8486083427171993,0.0,0.0,0.0,0.835115834243707,-9.918474678722923,206
-25.056451869481755,88.94877984000198,-64.58292899244982,93.84788226993616,39.7834575968719,81.67457119770734,46.41742463587302,-108.10995273426728,3.0073296953780186,0.6387621707267062,0.0,0.0,0.0,1.1798704340851267,-9.524423900433664,207
-24.121087611202743,84.02567840617814,-61.23164456106307,99.5720794240882,36.57162520198736,82.45791494352223,48.80123338390562,-104.84677233616695,-7.992670304621981,1.024733569635257,0.0,0.0,0.0,1.336812184609581,-9.78445935692806,208
-22.661034149522845,80.0117333376929,-60.48344869737218,105.34242721378165,34.36478780835771,83.77325014470476,51.82721490770783,-101.66329195619245,-18.99267030462198,1.6944906626801604,0.0,0.0,0.0,1.2173173369862853,-8.927202792920163,209
-24.69631593207592,76.66066975194515,-58.80941059163194,106.81968478210248,34.151013441461494,86.11570096962205,52.41534653383319,-95.15953491827366,-29.99267030462198,2.314451405537338,0.0,0.0,0.0,1.239744647928486,-7.737768711074975,210
-26.229886698874708,74.71282272474609,-57.97441611476262,109.70473138692012,32.951468856934014,86.01180024349932,54.53193419509855,-92.55368317194609,-40.99267030462198,2.6996151726448483,0.0,0.0,0.0,1.160502518976668,-7.104889840265749,211
-34.5405701276825,73.48239038529188,-52.65446276165198,105.95719062161498,35.20781141646694,87.64503314619837,53.26891400558016,-86.31801144213112,-51.99267030462198,2.9196615954527907,0.0,0.0,0.0,0.6933430414344235,-6.110583489655088,212
-45.20135359250759,72.72262296105217,-46.65446276165198,107.20413027961976,38.378309123833226,88.8691108975316,53.58718504921861,-84.65397658340285,-62.99267030462198,3.0021687936442056,0.0,0.0,0.0,0.2181955457481142,-6.036730008889278,213
-56.20135359250759,73.19768614090391,-40.65446276165198,111.63626839818127,46.739201686825304,88.97015555497832,49.76983404774343,-86.69797923670212,-73.99267030462198,2.863262987851657,0.0,0.0,0.0,-0.055477852103269824,-6.10229390543984,214
-67.20135359250759,74.37340593309752,-34.65446276165198,117.69421903810976,57.739201686825304,86.3101624659465,43.76983404774343,-94.08882520625812,-79.3533574674583,2.6122439133090287,0.0,0.0,0.0,-0.5178154420456271,-7.156878086064633,215
-76.3588466929532,77.95672075355431,-28.654462761651978,120.82225093740482,62.75476177238339,85.26508143355068,38.68138470353658,-98.81638375916124,-68.3533574674583,2.6210428977980325,0.0,0.0,0.0,-0.9587981145608427,-7.873703335149221,216
-72.73170253244196,79.32479848667712,-22.654462761651978,131.36518158149116,73.21445634527821,80.83003133562731,32.68138470353658,-109.81638375916124,-57.353357467458295,2.5710119258295916,0.0,0.0,0.0,-1.8612486467844531,-10.574968802875818,217
-64.04652631828252,77.74414353535852,-16.654462761651978,135.79790365920994,77.09439545408819,75.94951352448489,26.68138470353658,-120.23430468487065,-46.353357467458295,2.3660364809716774,0.0,0.0,0.0,-2.8938166609755074,-12.85777109123702,218
-53.719174739405716,75.6914945574828,-10.654462761651978,135.1908781768546,73.51835573749973,73.80776955969947,20.68138470353658,-128.02519978290402,-35.353357467458295,1.9482486786874946,0.0,0.0,0.0,-3.7420866470941165,-14.232324473721308,219
-47.218553861799364,73.07269370222629,-16.654462761651978,131.71208568730407,68.10656883474121,71.19106623382956,14.68138470353658,-133.2966071436952,-24.353357467458295,1.3600458665881945,0.0,0.0,0.0,-4.743362146803849,-14.706082181364561,220
-47.03859604223166,73.14339873464377,-22.654462761651978,129.41157065709896,64.73576625198811,72.52181156047016,8.68138470353658,-136.06365579928507,-13.353357467458295,1.3554189351417167,0.0,0.0,0.0,-5.023895547794536,-14.973407304959737,221
-50.307979049017206,78.38382034303966,-28.654462761651978,123.49744663125065,67.42724922212115,76.31525368466822,10.28333070465297,-136.41292266765603,-2.353357467458295,2.1084295532631536,0.0,0.0,0.0,-6.406721428384958,-14.438129483696573,222
-49.18189213112275,82.31966589265346,-34.65446276165198,112.49744663125065,72.40559664636547,77.618307757994,14.311388075017884,-132.23399676579297,8.646642532541705,3.8364988923599426,0.0,0.0,0.0,-8.167487803763434,-14.679241190363133,223
-48.065560653869866,85.36843927306936,-39.11721501434142,101.49744663125065,74.97448304151638,78.14941572741647,13.594263505226516,-127.2517128171295,19.646642532541705,5.337445601937909,0.0,0.0,0.0,-10.149133327133404,-15.405451251917292,224
-49.399906708521634,87.7456589752877,-40.870576490802016,90.49744663125065,82.65489769034983,77.09189217192223,9.720730723023184,-128.4737905621258,30.646642532541705,7.020059269651446,0.0,0.0,0.0,-11.792032049701461,-16.06987770072613,225
-51.625713414521826,88.25096369424011,-40.218136564323835,86.29436795890605,86.3392562546621,73.83529647082194,10.059867248474491,-129.20057500383328,41.646642532541705,7.86610483507263,0.0,0.0,0.0,-12.705627776529179,-15.949197267966861,226
-54.46458539415554,89.667330264833,-39.33436247724151,75.29436795890605,89.06402922188653,72.82207182002115,12.479633733316344,-121.70167264553908,52.646642532541705,8.768900761344122,0.0,0.0,0.0,-13.326781359342162,-16.889386730010784,227
-56.374368320941834,92.47973430126365,-36.92151851611262,64.29436795890605,93.57532073681844,72.75379723816812,7.890196553813689,-115.01586168445625,63.646642532541705,9.591860807293417,0.0,0.0,0.0,-13.772003814201147,-17.696933776370628,228
-58.24088899400959,95.05093464745492,-37.8393780153419,53.29436795890605,92.72515937587917,72.00167857133526,6.657388665308456,-104.92991093251707,67.05370539120382,9.515510060490003,0.0,0.0,0.0,-13.356250988468757,-18.13395412087666,229
-60.65680149897479,95.58652903005687,-37.315080200628884,47.258400451323176,90.70893716298836,72.17130154045256,5.645191620206231,-98.51865516839415,62.01724155391519,9.451725025113532,0.0,0.0,0.0,-11.612932805404846,-18.434618894086306,230
-61.87081638973479,95.63324897496632,-38.62669139251206,50.861466895479154,89.8335919975719,74.06958044637385,3.220230177914876,-95.03328170800498,59.34997086804559,9.468117039139836,0.0,0.0,0.0,-10.388157243980249,-18.501439328234245,231
-64.92885757042693,92.78823237319371,-35.168948613128514,59.08764498773714,92.59390390986376,71.4192119801594,-2.779769822085124,-89.32986484400921,57.829147537881184,8.698981776791817,0.0,0.0,0.0,-8.317192368415654,-16.080762499295954,232
-64.01204277031303,89.91166619388649,-33.68586319514901,67.99661787031039,90.2905193043528,69.02852206448671,-8.779769822085123,-86.5702845415166,55.40087252743398,8.064744611386283,0.0,0.0,0.0,-6.226683321813006,-15.280543441526174,233
-64.99360541303137,87.3739422180273,-29.425589027527106,77.93295807705489,89.16910101223499,69.2189081508404,-14.779769822085123,-90.31842985530358,56.04383126203845,7.419020333922914,0.0,0.0,0.0,-4.538639672708588,-13.925856190385176,234
-63.88931916939696,85.02966335951726,-27.00975600189444,85.65754701957773,86.46384791353616,69.42118121461026,-16.87857597806264,-94.04247906031566,55.22513593557761,6.5375843122460084,0.0,0.0,0.0,-3.265206391358065,-13.370837391864216,235
-62.56758633230547,84.94040895060287,-27.161351091267377,86.09701375083068,83.89198662031588,69.62411953602091,-13.542454223815524,-93.82812191101786,53.87273084936882,6.097531692968196,0.0,0.0,0.0,-3.0527798385978735,-13.324809478997238,236
-61.584672211086136,83.41913171963787,-22.030812026310624,94.96276877176489,81.80112799771416,68.93981003756576,-16.79777951920991,-99.73755557712921,55.56135692960628,5.22464635287326,0.0,0.0,0.0,-1.9314707166538603,-12.865742869156561,237
-59.29832512324631,81.72924932630922,-21.950077926838247,100.44981896976005,77.05564046573993,69.33495585173893,-15.063566333109627,-104.61395732948243,57.78484888176584,4.250597558897561,0.0,0.0,0.0,-1.1320041506063891,-12.214723105724383,238
-60.491306320251105,81.69358184085084,-19.80514319493329,107.29805631547508,74.47177973484139,70.46680679071049,-11.824590403671762,-109.01611423174639,63.29457296699207,3.46991449930564,0.0,0.0,0.0,-0.6108267529512587,-11.00982336125298,239
-59.578531412639414,80.54200624933564,-15.988530416577156,112.83211262142814,71.45329907199608,73.03791778739956,-9.826611032646339,-112.98636580065578,69.72812094971779,2.8874729057286963,0.0,0.0,0.0,-0.31027682591936623,-10.326273868856475,240
-59.3467615385263,81.3440435269579,-13.31390324096994,114.79664373885498,70.09502520854298,74.61183562800788,-7.948313745159831,-113.90536162688893,75.51201340658596,2.4853533820085802,0.0,0.0,0.0,-0.36382423749091286,-9.80829097216336,241
-58.7492641127105,78.7667406086381,-7.313903240969941,121.00921162200765,69.7644187496608,76.37765175334093,-6.652976948847835,-117.95107536998687,85.64069383585331,2.2296144952924264,0.0,0.0,0.0,-0.12731260058548272,-9.264921790324017,242
-58.044277574955466,76.18698290040321,-1.3139032409699407,126.81062879128645,72.20280592285312,77.7461134654453,-9.092614076642606,-123.15101445304397,96.64069383585331,1.9715620061959729,0.0,0.0,0.0,-0.3009484545120202,-7.815649708063407,243
-58.6529034988306,74.48136187977943,4.686096759030059,131.84957116204853,76.411708738229,79.48802567949564,-10.551709814575656,-127.36506223353489,107.64069383585331,1.806214940751925,0.0,0.0,0.0,-0.70550662121425,-7.05213806103407,244
-58.792136176399254,75.65884019435335,9.392842813426878,135.10762455606533,79.10724228699834,82.28465296647786,-10.553972838572427,-129.28235623029974,118.64069383585331,1.6695220136123068,0.0,0.0,0.0,-0.976767081301393,-7.741489767328224,245
-59.58346944194512,75.62771470526943,10.91724843282435,136.30148935635884,80.03922242026682,82.8527562794174,-9.486925693245524,-129.57708564413673,125.11156786240329,1.6535950863679019,0.0,0.0,0.0,-1.2166758930797072,-8.372001202623613,246
-57.95870061149805,76.72968420798777,4.9172484328243495,134.2516546010165,74.25184759607458,85.11652314350768,-3.4869256932455244,-131.16161748075285,124.05240631916129,1.6141833053967611,0.0,0.0,0.0,-2.116881609283387,-11.546709704892672,247
-57.54454133890412,79.47340711465934,-1.0827515671756505,127.47699586727272,70.1905744547993,86.2887033485541,2.5130743067544756,-128.07438211600876,113.41575086821143,2.0246945063648005,0.0,0.0,0.0,-3.6268880338489624,-14.066437600920228,248
-59.335528945899746,78.48184103814182,-7.0827515671756505,124.39389416799631,71.981895361729,84.05196929549366,8.513074306754476,-127.84941897476838,102.41575086821143,3.0684413575540446,0.0,0.0,0.0,-5.381582887599208,-15.88245456418963,249
-60.48022859363633,81.91407028380635,-13.08275156717565,120.65645964518383,72.4576412289553,84.44407209616035,14.513074306754476,-126.62358323775912,94.94078851079648,4.096112273871045,0.0,0.0,0.0,-6.983997112238435,-17.308743145365213,250
-60.46644537796077,82.41368708044797,-19.08275156717565,119.8411674511392,73.08386958978647,84.51021503226096,20.513074306754476,-127.109211405115,90.96506040414052,5.067571023347361,0.0,0.0,0.0,-7.820500005235338,-17.759550761207436,251
-62.35275732181089,79.81938445175757,-25.08275156717565,110.91385155722547,83.12116591609382,75.99780766191373,14.513074306754476,-128.5666365350519,87.31687555964174,6.879651075988412,0.0,0.0,0.0,-9.490109785512127,-18.814698209915516,252
-61.986516126208485,81.24549162336318,-27.914220909001855,99.91385155722547,87.15241704650107,70.30199226111553,8.513074306754476,-126.49616615586687,81.7537947840341,8.331775528964219,0.0,0.0,0.0,-11.27856861151936,-20.433291664852494,253
-61.779490845434985,84.78464051039306,-30.981459809492996,88.91385155722547,86.48638777589906,70.69522069549674,5.883593737976745,-124.41400683983117,76.12685137370183,9.607779030633509,0.0,0.0,0.0,-12.576274760386335,-21.70335921595499,254
-61.283195955533245,87.74557901628332,-33.78580020141976,77.91385155722547,88.73417024038142,68.48530251789757,3.953128101555214,-120.34064243461579,72.2044529087762,10.511511367036572,0.0,0.0,0.0,-13.526611503906711,-21.37123329296344,255
-62.52269031875161,89.74308589323469,-34.5646682724846,66.91385155722547,90.66117281893223,66.31166828312446,1.2771512278158736,-119.07051296963809,69.68019807909532,10.91098444827181,0.0,0.0,0.0,-13.808550842193032,-20.4972544412644,256
-62.25006880984151,92.11846049470294,-33.2806455086999,55.91385155722547,91.74752180601432,65.91738604933562,-3.183627448919054,-108.07051296963809,65.14813047399073,10.526923557264404,0.0,0.0,0.0,-12.756142553315408,-19.20260951489009,257
-63.68398296700884,93.13942824654217,-32.48419028397574,49.71577663914091,90.45833954490881,65.26799447515921,-7.261980874538357,-97.07051296963809,60.81440875849833,10.031443596918557,0.0,0.0,0.0,-11.12782568247005,-18.010359258619985,258
-64.66126980804115,91.96868769536454,-33.77320459234959,54.13480763144773,89.3980519066714,64.4749363213463,-11.46213466671428,-87.27852502551877,57.38965332265823,9.507697933895276,0.0,0.0,0.0,-9.310554535884185,-16.673750075005664,259
-67.9903883255373,89.73908722452369,-30.57268589223972,64.88366377338588,88.31210220000526,66.28356554156208,-12.639270271408659,-91.03302428841383,55.62739615512627,8.97805051265249,0.0,0.0,0.0,-6.868292253601668,-14.886098725681768,260
-68.73843653695783,88.33566622293202,-31.152804398579622,68.43825674043023,86.96651293221095,67.24410915583864,-9.771968669088691,-92.14877586456201,53.7065001832445,8.461933617816454,0.0,0.0,0.0,-5.696000477761191,-14.097158241752773,261
-69.44758553118628,85.08000957377658,-25.152804398579622,79.43825674043023,84.63727839306608,67.85994266794609,-9.855506138659843,-99.31155914459612,53.10891620897638,7.372121459695531,0.0,0.0,0.0,-3.0920863209778613,-12.074961959813141,262
-67.9219674273987,81.47789304119516,-19.152804398579622,90.43825674043023,83.1913661766807,66.66017127515038,-10.5972777879061,-104.52301531869931,54.265908759774504,6.382699142405006,0.0,0.0,0.0,-1.6192463121461385,-10.514220351651469,263
-64.1320603315946,81.23161844847682,-13.536335678648701,101.43825674043023,81.45335524386486,65.82330818538205,-6.335348615929864,-104.4898568760474,54.247461567036105,5.3164214028972685,0.0,0.0,0.0,-0.08948832006607577,-9.48711758002781,264
-58.97268219488217,79.5445622992489,-9.159060105800808,112.43825674043023,78.05493651116446,65.77692263911183,-7.985758228796147,-107.25349037792486,57.42291437266647,4.262762559018611,0.0,0.0,0.0,0.5862688851813117,-8.887363971889288,265
-56.19612386307712,79.66797730018199,-9.156353903308315,120.24065738427666,75.78942495116561,65.84657906017097,-7.850102843463989,-107.665093314723,57.9140965114838,3.639306197141905,0.0,0.0,0.0,0.4860182017943341,-8.597191234244226,266
-51.459093665895715,77.5268060413774,-6.84387114498754,118.0119847726815,64.78942495116561,68.59713593932041,-5.2436751740308525,-111.48163601822107,61.13322885646053,3.0465840228426853,0.0,0.0,0.0,0.5849411125754885,-8.535915662474899,267
-49.90003842644186,79.57433868057034,-5.290805615587177,118.05154866121782,59.2463391076069,73.46695231717885,-3.3701020264658936,-116.10172517798789,63.98051734062456,2.2806942281857476,0.0,0.0,0.0,0.45465090599378644,-8.469401434389692,268
-50.707891566203465,80.24485725558283,-9.396036689025214,117.93953087427182,58.145502841256885,77.85857376313115,2.2224884818553323,-118.20828754566021,62.63167855173076,1.5586929564346215,0.0,0.0,0.0,0.21080325330752006,-8.27115793988776,269
-51.99404029410517,82.57183471453284,-15.064710138734398,116.7627304708148,57.12446360239265,81.28185832392673,8.222488481855333,-117.78699498722357,51.63167855173076,0.8851507223889563,0.0,0.0,0.0,-0.11320460774051791,-8.427795847572124,270
-51.93585901283806,83.1077013144933,-18.56636050922795,115.92925820620992,58.071220802367016,82.34826809868296,12.116549660766749,-117.33146866057427,40.63167855173076,0.7422936714352075,0.0,0.0,0.0,-0.4668368190830744,-8.475654333455596,271
-53.93738166759648,89.13956264856081,-24.56636050922795,114.22096393728094,57.93430527251991,88.06400341861293,18.11654966076675,-116.07993292610199,29.631678551730758,1.236820093768523,0.0,0.0,0.0,-0.7668874527610938,-7.82999223963852,272
-58.14481163793901,91.6191660435023,-30.56636050922795,107.9011026901946,59.886689592085546,92.76072196514959,24.11654966076675,-109.25413531783396,18.631678551730758,2.2060860333030887,0.0,0.0,0.0,-0.6513117824286068,-8.829235291996365,273
-60.365298833102614,91.03829201669217,-36.56636050922795,113.13218215437371,60.70637857713645,93.13775667623518,30.11654966076675,-115.18650458675873,7.631678551730758,2.8067741501421755,0.0,0.0,0.0,-0.6682907696105028,-8.583543682413527,274
-59.873236529488295,87.06387446463151,-38.84872945181292,116.60286748613336,61.61718944498015,88.58766066749504,36.11654966076675,-120.60310613717368,-3.368321448269242,3.0825031770866547,0.0,0.0,0.0,-0.4570440469017126,-8.715774323390686,275
-60.78318629881524,87.6882002013097,-36.206966755813475,119.26245714447451,63.650838376276376,88.92004857659886,34.778507983444726,-124.1575648183368,-14.368321448269242,3.4304763526648796,0.0,0.0,0.0,-0.22685623995976703,-9.113538949200375,276
-61.23094897173175,81.21669751237687,-30.206966755813475,117.43662824313613,62.46597800883299,83.73776281601639,28.778507983444726,-125.39061594678829,-25.368321448269242,3.2335052827399315,0.0,0.0,0.0,0.8157122117986741,-10.13677897651005,277
-63.01240508605963,78.582384773548,-24.206966755813475,117.42787483135194,58.48465386896767,79.43219397028714,22.778507983444726,-126.53311616088017,-36.36832144826924,3.701668057275,0.0,0.0,0.0,2.1651228568347887,-12.032009334986506,278
-63.97179039925328,76.06807401538072,-20.096657849789107,117.29955857568446,56.90194559465019,74.06530632173677,16.778507983444726,-123.62684197226753,-47.36832144826924,4.596054893737559,0.0,0.0,0.0,3.3500702855009026,-13.059513345153825,279
-66.44469675870157,74.95287406402903,-21.13804658990024,121.61434089104533,58.08896981602252,70.9054838199293,13.237137253881144,-123.56617483583256,-58.36832144826924,5.638262360547962,0.0,0.0,0.0,4.853096515697877,-13.880300085167676,280
-66.81643669082112,76.19741561252637,-23.498850057328298,124.24985276750027,59.64128867978658,69.64658872681683,10.659971554899522,-123.91748306497736,-69.36832144826924,6.409597864554625,0.0,0.0,0.0,5.467871087766546,-14.086471878105893,281
-76.4099661714687,73.51337232295316,-18.49257417467196,126.04146606633512,62.73331905182038,69.92409618392686,12.670707350367204,-121.43107283680133,-74.08349249400837,7.635025183345294,0.0,0.0,0.0,7.040232112454857,-14.983334034238379,282
-83.76823755901397,71.83627383137231,-14.057054901193167,127.17218713591011,67.33107616774024,72.85671112204069,14.313689953805135,-115.61062641652833,-73.49392232242494,8.926122270170552,0.0,0.0,0.0,8.581883546184127,-15.163704519366728,283
-93.61341728961519,69.24039460644491,-8.057054901193167,124.56595259234717,70.05513558472818,73.60948271165546,14.76794186729796,-108.77761196303483,-71.94428747126679,9.974643990817873,0.0,0.0,0.0,9.201882957860875,-14.903901343213514,284
-99.88781746495258,68.75945433489505,-2.057054901193167,116.21123327156337,70.2964858637712,77.148109359063,18.510492552338803,-101.80566459754831,-69.27423110255755,10.37594336904348,0.0,0.0,0.0,9.174989696839495,-14.424709229089343,285
-103.21341103308343,68.65911808795688,3.2724037299941022,112.51259067780111,71.61597612880273,79.1809884655464,20.518254699004608,-99.72650714348948,-67.72791364335627,10.745289396164665,0.0,0.0,0.0,9.135341943028711,-14.028830115780773,286
-98.17115903954327,71.62128324577127,3.3844735311230103,101.58257915043573,71.06470749636227,82.855125703982,24.795070022336173,-88.72650714348948,-63.40655387223181,10.624457106921435,0.0,0.0,0.0,7.335287653118554,-14.043086873764821,287
-95.23840642510444,74.39148083875524,4.557568673328818,93.67544336238996,71.36308013643583,85.82516263097453,25.141933680566108,-77.72650714348948,-60.622000015200676,10.831858556683562,0.0,0.0,0.0,5.410047871228497,-13.794010160881683,288
-91.91252913175713,77.50566730241543,6.251252407005463,93.7009542405731,71.4420573158678,87.42319469358736,27.615008791585886,-73.69309699184033,-58.995914584514374,10.598161655215314,0.0,0.0,0.0,3.546120364356541,-13.382483002272442,289
-89.690800744975,77.02874792770072,4.981788399134109,96.97497243700845,71.09367998046926,88.27526356271358,29.566597766386366,-76.70994443368895,-58.80491569571537,10.305443872971797,0.0,0.0,0.0,2.082897121205258,-12.45857892501876,290
-88.56595470931107,76.1100786885739,3.183036331259554,96.87491761580392,69.65077451701687,88.26379646644052,32.79244770764412,-76.49442402883857,-58.48473338985101,10.058313040375037,0.0,0.0,0.0,1.3818994825071749,-11.944914668791059,291
-87.78899291116723,75.64186167369203,5.128553454232357,101.39647518970119,66.87913030706865,88.7738442173779,34.324978422704575,-80.17618511745809,-60.51831004230126,9.716779783130008,0.0,0.0,0.0,0.4187872141772742,-10.96721568455602,292
-86.66713658261251,74.79326109243979,3.627999169966022,104.48137357704339,65.12888197293758,90.10667719569656,38.66110023965418,-82.93387827688659,-63.584501843982395,9.091388825728087,0.0,0.0,0.0,-0.20501374164288014,-9.674165988619063,293
-84.18254422129642,74.53021546855857,4.880829151051689,107.41697639662384,62.306028062285144,91.00728582807504,42.1906255295238,-82.99206529381902,-66.42886368612584,8.61601254004842,0.0,0.0,0.0,-0.681681840820347,-9.162293466546162,294
-79.88741939650623,72.14050020579927,5.72032383624134,112.4492851543855,61.391475110958766,90.79351137034648,45.732878718291545,-86.21601470225015,-69.8627768401272,7.814365374898907,0.0,0.0,0.0,-1.3488292022754456,-8.71891498238294,295
-77.23809098630136,70.97931426159425,3.822751541820598,113.7486167848556,60.680334376746615,91.58606104709683,46.34460152201762,-86.33043460901712,-71.3142111970017,7.492522269918958,0.0,0.0,0.0,-1.4956449651504724,-8.60699475896753,296
-73.232831113426,71.52367212652443,4.622688049270467,117.72197839867513,61.07915617098798,90.25158728919922,44.4560394755532,-91.0054821689953,-73.99452963945626,7.0211244349898205,0.0,0.0,0.0,-2.046140698842098,-8.705670928364391,297
-67.18824826067659,75.09198268511774,1.4240005380549219,121.65174311123138,62.07106485803914,88.98424840596084,40.05285353404808,-96.52334564380868,-75.90895207648337,6.201811389234202,0.0,0.0,0.0,-2.6547146097371663,-8.527431670893128,298
-63.671312999488755,77.21760219235786,-4.281340554368385,125.518281104234,63.24342625020207,87.3878606266743,35.18729701447959,-104.5165046935014,-79.5645325680809,5.557069248058354,0.0,0.0,0.0,-3.1223743704415394,-8.065135918385685,299
-65.04638057095306,74.73027832368479,-4.827181362901674,129.69688363993072,63.61206642374758,83.11456093867396,29.77041974276351,-113.31012300808504,-84.31266314966216,5.080817369467876,0.0,0.0,0.0,-3.1579153728404967,-7.158467208014399,300
-64.65980599243571,74.61749669722032,-4.856210763463734,131.7328243752212,64.30714371192634,81.85072951383057,25.556073484571165,-117.53843517013121,-87.37061232896517,4.824982775759663,0.0,0.0,0.0,-2.998949015514191,-6.923691258070762,301
-55.85196469592916,75.45489575190679,-10.856210763463734,131.74931599170407,60.50935620593954,78.28466781473833,19.556073484571165,-124.70206712991472,-85.94962285005334,4.146127541115325,0.0,0.0,0.0,-2.9335777157264484,-8.531398305640476,302
-47.992820171804176,77.54283211463623,-16.856210763463736,128.01308026953615,51.93302809918597,74.85798739999248,14.722701343922067,-132.32585561495765,-83.98040439426124,3.495153544983954,0.0,0.0,0.0,-2.7709633476101403,-11.104516817775297,303
-41.81611554014101,76.44561772557576,-22.856210763463736,120.12609683981991,44.43542459541127,71.25656677424175,12.96823493098233,-132.84553511246884,-82.78358835456598,3.006088314426474,0.0,0.0,0.0,-2.094865023224331,-13.370077886096695,304
-36.07127833667549,73.31431420665449,-28.856210763463736,115.37522609626424,38.05364631395241,67.05078780423993,14.375689769523216,-130.56870465296078,-84.22288669273297,2.9785919933276523,0.0,0.0,0.0,-0.9073506500982657,-15.026383542960007,305
-31.580550399633808,70.97286708597994,-34.856210763463736,112.96391809975991,36.415174734316416,67.54997440737176,14.155873950926262,-128.37844516108572,-83.45388499496914,3.0105014730156925,0.0,0.0,0.0,-0.3188944726328506,-15.704968946619964,306
-30.855857917468516,75.64844570512982,-40.856210763463736,106.6433430312949,33.807560542348824,71.68865258437303,20.155873950926264,-118.59060736789363,-73.24586938388877,3.556545108638471,0.0,0.0,0.0,0.9215801057801433,-19.448461136575002,307
-35.44105786887998,72.49173646293956,-46.856210763463736,99.46888598983391,35.27078721981946,72.85225653300692,26.155873950926264,-107.59060736789363,-75.6378845059686,4.169304581484214,0.0,0.0,0.0,2.5646483481855467,-20.410600638773193,308
-40.762521033916826,68.8327610486373,-52.856210763463736,92.39332230577415,36.72910276625477,75.5384275922774,32.155873950926264,-96.59060736789363,-74.47372248584455,5.043181594996364,0.0,0.0,0.0,4.389246368178126,-21.253632702167323,309
-45.11181744816296,67.31388701198823,-58.856210763463736,83.56907611416834,38.41516553149348,79.78121505072413,38.155873950926264,-85.59060736789363,-72.28310813342743,5.936743006958757,0.0,0.0,0.0,6.019026644112196,-21.67529560978231,310
-49.403808450229555,66.1701853847041,-57.51558030482193,82.58967087184547,39.72144724545676,82.64049653090987,44.155873950926264,-74.59060736789363,-72.16042625597002,6.659576680599869,0.0,0.0,0.0,6.808320068263852,-20.431546808771632,311
-60.403808450229555,58.43229327326391,-51.51558030482193,74.22335083071047,42.16813762982846,86.66550271437707,46.3000665195709,-63.590607367893625,-72.19219198973495,7.593644040507079,0.0,0.0,0.0,7.916519542087008,-19.15617897057977,312
-71.40380845022955,59.21075129580315,-45.51558030482193,69.46266111844713,46.12259670365214,90.70261197975474,44.05482548183959,-52.590607367893625,-70.86946883642761,8.622078586297695,0.0,0.0,0.0,8.567095305400073,-17.488123724139413,313
-81.618954164898,62.843885955112086,-39.51558030482193,72.87942028064256,50.49497103717321,94.2900995475801,40.41026131505598,-41.590607367893625,-67.21227757705121,9.731521810793222,0.0,0.0,0.0,8.115897028591279,-15.96996233374789,314
-86.40148613641246,67.5534722355423,-33.51558030482193,83.77145580296153,55.5915867615563,95.92566665377211,37.565883996382254,-41.40848011193657,-65.25062202604434,10.367858416539049,0.0,0.0,0.0,6.840951776928861,-14.395444753503636,315
-88.14390002770214,68.82064544037125,-27.51558030482193,89.21086951392176,57.2777956897268,96.61009083855384,38.44394179493474,-42.74691620567014,-63.75801899211724,10.713589798743932,0.0,0.0,0.0,6.22996638374232,-13.45779825430773,316
-89.01949540306666,70.90512779392435,-21.51558030482193,100.21086951392176,60.92104517623653,94.00133133762505,41.16309071636116,-53.74691620567014,-63.29049413920708,10.607341048878965,0.0,0.0,0.0,3.9930476163131816,-12.040256829948943,317
-86.50790617322768,71.56026368393304,-15.515580304821931,111.21086951392176,61.59305046710174,92.6344955060484,41.44577979184268,-64.74691620567015,-62.92892470639328,10.28809005848409,0.0,0.0,0.0,2.1089027623252834,-10.907847805837111,318
-86.16529812378552,72.53017210014578,-9.515580304821931,117.95621221278216,60.14544354561423,92.2599702162647,44.201998688253425,-75.74691620567015,-63.39347839537626,9.70372988634509,0.0,0.0,0.0,0.43329911307920616,-9.539478353559664,319
-84.18077736961087,74.9721582982772,-3.515580304821931,117.53505995727332,60.01624120268337,93.61643202354318,46.863327081809985,-85.86149204187042,-63.988381601866614,9.041707369941768,0.0,0.0,0.0,-0.9512880271028292,-8.412696184855536,320
-83.29085691593033,77.18969947139497,2.484419695178069,116.85509347649018,60.20668745389673,94.81789913485028,48.04144739190752,-85.68365015260548,-64.45216074043019,8.541642446868297,0.0,0.0,0.0,-1.5079174100999546,-7.703422272344556,321
-72.94244301900319,73.73453258799279,6.129322372219949,122.47027986160172,59.04390395852451,92.51319241735318,47.28423400310606,-91.90739301848012,-67.6767904905572,7.45292965270422,0.0,0.0,0.0,-1.9601847324707136,-7.305529868835833,322
-83.94244301900319,71.15573859181384,2.2803691174836285,120.40355075878543,70.04390395852451,81.51319241735318,41.28423400310606,-100.15424349624223,-74.4889930402327,5.875199652058532,0.0,0.0,0.0,-2.9136929541311205,-7.9249679083120625,323
-94.94244301900319,73.50261456659894,5.823622824218497,115.47388302510848,81.04390395852451,70.51319241735318,35.28423400310606,-97.63291757141408,-77.62861185391363,4.482184983554359,0.0,0.0,0.0,-2.9754203521094844,-8.559257291915197,324
-100.9160489826866,77.29882370248397,8.13287679813053,116.28506378121361,92.04390395852451,70.25670647229455,29.284234003106057,-96.6386132198419,-72.23720591176274,3.1403234615069704,0.0,0.0,0.0,-2.565386642678725,-8.183889566319888,325
-103.05035394561807,83.3573030194243,11.913033461196694,119.31059121367984,103.04390395852451,76.4065894469289,23.284234003106057,-101.70376193105491,-61.23720591176274,3.1841764933910297,0.0,0.0,0.0,-2.340064505799272,-7.991653444063261,326
-92.05035394561807,75.58987510638384,17.913033461196694,128.45095730735932,95.33925001656928,77.62204724094535,17.284234003106057,-112.70376193105491,-50.23720591176274,3.0106901617343826,0.0,0.0,0.0,-3.2430336474803223,-11.991653444063262,327
-81.05035394561807,64.58987510638384,23.913033461196694,137.81557007156917,84.33925001656928,69.56301266097253,11.284234003106057,-123.70376193105491,-39.23720591176274,3.02789405028384,0.0,0.0,0.0,-3.6612367682747133,-15.935829408712017,328
-70.05035394561807,53.58987510638384,27.57176799185985,136.2494183538878,73.33925001656928,58.56301266097253,5.284234003106057,-134.7037619310549,-36.26829824797006,2.5385773075229636,0.0,0.0,0.0,-3.8343809497102495,-17.20524985032041,329
-59.05035394561807,42.58987510638384,23.37268183528357,135.00329809076908,62.33925001656928,57.482739986471785,-0.7157659968939427,-139.9048237092518,-36.152419241749804,2.35500980256691,0.0,0.0,0.0,-4.23923993231905,-18.545601935757904,330
-48.05035394561807,31.589875106383843,17.37268183528357,128.62422510903562,51.33925001656928,46.482739986471785,-6.715765996893943,-138.26097309244187,-42.63420563283049,1.7859512196468523,0.0,0.0,0.0,-4.259953598346718,-18.888708027935504,331
-37.05035394561807,20.589875106383843,11.372681835283569,117.62422510903562,40.33925001656928,35.482739986471785,-0.7157659968939427,-127.26097309244187,-53.63420563283049,1.1307626537731073,0.0,0.0,0.0,-3.611702501856588,-15.948459354325786,332
-26.05035394561807,20.580143934837505,5.372681835283569,106.62422510903562,29.33925001656928,24.482739986471785,5.284234003106057,-116.26097309244187,-64.63420563283049,1.2504471134058681,0.0,0.0,0.0,-2.591926442670535,-11.948459354325784,333
-15.05035394561807,30.77653488500185,-0.6273181647164314,95.62422510903562,18.33925001656928,25.214543716798207,11.284234003106057,-105.26097309244187,-75.63420563283049,2.034400107710573,0.0,0.0,0.0,-2.0379000920020496,-9.058051670756344,334
-4.05035394561807,34.06307195342116,-6.627318164716431,84.62422510903562,7.339250016569281,28.544569060065417,17.284234003106057,-94.26097309244187,-86.63420563283049,2.257040710123983,0.0,0.0,0.0,-1.727529455968588,-8.544768096024205,335
6.94964605438193,39.223323817687856,-12.627318164716431,73.62422510903562,-3.660749983430719,34.337944474901,23.284234003106057,-83.26097309244187,-97.63420563283049,2.877310334665239,0.0,0.0,0.0,-1.1247693574627429,-6.278135990949037,336
17.94964605438193,45.84316994169075,-18.62731816471643,62.62422510903562,-14.66074998343072,40.496496509705935,29.284234003106057,-72.26097309244187,-108.63420563283049,2.962375090579674,0.0,0.0,0.0,-0.25622483815040714,-5.39136567760305,337
28.94964605438193,51.07884722243354,-24.62731816471643,51.62422510903562,-25.66074998343072,46.88104003309975,35.28423400310606,-61.26097309244187,-119.63420563283049,2.830510244999688,0.0,0.0,0.0,0.6611942560467731,-5.923936622933481,338
39.94964605438193,55.26908183092934,-30.62731816471643,40.62422510903562,-36.66074998343072,50.533568375023194,41.28423400310606,-50.26097309244187,-130.6342056328305,2.5724145526721336,0.0,0.0,0.0,1.2617812617753046,-8.018018308544223,339
50.94964605438193,55.5026636582816,-36.62731816471643,29.62422510903562,-47.66074998343072,50.15120804708898,47.28423400310606,-39.26097309244187,-141.6342056328305,2.6264314488281713,0.0,0.0,0.0,1.4856774862383928,-8.739100556106157,340
61.94964605438193,55.06857661875967,-42.62731816471643,28.29882286208985,-58.66074998343072,49.48322858785774,53.28423400310606,-28.298822862089736,-152.6342056328305,2.5706477777724412,0.0,0.0,0.0,1.6311600512368478,-10.116257248088491,341
72.94964605438193,53.54231853310632,-48.62731816471643,28.298822862089594,-69.66074998343072,47.23233369408993,59.28423400310606,-28.29882286208971,-163.6342056328305,2.78446818621948,0.0,0.0,0.0,1.691920500134922,-11.610886027324392,342
83.94964605438193,51.12515866951611,-54.62731816471643,28.29882286208985,-80.66074998343072,44.55543546775918,65.28423400310606,-28.617452833032825,-171.11607516942985,2.867236972555213,0.0,0.0,0.0,1.5131926077870537,-12.90934993294415,343
85.52738160434389,48.70567923186211,-60.62731816471643,28.298822862089825,-85.00798150981964,41.65919840126378,71.28423400310606,-30.32688685022729,-167.58206704085066,2.875564851838256,0.0,0.0,0.0,1.3691368563193091,-13.427535676657879,344
85.69276613694345,47.81024110758577,-66.62731816471643,28.298822862089594,-84.81385241609155,41.49077256795624,77.28423400310606,-30.411345131395354,-166.698033881272,2.838391065579705,0.0,0.0,0.0,1.1818487214760436,-13.403433226564974,345
85.31261957701449,46.96977493504784,-72.62731816471643,28.29882286208972,-82.58606032954424,41.4506218221614,83.28423400310606,-30.44186179403664,-167.41843849597723,2.8546594447238833,0.0,0.0,0.0,1.013260621202869,-12.951742015657144,346
83.94849553906192,45.44723956008996,-78.62731816471643,28.298822862089594,-80.94385230800401,41.26328997574871,89.28423400310606,-30.559479046831036,-167.27076786372498,3.0567009172798505,0.0,0.0,0.0,0.31023347242948746,-10.819507737137886,347
82.41805111332734,43.99839440153653,-84.62731816471643,28.29882286208957,-79.19622439445726,40.696073863553174,93.23642761434658,-31.15872206923133,-168.1533708786402,3.4587898561745924,0.0,0.0,0.0,-0.3901684673126789,-8.164857958890936,348
81.56281894300402,42.166828025450805,-90.00743504124127,28.298822862089594,-76.97122786137017,39.29269874454409,90.40167947986377,-32.706288314432534,-168.95694443144362,3.7320687817381093,0.0,0.0,0.0,-1.0266782661407161,-6.166427925968554,349
80.3410947221994,41.770121967895754,-89.68717370631596,28.298822862089594,-74.34232009420424,39.30497338038634,86.856128304056,-33.527167671249664,-168.96754474688333,3.8029266487935227,0.0,0.0,0.0,-1.3761057540558566,-5.350964057075652,350
79.11243727719375,39.5288463677508,-88.73067395304437,30.08754983584378,-73.12277468135548,37.609554767268484,85.91378487373767,-35.53935541533015,-166.8610516896581,3.7450737644243133,0.0,0.0,0.0,-1.657217429567249,-5.1482541600155765,351
79.11278478803366,32.73986786318264,-88.96748250404065,34.38144367088476,-74.57216305445284,32.059727715963064,86.91792633600816,-39.54911054984583,-162.64920245781542,3.420868583851968,0.0,0.0,0.0,-2.2921662563518512,-6.887349090412667,352
81.27002549291768,27.854132937916933,-93.3992529284673,36.081156136056585,-80.02057986460858,29.91442785947966,92.91792633600816,-39.59636530706319,-156.95919463114686,3.260498450497618,0.0,0.0,0.0,-2.8765082621989935,-8.6407505467648,353
83.07680290836986,27.28467558803402,-95.87786138955984,35.70296159939985,-83.40986421151999,29.62019152189608,97.34823917415044,-38.84836865274804,-153.42981276285226,3.0824025937563735,0.0,0.0,0.0,-3.2497731638330563,-10.36448890530134,354
84.9496258251694,27.527230430394198,-99.12265793928837,35.22213278013717,-84.62987127681696,29.79648860810456,97.46204117119596,-38.29729245081832,-151.9080503305014,2.956929665781072,0.0,0.0,0.0,-3.4511560363526366,-11.314520473297328,355
84.95873379390002,29.370122372890524,-98.63815817336523,34.23759985054488,-84.90922814755866,30.90643040811177,96.90198233039301,-37.704384954843995,-151.64345358894286,2.8459477983234795,0.0,0.0,0.0,-3.7823501663762253,-12.449327233550788,356
82.39092821422099,33.8766010988018,-94.942821293455,32.85586524199706,-81.8871195598695,34.66103272698207,92.69437900799775,-37.09415115771056,-154.1074929223765,2.8570716934280136,0.0,0.0,0.0,-4.078010866576629,-12.956594796326769,357
77.70226234384084,41.77276977162299,-88.942821293455,31.206794744507636,-78.48710016179567,41.183724490301486,87.31082293911892,-37.23613994300393,-157.17402796087478,2.888917538843102,0.0,0.0,0.0,-4.321691209165613,-13.33999869354024,358
73.63283562581258,48.77588074126609,-82.942821293455,34.68913875136554,-75.44484793001622,46.49549919125754,84.15869718810626,-43.54285582902142,-158.69715809743093,2.9299709129643077,0.0,0.0,0.0,-4.253134413753506,-12.902881258686062,359
71.75735584195506,50.653838085758224,-77.84375194289609,38.825345127552374,-74.55959822189578,47.45246967277206,82.7417255996543,-47.87806192932018,-157.6524018019168,2.9248777500805088,0.0,0.0,0.0,-4.144255189811209,-12.463932441455528,360
70.6352868457853,53.16366991436748,-77.83084765368237,49.749956931046434,-72.87523589187776,50.30084738979712,79.68606729802111,-58.17988046530676,-158.31136884408764,2.9135510315216555,0.0,0.0,0.0,-3.9001269018077216,-11.655819542431717,361
66.76759095237652,56.563427600457864,-75.2143137270067,60.749956931046434,-68.46592028370732,53.188573401815255,76.6726788275793,-69.17988046530675,-165.31730770989824,3.1008299537075965,0.0,0.0,0.0,-3.1459138766967456,-8.53551886728083,362
65.96763243719751,58.36162188813087,-75.65156654894069,71.74995693104643,-67.33482581890688,53.933642232958945,76.56198617962481,-80.17988046530675,-168.34737694816525,3.3955011054932878,0.0,0.0,0.0,-2.5962003650265517,-5.7621668730987015,363
65.97228041468814,59.50391887216544,-76.03045761474968,82.74995693104643,-66.77671020776359,54.70620718218156,76.63875717534656,-91.17988046530675,-169.08999880526156,3.4311165921272755,0.0,0.0,0.0,-2.2665859360552716,-4.722773600308138,364
67.00408743630605,58.35390086839856,-75.98750628598486,89.60182987426208,-67.05091395833601,53.34285396209354,76.27432749329111,-96.3892470331553,-169.12410109228827,3.4256391791239778,0.0,0.0,0.0,-1.9861995803077008,-4.0834510608983,365
66.80000345505441,56.48453299054398,-72.83403041341491,90.70397529908175,-68.23492230183092,51.15570821162815,75.71651742511555,-97.53498444732507,-169.02079092415875,3.297273345957079,0.0,0.0,0.0,-1.8341996223135901,-4.597586677796553,366
70.48655226709752,51.84629853429485,-75.00039220311005,87.48537073800136,-69.04445361362392,45.40520566255241,74.21055010609916,-96.37097470957147,-171.6621284337449,2.752531741528477,0.0,0.0,0.0,-1.4956270836608312,-7.552991020880717,367
72.64380658061967,50.33841461964157,-74.91124138076977,81.00101278706182,-66.41823321380447,38.83407329047889,72.1238749440762,-96.6606812119154,-160.6621284337449,2.449539557149732,0.0,0.0,0.0,-0.8711944925667497,-9.406953899136237,368
75.90450020703874,51.02835614859433,-75.27161911577623,73.58282631954523,-58.67281691798045,29.599077455900254,67.72816004355303,-100.07316491170096,-149.6621284337449,2.4140179497772984,0.0,0.0,0.0,-0.20092167486563986,-11.021353032919203,369
78.93869264752139,54.14937435102523,-75.93063205374136,67.63718956959514,-47.67281691798045,26.247459090681836,61.72816004355303,-103.89370510799749,-138.6621284337449,2.5512830269627615,0.0,0.0,0.0,0.45058191144066184,-12.516234778071878,370
79.48146426283286,58.167517108491786,-76.64777856984983,58.690175440129195,-36.67281691798045,27.047150036325167,55.72816004355303,-105.78566999273288,-127.6621284337449,2.859619873138512,0.0,0.0,0.0,1.0791372912235973,-13.513932140926809,371
76.42006888615539,58.379894432436934,-74.13153544454985,50.55157774825873,-25.672816917980448,33.47564974179257,49.72816004355303,-109.07745891608822,-116.6621284337449,3.631702181794669,0.0,0.0,0.0,1.660576196783645,-12.550362070053705,372
73.0735210975073,59.731322394265796,-71.72355698316831,47.61612560014236,-14.672816917980448,44.47564974179257,43.72816004355303,-112.89224993579964,-105.6621284337449,4.710031000057105,0.0,0.0,0.0,1.8783120062776704,-11.271162346378258,373
68.6534372019734,60.23629091700492,-69.13889534139118,49.097684330035754,-3.672816917980448,55.47564974179257,37.72816004355303,-115.54457486949366,-94.6621284337449,5.249136284857371,0.0,0.0,0.0,1.9819703774019428,-10.405618379456248,374
67.07531679388087,60.370417499919895,-69.27024610017783,49.81192088679395,7.327183082019552,56.12114671738187,31.728160043553032,-117.66181997678784,-83.6621284337449,5.3494199604723915,0.0,0.0,0.0,2.2063536312638217,-9.881237197802957,375
65.81011296005343,61.01266326629072,-72.02026038299772,54.282773091268695,18.327183082019552,59.392404844411274,25.728160043553032,-119.08775221822937,-72.6621284337449,5.453504156194501,0.0,0.0,0.0,1.898492868066696,-8.872122526583771,376
64.54498583560404,61.30271859688093,-71.91269695924066,62.43759899262741,29.327183082019552,61.07853804156391,19.728160043553032,-120.11604821563475,-61.6621284337449,5.3767313085180755,0.0,0.0,0.0,1.6653628315152609,-6.863139184334703,377
65.7469934990145,60.411483186146356,-74.57473422807858,66.70486996517313,40.32718308201955,60.77820782117128,13.728160043553032,-121.83476536441795,-50.6621284337449,5.265140296616084,0.0,0.0,0.0,1.7919859033312573,-5.523067400108287,378
67.7704330032236,59.08961797984047,-77.24756842070492,67.54465546230314,51.32718308201955,56.262611418175645,7.728160043553032,-123.39386282079319,-39.6621284337449,5.0314320059848425,0.0,0.0,0.0,2.015096704405519,-5.147253857054201,379
69.49917503819357,58.88136744554845,-80.09740709254605,68.09459457212526,62.32718308201955,53.157947078101444,1.7281600435530322,-123.15335342636519,-28.662128433744897,4.861358527991368,0.0,0.0,0.0,2.199464436699163,-4.695008166773158,380
71.53127877387287,57.81112823404629,-82.81574551250134,66.56847697471372,73.32718308201956,45.65157261035762,-4.271839956446968,-122.30742095357269,-17.662128433744897,4.4954075156799265,0.0,0.0,0.0,2.1637738226759375,-5.147054610149304,381
71.19386263590519,59.033684676767855,-82.65435900283096,62.44644393050668,62.32718308201956,34.65157261035762,-10.271839956446968,-118.22430270852658,-6.662128433744897,3.6016384275083224,0.0,0.0,0.0,1.2679070437764939,-8.116058480672388,382
68.94198010519077,60.443540562312776,-79.5131633798591,60.28915886776045,51.32718308201956,23.65157261035762,-4.271839956446968,-107.50158307971708,4.337871566255103,3.0342644318762027,0.0,0.0,0.0,-0.22767372244769882,-10.587658401407866,383
65.9531530774902,62.0091471539127,-76.31577994253021,60.33850085133096,40.32718308201956,30.709108109399793,1.7281600435530322,-96.50158307971708,15.337871566255103,2.9771455255415495,0.0,0.0,0.0,-1.9098346849159695,-12.338418898207552,384
64.89446629495696,61.93058550127272,-73.13405482544155,60.97662487070962,29.32718308201956,36.10736322906092,7.728160043553032,-89.25144464394533,26.337871566255103,2.8018549423504724,0.0,0.0,0.0,-3.15566011542828,-14.044660514829001,385
66.32694902191898,63.383971887827215,-73.19238053632674,59.01283603412151,18.32718308201956,43.65010507703224,13.728160043553032,-82.35480126053663,37.3378715662551,2.6838981718991892,0.0,0.0,0.0,-3.885586700344849,-14.140707090047114,386
63.1079113663279,68.71724161997393,-67.19238053632674,59.51541318536185,7.327183082019559,54.65010507703224,19.728160043553032,-74.75267764725197,48.3378715662551,2.4097806797092653,0.0,0.0,0.0,-3.925491416513447,-12.499815118118802,387
60.28130351987274,75.18729692408189,-62.21575681435931,59.559617889842734,-3.672816917980441,65.65010507703224,25.728160043553032,-67.48801592489107,37.3378715662551,2.1324013825009334,0.0,0.0,0.0,-3.6992943407036627,-11.198226144789121,388
57.115135636789915,80.52446415961245,-58.77114425890011,62.92207285546072,-14.672816917980441,76.65010507703224,31.728160043553032,-64.87987612966722,26.337871566255103,1.850246742838207,0.0,0.0,0.0,-3.1796633679103694,-9.536670299645209,389
55.51625299764644,82.04005405924579,-56.92934383251547,64.09337108821491,-25.67281691798044,80.10829315503368,37.72816004355303,-65.45326171449365,15.337871566255103,1.6711843311265022,0.0,0.0,0.0,-2.749388295366416,-8.518868548474227,390
54.273891838942916,82.0336953434479,-57.130624152666506,65.45359545239515,-36.67281691798044,81.49377023187287,43.72816004355303,-65.46788873304331,4.337871566255103,1.6391911964454657,0.0,0.0,0.0,-2.314856874875536,-6.576725794809439,391
48.36371043170699,82.57064005547245,-55.12982831140512,67.18321581907136,-44.47476890413181,83.1506964412115,49.72816004355303,-65.65037235815686,-6.662128433744897,1.6151557123926,0.0,0.0,0.0,-1.5641345391649721,-5.458908557833972,392
44.80204657867452,82.1429663826635,-55.53993983895439,70.90627514010309,-40.09020025384051,82.99719818317789,51.692477748310566,-69.08868635334638,-17.662128433744897,1.5846093369220444,0.0,0.0,0.0,-0.8921164299017922,-5.330694655721703,393
44.54763984847302,81.48305483962962,-58.21765335299628,72.40085596925597,-38.3973968087526,83.81371476823034,51.56748521313892,-68.67245511603157,-28.662128433744897,1.4150871001031766,0.0,0.0,0.0,-0.19041057963072786,-6.777781054934173,394
43.81435115733291,81.66028662318283,-58.53339392920463,72.67560623370686,-37.25119996349602,83.27448294405272,51.12318975947371,-68.87752850296685,-39.6621284337449,1.3764945029565006,0.0,0.0,0.0,0.2787272147056696,-7.714913060341057,395
45.259851132628896,81.87329153405452,-58.80713513054131,71.75752977381835,-37.528812613722415,84.4709482296064,48.50827747562522,-66.11996000255057,-50.6621284337449,1.207749927745441,0.0,0.0,0.0,0.8559683547219435,-10.012889617306888,396
46.23902670074682,80.65575534239544,-58.7165297767799,70.1240389176521,-35.888586282977066,85.31013868948935,48.000294746821375,-63.18300152443923,-61.6621284337449,1.2268892975607766,0.0,0.0,0.0,1.6962807229413754,-12.63922227399088,397
44.27403994375176,79.59681955575688,-58.832568208819986,70.5375158179636,-33.37427694051294,89.94819264100123,46.15709062795178,-58.565074858165126,-72.6621284337449,1.4183765507257948,0.0,0.0,0.0,2.3753386599698003,-14.455950303514877,398
40.7790198217659,76.4529434410472,-60.96529601421535,72.55415188950242,-28.73674506367834,95.65274960624953,44.50334535171919,-53.76607834744802,-83.6621284337449,1.803950919676938,0.0,0.0,0.0,2.8810659873932005,-15.348636511835553,399
37.6633665001362,74.05184841670248,-60.62209083721101,75.92025035766295,-25.835285556804674,97.60145684511302,44.6297236447092,-53.35343733837195,-94.6621284337449,2.133383867470985,0.0,0.0,0.0,3.0097090024614928,-15.1310373252153,400
34.162109405763566,68.88125633608688,-62.13475513931832,81.92620803817847,-20.563222710792814,98.1167873948169,43.74487160085616,-56.01214136170269,-105.6621284337449,2.5825273431939713,0.0,0.0,0.0,3.139102561606363,-14.009627724004492,401
23.162109405763566,66.04064377779252,-56.13475513931832,92.19655906258936,-11.761020120953232,100.17694152096965,44.84446479018904,-57.67056007494608,-109.16655547189728,3.296349308920777,0.0,0.0,0.0,2.5024850276926403,-11.539704404212197,402
12.162109405763566,64.34102223505887,-50.13475513931832,103.19655906258936,-1.001165507494129,101.22834639364777,49.12630577360557,-63.85653154029666,-108.05794725116255,4.172904713166644,0.0,0.0,0.0,1.7222863533324837,-8.138316137663683,403
1.162109405763566,65.51108808591547,-46.74481258099333,112.89323001334341,6.42904584707794,104.86700452308833,53.3871468699792,-66.90030656883089,-102.93719417041845,5.06916267018232,0.0,0.0,0.0,0.8887118617914228,-5.64459672008781,404
-9.837890594236434,67.00427322952555,-43.504812544727685,117.34074442355421,7.651153456192288,106.45533113560244,56.529640683748,-69.09048284548292,-102.73033815085299,5.612333592027274,0.0,0.0,0.0,0.4455829446240008,-4.274934938422279,405
-20.837890594236434,68.95290316056078,-41.55014460144418,119.12255010688588,11.388948022283518,106.5530414756921,56.02042860851137,-74.12106756334511,-103.30280786176353,5.7903609725682745,0.0,0.0,0.0,-0.18027373063183424,-3.04571464986453,406
-27.789748289721995,71.40588485142948,-40.560298394176094,119.54914834766507,12.949461233657404,103.52112669096135,57.49030259142076,-79.12279499874758,-102.21461625570686,6.013739703447231,0.0,0.0,0.0,-0.9780484427892614,-3.6651871207054536,407
-27.676447184204715,70.90134191198422,-43.0210095111551,118.95945185035605,10.466987758572321,98.09473529850685,61.08335366714844,-79.477743313815,-101.23368976267744,6.036104631612279,0.0,0.0,0.0,-1.6256476805258213,-4.301975532090163,408
-25.555305710344282,72.45064940688388,-43.164215621505484,117.38315140817997,7.1290912718624995,95.17884867480947,63.24857637963419,-79.15322726972735,-99.32549393612751,5.9200513415572855,0.0,0.0,0.0,-2.4065277671669554,-6.4864122875935255,409
-24.24769459316337,72.97304349414026,-42.87762708024024,116.53798609522306,6.083022885927445,94.37222130962235,63.5454790621074,-78.29684126053382,-99.0515767107004,5.866871774703821,0.0,0.0,0.0,-2.8373271325972653,-7.555867441420412,410
-21.271871052129917,74.28183013197525,-42.43136479934429,112.72600374358254,2.2233911458151634,94.52487243456817,62.81919943712644,-74.19785013465936,-100.09878323251506,5.61464704371559,0.0,0.0,0.0,-3.4614884991699175,-9.057912869517025,411
-13.495301310774291,75.39893156147015,-42.79890031011559,106.81658357831033,-1.8410451021531289,90.92590488338682,58.88298602483675,-73.63689455023996,-108.35200136280478,5.051011845381327,0.0,0.0,0.0,-4.342320192248674,-10.277282575306876,412
-6.439692585072592,81.33634238829144,-42.68344000948503,98.49566815750158,-5.800219566911656,89.06073206870106,55.175486194807355,-70.76403261393858,-118.58695281962565,4.392988542579108,0.0,0.0,0.0,-4.821128753075106,-10.856655589603177,413
-1.3777741483706432,86.47907018693276,-43.25008011998866,87.59405148157612,-6.139823081462974,83.10463601890382,52.532469084395494,-73.70238424787303,-129.58695281962565,3.681295121578363,0.0,0.0,0.0,-5.061235872806566,-12.176905103614812,414
