JMW9912/AVATAR/Dynamixel/dynamixel_control/data/csv/poppy/.data/waist_test/2DoF (2P+Ori)/0429_2054_13_16_2DoF_Ori_bvh_motor_degree.csv
theta1,theta2,theta3,theta4,theta5,theta6,theta7,theta8,theta9,theta10,theta11,theta12,theta13,theta14,theta15,frame
-95.92251261320826,22.1324781961728,94.39553488464352,28.29882286208972,,,,,9.061519176957281,4.005673455057678,0.0,0.0,0.0,0.7360967837554488,2.8051766135533396,0
-93.17251261320826,24.8824781961728,92.89553488464352,31.04882286208972,-18.708830191545022,52.6977670630615,29.485438939567118,-45.753554382917045,6.311519176957281,6.755673455057678,0.0,0.0,0.0,-0.2639032162445514,3.80517661355334,1
-90.42251261320826,27.6324781961728,91.39553488464352,33.79882286208972,-15.958830191545022,49.9477670630615,27.985438939567118,-48.503554382917045,9.061519176957281,5.049434536809279,0.0,0.0,0.0,-1.2639032162445516,4.80517661355334,2
-87.67251261320826,30.3824781961728,89.89553488464352,36.54882286208972,-13.208830191545022,47.1977670630615,29.485438939567118,-51.253554382917045,11.811519176957281,5.261652409808258,0.0,0.0,0.0,-2.263903216244552,5.80517661355334,3
-84.92251261320826,33.1324781961728,88.39553488464352,39.29882286208972,-10.458830191545022,44.4477670630615,30.985438939567118,-54.003554382917045,14.561519176957281,5.3616110568230075,0.0,0.0,0.0,-2.7525937807859755,6.80517661355334,4
-82.17251261320826,35.8824781961728,86.89553488464352,42.04882286208972,-7.708830191545022,41.6977670630615,30.10712785740599,-56.753554382917045,17.311519176957283,5.267888209733382,0.0,0.0,0.0,-2.732159695147586,7.80517661355334,5
-79.42251261320826,38.6324781961728,85.39553488464352,44.79882286208972,-4.958830191545022,38.9477670630615,31.60712785740599,-59.503554382917045,20.061519176957283,5.1048981167142875,0.0,0.0,0.0,-2.7013959929430738,8.805176613553341,6
-76.67251261320826,41.3824781961728,83.89553488464352,47.54882286208972,-7.002693365734587,36.1977670630615,33.10712785740599,-62.253554382917045,22.811519176957283,4.939640349530339,0.0,0.0,0.0,-2.6324286382334985,9.805176613553341,7
-73.92251261320826,44.1324781961728,82.39553488464352,50.29882286208972,-8.757931169744372,33.4477670630615,34.30812991185257,-65.00355438291705,25.561519176957283,4.772326520565145,0.0,0.0,0.0,-2.575975218433162,10.805176613553341,8
-71.17251261320826,46.8824781961728,80.89553488464352,53.04882286208972,-11.507931169744372,30.697767063061498,35.80812991185257,-67.75355438291705,28.311519176957283,4.589585690150094,0.0,0.0,0.0,-2.4973603785968392,11.805176613553341,9
-68.42251261320826,49.6324781961728,79.39553488464352,55.79882286208972,-14.257931169744372,27.947767063061498,37.30812991185257,-70.50355438291705,31.061519176957283,4.4150492685012255,0.0,0.0,0.0,-2.350489501828352,12.805176613553341,10
-65.67251261320826,52.3824781961728,77.89553488464352,58.54882286208972,-17.007931169744374,25.197767063061498,38.80812991185257,-73.25355438291705,33.81151917695728,4.18924894273933,0.0,0.0,0.0,-2.1837549160031555,13.805176613553341,11
-62.922512613208255,54.18425225191859,76.39553488464352,61.29882286208972,-19.757931169744374,22.616231193029442,38.0891392666676,-76.00355438291705,36.56151917695728,3.8868390032385243,0.0,0.0,0.0,-2.0183988974152496,14.805176613553341,12
-60.172512613208255,53.4839728452638,74.89553488464352,64.04882286208972,-22.507931169744374,21.62497267970598,39.276251436128774,-78.75355438291705,39.31151917695728,3.59911720066066,0.0,0.0,0.0,-1.8616405784910386,15.644148008655513,13
-57.422512613208255,53.99105854977007,73.39553488464352,66.79882286208972,-24.890282303188055,20.619307241744774,39.91599594268054,-81.50355438291705,42.06151917695728,3.298185467751299,0.0,0.0,0.0,-1.6637812207238512,15.04273529824916,14
-54.672512613208255,53.212692245004675,71.89553488464352,69.54882286208972,-24.1622063894065,20.97507279733012,38.41599594268054,-84.25355438291705,44.81151917695728,3.0133079597206844,0.0,0.0,0.0,-1.4716289818544954,14.456195653864553,15
-51.922512613208255,52.418033775257555,70.39553488464352,72.29882286208972,-25.699424087568957,20.132111086218295,36.91599594268054,-87.00355438291705,47.56151917695728,2.7323153985095088,0.0,0.0,0.0,-1.3088973887600082,13.872463595911613,16
-49.172512613208255,51.229655217296404,68.89553488464352,75.04882286208972,-26.904855000433923,19.17087381195764,35.91617151172395,-89.75355438291705,50.31151917695728,2.4798482599739167,0.0,0.0,0.0,-1.1287265608994432,13.316838776833224,17
-46.422512613208255,51.36820772884632,67.39553488464352,77.79882286208972,-24.963553003807764,19.692300820129315,34.41617151172395,-92.50355438291705,53.06151917695728,2.2268740941527585,0.0,0.0,0.0,-0.9309974847331427,12.767562641548137,18
-43.672512613208255,50.184466030258264,65.89553488464352,80.54882286208972,-24.875697332288716,18.673931946237136,32.91617151172395,-95.25355438291705,55.81151917695728,2.0771482580931253,0.0,0.0,0.0,-0.7477344557788451,12.250224245429786,19
-40.922512613208255,48.932541773951904,64.39553488464352,83.29882286208972,-24.546190311889262,17.526796999482954,31.416171511723952,-98.00355438291705,58.56151917695728,2.3029943827110975,0.0,0.0,0.0,-0.6174575311416917,11.847354257284598,20
-38.172512613208255,47.6427758424453,62.895534884643524,86.04882286208972,-23.5991856134164,16.953448456663747,29.916171511723952,-100.75355438291705,61.31151917695728,2.456085668400833,0.0,0.0,0.0,-0.4786885521531855,11.38271426724123,21
-35.422512613208255,47.231962354298446,61.395534884643524,88.79882286208972,-21.212099616695642,18.199152759207735,28.416171511723952,-103.50355438291705,64.06151917695729,2.7915061977475575,0.0,0.0,0.0,-0.4054151702040694,11.069905533422888,22
-32.672512613208255,46.81111120406676,59.895534884643524,91.54882286208972,-18.462099616695642,16.998078069447278,26.916171511723952,-106.25355438291705,66.81151917695729,2.823296497551453,0.0,0.0,0.0,-0.18409738516921187,10.535899444786633,23
-29.922512613208255,44.66883823929782,58.395534884643524,94.29882286208972,-17.659550331669994,17.011460647104187,25.416171511723952,-109.00355438291705,69.56151917695729,2.9708933993932054,0.0,0.0,0.0,-0.08365068779035953,10.113092282478323,24
-27.172512613208255,43.14674547145347,56.895534884643524,97.04882286208972,-15.797840141046906,16.611920118195794,23.916171511723952,-111.75355438291705,72.31151917695729,3.1231585538259696,0.0,0.0,0.0,-0.019105537760617977,9.716610894013996,25
-24.422512613208255,43.50131939888292,55.395534884643524,99.79882286208972,-13.047840141046906,17.967953055195345,22.416171511723952,-114.50355438291705,75.06151917695729,3.246515059774187,0.0,0.0,0.0,0.08002134841134496,9.331943843332398,26
-21.672512613208255,43.869250291648605,53.895534884643524,102.54882286208972,-10.297840141046906,17.71904003257393,20.916171511723952,-117.25355438291705,77.81151917695729,3.3882894873505625,0.0,0.0,0.0,0.21285364428901135,8.90856859387084,27
-18.922512613208255,42.61952975449779,52.395534884643524,105.29882286208972,-7.5478401410469065,17.62644701998253,19.416171511723952,-120.00355438291705,80.56151917695729,3.4915237535966606,0.0,0.0,0.0,0.33039214142331985,8.405575259419521,28
-16.172512613208255,43.23179473157222,50.895534884643524,108.04882286208972,-4.7978401410469065,15.626617625549894,17.916171511723952,-122.75355438291705,83.31151917695729,3.570865239321745,0.0,0.0,0.0,0.39710773312167486,7.995115387661112,29
-13.422512613208255,42.21198892204797,49.395534884643524,109.62085232341356,-2.0478401410469065,15.710150330572805,16.416171511723952,-124.92604287695217,86.06151917695729,3.762001452515014,0.0,0.0,0.0,0.48149045111929667,7.691253090638523,30
-10.672512613208255,42.92535791358254,47.895534884643524,111.01730381258906,0.7021598589530935,16.24676940674529,14.916171511723952,-125.79764089065047,88.81151917695729,3.974929074887057,0.0,0.0,0.0,0.5875610936168424,7.397970665062917,31
-7.922512613208255,42.124334929627196,46.395534884643524,112.18092930522414,3.4521598589530935,16.965403968877798,13.416171511723952,-126.59334735353514,91.56151917695729,4.118980545145964,0.0,0.0,0.0,0.7223895232269102,7.122339023408649,32
-5.172512613208255,41.39425241043689,44.895534884643524,113.20438839618328,6.2021598589530935,17.85793121945715,11.916171511723952,-127.26651014247832,94.31151917695729,4.315710677159017,0.0,0.0,0.0,0.8022165293010914,6.8497103124994165,33
-2.422512613208255,42.63680789185766,43.395534884643524,114.0768259240938,8.952159858953094,17.255769910760314,10.416171511723952,-127.8567110681782,97.06151917695729,4.485667460791045,0.0,0.0,0.0,0.9176070266275114,6.878690708773517,34
0.32748738679174494,41.903721872408354,41.895534884643524,114.9973801141384,11.702159858953094,18.92978029749729,8.916171511723952,-128.0357806963309,99.81151917695729,4.6704451850970035,0.0,0.0,0.0,0.9737517413153328,6.713687984486841,35
3.077487386791745,41.6079079136326,40.395534884643524,115.71950844170968,14.452159858953094,20.54781529710791,7.416171511723952,-128.0969616553838,102.56151917695729,4.612405966335447,0.0,0.0,0.0,0.9781633103205722,6.432947871791359,36
5.827487386791745,41.52909414500135,38.895534884643524,116.25649659434538,17.202159858953095,20.552580608699838,5.916171511723952,-128.0749505793506,105.31151917695729,4.453909329220858,0.0,0.0,0.0,0.9852715021520472,6.148715288811563,37
8.577487386791745,41.51180979916882,37.395534884643524,116.64270627907364,19.952159858953095,22.11317232398514,4.416171511723952,-127.87792706545208,108.06151917695729,4.356289327695873,0.0,0.0,0.0,0.9678226876705155,5.919497639589622,38
11.327487386791745,41.57368544764196,35.895534884643524,116.97550329805452,22.702159858953095,23.72264761976185,2.9161715117239524,-127.40868946687543,110.81151917695729,4.265964833580874,0.0,0.0,0.0,0.9228731155485196,5.68055138439277,39
14.077487386791745,41.86269117978658,34.395534884643524,117.2217104410146,25.452159858953095,23.808595236962148,1.4161715117239524,-126.8264760620998,113.56151917695729,4.105197636037645,0.0,0.0,0.0,0.8878715359972054,5.473743473397684,40
16.827487386791745,42.41369544573214,32.895534884643524,117.2798937396747,28.202159858953095,25.568914769226737,-0.08382848827604761,-126.16908147987346,116.31151917695729,3.9984329547224813,0.0,0.0,0.0,0.8786460711899264,5.30264577730281,41
17.308543625665493,43.052560386214076,31.395534884643524,117.20396171453072,30.952159858953095,25.739890862780644,-1.5838284882760476,-125.2990869903847,119.06151917695729,3.851514250310337,0.0,0.0,0.0,0.8840330113711355,5.128358323489502,42
15.092480396687307,43.801989256835064,29.895534884643524,117.10815830329952,33.702159858953095,27.546511396586936,-3.0838284882760476,-124.24666950865742,121.81151917695729,3.6466184151724463,0.0,0.0,0.0,0.8442573249257045,4.9735045716953,43
12.342480396687307,43.12603701471815,28.395534884643524,116.95794515724255,36.452159858953095,29.511057254132506,-4.583828488276048,-123.115916359326,124.56151917695729,3.5017508508210327,0.0,0.0,0.0,0.7759366360692043,4.863820922211329,44
9.592480396687307,44.302346171617415,26.895534884643524,116.63027861618313,39.202159858953095,29.892737542009193,-6.083828488276048,-121.93651358001514,127.31151917695729,3.4019624086496645,0.0,0.0,0.0,0.7063325610200626,4.771050638405702,45
7.031228214885641,45.47749603713291,25.395534884643524,116.317638595169,41.952159858953095,31.93889870922791,-7.583828488276048,-120.58856780031701,130.0615191769573,3.257493456294447,0.0,0.0,0.0,0.6235308011138215,4.688159559409964,46
4.281228214885641,45.05379527836883,24.55901701433464,116.1171172125691,44.702159858953095,33.75690207230752,-9.083828488276048,-119.09822244099051,132.8115191769573,3.0803147833563504,0.0,0.0,0.0,0.5320293174063895,4.631415369890174,47
1.5312282148856413,46.47183764571943,25.74806304789114,115.44325371425944,47.452159858953095,34.48494180641591,-10.583828488276048,-117.49378866391515,135.5615191769573,2.9766514528203354,0.0,0.0,0.0,0.45835845736628633,4.554214281160354,48
-1.2187717851143587,46.349303993790905,26.12862659214014,114.74623921484492,47.5926090125836,36.72825398000057,-12.083828488276048,-115.85367665007095,138.3115191769573,2.8239595063764242,0.0,0.0,0.0,0.37833993820424844,4.524998038930056,49
-3.9687717851143587,46.470657115198655,26.599743723606316,114.16636700858923,47.16942445826671,38.96980109741807,-13.583828488276048,-113.95311093933502,141.0615191769573,2.5760547486911602,0.0,0.0,0.0,0.2646210685528284,4.519155181333858,50
-6.718771785114359,48.37192081432169,27.948860789410173,113.58537375600513,47.59305831666195,39.532737641305204,-15.083828488276048,-111.74246254321339,143.8115191769573,2.3781612653538144,0.0,0.0,0.0,0.11970133637276097,4.4491618517900005,51
-9.46877178511436,48.794831099682746,28.141281791100873,112.70683111827873,47.457972386850045,41.52840411582329,-16.583828488276048,-109.44216476027835,146.5615191769573,2.181869916537901,0.0,0.0,0.0,0.008275839299613936,4.382873571910995,52
-12.21877178511436,49.349824297201806,28.168832776395018,111.62653719969349,47.518371555515415,43.428351854641264,-16.34269536332216,-107.10847393051102,149.3115191769573,2.0139063412174396,0.0,0.0,0.0,-0.054770769887044504,4.385607541377503,53
-14.96877178511436,50.10804690321214,28.507056740333255,110.58868862243631,47.97041557497386,43.65638973233982,-14.84269536332216,-104.6389134642703,152.0615191769573,1.9042370498187016,0.0,0.0,0.0,-0.14480524413918572,4.4209804029787545,54
-17.71877178511436,51.02689412245693,28.67260220928185,109.39286292263611,48.17608690086038,45.477459635065095,-13.34269536332216,-102.13042381370703,154.8115191769573,1.8080936847749045,0.0,0.0,0.0,-0.26666787669316216,4.4289083438961985,55
-20.46877178511436,52.89097384263239,29.10031923091057,107.82072153776733,48.68894075881806,47.22069962408407,-11.84269536332216,-99.57771110895077,157.5615191769573,1.6025968532655845,0.0,0.0,0.0,-0.3703247116114049,4.4328641078602065,56
-23.21877178511436,53.77522782934647,28.896871053703542,105.97101078742058,49.10972538833324,48.91498548294115,-10.475533879758318,-96.9638177515101,160.3115191769573,1.3820173979141088,0.0,0.0,0.0,-0.48587158098288385,4.446475906026444,57
-25.96877178511436,54.48994160155268,28.63460103564954,104.09923196521179,49.21214245325201,50.61217977168958,-9.173008805048976,-94.2138177515101,163.0615191769573,1.2340604894841063,0.0,0.0,0.0,-0.5818925288035152,4.4836135109698665,58
-28.71877178511436,55.1681601752603,28.164146465567953,102.12344308926603,49.41432377010913,52.153862224739534,-7.9718328698867005,-91.4638177515101,165.8115191769573,1.2660282831711611,0.0,0.0,0.0,-0.6970016424662014,4.570197400877831,59
-31.46877178511436,55.997228057260116,27.41839751374133,99.67712731534856,50.00757691576304,52.10658537477407,-6.4718328698867005,-88.7138177515101,163.0615191769573,1.2645064084879793,0.0,0.0,0.0,-0.8304238896014774,4.560089886919861,60
-34.218771785114356,56.54980369425255,26.51037243324302,96.97732643722065,50.14707244469336,53.477542878594065,-4.9718328698867005,-85.9638177515101,160.3115191769573,1.1683840094158418,0.0,0.0,0.0,-0.948872568877304,4.600328958923351,61
-36.968771785114356,58.26378347957178,26.65484822482166,94.22732643722065,50.15156268099391,54.91539198856312,-3.4718328698867005,-83.2138177515101,157.5615191769573,1.138326674517739,0.0,0.0,0.0,-0.9772228510983275,4.789912660421972,62
-39.718771785114356,58.41223390762222,26.005771533314448,91.47732643722065,49.87168462213384,56.432761952600224,-1.9718328698867005,-80.4638177515101,154.8115191769573,1.104708096136589,0.0,0.0,0.0,-1.1204419893131767,4.777953056040195,63
-41.658541551093904,58.878688075490686,24.505771533314448,88.72732643722065,50.38067802614783,57.54790089852331,-0.4718328698867005,-77.7138177515101,152.0615191769573,1.1506853730321607,0.0,0.0,0.0,-1.309520204060285,4.946091162878084,64
-42.8764836698405,60.62951428131003,24.341021820496955,85.97732643722065,50.961238406517886,58.728134154433015,0.5065158131777492,-74.9638177515101,149.3115191769573,1.2596101126248742,0.0,0.0,0.0,-1.5077582924102981,5.121141190202561,65
-44.75415009605716,60.859980613984014,22.841021820496955,83.22732643722065,51.51358813152081,59.958842352583126,1.3784387175913742,-72.2138177515101,146.5615191769573,1.2954372008200634,0.0,0.0,0.0,-1.6227673602978476,5.23087088871115,66
-46.451010392418745,60.96490194920689,21.341021820496955,80.47732643722065,51.923827477758415,61.23772939402834,2.360260316303425,-69.4638177515101,143.8115191769573,1.3114900885403407,0.0,0.0,0.0,-1.7367458572664187,5.3014460398282655,67
-48.11509139247417,61.08758869218752,19.841021820496955,77.72732643722065,52.39446543889779,62.51204525522669,3.321529323249417,-66.7138177515101,141.0615191769573,1.2887955315258914,0.0,0.0,0.0,-1.8750336725278318,5.300145256803489,68
-49.096455608133645,62.50366137732334,19.108585952456675,74.97732643722065,53.275145420545925,64.75379819570311,1.8515038401416397,-63.963817751510106,138.3115191769573,1.209799244255806,0.0,0.0,0.0,-2.0051639852716265,5.3287693309876065,69
-50.722074842501065,62.719603758788196,17.608585952456675,72.26725152396358,54.04088411673138,64.71448334531306,3.35150384014164,-61.305422254182226,135.5615191769573,1.1128327029263083,0.0,0.0,0.0,-2.156248142330465,5.342010172610031,70
-52.501380574294494,62.95895933134976,16.108585952456675,70.11908049132661,54.70197731125032,66.16325711802018,4.85150384014164,-59.62155182733878,132.8115191769573,1.030953005512832,0.0,0.0,0.0,-2.3481992593490637,5.28347450916087,71
-53.757047061899264,64.35923475990408,15.410626879170849,67.98143061027704,55.46909612408931,67.21162309869618,6.079976071951331,-58.16492103191796,130.0615191769573,0.9349373580757242,0.0,0.0,0.0,-2.53522159798733,5.239922464861744,72
-55.45740105169278,64.58026800542622,13.910626879170849,66.03270442255887,56.37336620960113,68.2929265540472,6.987753035960424,-56.82488429522685,127.31151917695729,0.8501541940443142,0.0,0.0,0.0,-2.716544358105772,5.165783402397873,73
-57.0856612781989,65.96709545085852,13.730310768481745,64.34471338429859,56.92766426301329,68.43379089944577,8.487753035960424,-55.43644828144203,124.56151917695729,0.7427765357593873,0.0,0.0,0.0,-2.9128644135796304,5.089173487423046,74
-58.91506518331866,66.27398483794002,12.230310768481745,62.63676025636424,57.64865394880014,69.5764655580395,9.987753035960424,-54.129092375410494,121.81151917695729,0.6468883680737314,0.0,0.0,0.0,-3.062867397190117,5.036970452139448,75
-60.233957181930045,67.74306604383567,11.521990757793033,60.701346493851844,58.659736082022576,70.62433007379006,11.487753035960424,-53.1592541982524,119.06151917695729,0.580963021278222,0.0,0.0,0.0,-3.1697167379419535,4.87622451213579,76
-61.6354885060906,68.09809248892194,10.021990757793033,58.78922312674308,59.49135813096897,70.62105553485333,12.987753035960424,-52.55104750934341,116.31151917695729,0.6729486132950994,0.0,0.0,0.0,-3.315325645130411,4.735782216043683,77
-62.74223399833943,69.74534360802411,9.397699232135823,56.95184201316813,60.650089040759156,71.54834143273473,14.487753035960424,-52.14699381394509,113.56151917695729,0.8717726206812064,0.0,0.0,0.0,-3.4502035474356476,4.6437530714036175,78
-63.82098987496575,70.86126890606003,8.419390432635323,55.028073455960374,61.70543610543396,71.55452778934792,15.987753035960424,-52.007661890771544,110.81151917695729,1.1122684285273972,0.0,0.0,0.0,-3.556345520452759,4.534986520799722,79
-64.84771604542759,71.019287463926,6.919390432635323,53.05770710171315,63.07100382283862,72.49258571828695,17.487753035960424,-51.95094648211535,108.06151917695729,1.4054299266415085,0.0,0.0,0.0,-3.6781012436632436,4.393534492480179,80
-65.55273159190716,72.17582288910205,5.419390432635323,51.01682764093248,64.41582740674926,73.43056415675602,18.575721075213234,-51.87684712052333,105.31151917695729,1.6704421173291764,0.0,0.0,0.0,-3.8160128910977584,4.223746752775236,81
-66.24366557395405,72.47136866615202,3.919390432635323,48.985780994352396,65.38108142792798,73.43112159846159,20.075721075213234,-51.87458095762473,102.56151917695729,1.8619343940299629,0.0,0.0,0.0,-3.9955172367060645,4.077840647877044,82
-66.73931379943264,72.88366645940235,2.419390432635323,46.83288138324188,66.790682614545,74.23400642060216,21.575721075213234,-52.09519631814341,99.81151917695729,2.0003395271912585,0.0,0.0,0.0,-4.214339269592613,3.8761327290440057,83
-67.12905139559464,74.16972606355333,0.919390432635323,44.719027032130406,68.22486903590722,74.99524844588073,22.12716237709032,-52.25979523124403,97.06151917695729,2.2823053583054795,0.0,0.0,0.0,-4.441847531523632,3.6329825972035463,84
-67.49778859338089,74.61234021324663,-0.580609567364677,42.6276260863903,69.1456899217819,74.88456092908832,23.62716237709032,-52.32468807920342,94.31151917695729,2.6855532610256896,0.0,0.0,0.0,-4.6933989897094515,3.3980281573727638,85
-67.64660311492449,75.1503474916163,-2.080609567364677,40.34486243068306,70.39039426806063,75.63013624609894,25.12716237709032,-52.498581079619534,91.56151917695729,3.141447297370977,0.0,0.0,0.0,-4.954681114893499,3.1157079508032277,86
-67.7926197734554,76.4260368431457,-3.580609567364677,38.07948749588942,71.58891956942931,76.34423372275295,25.621013196241602,-52.67053596052805,88.81151917695729,3.587601313772137,0.0,0.0,0.0,-5.225586024120724,2.7249912430292063,87
-67.77738187271697,77.01951109019298,-5.080609567364677,35.91656627828557,72.32181595878096,76.14718108990759,27.121013196241602,-52.83722927577065,86.06151917695729,4.026397501833013,0.0,0.0,0.0,-5.466120931489144,2.378656558718113,88
-67.70871338505765,77.7389051013205,-6.580609567364677,33.48727764244655,73.37009592845521,76.76742146575528,28.580851125350236,-52.953054375392256,83.31151917695729,4.455995322351678,0.0,0.0,0.0,-5.707327472428784,2.0970706278475078,89
-67.6048072899733,78.54457651848686,-8.080609567364677,30.753039212939616,74.3712483752911,77.3697274482203,28.862582692899377,-53.01392707204655,80.56151917695729,4.851282037969191,0.0,0.0,0.0,-5.923122394588605,1.8098058724095984,90
-67.84792473896621,79.85767736713727,-9.580609567364677,28.298822862089697,74.80048838430288,77.12180181684619,30.362582692899377,-53.0717299641177,77.81151917695729,5.196500108568142,0.0,0.0,0.0,-6.13287200592131,1.515253066544385,91
-68.88065175896922,80.31209834469477,-11.080609567364677,28.298822862089697,75.63158793201806,77.76238878869616,31.722663311095225,-52.93084311153221,75.06151917695729,5.550018879325185,0.0,0.0,0.0,-6.3206201394112025,1.1843339000222899,92
-69.87457790182272,80.78779551715779,-12.580609567364677,28.29882286208962,76.37165755177514,78.35615350741504,31.964777547029776,-52.78909035376693,72.31151917695729,5.863283382882319,0.0,0.0,0.0,-6.493594287058999,0.8555721384726421,93
-70.96307332067326,81.27062763561244,-14.080609567364677,28.298822862089697,76.47822854542497,78.07131910956255,33.464777547029776,-52.72186943206497,69.56151917695729,6.155157359778477,0.0,0.0,0.0,-6.6515344990556535,0.5310640344681616,94
-71.98487638819343,81.7670979204566,-15.580609567364677,28.298822862089594,77.07761499659172,78.48428979218566,34.69202858798174,-52.86158427462091,66.81151917695729,6.515457488052301,0.0,0.0,0.0,-6.823186317317149,0.19203557070232777,95
-72.82974180266817,82.24537508057148,-17.080609567364675,28.2988228620898,77.7112202051332,78.82100083377524,34.85813120736825,-53.29725901034783,64.06151917695729,6.9142241833629345,0.0,0.0,0.0,-6.981735306799487,-0.16522698090184673,96
-73.63831456523276,82.62432877384643,-18.580609567364675,28.29882286208972,78.25094464949989,79.20370394237366,35.03368371451914,-53.65697003604729,61.31151917695729,7.28820476971828,0.0,0.0,0.0,-7.117403059986117,-0.5661089707757668,97
-74.09783021130333,82.55431000856285,-20.080609567364675,28.298822862089697,78.73248823271463,79.51731048891418,35.22782515865457,-54.02929852451382,58.56151917695729,7.554326274152511,0.0,0.0,0.0,-7.318355122403784,-0.9794950790663826,98
-74.82045439234564,82.91985201961278,-21.580609567364675,28.298822862089825,79.2565862925187,79.66043325111373,35.39061289619994,-54.68572719071227,55.81151917695729,7.710332313498897,0.0,0.0,0.0,-7.5494655762755105,-1.3378807321170147,99
-75.5025122260358,83.21030298168391,-23.080609567364675,28.298822862089924,79.75002399748286,79.75282222569393,35.51163277409413,-55.422694655783104,53.06151917695729,7.8790104825546186,0.0,0.0,0.0,-7.720315159940247,-1.676923589949808,100
-76.22053200881399,83.38428827608257,-24.580609567364675,28.298822862089697,80.06088982785852,79.83597611166854,35.65158026711518,-56.1215084472884,50.31151917695729,8.112516660450122,0.0,0.0,0.0,-7.893828771449182,-2.0457644087602165,101
-76.57484895620816,83.62365562793973,-26.080609567364675,28.29882286208962,80.18875105866502,79.938950870531,35.8490900054736,-56.79374233418733,47.56151917695729,8.353170447429802,0.0,0.0,0.0,-8.116396212282528,-2.377477687481502,102
-76.9330630524121,83.78185270271373,-27.580609567364675,28.298822862089697,80.27121189993152,80.07513804783467,36.06064574722188,-57.46273366286937,44.81151917695729,8.523240949302284,0.0,0.0,0.0,-8.32517638363934,-2.693421873382988,103
-77.69083584244498,84.14459037925451,-29.080609567364675,28.29882286208962,80.37875579496257,80.1584234598845,36.24204766112636,-58.22906697284728,42.06151917695729,8.641434312000015,0.0,0.0,0.0,-8.50134330652561,-3.0506600399418353,104
-78.28768658943746,84.38967188695263,-30.580609567364675,28.29882286208972,80.39397646398388,80.19318365765965,36.45626316088872,-59.08270835577635,39.31151917695729,8.769915541820374,0.0,0.0,0.0,-8.727786725675902,-3.3973468918904426,105
-78.63298399396409,84.53674408131384,-32.080609567364675,28.298822862089697,80.41535338702461,80.19137461433799,36.65751569940277,-59.98172458447819,36.56151917695729,8.791606830749105,0.0,0.0,0.0,-8.943766342340792,-3.661495427531664,106
-79.12344128005628,85.01387838485996,-33.580609567364675,28.298822862089697,80.47494422804556,80.16938210293375,36.83046029678575,-60.837504008274074,33.81151917695729,8.583518216287635,0.0,0.0,0.0,-9.134778354264006,-3.8751598262495963,107
-79.49902412890522,85.53154037492261,-35.080609567364675,28.29882286208962,80.25306254946396,80.07908695839231,37.08508760219017,-61.800953096245735,31.06151917695729,8.293524675193957,0.0,0.0,0.0,-9.419898469789581,-4.094928499152655,108
-79.22731885263428,85.58836678188919,-36.580609567364675,28.298822862089697,79.73661144844216,79.94935182538569,37.3841754335867,-62.71512756262689,28.31151917695729,8.236322327070313,0.0,0.0,0.0,-9.730103582132037,-4.328745376326336,109
-78.64829537506091,85.58320931863719,-38.080609567364675,28.298822862089825,79.25381909625133,79.67641940995071,37.618641670706644,-63.76097967044344,25.56151917695729,8.197078698231593,0.0,0.0,0.0,-10.008179418952608,-4.538595489134418,110
-77.97279585895838,85.50120149030694,-39.580609567364675,28.298822862089825,78.70084868761728,79.36426176098985,37.86777312815163,-64.87254009744082,22.81151917695729,8.006487475319126,0.0,0.0,0.0,-10.299202491665152,-4.72144056786633,111
-77.16428617156944,85.29537036184969,-41.080609567364675,28.298822862089697,78.8807664552217,79.94713422028389,36.36777312815163,-66.03110507046685,20.06151917695729,7.855406265731269,0.0,0.0,0.0,-10.53918654603403,-4.881007425055884,112
-76.66765522914478,85.471021298141,-42.580609567364675,28.298822862089697,78.33628259960928,79.534202961239,35.94794075424229,-67.1970548376753,17.31151917695729,7.626182623353631,0.0,0.0,0.0,-10.678226002127863,-5.033182582933057,113
-75.75542472591947,85.31549894407807,-42.74871732713285,28.298822862089697,77.72384399145666,78.98828217149155,35.99883449465956,-68.46910143036924,14.56151917695729,7.278233237160697,0.0,0.0,0.0,-10.781520502508132,-5.188144715477505,114
-74.70433682835149,85.11675027575657,-42.487344316117145,28.29882286208985,76.94802167118526,78.38439344168947,36.0251499563864,-69.67484113638595,11.81151917695729,7.000932550937278,0.0,0.0,0.0,-10.869121740060914,-5.346993034611351,115
-73.45781353532419,84.9007333874304,-42.19812496630628,28.29882286208952,76.74258664945981,78.81324318783406,34.5251499563864,-70.71806319386398,9.06151917695729,6.7512758914383255,0.0,0.0,0.0,-10.929925163182823,-5.4507366075483255,116
-72.21139109885145,84.67982148060544,-41.90284241953982,28.29882286208972,75.8207268255303,78.16853600031024,33.80897819847918,-71.82213336421165,6.31151917695729,6.369119492155737,0.0,0.0,0.0,-11.000098721615357,-5.495467791891874,117
-71.40059738601617,84.75775163741864,-40.40284241953982,28.29882286208972,74.94216475464921,77.53235826285633,33.797781593926395,-72.90628148873446,3.5615191769572903,5.996119839463014,0.0,0.0,0.0,-11.089764732086861,-5.560511926844271,118
-70.14787807304309,84.40769864847373,-38.90284241953982,28.298822862089697,73.84072580046407,76.97088455705398,33.823111599851224,-73.81790916650613,0.8115191769572903,5.688566432806554,0.0,0.0,0.0,-11.161659344286354,-5.611370853116823,119
-68.6853544575724,84.0724356803488,-38.51722759292603,28.298822862089697,73.40155409610772,77.46118266108569,32.323111599851224,-74.67358037313161,-1.9384808230427097,5.365045987610519,0.0,0.0,0.0,-11.235094607157095,-5.673732544900101,120
-67.1413571474518,83.75754591145821,-38.13378159785388,28.298822862089697,72.4144552922024,76.80128741192355,31.569794099345398,-75.53817213825987,-4.68848082304271,5.00693993114489,0.0,0.0,0.0,-11.328197159469518,-5.802281578292374,121
-67.11326271256159,82.9865237545912,-36.63378159785388,31.048822862089697,71.19150532826843,76.17006610664988,31.513629087491847,-76.24426153603245,-7.43848082304271,4.711619566168581,0.0,0.0,0.0,-11.384748272424874,-5.90351908814274,122
-67.27000225979963,81.43995996783379,-35.13378159785388,33.79882286208969,70.46126468365061,76.69626243632672,30.013629087491847,-76.83150244884717,-10.18848082304271,4.364048920346788,0.0,0.0,0.0,-11.398714989333344,-5.939779526895739,123
-67.35973093989044,79.98415699855528,-33.947946634639884,36.54882286208969,69.19135463080123,76.06120204131413,29.12628615573218,-77.37012989219951,-12.93848082304271,3.9876525434701917,0.0,0.0,0.0,-11.416447706665592,-5.99027502090537,124
-67.41628495648483,78.56690210489832,-33.250365135996866,39.29882286208969,68.1640408456135,75.40808610212223,28.905270880829335,-77.87844720831089,-15.68848082304271,3.6436986385534436,0.0,0.0,0.0,-11.395192184652743,-6.078573611122494,125
-67.3457255212562,77.3019111464495,-32.55545530546513,42.04882286208969,67.88045066993713,75.85082458388533,27.405270880829335,-78.49566065719189,-18.43848082304271,3.2433401666124184,0.0,0.0,0.0,-11.353651017593034,-6.165230417800835,126
-67.11161564516715,76.10200889640768,-31.832372818951935,44.79882286208969,66.91608010998061,75.04818816554355,26.0375508755332,-79.09989902515528,-21.18848082304271,2.874180817812197,0.0,0.0,0.0,-11.292712146721625,-6.235172410721562,127
-66.75023273001943,74.9795566537962,-31.1017128372741,47.54882286208969,66.08931037570848,74.21779515489001,25.584253301317,-79.72639283447174,-23.93848082304271,2.5546002190506174,0.0,0.0,0.0,-11.210252391281417,-6.25692955166169,128
-66.92729943197337,74.94163672360835,-29.6017128372741,50.29882286208969,65.86439993689888,74.6942903509394,24.084253301317,-80.23728310475991,-26.68848082304271,2.2731205694797225,0.0,0.0,0.0,-11.09928686391502,-6.297555622745712,129
-66.52718292738604,74.00498799876257,-28.1017128372741,53.04882286208969,64.84234397512037,73.92756799870045,22.584253301317,-80.43826732463836,-29.43848082304271,2.224734430175726,0.0,0.0,0.0,-11.014044199964902,-6.357073567178141,130
-65.86913502976124,73.2464766563114,-26.753475611255528,55.79882286208969,63.89475885138149,73.02360654257409,21.95041489211389,-80.58983944223887,-32.18848082304271,2.4882481699106167,0.0,0.0,0.0,-10.91875730562834,-6.386720903164319,131
-64.80590413051829,72.6864002394262,-26.215185737272083,58.54882286208969,63.828492982036146,73.24986328791657,20.45041489211389,-81.01987430766133,-34.93848082304271,2.918335366377969,0.0,0.0,0.0,-10.77799368825943,-6.360111093616817,132
-63.75023287408499,72.11606500277725,-25.67264934642525,61.29882286208969,63.304144984556714,72.21609204805455,18.95041489211389,-81.39407027809203,-37.68848082304271,3.3911739463952912,0.0,0.0,0.0,-10.643507079038114,-6.37533050360505,133
-62.69968622065417,71.56183186184433,-25.16954747982385,64.0488228620897,63.185869600532506,72.58321931808894,17.45041489211389,-81.73023825082817,-40.43848082304271,3.9004613230156604,0.0,0.0,0.0,-10.493088888718225,-6.408157561003187,134
-61.63417163765083,71.04199992294244,-24.673042550960833,66.7988228620897,62.76292983381739,71.64300918896609,15.95041489211389,-82.11554656635049,-43.18848082304271,4.49306612546124,0.0,0.0,0.0,-10.365786795384366,-6.306952901751452,135
-60.61690633070063,70.52469482630624,-24.14599925077524,69.5488228620897,62.95755167026029,72.08477689563767,14.45041489211389,-82.46015870341769,-45.93848082304271,5.27389275333702,0.0,0.0,0.0,-10.275024797842503,-6.18633603154566,136
-59.45774240643163,70.04662163418439,-23.65354341403941,72.2988228620897,62.88135452944202,71.13613833483248,12.95041489211389,-82.79707802588878,-48.68848082304271,6.132260995361717,0.0,0.0,0.0,-10.179045353150308,-6.132595465005723,137
-59.03206906543114,70.8852207560371,-22.15354341403941,75.0488228620897,62.46873302390915,71.74805906724511,11.45041489211389,-82.89431120665753,-51.43848082304271,6.920838027630733,0.0,0.0,0.0,-10.101255094909442,-6.13031241042653,138
-58.12984305190696,70.26684750883899,-20.65354341403941,77.7988228620897,61.74656007192177,71.01440556483293,9.95041489211389,-82.9431461292087,-54.18848082304271,7.626077623793659,0.0,0.0,0.0,-10.041786310942532,-6.174241603972924,139
-57.763382504283825,71.21870797930879,-19.15354341403941,80.5488228620897,61.491538911935066,71.63728121312387,8.45041489211389,-83.15764630311759,-56.93848082304271,8.226740016355793,0.0,0.0,0.0,-10.0056454802387,-6.195154057421189,140
-56.86821704047312,70.63170591189741,-17.65354341403941,83.2988228620897,61.08938283305064,70.83885592822465,6.950414892113891,-83.33413872727861,-59.68848082304271,8.841813215158776,0.0,0.0,0.0,-10.017755314042809,-6.1734211438544095,141
-56.55617827968218,71.68855719634885,-16.15354341403941,86.0488228620897,60.69642507349252,71.54039405258862,5.450414892113891,-83.5027598786321,-62.43848082304271,9.529216383699085,0.0,0.0,0.0,-10.04328800454348,-6.160402938267169,142
-55.881217536873976,71.15547368494103,-14.653543414039412,88.7988228620897,60.21418102153952,72.34215000233985,3.9504148921138906,-83.73527008264917,-65.18848082304271,10.262798635407696,0.0,0.0,0.0,-10.069913059556898,-6.101313949742839,143
-55.345778656940226,70.61010344690034,-13.153543414039412,91.5488228620897,59.90875965768079,71.74733330260247,2.4504148921138906,-83.99653759571342,-67.93848082304271,11.101557843625432,0.0,0.0,0.0,-10.089122816534474,-6.046325312045071,144
-55.371406499481594,71.7885547259446,-11.653543414039412,94.2988228620897,59.617465334960734,72.67047442771903,0.9504148921138906,-84.39399162503028,-70.68848082304271,11.923659679724546,0.0,0.0,0.0,-10.122607269694495,-6.0420481214199295,145
-55.33354819274921,71.159453127801,-10.153543414039412,97.0488228620897,59.230474888861295,72.26944449963455,-0.5495851078861094,-84.76382957912158,-73.43848082304271,12.656913798507777,0.0,0.0,0.0,-10.127082997824386,-6.055808660784348,146
-55.87156912335112,72.2784003727314,-8.653543414039412,99.7988228620897,58.647077750234615,72.0072595609308,-2.0495851078861094,-84.83593194618155,-76.18848082304271,13.225774391888049,0.0,0.0,0.0,-10.151612316269524,-6.141364396189006,147
-55.83547611586397,71.88712517995359,-7.153543414039412,102.5488228620897,58.36008338811376,73.12182318995511,-3.5495851078861094,-85.17825480761894,-78.93848082304271,13.723607212910402,0.0,0.0,0.0,-10.16850536561393,-6.189819163804846,148
-56.26568517122838,71.46026871444347,-5.653543414039412,105.2988228620897,58.092674120417975,72.91086893337356,-5.049585107886109,-85.57089235567304,-81.68848082304271,14.269498558930886,0.0,0.0,0.0,-10.1948233898495,-6.267357237680631,149
-56.76196305462443,71.08032721771207,-5.14642746483311,108.0488228620897,57.9012824525631,72.74926080676117,-5.7370706104932525,-86.03634015776503,-84.43848082304271,14.792221351553628,0.0,0.0,0.0,-10.155684304302952,-6.372312232539995,150
-57.6345385082822,72.51461497564111,-3.64642746483311,110.7988228620897,57.40287305673262,74.15559338641403,-7.2370706104932525,-86.27232973130108,-87.18848082304271,15.152029528370646,0.0,0.0,0.0,-10.119322572267928,-6.424843002974996,151
-58.53272260090424,72.2797096558885,-2.7183298012525787,113.5488228620897,57.220196944922506,74.0771904791864,-7.751593582356553,-86.45295830810336,-89.93848082304271,15.473164243035288,0.0,0.0,0.0,-10.12465105033216,-6.529487805258764,152
-59.45587085647313,72.17475152209005,-2.60594356013726,116.2988228620897,57.20670611568309,73.95195136363299,-7.9060843908988865,-86.84678688021526,-92.68848082304271,15.669453062854114,0.0,0.0,0.0,-10.115474177233473,-6.734025309651814,153
-60.255453331250564,72.2222737459255,-2.737319159080803,116.58131100436435,57.541453620580725,73.77756268296777,-8.180568819489595,-87.58688893379767,-95.43848082304271,15.744345846624668,0.0,0.0,0.0,-10.098608667123678,-6.953004810841182,154
-61.483309945408685,72.16632944961066,-2.708093905245454,116.56187145212327,57.65108645018171,73.77931338212802,-8.23082646727098,-88.01884658040426,-98.18848082304271,15.76660703656758,0.0,0.0,0.0,-10.108563873035484,-7.133061701508542,155
-62.63902599976471,72.22851373070553,-2.8200508116438376,116.2722362071262,57.92556265016738,73.75096534253177,-8.276689318269806,-88.40002264581987,-100.93848082304271,15.766157564084534,0.0,0.0,0.0,-10.147274320255226,-7.312708952399998,156
-63.65701419488042,72.40659586005121,-3.1482104109233426,115.71931833436821,58.22363774780403,75.16623037749368,-9.776689318269806,-88.90037226399957,-103.68848082304271,15.692564120601165,0.0,0.0,0.0,-10.164686684073796,-7.456738439014196,157
-64.83637821512781,72.59894258196988,-3.5634401024491233,114.9964885812569,58.89666790945404,75.1630447644518,-10.359093457888052,-89.34194274906015,-106.43848082304271,15.659493037845062,0.0,0.0,0.0,-10.16083262994342,-7.59633973609,158
-66.11689306397622,72.76787337508986,-4.024771883501822,114.13965999143946,59.588279887633526,75.24807832552217,-10.435645123787557,-89.69610192322011,-109.18848082304271,15.595767507132066,0.0,0.0,0.0,-10.126269790807676,-7.7611303243565315,159
-67.47074600924478,72.94789500176509,-4.574580659794073,113.19226204482634,60.3417147952908,75.39608773991341,-10.503178734596334,-90.01239455679229,-111.93848082304271,15.483505001844895,0.0,0.0,0.0,-10.058183349798043,-7.926503401622704,160
-68.96434820292548,74.95609068374253,-3.547204563356812,111.92891076229068,61.08550462316145,75.53826436108211,-10.567814334874676,-90.317447449081,-114.68848082304271,15.335478096880657,0.0,0.0,0.0,-9.99466100107284,-8.093941578134638,161
-70.20620649995513,75.22936389827217,-4.225570521968646,110.48974956157592,62.08801820306778,75.6958212541416,-10.640732218946411,-90.70159418455557,-117.43848082304271,15.200179850512756,0.0,0.0,0.0,-9.941621091401581,-8.30732376687554,162
-71.36193370402343,75.53640118930187,-4.937638797993202,108.97375807631937,63.50098181290179,74.39758330676513,-9.140732218946411,-91.07402574321083,-120.18848082304271,15.013147384460497,0.0,0.0,0.0,-9.887980722034145,-8.547795101635911,163
-72.29201600991249,75.8853039645078,-5.783034833027253,106.56111974088037,64.4905708628407,74.69310877299428,-8.840242281250672,-91.13630909184106,-122.93848082304271,14.781108088302783,0.0,0.0,0.0,-9.8065451372427,-8.768090912230678,164
-73.15473232611257,76.26692374518909,-6.616383694623238,104.19896822046508,65.41676501564213,75.01415740685663,-8.746468357056225,-91.0880059702815,-125.68848082304271,14.557079892507574,0.0,0.0,0.0,-9.73470915102407,-8.907627940817795,165
-73.88072876476922,76.65521867408708,-7.495909187784348,101.55680242998714,66.88880049434802,75.30989513198146,-8.800500402631101,-91.2138002542234,-128.4384808230427,14.388833593670542,0.0,0.0,0.0,-9.61898416976106,-9.109291847967011,166
-74.49824748901733,77.04094483696845,-8.366778338791638,98.80680242998714,68.24615334488043,75.69532993602948,-8.766877667987675,-91.21773644996843,-131.1884808230427,14.162587814938473,0.0,0.0,0.0,-9.495705695643203,-9.302200693171523,167
-74.87822680336107,77.49882278921459,-9.242737504206609,96.05680242998714,69.1193278573128,76.12204957525641,-8.587386800023872,-90.92168949180227,-133.9384808230427,13.904066169714088,0.0,0.0,0.0,-9.400562779759621,-9.422230051815017,168
-75.06221181700651,77.99553065959044,-10.114483092115044,93.30680242998714,70.36770408487331,74.9859523587557,-7.087386800023872,-90.49077088002088,-136.6884808230427,13.700487992039717,0.0,0.0,0.0,-9.297749277246243,-9.528400747450247,169
-75.16894496126308,78.50320854407414,-10.95800787002838,90.55680242998714,71.66551256686317,75.31801333889686,-6.591077229874607,-90.1300622404019,-139.4384808230427,13.524312420495919,0.0,0.0,0.0,-9.198545343369299,-9.679639657484136,170
-75.43047762656676,80.44867651026185,-9.786603666495747,87.80680242998714,72.80916385360055,75.67252095765939,-6.499506785686471,-89.74183291256239,-142.1884808230427,13.27533971873221,0.0,0.0,0.0,-9.104370339084044,-9.805124725192124,171
-75.31754538004944,80.96287071467735,-10.700006645001446,85.05680242998714,73.98444731124845,76.13894032890053,-6.486912192950155,-89.31027352637703,-144.9384808230427,13.079653624806078,0.0,0.0,0.0,-8.852944452766518,-9.839705284950838,172
-74.85237708025032,80.28420154985248,-12.200006645001446,82.30680242998714,75.5332693270792,75.03906774624556,-4.986912192950155,-88.76790090917034,-147.6884808230427,13.029297409530152,0.0,0.0,0.0,-8.707953082328048,-9.87855894275266,173
-74.37960411392784,80.95248313722233,-13.700006645001446,79.55680242998714,76.82399438588267,75.40531639901555,-4.552355577565585,-88.31242648130157,-150.4384808230427,12.7738158926334,0.0,0.0,0.0,-8.562533682348196,-9.894105885856364,174
-73.53359973854307,81.76338444622635,-15.172816477686604,76.80680242998714,78.15824595771558,75.6937124608949,-4.6142035015644725,-87.96275418431385,-153.1884808230427,12.418353863283574,0.0,0.0,0.0,-8.402767773292435,-9.888456617247465,175
-71.94787528282183,81.74256702495742,-16.672816477686602,74.05680242998714,79.75865150765145,75.92949821546549,-4.756638286352151,-87.76917104981008,-155.9384808230427,12.188944439412385,0.0,0.0,0.0,-8.248183296806063,-9.796030103635612,176
-70.52828976499934,82.7830382801632,-18.172816477686602,71.30680242998714,81.32071960567144,76.22646428276724,-4.831045325545551,-87.52504816985872,-158.6884808230427,12.08010556711503,0.0,0.0,0.0,-8.104723390994511,-9.711429910051192,177
-68.61961171128146,83.19318848392388,-19.672816477686602,68.55680242998714,82.71653740168335,76.55470834901172,-4.84956690840579,-87.27326578539177,-161.4384808230427,11.872845031258061,0.0,0.0,0.0,-7.971912541781413,-9.685635211180465,178
-66.29750760696436,84.14764832343366,-21.172816477686602,65.80680242998714,84.18768386029453,75.38012590805245,-3.34956690840579,-87.17470623190624,-164.1884808230427,11.482763557385905,0.0,0.0,0.0,-7.833271101172993,-9.680918519474984,179
-66.57396185883653,84.08117318003863,-22.672816477686602,63.056802429987144,85.5965041253112,75.7011876309347,-3.1048657414727048,-87.24491962748618,-166.9384808230427,11.086697446200159,0.0,0.0,0.0,-7.649713980835639,-9.65193285043125,180
-67.59180725340262,82.9751562897714,-24.172816477686602,60.306802429987144,87.00285416959784,76.05812138443613,-3.1731740566013853,-87.2137283775392,-167.16382687851308,10.730236658863287,0.0,0.0,0.0,-7.44311149059187,-9.618715409468308,181
-68.90504066868186,82.26823716704386,-25.672816477686602,57.556802429987144,88.34835713437273,76.40138741484506,-3.2313881058817175,-87.17003427086142,-167.429656783076,10.342478699126803,0.0,0.0,0.0,-7.244591381972503,-9.590460868709677,182
-69.08344779427726,81.80639474292916,-27.172816477686602,54.806802429987144,89.65844964382606,76.75637365133805,-3.2865585610782206,-87.28049949281474,-167.88745597617827,9.829832642334134,0.0,0.0,0.0,-7.037536150867574,-9.586038309461959,183
-69.29738403554072,81.95684880390127,-28.672816477686602,52.056802429987144,90.73857082147977,77.14543110189848,-3.261344687130728,-87.43712649162896,-168.23056829808354,9.282124016749549,0.0,0.0,0.0,-6.857967196747648,-9.569202299941749,184
-70.07476499947757,82.82905989737148,-30.172816477686602,49.306802429987144,91.18693834221305,77.56509057842403,-3.069276073633468,-87.07362690198815,-168.13901230694916,8.752642304885585,0.0,0.0,0.0,-6.720236276889661,-9.579843324437459,185
-70.36169745405984,83.17913283556815,-30.997558661083907,46.556802429987144,91.57268798946808,78.00820666519645,-2.830721579414053,-86.8738358959526,-167.51813182247793,8.0814785587544,0.0,0.0,0.0,-6.622371142310061,-9.624546598412762,186
-70.43587905229664,83.27956222750696,-29.497558661083907,43.806802429987144,92.32918230486042,78.58352498765453,-2.521611670731178,-87.14074707433588,-165.32404989653048,7.407634393025931,0.0,0.0,0.0,-6.569603448087843,-9.585158110946184,187
-70.191500651353,82.83068305278215,-28.492061882346214,41.056802429987144,93.19197103764834,79.2197066663913,-2.212063524774068,-87.10739914683681,-162.57404989653048,6.974909769330551,0.0,0.0,0.0,-6.448256606509775,-9.577182969476489,188
-69.96412831936208,82.66721794545423,-28.55528201127644,38.306802429987144,94.06984815171197,79.65831278758334,-2.1279194450793177,-87.0895641482089,-159.82404989653048,6.656316867167375,0.0,0.0,0.0,-6.227904370259863,-9.617058160302598,189
-69.65512717110988,82.7460430728849,-28.680372417012645,35.556802429987144,95.09060045823342,79.86696428223834,-2.266384617466005,-87.3294410846937,-157.07404989653048,6.379920624868056,0.0,0.0,0.0,-5.974806970449157,-9.629713583638813,190
-69.56289703412878,83.35039257506028,-27.180372417012645,32.806802429987144,96.03848541091293,79.95902780714508,-2.5184130402699174,-87.55039919945753,-155.09723783673687,6.073081100760022,0.0,0.0,0.0,-5.665553526875675,-9.540717718795479,191
-69.25023310277807,83.5718313932961,-26.654052314266245,30.056802429987144,97.01651457018626,81.40760980226794,-4.018413040269918,-87.70337887806873,-153.77796793064488,5.80314595145366,0.0,0.0,0.0,-5.350298226271778,-9.430590235973614,192
-68.6409780280379,83.41325433187333,-28.154052314266245,28.29882286208972,98.04599820772438,81.23664161201451,-5.175961073861048,-87.87281701893914,-153.45250498480166,5.50780281249058,0.0,0.0,0.0,-5.096721211525819,-9.377980683262741,193
-68.41024659607682,84.16462354567226,-27.003704239877475,28.298822862089697,99.04824161798858,81.03666573152967,-5.622225779609457,-88.23174021396986,-152.9479984662657,5.1077224828541405,0.0,0.0,0.0,-4.825911456273751,-9.305463095156863,194
-67.87997939262972,84.379589113116,-27.142821872275594,28.29882286208962,100.22895541277116,80.81296700707964,-6.079559367183089,-88.63957633151716,-151.62331618407262,4.748123032289009,0.0,0.0,0.0,-4.591161889742329,-9.206360029167065,195
-67.44475469457423,84.59543695943728,-27.26118910194052,28.29882286208972,101.22416368659118,80.5867957518789,-6.47349240295163,-88.85255989051807,-150.1671305687087,4.362969451281212,0.0,0.0,0.0,-4.409666385996272,-9.12222413756358,196
-67.06723064169016,84.82548675787143,-27.39589370194246,28.298822862089594,101.91537975824133,81.82294396261747,-7.97349240295163,-89.07431279132217,-148.40188457328247,3.9314080041073476,0.0,0.0,0.0,-4.214930654120911,-9.03541664783851,197
-66.64363961301991,85.05100097213537,-27.544140800071634,28.29882286208972,102.93378081406581,81.5498545410158,-9.199677860803652,-89.3964744888331,-145.99768018431394,3.5405181907559005,0.0,0.0,0.0,-3.9940378514430344,-8.928217399618402,198
-65.92276374533391,84.75928026952337,-29.044140800071634,28.298822862089825,103.87307357671686,81.31714369141612,-9.608423576234763,-89.67487311883872,-145.20303691612958,3.2469686489258973,0.0,0.0,0.0,-3.7721184035508513,-8.735955485102869,199
-65.78784653428467,85.33621159959372,-27.796817729425673,28.29882286208985,104.5076181849916,82.58194047169587,-11.108423576234763,-89.86565053976948,-144.94948190837277,3.0699917443391844,0.0,0.0,0.0,-3.581929961671863,-8.539618455001065,200
-65.39898979127763,85.3906867298733,-27.891558007902482,28.298822862089594,105.43040695970615,82.30405684087006,-12.221220681717204,-90.0788014819555,-142.96600468199605,2.9223609223033686,0.0,0.0,0.0,-3.4085550654838848,-8.388469933849397,201
-64.97123671841884,85.42935819567643,-27.969811471579604,28.29882286208962,106.13446772644815,81.99523895489597,-12.604868008430364,-90.15400136536698,-140.75199465765317,2.756189574672773,0.0,0.0,0.0,-3.2573861180254866,-8.214754341110599,202
-64.50275199373993,85.51016870727604,-28.060924455082493,28.298822862089594,106.43203712377999,83.17779689200567,-14.104868008430364,-90.12513151900947,-138.6640643618646,2.631646906823755,0.0,0.0,0.0,-3.0990372287512025,-8.022889579637777,203
-64.02334788970212,85.60202927111773,-28.14228098031172,28.298822862089594,106.9876149462093,82.87087863637997,-15.130270359842717,-90.03206445870251,-136.58703821000836,2.4763290669121654,0.0,0.0,0.0,-2.962721228731311,-7.796414432418124,204
-63.532156367215016,85.64343757620742,-28.19841851489494,28.29882286208985,107.40138015160956,82.57775719017765,-15.421516995595574,-89.84183767763288,-134.53563043673213,2.3452420870319317,0.0,0.0,0.0,-2.853030579395883,-7.508508898579755,205
-63.13483871860609,85.64097616084507,-28.266203832912257,28.508244686786217,107.74245563506311,82.32175088973187,-15.676876486403343,-89.56160360523727,-132.15838676683134,2.275015388574059,0.0,0.0,0.0,-2.7184181155925398,-7.247535065480074,206
-63.31702985581147,85.34290473627794,-28.303594986420467,30.072962821907943,107.82965622182886,82.63480804526137,-16.661539172969988,-89.32223168715385,-130.55079396431051,2.173039792566364,0.0,0.0,0.0,-2.568578379802475,-7.009182831862017,207
-63.50693435460683,85.03019415666596,-28.327446925548685,31.587956474918624,107.57966673951161,83.68236434966352,-18.161539172969988,-89.05790842136773,-129.9583412878316,2.0706988643893047,0.0,0.0,0.0,-2.434073499731235,-6.7396640160488674,208
-63.591320025819186,84.77027213654513,-28.34047837403351,32.86760781823832,107.85147247853402,83.32586311559314,-18.856756565716573,-88.95988295352609,-129.64692986150857,1.99797953774862,0.0,0.0,0.0,-2.3274432373499865,-6.4272079659492665,209
-63.69313562954211,84.46129561228568,-28.33502013698931,34.267165373866,108.2923601189268,83.03645792602464,-19.058026673696858,-88.94804267795907,-128.0084728748281,2.004692367119576,0.0,0.0,0.0,-2.2307987591306464,-6.135031361543303,210
-63.95138066202405,84.14041098170273,-28.285669399144723,35.804231290991744,108.00141988364881,84.09973119172938,-20.558026673696858,-88.82242751220448,-126.92398290012319,1.984495605855202,0.0,0.0,0.0,-2.199884369164326,-5.805303957145154,211
-64.13841349098105,83.92258701238536,-28.245641477605897,37.122175325938464,108.10182922243968,83.65771571637447,-21.139221699720764,-88.58822473501694,-125.52676639302207,1.930278956581552,0.0,0.0,0.0,-2.1869044505408706,-5.418668472732888,212
-64.30951716938804,83.70399555620648,-28.250090078763584,38.42736788047936,108.23484602183292,83.20421228316069,-21.269716288999504,-88.32545607493866,-125.11518186930448,1.8911358738888673,0.0,0.0,0.0,-2.105635314997405,-5.0325292043717935,213
-64.52099098601782,83.52770356677111,-28.26918706828604,39.60093589996218,108.4279810852663,82.80546664158064,-21.38311604010974,-88.256319883314,-126.16961487867866,1.8565747012826914,0.0,0.0,0.0,-2.0205372365278036,-4.630747388002379,214
-64.86037944202512,83.3303370954675,-28.264567366501414,40.81819716368732,107.99055147241101,83.79663955195507,-22.88311604010974,-88.20214285705725,-128.10392671402937,1.8100171880828955,0.0,0.0,0.0,-1.9661310447695235,-4.25789887402503,215
-65.2090708005047,83.13556223736458,-28.275781528888032,42.12489118686047,108.01840451853224,83.28157382337619,-23.399624383918372,-88.08650523336718,-128.99652013856186,1.7560589032008431,0.0,0.0,0.0,-1.8897904534329124,-3.8945872543469746,216
-65.80668468745631,83.76308934413655,-26.775781528888032,43.23119970044622,108.09121001883743,82.92458507821416,-23.4350368610461,-88.13905531319978,-129.87085017213758,1.7095046404575267,0.0,0.0,0.0,-1.7821245354306665,-3.5121075759860854,217
-66.09893467978728,83.69841439107738,-26.11165374909223,44.27878929813651,108.42986723371432,82.44175543029833,-23.617203013179903,-88.50040444599681,-132.62085017213758,1.6369368484682483,0.0,0.0,0.0,-1.6384173706187686,-3.1553928826480155,218
-65.9186029414283,82.91334317492942,-27.61165374909223,45.281727017934124,108.61092841232825,81.91807825626164,-23.758956413372278,-88.74921497405458,-135.37085017213758,1.5480128514666063,0.0,0.0,0.0,-1.5054465519668025,-2.819907723581537,219
-65.78420172648178,83.0129241035588,-28.689187558947182,45.924113478460555,108.76202536040437,81.49731188153345,-23.862656183369886,-88.85142080359313,-138.12085017213758,1.5055181091974703,0.0,0.0,0.0,-1.317285941309269,-2.5098097106486685,220
-65.6666808813135,83.10422438737544,-28.85741493163672,46.475812237841716,108.28556194977583,82.54204184023824,-25.362656183369886,-88.86501404899468,-140.42898281700369,1.4623227082028203,0.0,0.0,0.0,-1.1321819717292878,-2.253889109418183,221
-65.73686523314382,83.11664541048818,-28.998787087991893,47.09570959710095,108.08924411435535,82.18889448432908,-25.715155696825015,-88.79939805891125,-142.8433975545561,1.2889866544898676,0.0,0.0,0.0,-0.9574505115783605,-2.0339514057456496,222
-65.37932041498038,82.33987791082534,-30.498787087991893,47.781304502913144,107.89019235277532,81.87920796892472,-25.637786302279164,-88.79579890658883,-141.37943342360973,1.1766412386512193,0.0,0.0,0.0,-0.7546552585931913,-1.7793769330736848,223
-65.3636978079228,82.35385002020959,-31.65479766224871,48.38196849980545,108.01174509786313,81.7093137325187,-25.639328795952558,-88.82782487116808,-138.79559023104144,1.1843971165808502,0.0,0.0,0.0,-0.5104774138618057,-1.5087998693555331,224
-65.32653669733368,82.37998080876999,-31.849222838173592,48.804800419941216,107.4212229567259,82.92732487250642,-27.139328795952558,-88.96099984650306,-141.54559023104144,1.180932188149502,0.0,0.0,0.0,-0.26815616667533765,-1.236177106343977,225
-65.30743399225628,82.33128901510335,-31.982019794175766,49.2756531825175,107.43376503218984,82.88298537253168,-27.30408251030642,-89.19680931606949,-144.29559023104144,1.1335166801527288,0.0,0.0,0.0,-0.08023879700725718,-0.9874741861063921,226
-64.90332463499144,81.47094074903193,-33.48201979417577,49.9775883909164,107.46944759199289,82.79095217087817,-27.237493996259907,-89.44470475624632,-146.28496871770622,1.061834168453153,0.0,0.0,0.0,0.13472150527292837,-0.7566307168612145,227
-64.99300059662013,81.35043914598674,-34.57104406132984,50.65183025995916,107.45847353708365,82.64550842124312,-27.206134925444996,-89.64020409213452,-147.49952153695202,0.9447303406308095,0.0,0.0,0.0,0.3495093433635759,-0.6129063390906812,228
-64.86793567707524,81.14911421049139,-34.62091024079473,51.14830206272443,107.13522350573692,82.493172795195,-27.049072221732416,-89.62358788131513,-145.0786020855403,0.7386967528701305,0.0,0.0,0.0,0.4884519848680679,-0.47158568319121585,229
-64.67709085644024,80.86511189180983,-34.6035189304471,51.67762088231113,106.51759831331843,82.32155920045889,-26.73201123097618,-89.41383021161495,-142.3286020855403,0.5768994761411905,0.0,0.0,0.0,0.5725480239429648,-0.2313535447724357,230
-63.96389238079276,79.7954608831031,-36.1035189304471,52.31726080994765,105.98061622176066,82.14842612679388,-26.445691585294174,-89.12666828910353,-139.5786020855403,0.5469590207230208,0.0,0.0,0.0,0.6041286303135692,0.026833822265432232,231
-63.120940641988255,78.78735551909631,-37.6035189304471,52.82544081198605,105.76702562832692,81.9370103470493,-26.313436831726705,-89.17746858172222,-136.8286020855403,0.4355120205186361,0.0,0.0,0.0,0.5842492541885165,0.23119914794888527,232
-62.69415061028802,78.56301927864257,-39.03520515067612,53.10370007447091,105.61690075618476,81.64127864619977,-26.22828396795847,-89.4251404998703,-134.0786020855403,0.3501495994586134,0.0,0.0,0.0,0.5737676829015457,0.40866025006299045,233
-61.662026141808965,77.51451495705655,-40.53520515067612,53.43146998067258,105.8246239663966,79.87097467857868,-24.72828396795847,-89.47371704832004,-131.3286020855403,0.39940494515157776,0.0,0.0,0.0,0.5749025302974761,0.6509817447763356,234
-61.34179324520913,77.14858599812447,-41.16894944894046,53.76488670671456,105.05104225610404,79.40128408939836,-23.897647310514913,-89.21777456858055,-128.5786020855403,0.39671016850333835,0.0,0.0,0.0,0.5584755773507557,0.9246219544041541,235
-60.933061467069585,76.79092763711283,-41.03294346577793,53.937314113312645,103.99400434179762,78.81175261582266,-23.47108863109154,-88.81228745468833,-125.8286020855403,0.32437886114084263,0.0,0.0,0.0,0.5269709415423778,1.1528257274892495,236
-59.702273771322275,75.72691056699267,-42.53294346577793,53.99879058428013,102.94143116791277,78.33688569454017,-23.236614347028397,-88.69660520364515,-123.0786020855403,0.3253877992915675,0.0,0.0,0.0,0.4799243921044252,1.3334830692306259,237
-59.08220806640562,75.3748319887426,-43.09906751466206,53.912108201336004,102.5474403881995,76.776513091826,-21.736614347028397,-89.05584502961456,-120.3286020855403,0.41481802378565613,0.0,0.0,0.0,0.41671559660197954,1.4596030925748984,238
-57.68471106226968,74.1990860624613,-44.59906751466206,53.8108396699072,101.92957686636827,75.21790265711813,-20.236614347028397,-89.26381685988932,-117.5786020855403,0.5749449795060589,0.0,0.0,0.0,0.35450756551850465,1.5144285214448414,239
-56.91345107126752,73.61088737486847,-45.11724069849074,53.69465469596134,100.92371780172567,73.6414191281155,-18.736614347028397,-89.24003288685407,-114.8286020855403,0.7753424190936563,0.0,0.0,0.0,0.35473984704720346,1.544032079893928,240
-56.151670939462434,72.89116695908471,-44.90384949822039,53.599808710685686,99.54832449480958,72.07981445546825,-17.236614347028397,-89.14598522260233,-112.0786020855403,0.9430112568520189,0.0,0.0,0.0,0.3632541917741226,1.6378681270182613,241
-54.6614568451309,71.50253591688995,-46.40384949822039,53.41090203838435,98.02161518278969,70.53337074357752,-15.736614347028397,-88.97928122188024,-109.3286020855403,1.0115171434529209,0.0,0.0,0.0,0.3468456367461243,1.7829422465041451,242
-53.75215198488645,70.8737602847257,-46.961317367332306,52.986443993801934,96.58807422400261,68.99955216958749,-14.236614347028397,-88.72489547712456,-106.5786020855403,1.1066984326874976,0.0,0.0,0.0,0.38364525185136705,1.811839119924464,243
-52.82082729190592,70.08182108834518,-46.76880614150975,52.57321575532314,94.74032719036688,67.52064358179055,-12.736614347028397,-88.45209588562952,-103.8286020855403,1.2598617516340338,0.0,0.0,0.0,0.4250796392375963,1.7587759526800415,244
-50.9887778655866,68.57423788038011,-48.26880614150975,52.07086094338581,92.5016397173283,66.10095663646075,-11.236614347028397,-88.00860460242843,-101.0786020855403,1.4152827334839324,0.0,0.0,0.0,0.46181910864992376,1.776837767797219,245
-49.84501879774063,67.76088057130671,-48.84756794894911,51.327124246926985,90.23313316270404,64.70623902451273,-9.736614347028397,-87.42997444246986,-98.3286020855403,1.593530348650462,0.0,0.0,0.0,0.4748876019301341,1.8184230710467117,246
-48.79905539226372,66.85868329827409,-48.624139987408576,50.62392946800765,87.701698172538,64.84511484140822,-8.236614347028397,-86.77434911430547,-95.5786020855403,1.7618693951387332,0.0,0.0,0.0,0.4853630866889738,1.7860036073834298,247
-47.55460234695135,66.02926613519737,-48.38253797762411,49.702905926510944,85.29981215813046,63.500132846200344,-6.736614347028397,-86.08192794666357,-92.8286020855403,1.9141101086748975,0.0,0.0,0.0,0.44049882239689137,1.7689741195652149,248
-45.44017003201003,64.6527848800482,-49.88253797762411,48.61165372365624,82.75395916162678,62.15481812539079,-5.236614347028397,-85.24975285962049,-90.0786020855403,2.073802596165988,0.0,0.0,0.0,0.37963884798509706,1.7839032699583794,249
-44.20749259416405,63.7796583613987,-50.429274730076735,47.602885624976956,80.00395916162678,60.86699426199084,-3.7366143470283966,-84.38595673338192,-87.3286020855403,2.2562846357506436,0.0,0.0,0.0,0.281165646084509,1.7316809075837858,250
-42.85173523561344,62.926326054640015,-50.12221404389144,46.52541235300415,77.25395916162678,61.07908602298838,-2.2366143470283966,-83.54613046633017,-84.5786020855403,2.496580584069185,0.0,0.0,0.0,0.14270049218803482,1.6308504461995654,251
-40.64930826206021,61.53186151283066,-51.62221404389144,45.38050610272145,74.50395916162678,59.911040334711785,-0.7366143470283966,-82.64575250736141,-81.8286020855403,2.7501697991898966,0.0,0.0,0.0,0.01932571603929887,1.682666934213461,252
-39.10342296199755,60.86659924838226,-52.28582334292084,43.836837020139306,71.75395916162678,60.166011581170544,0.7633856529716034,-81.64318492417436,-79.0786020855403,2.8235545260246715,0.0,0.0,0.0,-0.07024872544731256,1.8379832962478675,253
-37.5354908144708,60.34410987863737,-52.19246655512688,41.9872139108541,69.00395916162678,60.4519773421622,2.2633856529716034,-80.41949868019404,-76.3286020855403,2.812956137491931,0.0,0.0,0.0,-0.1559429431290224,1.9164555248861865,254
-36.00791582082144,59.753250159020304,-52.12851624817782,40.25197252330621,66.25395916162678,59.44977772306219,3.7633856529716034,-79.05005048004081,-73.5786020855403,2.892281137418547,0.0,0.0,0.0,-0.2033136348914141,2.010799520830541,255
-34.45373866684796,59.26867011806057,-52.17888403265048,38.25609085598034,63.50395916162678,59.82616298405808,5.263385652971603,-77.74882618198446,-70.8286020855403,2.9396933794603792,0.0,0.0,0.0,-0.20020316713420697,2.087147495659794,256
-32.855496763394484,58.85855756750241,-52.27801788260227,36.04419912686038,60.75395916162678,60.34793699459392,6.763385652971603,-76.17700003886405,-68.0786020855403,2.989981608851795,0.0,0.0,0.0,-0.2001176170434671,2.1682449513464506,257
-31.767360018503254,58.86735283342562,-50.77801788260227,33.7110142221805,58.00395916162678,60.28557501481174,8.263385652971603,-74.33606391205787,-65.3286020855403,3.0243273840025653,0.0,0.0,0.0,-0.1779299697583243,2.3325370327145114,258
-30.00247388873924,58.50170364228955,-50.198737988002215,31.23369882919107,55.25395916162678,60.29094065844634,9.763385652971603,-72.41652494052995,-62.5786020855403,2.942356753672174,0.0,0.0,0.0,-0.14626930164332907,2.4886715582798526,259
-28.424711508638197,58.62400131684926,-48.698737988002215,28.48369882919107,52.50395916162678,60.36470288865782,11.263385652971603,-70.44755080446564,-59.8286020855403,2.914157539417058,0.0,0.0,0.0,-0.08411806944968893,2.6236216037610034,260
-27.92543767476499,57.796530112509004,-47.198737988002215,28.298822862089697,49.75395916162678,60.566456297503464,12.763385652971603,-68.1902894956664,-57.0786020855403,2.896571445831913,0.0,0.0,0.0,-0.009612009264814722,2.7790696056259954,261
-27.469842749421403,57.030136222420346,-45.698737988002215,28.298822862089697,47.00395916162678,60.94318311955615,14.263385652971603,-65.48774793580193,-54.3286020855403,2.77241504379676,0.0,0.0,0.0,0.08259441191078867,2.9050917928352193,262
-26.8760027823593,56.34052437592683,-44.198737988002215,28.29882286208985,44.25395916162678,61.357277905779576,15.763385652971603,-62.737747935801934,-51.5786020855403,2.7132381302128388,0.0,0.0,0.0,0.16169754630052754,3.0419524187917215,263
-26.254805499781007,55.740444615287,-42.698737988002215,28.29882286208972,41.50395916162678,61.75220364668886,17.25214077882221,-60.0059934178649,-48.8286020855403,2.6562711221129702,0.0,0.0,0.0,0.09380563582949336,3.2115260776788053,264
-26.00752895338655,55.469748829987815,-41.198737988002215,28.29882286208985,38.75395916162678,62.32508461502034,18.75214077882221,-57.2559934178649,-46.0786020855403,2.5934480141288505,0.0,0.0,0.0,-0.01838769177813619,3.433213420097256,265
-25.288709908022664,54.891354469416726,-39.698737988002215,28.298822862089825,36.00395916162678,61.95765217602181,20.25214077882221,-54.5059934178649,-43.3286020855403,2.4950559669385566,0.0,0.0,0.0,-0.0596296308760819,3.657314344238988,266
-24.823478777871205,54.937018001982125,-38.198737988002215,28.298822862089697,33.25395916162678,62.51175908854289,21.75214077882221,-51.7559934178649,-40.5786020855403,2.377072013444311,0.0,0.0,0.0,0.05175874760411806,3.811365113257794,267
-24.286235603111475,55.05769574068541,-36.698737988002215,28.298822862089697,30.50395916162678,62.17031641667564,23.25214077882221,-49.0059934178649,-37.8286020855403,2.287290446558561,0.0,0.0,0.0,0.11946002024751456,3.950217039400853,268
-23.72092750690009,55.16562144214354,-35.198737988002215,28.29882286208962,27.75395916162678,61.945661548500425,24.75214077882221,-46.2559934178649,-35.0786020855403,2.207400305986753,0.0,0.0,0.0,0.04304938362538985,4.155194127891449,269
-22.77278945666363,54.95469753472516,-33.698737988002215,28.298822862089697,25.00395916162678,61.62062240889827,26.25214077882221,-43.5059934178649,-32.3286020855403,2.097899613276777,0.0,0.0,0.0,-0.03164333663959134,4.365000822107216,270
-21.795573809529554,54.81238876521351,-32.198737988002215,28.298822862089697,22.25395916162678,61.92024623663825,27.75214077882221,-40.7559934178649,-29.578602085540297,2.029129900213248,0.0,0.0,0.0,-0.08430732294424279,4.546675407856092,271
-20.720369794455667,54.791158044720575,-30.698737988002215,28.298822862089825,19.50395916162678,61.37108611517467,29.25214077882221,-38.29965889241768,-26.828602085540297,2.0561659335640186,0.0,0.0,0.0,-0.1263240568540495,4.692558723274721,272
-19.50011336414754,54.26056340569183,-29.198737988002215,28.298822862089697,17.057223516807383,60.66573454334794,30.75214077882221,-36.79274952021789,-24.078602085540297,2.0834768226156877,0.0,0.0,0.0,-0.18072828754728576,4.824868339853273,273
-18.186261474771495,53.80164180928734,-27.698737988002215,28.298822862089672,15.105332840794965,59.795203576718976,32.25214077882221,-35.81956329309672,-21.328602085540297,2.0841690289252304,0.0,0.0,0.0,-0.21493923106096208,4.9842631362047145,274
-16.967130714281694,53.39251114190846,-26.198737988002215,28.29882286208972,13.730688391535221,59.344805974574335,33.75214077882221,-35.1707549880796,-18.578602085540297,2.088176299510403,0.0,0.0,0.0,-0.2703500805442972,5.131071054114868,275
-15.643118917360148,53.06276407770299,-24.698737988002215,28.29882286208972,11.893625863958654,58.29869054950863,35.25214077882221,-34.74309602158669,-15.828602085540297,2.091025724261006,0.0,0.0,0.0,-0.32967481340626,5.250660708634985,276
-14.03859660532311,52.31409128702428,-23.198737988002215,28.29882286208972,10.623307053605728,57.702100083906984,36.75214077882221,-34.32331571130028,-13.078602085540297,2.0857161345319204,0.0,0.0,0.0,-0.3600897436712022,5.369734990935392,277
-12.441750108616322,52.19972810065818,-21.698737988002215,28.29882286208985,10.315716575025663,57.17680837434976,38.25214077882221,-34.815824511120645,-10.328602085540297,2.13996295420383,0.0,0.0,0.0,-0.36431633614260445,5.382516051221043,278
-10.792829238820524,51.9403635878641,-20.198737988002215,28.29882286208962,9.261565556279054,56.474759567293056,39.75214077882221,-35.02082678545085,-7.578602085540297,2.1860354123633288,0.0,0.0,0.0,-0.3838221218017485,5.515939064409783,279
-9.043038545246272,51.73809483520877,-19.6878943670803,28.29882286208985,8.419064605059383,55.83735168100477,41.25214077882221,-34.87702110072361,-4.828602085540297,2.195535835408431,0.0,0.0,0.0,-0.32566388354059833,5.614195269870864,280
-7.526475467205153,51.77264494880504,-20.690044737947062,28.29882286208962,8.210812590141034,55.18922401592479,42.75214077882221,-35.69724050617302,-2.0786020855402967,2.130531424907559,0.0,0.0,0.0,-0.2968212779733626,5.86008567665862,281
-6.022254301628015,51.63166615216688,-21.602916427082754,28.298822862089697,7.556200465712949,54.27536118064341,43.72955843690402,-36.407302088242005,-1.5079974885623597,2.0418374414959373,0.0,0.0,0.0,-0.2764293660443132,5.9743821277210865,282
-6.0451576227929555,51.484756629389096,-20.102916427082754,30.767601032479874,7.257301021423805,53.95198232467688,42.22955843690402,-37.16552643604348,-0.06191292485891548,2.022853026143127,0.0,0.0,0.0,-0.26076391075976635,6.05002587495826,283
-6.254409695631196,50.58897818178406,-18.953219550738968,33.517601032479874,6.490578706432999,53.063637009339395,41.63786589201742,-38.43882380207425,1.1644534734463563,2.1079331595180393,0.0,0.0,0.0,-0.26362898101649024,6.041171358924849,284
-6.522564712081755,49.61256340861281,-18.649187897797386,36.267601032479874,6.4232417364485555,52.65460650662979,40.13786589201742,-39.93434184910789,0.47114663207450547,2.1874985568865974,0.0,0.0,0.0,-0.27651755069983286,6.037194456746989,285
-6.5982951324288655,48.74855227096066,-18.435787532345092,39.017601032479874,6.618955723831103,52.03199013782588,38.63786589201742,-41.843996647866625,0.10015211758621025,2.2796726403165826,0.0,0.0,0.0,-0.3192046870541489,6.052639058792306,286
-6.9198033037931985,48.60921816821947,-16.935787532345092,41.767601032479874,6.3109042181657475,50.790852183696785,37.13786589201742,-44.05917032736843,1.143178673162161,2.439762234486166,0.0,0.0,0.0,-0.3773124186864996,6.065250251353547,287
-7.017493260105316,47.601450335031174,-15.495001339592868,44.517601032479874,6.474222234995442,50.47103427954265,35.63786589201742,-46.14650136876847,2.2878685906287015,2.7538722639983533,0.0,0.0,0.0,-0.4156704574239906,6.002366476924247,288
-7.220962184514141,46.338233520947675,-15.081781785386502,47.267601032479874,6.489619866325869,50.16563671873541,34.13786589201742,-48.34986914623492,3.8199176698158537,3.014363203796551,0.0,0.0,0.0,-0.4869081557955289,5.898554321464151,289
-7.3936255277198715,46.286848764997615,-13.581781785386502,50.017601032479874,6.278283936912858,48.78648682231144,32.63786589201742,-50.95228104311177,4.114365679217077,3.196319588406793,0.0,0.0,0.0,-0.547876028425139,5.7759676746392135,290
-7.3859583396517765,45.24948801785203,-12.161192821811655,52.767601032479874,6.683967417404855,48.346454968560295,31.137865892017423,-53.416552004675886,4.49702728375886,3.3779786289272726,0.0,0.0,0.0,-0.6231845408961941,5.643143413100523,291
-7.7808180891978855,45.13487001508809,-10.661192821811655,55.517601032479874,6.345335625259254,47.19093890019388,29.637865892017423,-55.715922685881566,5.758774265927357,3.612781642847538,0.0,0.0,0.0,-0.722126029828591,5.540062106133423,292
-7.872475408589289,43.929478285570845,-9.161192821811655,58.267601032479874,6.66732994781638,46.90973662870117,28.137865892017423,-58.07149636013881,6.2269895498529415,3.7709024091501915,0.0,0.0,0.0,-0.7816872830319085,5.485964084534863,293
-8.147358050245696,43.92375732273363,-7.661192821811655,61.017601032479874,7.086234766513257,46.52418915906965,26.637865892017423,-60.508741414115505,6.56468838334438,3.7981024824094805,0.0,0.0,0.0,-0.8814873403605719,5.492756919651235,294
-8.267366363596139,42.82454076962806,-6.31264094628781,63.767601032479874,6.983420953096349,45.201746104622,25.137865892017423,-62.9748273774741,7.5715804037935035,3.782073493959935,0.0,0.0,0.0,-0.9357452839267456,5.441154546064995,295
-8.592798915888043,42.81296912364037,-4.81264094628781,66.51760103247987,7.274812958956752,45.32095336078177,23.637865892017423,-65.1884032293235,7.964925787734183,3.927272681209127,0.0,0.0,0.0,-0.9763918116016724,5.323307798161767,296
-8.596290239898533,42.84161305145602,-3.31264094628781,69.26760103247987,7.660964161187536,45.577782762937666,22.137865892017423,-67.4842349933519,7.074667159818139,4.05935559157963,0.0,0.0,0.0,-1.0147528932934808,5.206225745627327,297
-8.56772829935943,41.394031416867094,-1.81264094628781,72.01760103247987,7.333823855769334,44.74572746017587,20.637865892017423,-69.69023088427068,7.206772885051571,4.175766607650464,0.0,0.0,0.0,-1.1006955677784678,5.076398058283256,298
-8.332179167452091,41.208335249902504,-0.3126409462878099,74.76760103247987,7.580733348531934,45.02303395796715,19.137865892017423,-72.03626511252628,7.71732138879876,4.343730083945245,0.0,0.0,0.0,-1.173036451788804,4.988395840850157,299
-8.214239435123,40.94268855862945,1.18735905371219,77.51760103247987,7.3451323108682685,44.295533448915585,17.637865892017423,-74.2168385273198,8.780101333694644,4.336613023846936,0.0,0.0,0.0,-1.2337468887285528,4.912583869351641,300
-8.181688911724432,39.826394654939506,2.68735905371219,80.26760103247987,7.585179683157657,44.87373200840453,16.137865892017423,-76.33175664037039,10.481087486560526,4.245077856730814,0.0,0.0,0.0,-1.2740351544575892,4.835601072148652,301
-7.875209255346468,40.15927452348686,4.18735905371219,83.01760103247987,7.442125982339835,44.107339142536425,14.637865892017423,-78.54384748734451,10.815127590941419,4.200513618240352,0.0,0.0,0.0,-1.2905224311148542,4.778609908533612,302
-7.397113095709098,40.57874555488826,5.68735905371219,85.76760103247987,7.4785751471657225,43.583918047529075,13.137865892017423,-80.75113068387725,10.774119280890451,4.143345430493641,0.0,0.0,0.0,-1.3244611049037138,4.698962036607277,303
-7.274763939437021,39.57406757567512,7.18735905371219,88.51760103247987,7.457049052910593,43.40161510998917,11.69859611090668,-82.79034097987926,11.923825799342174,4.070268394433784,0.0,0.0,0.0,-1.393767487203101,4.579892326306158,304
-6.632777420571088,40.080123282072805,8.68735905371219,91.26760103247987,7.8393426971575,44.641198734082096,10.19859611090668,-84.81692984140055,12.371846751686101,4.005989776592446,0.0,0.0,0.0,-1.454791706213246,4.544626756195335,305
-6.290628604355021,39.16160839498942,10.18735905371219,93.06102305050389,8.05787588399584,44.498433321712284,8.69859611090668,-86.86843288779131,11.665980390248711,3.907755602407936,0.0,0.0,0.0,-1.5027981286209546,4.481472223227669,306
-5.534875657947829,39.90754799629343,11.68735905371219,94.8810045311629,8.228083358359761,44.40095526654109,7.19859611090668,-89.00455664166356,11.657335314190645,3.8391441277579856,0.0,0.0,0.0,-1.5717423695927561,4.252121025218883,307
-5.529783280713251,39.11729139101441,13.18735905371219,96.81713777057753,8.103917856405362,44.4367832312488,6.50361392017956,-91.13272086779003,12.441984042276363,3.9449208241708735,0.0,0.0,0.0,-1.6295933760400942,4.044519712596327,308
-4.844432327234187,39.907460514667925,14.68735905371219,98.62577811208146,8.22298027280709,44.46997677910299,5.815806642518655,-93.36145328546785,12.692899854445875,3.95816304851605,0.0,0.0,0.0,-1.6556055342250324,3.961017013523245,309
-4.928608577986323,39.189258204744355,16.12283767687454,100.38733928968483,8.47996876708616,44.56245044173242,5.300512068741687,-95.46482289753651,12.781283277225368,3.7720720864339086,0.0,0.0,0.0,-1.69759280885871,3.9001644718361033,310
-4.3260145640702,40.091336213787976,17.62283767687454,102.17332560256847,8.836490332628793,44.679291548336984,4.859172607597035,-97.46756495990422,13.786072784906441,3.5628823648531105,0.0,0.0,0.0,-1.7316595953613905,3.8541324207004464,311
-4.802533325502187,39.52742045196108,19.12283767687454,104.14642376939392,9.279893337175428,44.800045224912736,4.5003166058297355,-99.47774831392518,14.47783476550155,3.4772928375925023,0.0,0.0,0.0,-1.803286322169235,3.7991845709716197,312
-4.3881691753050704,40.75604327726234,20.62283767687454,106.03700163623499,9.912830115888994,44.82370206052478,3.9830405468041117,-101.64671343343518,14.054996596091467,3.4772625566746496,0.0,0.0,0.0,-1.9029892714224954,3.7039044482243964,313
-4.845488334909919,40.44294100297057,22.12283767687454,107.76660602703697,10.546837616661634,44.85193922911628,3.4202508395721427,-103.8547592392858,14.557141307699508,3.430276963771311,0.0,0.0,0.0,-1.9771475142884292,3.573934185694533,314
-5.528063608538198,40.09884368890204,23.475657081650276,109.53941790953942,11.200347781594026,46.740333172873385,1.9202508395721427,-105.9467783530159,16.91005131089842,3.286935814416538,0.0,0.0,0.0,-2.018778613154833,3.4391555891760195,315
-5.323942565204111,41.501962338093605,24.975657081650276,111.4194894540561,11.830436825423476,46.99476426203093,1.294538460960707,-107.92295893894722,19.59373238360253,3.1358951504520025,0.0,0.0,0.0,-2.0771302357106736,3.2996931240425282,316
-6.283628498371485,41.44382311339122,26.475657081650276,113.27565355368161,12.605847819498967,47.167513981311274,1.1394446527056856,-109.93125019858417,21.01898071742696,3.077380479609131,0.0,0.0,0.0,-2.158856597080231,3.1451939730755534,317
-7.232436868728059,41.42178650200613,27.975657081650276,115.0384442928023,13.405040230784087,47.288730677431,0.9239957550387036,-111.92214833204802,21.322700601992704,3.0442800040593716,0.0,0.0,0.0,-2.245721461907181,2.992822480268014,318
-8.253475255730073,41.62802453990984,29.475657081650276,116.68557589039665,14.464927165429257,47.40890615645688,0.7089461347393499,-113.88938352019572,21.31930927682753,2.9546712385223053,0.0,0.0,0.0,-2.3088263987847744,2.8722259648123907,319
-9.469680452721194,42.08322875349376,30.975657081650276,118.2768591814739,15.587881876902273,47.63541374983456,0.7413124512936691,-115.72958902109548,22.886350884232975,2.8344599909104877,0.0,0.0,0.0,-2.3514019382313416,2.763884961135778,320
-10.761383879883521,42.589590021160724,32.374189222237895,119.85507787752722,16.639419388361578,47.91496686470082,1.033447555079184,-117.39914763052585,25.09306045045619,2.687366927029253,0.0,0.0,0.0,-2.432578423147927,2.6219952595289246,321
-12.044461580640807,43.253902059360435,33.552573218709746,121.3575829551891,18.024639708797217,48.109650850174404,1.2223880127158762,-119.14173495151367,24.8292800023954,2.564505222591929,0.0,0.0,0.0,-2.534938201277958,2.5150294748449658,322
-13.548117580789045,44.2498505747766,34.67172189682697,122.81735959400734,19.70280425791468,50.12277832541589,-0.1530226996896455,-120.84466086598587,26.027018570211062,2.4103799180325045,0.0,0.0,0.0,-2.6432184661422538,2.45166999603678,323
-15.110247174823744,45.54260962904842,35.652824830445134,124.15038859679701,21.452604964906865,50.28282532073441,0.13683389636462667,-122.46509258163935,28.777018570211062,2.2192839912682656,0.0,0.0,0.0,-2.7808781040995783,2.3642370860997,324
-17.860247174823744,45.4534259698535,36.00655661252068,125.44374528285871,23.30938331449745,50.47309479294081,0.4646693389374408,-124.09970140757405,31.527018570211062,1.9900241419619429,0.0,0.0,0.0,-2.8895304842103426,2.2763693925978608,325
-19.696458426679467,47.06204013264574,36.81252457191529,126.66754358548937,25.318683357302938,50.759876995118454,1.009381140751783,-125.60456889506526,34.27701857021106,1.8325915562795776,0.0,0.0,0.0,-2.9743511635368116,2.1595996431683853,326
-22.446458426679467,47.415065583873705,36.974266552177916,127.86877257415398,27.42762031983597,51.067340655481196,1.690104672484261,-126.88785840668356,37.02701857021106,1.7895853023963286,0.0,0.0,0.0,-3.0689674960488897,2.0626007165789524,327
-24.422306883441667,49.56753713734788,37.47116128897466,128.95241212740308,29.598016228026516,51.320327359029775,2.3217971198198164,-128.04684707462079,39.77701857021106,1.7744885484900668,0.0,0.0,0.0,-3.1733677729195526,1.9636245695393806,328
-27.172306883441667,50.48180946751254,37.48479183407298,129.87307976722892,31.784844347385476,51.671164977779775,3.1578557516527397,-128.94740873968632,42.52701857021106,1.7857222083301696,0.0,0.0,0.0,-3.2586331607586727,1.8315044887658525,329
-29.922306883441667,51.586490595492876,37.11205177580182,130.7485752169156,34.02024746966636,52.118030048496294,4.157158194345911,-129.64921309173712,45.27701857021106,1.7918218718917296,0.0,0.0,0.0,-3.3228818136661324,1.7104142200665609,330
-32.672306883441664,52.98899389039875,36.06287147060619,131.4034449235862,36.46286591771397,52.25187519821809,5.3567345921129,-130.17324365487994,48.02701857021106,1.7183419156472917,0.0,0.0,0.0,-3.3661111854109365,1.641658005402952,331
-35.16308997162899,55.00647992784126,34.90296675806067,131.80908722139796,39.21286591771397,53.85307581593154,5.357753180042201,-130.4249657299215,50.77701857021106,1.6793251209743056,0.0,0.0,0.0,-3.4019532338790857,1.6399453128281987,332
-37.91308997162899,55.557854734902804,33.40296675806067,131.96952238143453,41.82552938855325,53.49356129652356,6.857753180042201,-130.5296968890455,53.52701857021106,1.6943505153516323,0.0,0.0,0.0,-3.409068676589671,1.6202442027085364,333
-40.47284432366009,57.646240764436975,31.90296675806067,131.96835764896983,44.55437449568351,55.01284399881911,7.2095621251086035,-130.48372196752058,56.27701857021106,1.7676934307973067,0.0,0.0,0.0,-3.407072111055509,1.4980684319738118,334
-43.22284432366009,58.034086236550145,30.40296675806067,131.7793760255434,46.83950457280109,54.426527565581885,8.709562125108604,-130.32553816515366,59.02701857021106,1.8462218053148483,0.0,0.0,0.0,-3.4002925561321873,1.3679603058086682,335
-45.53759710954398,60.09830632823758,28.90296675806067,131.3780578585108,49.4390723927887,55.64576201130686,9.326576466327747,-129.8507437480193,61.77701857021106,1.9117144497992256,0.0,0.0,0.0,-3.367654774195991,1.3174346711615341,336
-47.23307557187869,61.978871959564465,27.40296675806067,130.7533782511435,52.15961403246065,56.83476827492959,9.608385305623113,-129.05265661201503,64.52701857021106,1.9343987165628562,0.0,0.0,0.0,-3.312190919200453,1.2485380104503454,337
-48.8726694108693,63.53297368678326,25.90296675806067,129.90528867414903,54.512610720396154,56.04049683540487,11.108385305623113,-128.1156452704696,67.27701857021106,1.9814874275167063,0.0,0.0,0.0,-3.2599631125286264,1.1557915886873718,338
-50.78708340248305,64.82143133616881,24.40296675806067,128.96172366011916,56.81708577791312,57.01284183890756,11.992045494178747,-126.91702636961645,70.02701857021106,2.068098438649567,0.0,0.0,0.0,-3.2128226186962237,1.0553141263521533,339
-52.78008341659667,65.84441052561984,22.90296675806067,128.2398940069101,58.69945600983621,57.854712672165775,12.527180706638857,-125.5213567489234,72.77701857021106,2.244230279692148,0.0,0.0,0.0,-3.2092804060983284,0.9476000823450339,340
-54.769858035893556,66.75423256349566,21.40296675806067,127.52543448812237,60.729813961261065,59.578881482341615,12.081739787221533,-123.84552104126651,75.52701857021106,2.4226041007953336,0.0,0.0,0.0,-3.2117462086173814,0.8211036732702519,341
-56.17427711780753,69.31976248506719,19.90296675806067,126.59543218980394,62.40378942836309,60.007600939844,12.735437712402684,-122.0552514357955,78.27701857021106,2.560619528752609,0.0,0.0,0.0,-3.203332384133853,0.7165245807477804,342
-57.85106212658513,69.7297613287524,18.40296675806067,125.65321566858876,63.55111886708568,60.462288978831474,13.510046787586575,-120.06170350098785,81.02701857021106,2.7459761287576816,0.0,0.0,0.0,-3.248866736136273,0.5933078038454076,343
-59.235523475020905,71.71178905241077,16.90296675806067,124.94539656417216,64.75669588455136,62.64769413324561,12.426719750035547,-117.99702564916346,83.77701857021106,2.8485939663948328,0.0,0.0,0.0,-3.3096155342174627,0.4309551693885254,344
-60.82399428228087,71.5357859774827,15.402966758060671,124.51699236746455,65.39622583865915,63.006738648808856,12.99579102253257,-116.10630437909951,86.52701857021106,2.977754983825247,0.0,0.0,0.0,-3.330202570825735,0.24776349685964805,345
-62.44175127967541,73.13488705884372,13.902966758060671,124.13405777415313,65.73346528404228,63.39743566629485,13.648568694184016,-113.97170497702281,89.27701857021106,3.0858648054469175,0.0,0.0,0.0,-3.379365436099675,0.05357284302316608,346
-63.70508101059291,74.42121490613917,12.402966758060671,123.8129628360828,65.34821413260269,63.92394161780115,14.413778620337954,-111.51181535648246,92.02701857021106,3.0590219523213364,0.0,0.0,0.0,-3.390616447732184,-0.08620139603728319,347
-64.51967222230142,73.76704118544963,10.902966758060671,123.86633699675953,64.90373500411205,64.44953839419364,14.995235854258778,-109.15380041388877,94.77701857021106,2.8870874837360896,0.0,0.0,0.0,-3.2993713310818964,-0.29985304833271265,348
-65.57163123713842,74.88571612832665,9.402966758060671,123.88656892056025,64.26641307496726,64.90143397073895,15.476892710659664,-107.00369661484271,97.52701857021106,2.8306544106956553,0.0,0.0,0.0,-3.211685425731537,-0.5387202739019976,349
-66.33165399040907,75.83844159783054,7.902966758060671,124.08370109548464,63.341362186136,65.45362656769335,16.04783838808541,-104.61584673914786,100.27701857021106,2.68837590988845,0.0,0.0,0.0,-3.1146352188106787,-0.803446757762619,350
-66.49184025533701,74.85796938853136,6.402966758060671,124.49213305980851,62.198652312448694,66.0068951974355,16.598415790893362,-102.20317493651955,103.02701857021106,2.500595195984796,0.0,0.0,0.0,-3.0154128060503473,-1.0880600680801376,351
-66.91268329877371,75.7919230954742,4.902966758060671,124.79726596774408,60.45026997325144,64.85952647642067,18.098415790893362,-99.94117062392168,105.77701857021106,2.3513115014116464,0.0,0.0,0.0,-2.9627903464267424,-1.220649228171778,352
-66.65118118356582,74.93387149795937,3.4029667580606713,125.02368491372623,59.09195456723516,65.31502085286245,19.579871020992282,-97.56150993036069,108.52701857021106,2.2798095218505714,0.0,0.0,0.0,-2.946406424912199,-1.2578579907142222,353
-66.5644389976013,75.69907222744474,1.9029667580606713,125.44008898900022,57.691538268505326,65.7895319481411,20.088290628300232,-95.15741107747944,111.27701857021106,2.201687881760868,0.0,0.0,0.0,-2.9181697065743903,-1.409997076764764,354
-66.277948438841,76.44866119717292,0.4029667580606713,126.00020790192643,56.32908672914171,66.14999071281514,20.46131695591049,-92.92001997302563,114.02701857021106,2.120857202076898,0.0,0.0,0.0,-2.8787711571593197,-1.5532297268011734,355
-65.31110645662,75.46908454016146,-1.0970332419393287,126.39461853851788,54.22764133089447,65.02769181553863,21.96131695591049,-90.65687616567288,116.77701857021106,2.086419629403106,0.0,0.0,0.0,-2.8551308397212756,-1.6234982185308422,356
-64.88116010691931,76.20509489481476,-2.5970332419393287,126.66908726213644,52.599170531628964,65.38467823818942,23.25711392310939,-88.26237094280874,119.52701857021106,2.1023808284179264,0.0,0.0,0.0,-2.798790421875941,-1.657313533096617,357
-63.645836949895426,75.12109482531012,-4.097033241939329,127.06290613434699,50.76208337460544,65.74972295151096,23.601921907614702,-85.85066969498826,122.27701857021106,2.2235567050749077,0.0,0.0,0.0,-2.7507000634955956,-1.6246912861976783,358
-63.07658310878667,75.78967205862722,-5.597033241939329,127.41642513898171,49.206855011339364,65.91512434751894,23.73368440162753,-83.74848095939782,125.02701857021106,2.3429482551415366,0.0,0.0,0.0,-2.667333121814419,-1.5723059845899863,359
-62.682352708582094,76.37764839764553,-7.097033241939329,127.81216973498847,46.96959267767783,64.79926980292367,25.23368440162753,-81.8059024668181,127.77701857021106,2.504090419857249,0.0,0.0,0.0,-2.577220767273026,-1.509748931480323,360
-62.238834057516534,76.96113104073737,-8.597033241939329,128.06294481502707,45.390953073669564,64.97368063688717,26.195306068818176,-79.9798943095369,130.52701857021106,2.6570439524118066,0.0,0.0,0.0,-2.4882382160482326,-1.4725524073350238,361
-60.7193582567661,75.80275432497417,-10.097033241939329,128.2379536796014,43.02217441316593,63.953534940505406,27.695306068818176,-78.15980402626374,133.27701857021106,2.7248600361095647,0.0,0.0,0.0,-2.390519082796735,-1.464050786709001,362
-60.156308325316985,76.24719903144157,-11.597033241939329,128.5801588507232,41.139338190562235,64.21378190999131,28.791188574351,-76.32269676445961,131.33882649077376,2.719120300864458,0.0,0.0,0.0,-2.32399553485089,-1.4466899010149261,363
-59.66947950220991,76.68610797394365,-13.097033241939329,128.96363681646483,38.53299501253457,63.36903284963202,30.291188574351,-74.53101197443341,129.79462321926826,2.785015101472023,0.0,0.0,0.0,-2.283392124697365,-1.395596010135646,364
-59.092854391415294,77.08868636173267,-14.597033241939329,129.2086349301689,36.80104566910717,63.650571978359665,31.536557228436905,-72.80159460902158,130.46162745435942,2.8885775359972223,0.0,0.0,0.0,-2.2017215676187916,-1.2651767580695619,365
-57.441002153935955,75.82084879953321,-16.09703324193933,129.4496092712273,35.08079650547578,63.93491833444443,31.698704095204143,-71.03608264347645,130.6819069520503,2.9980960194680937,0.0,0.0,0.0,-2.12101055795026,-1.1355476868801584,366
-57.32205209319729,76.88166153504491,-17.59703324193933,129.70106235475552,32.56955724639677,63.14367427060726,33.19870409520414,-69.3417767737066,129.4430074787633,3.0596004548671387,0.0,0.0,0.0,-2.0573445544318614,-1.0984614007853408,367
-56.582625129549456,77.28630258507145,-19.09703324193933,129.78629197074852,31.0186520993736,63.44996295610484,33.906768859881545,-67.93380865974554,128.66133597780342,3.028613738751025,0.0,0.0,0.0,-1.9976776871965602,-1.0539683318536408,368
-54.7079766924264,76.082854591218,-20.59703324193933,129.85104378105098,28.45484819163353,62.63176534588614,35.406768859881545,-66.510950179308,128.33430297563345,3.028753367266074,0.0,0.0,0.0,-1.9227321959972619,-0.9692679168995002,369
-54.156121993634414,76.34227487162742,-22.09703324193933,130.12561597915675,26.572321724899318,62.956079324746305,36.906768859881545,-64.9141044529412,128.06929096680105,3.052424367132527,0.0,0.0,0.0,-1.8633903125021063,-0.8700770482923516,370
-53.64660298403612,76.6650838705471,-23.59703324193933,130.33561722718605,24.611144516353196,63.41935594197744,37.48903545794304,-62.97979511198039,126.89823321957985,3.0078243452720215,0.0,0.0,0.0,-1.8243033200206544,-0.8046152376905189,371
-53.001942620535075,77.09336107038456,-25.09703324193933,130.42373639635753,22.64276650864691,63.792422777105244,37.90825316024025,-61.1328271131525,124.14823321957985,2.8712877361838576,0.0,0.0,0.0,-1.7789871653901723,-0.761778927645879,372
-52.377642837044824,77.30050111882898,-26.59703324193933,130.74339629764873,20.769318690806305,63.974115369348276,38.26185528787962,-59.823654053857645,121.39823321957985,2.7788399944859346,0.0,0.0,0.0,-1.7564839896028288,-0.7027441429612791,373
-51.110368696264416,76.07821353140619,-28.09703324193933,131.04795476100475,19.107897126719877,64.08109651137416,38.6437519057957,-58.79473259585832,122.0056296902037,2.720227505371097,0.0,0.0,0.0,-1.804340630477236,-0.5863933147750263,374
-51.00891184970953,76.48454792912655,-29.59703324193933,131.37867225965223,17.880136247540445,63.954528628932536,38.87248862935441,-58.01908296246552,124.7556296902037,2.6205553638390144,0.0,0.0,0.0,-1.8416762271098688,-0.42202404599498583,375
-50.59363200358802,76.8833548867112,-31.09703324193933,131.24486036617856,16.55962355878249,63.95836706406733,39.13725301445747,-57.135629622915495,127.5056296902037,2.5431875940879984,0.0,0.0,0.0,-1.8468558375426702,-0.2715370733362241,376
-50.26361358508412,77.11863437720027,-32.59703324193933,131.24270149112118,14.71975689948682,64.44280371336122,39.625719614450446,-55.54120427632291,130.2556296902037,2.5118696722534697,0.0,0.0,0.0,-1.8286830040829603,-0.11881263777331635,377
-50.47329325228268,77.06537834153109,-34.09703324193933,132.04334115886417,12.303549065282015,65.38233324538352,40.39591213978951,-52.79120427632291,133.0056296902037,2.542089593617057,0.0,0.0,0.0,-1.8742786660972985,-0.008508917325463588,378
-49.98811225117076,75.83961374415847,-35.59703324193933,133.47724401512232,10.514316388092046,66.67463191027501,38.89591213978951,-50.04120427632291,135.7556296902037,2.61814114804433,0.0,0.0,0.0,-2.1307393874366856,0.24476597777989764,379
-47.23811225117076,78.2637233820182,-37.09703324193933,130.72724401512232,13.264316388092046,63.92463191027501,37.39591213978951,-52.79120427632291,133.0056296902037,2.3144195449177176,0.0,0.0,0.0,-1.8021512464546217,0.3709427222897626,380
-47.67821155201031,76.24580997431136,-38.59703324193933,131.75038919293968,10.514316388092046,66.58982963856778,38.6796427263111,-50.26286642537938,133.89662408298204,2.352017604429016,0.0,0.0,0.0,-1.8109056759544562,0.5916267873323138,381
-47.281085810744024,76.44479788577765,-40.03227590199316,131.6318296260769,8.123313990877588,66.79189828748233,39.394067169797296,-49.2813005910585,136.3770481458882,2.314319512050666,0.0,0.0,0.0,-1.8124310989696437,0.791825921950538,382
-46.94527432414817,76.60731772987592,-39.88197109328465,131.59526349763013,6.933493502394918,67.23270689414504,39.59068442901001,-48.352804028239646,136.20044854811488,2.2127753164196915,0.0,0.0,0.0,-1.8210747450364058,0.97443762023167,383
-46.68521686515678,76.7259821862228,-39.709472887794966,131.70445765116642,5.676227681669985,67.76517829381766,39.815663311351685,-47.36125988681224,133.45044854811488,2.1236585002162736,0.0,0.0,0.0,-1.8320689506267234,1.1818910750095348,384
-46.54554631211591,76.79197302607771,-39.53202587430484,131.885821514049,4.476833927856574,68.29867260596419,40.03575687460993,-46.24888645116781,130.70044854811488,2.0656816387032353,0.0,0.0,0.0,-1.8389343125448612,1.431756899178209,385
-46.357154216012184,76.95067101404351,-39.386272639880744,131.98715685904526,3.401083090465,68.75350634293561,40.22335295550204,-45.17495592008606,132.48392497216471,2.0158181521744325,0.0,0.0,0.0,-1.8446556499403988,1.760730381944777,386
-44.804048044731694,75.75296601568701,-40.886272639880744,131.89299087953793,2.3954001510809606,69.25298642010146,40.443284198984564,-43.90538222380365,133.8207682698452,2.0051684632041575,0.0,0.0,0.0,-1.8643990615017927,2.086396666524191,387
-44.26958376063639,76.0490347421432,-40.856674030116274,131.65733608547194,1.433007306463944,69.79490623040708,40.66752578571323,-42.62824605404132,131.84660380211372,1.9924003871999914,0.0,0.0,0.0,-1.8832922761699111,2.3435498560017916,388
-43.77582395001717,76.20097456983169,-40.55421441339007,131.6916572323818,0.30015087633356424,70.57105528006414,40.94367560514497,-41.16154914466161,129.09660380211372,2.0148353243849866,0.0,0.0,0.0,-1.894323856666134,2.584698015930999,389
-43.36209074092769,76.41936247933194,-40.345466753505484,131.67489541565035,-0.6416239611216833,71.1319849095616,41.133165890210286,-40.080146879439745,128.5341516187506,1.9983528895306892,0.0,0.0,0.0,-1.9006380929493598,2.881318085042853,390
-43.02898754713864,76.65088321182206,-40.18140352656441,131.59104843624775,-0.9368058237188855,72.21801198092851,39.633165890210286,-39.03032722491071,129.8092204824597,1.9888067052748355,0.0,0.0,0.0,-1.9217275534891487,3.164906758838691,391
-42.87736314719606,76.83322235953906,-40.02382302567652,131.78511089993933,-1.8354938061716362,72.89449362036764,39.14258691868386,-37.64042703481668,132.31472603812216,1.975667748207088,0.0,0.0,0.0,-1.9774493917892557,3.442984676376575,392
-42.77325472619542,77.06519019441636,-39.9452929260263,131.94330239549834,-2.496568958676598,73.30225976634428,39.31955979209391,-36.49658280134618,135.06472603812216,1.9858231542230873,0.0,0.0,0.0,-2.0157964816087732,3.758363056290793,393
-41.21257597509771,75.93506116173394,-41.4452929260263,131.80936217798185,-2.8059055695659407,73.36501653468765,39.36265497249533,-36.012356439611125,137.81472603812216,1.9949744794902735,0.0,0.0,0.0,-2.0268870943839534,4.044503784822606,394
-40.93454795354103,76.22038954939131,-41.63778155578357,131.84824012098565,-3.3792472331037104,73.73085719513043,39.48054208631159,-35.08038577956185,140.56472603812216,1.9357640158395693,0.0,0.0,0.0,-2.0298541102575647,4.262649086573057,395
-40.759707712543836,76.52446654778959,-41.54549475556011,131.9747891160503,-3.6424996920648938,74.66685873714268,37.98054208631159,-34.09059209354741,137.81472603812216,1.9935965640860018,0.0,0.0,0.0,-2.099803098554849,4.528379389241123,396
-40.75102446730506,76.79929280213405,-41.50832373660122,131.94282815156998,-4.031660707902776,74.94106231992771,37.41914611843822,-33.51563402896405,135.94686872538495,2.1042421209928306,0.0,0.0,0.0,-2.198304101832557,4.749549657014157,397
-40.66682410122989,77.07461787462654,-41.50999038201223,131.80209366335652,-4.161483953130543,75.09574940181811,37.51419649297568,-33.342699939816114,137.29756983434473,1.8836964540250651,0.0,0.0,0.0,-2.253654787664864,4.933778646488847,398
-40.57259982807088,77.2754496531288,-41.4324738543494,131.78474046315804,-4.503546318462529,75.49814778311823,37.66078389372911,-32.84298724041476,134.54756983434473,1.6951840468950765,0.0,0.0,0.0,-2.2989823617907432,5.1508365554870545,399
-40.675397473217636,77.36183295620707,-41.30053390860317,131.88509712351032,-4.968245574740789,76.02269842384763,37.89307449237897,-31.959338058658208,131.79756983434473,1.7419015868400771,0.0,0.0,0.0,-2.394767410843784,5.36726454642534,400
-39.50161281968088,76.08689630980311,-42.80053390860317,131.9268577250272,-5.243199295892175,76.30831708837438,38.08183538270955,-31.373815166540616,129.04756983434473,1.7616611887842355,0.0,0.0,0.0,-2.5076401004880005,5.516440333869641,401
-39.60733856784224,76.34121847815065,-43.06937417906964,131.91440445301845,-5.4063608747636565,76.39413339717096,38.209022001585346,-31.07466249300212,126.29756983434473,1.6875164390714228,0.0,0.0,0.0,-2.608485745393103,5.674350237132119,402
-39.723211116157906,76.60830140369494,-43.083964113681645,131.79891452697782,-5.517657871061956,76.48866307058447,38.371175456916866,-30.809593881263744,123.54756983434473,1.6649335286908702,0.0,0.0,0.0,-2.743225739844586,5.815278352830644,403
-39.82231072073169,76.84896031250751,-43.0543846069535,131.6751139697704,-5.332043304661197,77.20967585016768,36.871175456916866,-30.494242998876025,120.79756983434473,1.7507552866981262,0.0,0.0,0.0,-2.887084462906446,5.955152713903364,404
-40.001297116426926,77.03635537440616,-43.00229608938131,131.77500272260775,-5.525617091193738,77.44634565319488,36.36001192259842,-29.97770494933709,118.04756983434473,1.874411607693568,0.0,0.0,0.0,-3.0372758151357244,6.1211783410982505,405
-40.25250123317595,77.27562992201432,-43.065636809358615,131.84199992785577,-5.9908918161515725,77.1278070186714,37.86001192259842,-29.499477319486243,115.29756983434473,1.925706213087088,0.0,0.0,0.0,-3.1886599640348448,6.241515542052721,406
-40.396805290235726,77.57189762813788,-43.13851117443516,131.71095033845313,-5.917400761080311,77.05284176457361,39.101345411566456,-29.459025024362475,113.7143159701451,1.916936509660712,0.0,0.0,0.0,-3.3229458380619357,6.360687132620998,407
-40.54322613389001,77.80985106220963,-43.18428209880344,131.5718772871543,-5.580643145735338,77.56562769097056,37.601345411566456,-29.27711705669556,112.28930854275876,1.9411116156871673,0.0,0.0,0.0,-3.422012133711365,6.529021028606031,408
-40.73897924354195,77.99667321052691,-43.26688922705699,131.60957025255598,-5.663532981262059,77.75031217190592,36.927798373534934,-28.757807442775007,112.7929920046612,1.98626058099093,0.0,0.0,0.0,-3.505962830769032,6.652615530984954,409
-40.8746675408386,78.25797090680814,-43.36453976231281,131.61559592662127,-5.62577019400246,77.66512470026447,37.02264396219087,-28.567407763402514,114.31815558653568,2.006928529842592,0.0,0.0,0.0,-3.6081481791894032,6.750376534317734,410
-40.95458045676023,78.50752647131634,-43.4116193442317,131.403919180597,-5.367063360900783,77.39067272193554,37.05067923985533,-28.873573756077704,115.67635675589568,2.0271714302255,0.0,0.0,0.0,-3.691603704554235,6.901108705708155,411
-41.07690439142398,78.58828207480182,-43.384971095326655,131.2918964376749,-5.253191120806679,77.36558016161437,37.118497260564695,-28.74542417620267,117.64424465062226,2.102665612646865,0.0,0.0,0.0,-3.7565657697346624,7.030298930056448,412
-41.22753596838172,78.58587951421146,-43.38500493854921,131.35059361442907,-4.9479640849430355,77.93365145047903,35.618497260564695,-28.298822862089704,119.76667386263435,2.150926471018104,0.0,0.0,0.0,-3.811736523964457,7.058160744947046,413
-41.22048226242836,78.66265421577985,-43.41709684991257,131.30693508780598,-4.678736484513796,77.75362058158386,34.77569632192037,-28.459400728045612,119.60978365731249,2.0885963070303606,0.0,0.0,0.0,-3.8310501825429486,7.058957271447905,414
-41.3170183355944,78.68109120471561,-43.379725126287724,131.33483681039633,-4.457000168290906,77.65309753788881,34.804618474004535,-28.52836997583567,119.31830010235748,2.06075242844786,0.0,0.0,0.0,-3.876698530652933,7.138165468286781,415
