JMW9912/AVATAR/Dynamixel/dynamixel_control/data/csv/poppy/0427_2131_13_18_waist_test_motor_degree_comparison_5DoF_bvh_motor_degree.csv
theta1,theta2,theta3,theta4,theta5,theta6,theta7,theta8,theta9,theta10,theta11,theta12,theta13,theta14,theta15,frame
-95.22115145328934,22.09678288457968,95.27613377082073,28.298822862089825,0.0,6.752362764410201,-75.53460956166059,-28.29882286208962,11.949525018099951,4.227855492074081,-2.1207448039576726,1.5574253403185632,0.06106657397293583,0.736096783755453,2.8051766135533356,0
-123.43459094589973,92.53062308336024,51.71531464242389,28.298822862089825,41.413621603277754,102.66248418541848,-75.53460956166059,-82.44534863374884,90.0,6.000000000000009,-0.7334739441429222,0.464323372604364,0.14296101948450518,-0.6507424253260541,1.710294439704166,1
-65.72262679992305,80.68834954375218,-26.100506235090847,114.06828011655155,67.41613350870517,61.301754160137946,3.5227234752195127,-138.84829198295162,90.0,5.758163456354852,-2.1564854632193553,2.859862956728699,-59.268731278319095,-0.5610153349652652,1.5676611299321137,2
-65.53115376300516,80.4854029255715,-25.74059576030143,114.98057539404816,67.10112056005323,61.378915115268754,3.7232900484266973,-139.0244233274453,90.0,5.369641274067865,-2.2550443331884793,2.950577456457164,-59.47765954277219,-0.44632427025609905,1.4589474168923193,3
-65.41287769568787,80.30871991160899,-25.305166128342226,115.87662012667593,66.92442926170479,61.43111656666333,3.942130490501692,-139.31754386015356,90.0,4.985252643564808,-2.4345387440074693,3.0895848254845157,-59.72119466950342,-0.31449160719175895,1.395978443000698,4
-66.25665815435494,81.77286474198822,-23.208534014219456,116.78407929847377,66.9120470155353,61.68073305220929,4.532843272813597,-139.56279147525603,90.0,4.639048549335143,-2.6192800050891853,3.164574332915454,-59.92159406319666,-0.1821071586461434,1.2828737943240243,5
-66.30333649414979,81.52169510840463,-23.070656431843794,117.67320566851039,67.51511032287188,62.22338115511932,5.11346097222107,-139.8174573271273,90.0,4.318567866548605,-2.671011276454871,3.2493287283507786,-60.169826804302936,-0.02882702800584361,1.168026577531999,6
-66.28639685951141,81.31749596202255,-23.0446052344562,118.51338059241392,68.25483059365902,62.623422724990355,5.306531842925206,-140.124785517173,90.0,3.9325093738680272,-2.709320897184699,3.475519012847918,-60.47103475947307,0.11154764131094298,1.1537600669623418,7
-66.34248756342417,81.20807647262963,-22.9852989478441,119.29026245498932,68.93320803165929,62.858802824119834,5.439131607863607,-140.50521400048203,90.0,3.536214689675498,-2.88896313467501,3.667045307054892,-60.75409226068733,0.2895639982148828,1.1377648620558296,8
-66.55516448160294,81.00999470999326,-22.78988311666705,120.13398613778834,69.61486974073621,63.171179564067245,5.779152135268993,-141.04091957782256,90.0,3.079851040550859,-3.0686812125135323,3.8836468721205892,-60.962551951022604,0.46789241100563356,1.1038419956007928,9
-66.95692102196767,80.65780904490387,-22.593427640024707,121.09248396640749,70.36412551055535,63.623801990475975,6.20019067203811,-141.40299567564807,90.0,2.6492791424404665,-3.1315050170392293,4.076317469511413,-61.12121936796832,0.6413005476805611,1.062144674077792,10
-67.18622832158842,80.28809952723641,-22.70500057858945,121.99082329697976,71.84620095809375,66.13682398741204,4.75852899985692,-141.6176536041738,90.0,2.284825318352512,-3.053494614261989,4.280063280776576,-61.41393812911067,0.8201777161546201,1.0258756135006395,11
-67.45657651828816,79.97094712572266,-22.800629149328543,122.6714669918487,73.30881700435955,66.66856059140285,4.828022386920197,-141.90883148499967,90.0,1.8970398696491235,-3.0336461664672085,4.546435902226264,-61.769182580893805,1.0010854284112545,1.0394174964335916,12
-68.64040766081698,81.32269391413733,-21.041469521666027,123.31288019583943,74.87794928923937,67.25813563441076,5.2434887987449414,-142.2279818979092,90.0,1.4831357449366058,-3.049419002389112,4.791024019113185,-61.96789544751695,1.1895984384710043,1.0494843304552104,13
-69.38573831945371,80.87768612640025,-20.892244280878288,124.05313343935568,76.3506165113635,67.89721903887428,6.091681201529368,-142.42081657963533,90.0,1.0529464110490663,-3.0346666559092705,4.9651711050768865,-62.043816237614365,1.3534017237951956,0.9730310754223159,14
-70.02491831889643,80.44010455160068,-20.94749400237059,124.6933609965181,77.9375926996093,68.50583751249836,6.613581284175902,-142.51093326527675,90.0,0.6515508195530731,-2.946220399594875,5.13040372753125,-62.23695296709531,1.5126314005160595,0.8706234271909016,15
-70.62214098679975,80.09109144863166,-21.19158673459736,125.16960335372143,79.53624271668588,68.98792495094429,6.71960977089864,-142.52361599993372,90.0,0.31397512887503115,-2.910109061023059,5.338317781975078,-62.49878703206546,1.694699994789774,0.8131683341710415,16
-71.51445032627176,79.79298479578249,-21.33425904994124,125.60439356097312,81.2437830322667,71.42451243097307,5.540428746057342,-142.57200195558246,24.73770412113162,0.016620630020064853,-3.012606695767293,5.546396797106553,-62.699004886743126,1.8864978558326362,0.7537505042446025,17
-73.17460055070792,81.21809014851121,-19.792304995821077,125.98201452070553,82.7615155457808,71.4658157955212,6.453206342629615,-142.67357689365204,14.171694863070144,0.3548542104453811,-3.052854294173091,5.797414244572161,-62.891390758372175,2.0272611994555203,0.7285335293153462,18
-74.23984030177078,80.84298212288405,-19.913786369475307,126.40000232512651,84.22508486938248,73.3759090171243,5.49111306697046,-142.57855748899095,8.043613758747217,0.5306488973476119,-2.995279932199561,6.032279344809643,-63.03604381216212,2.112553765049518,0.7809433049140684,19
-75.33204639641853,80.42663278273899,-20.148621360014605,126.70272943852478,85.09362173317952,73.12754719405737,5.4575146932199665,-142.40332271377036,9.277308703444449,0.5341436859451015,-2.9729408530539403,6.217242469682845,-63.213803734268765,2.1643159793883116,0.8986162707135918,20
-76.72341079718828,80.62354702222478,-19.855175078372497,126.81026179132566,85.68611096157191,72.91220829235391,5.319743841640926,-142.2737627060106,15.238334496617096,0.42981519284578834,-2.9476583523294266,6.287361386364662,-63.37340633170901,2.17102664510392,0.9620138424492042,21
-77.97342616894603,80.77243090390682,-19.678921933354665,126.86860795041926,86.29804590226658,72.69535998097528,5.0708485914413535,-142.13434406287755,-7.91298959896201,0.21290885830207887,-2.7864616175291745,6.349938721567272,-63.47937356371516,2.172095780064018,1.0220778192921147,22
-79.02891471158114,80.8284212562578,-19.541032057729375,126.94381498442596,87.03593415636882,74.22407780229526,3.0731174449855754,-141.92811421938984,-90.0,0.27763879524358454,-2.640443971873631,6.512502422148787,-63.56508093123458,2.2207609981326537,1.1987696403104078,23
-80.21810699736822,81.0079763160166,-19.243519486784677,127.00822400484817,87.14553252309425,73.55267984760091,2.234983048446664,-141.66138386547613,-90.0,0.520746502655591,-2.6859555647088538,6.63065582419491,-63.56216620392997,2.3133142115258765,1.3645897737189778,24
-81.34964915885472,81.2208675579705,-18.942225701754086,127.05449749207031,86.91679363047825,72.62075620152412,0.9453229807894213,-141.43466946271923,-90.0,0.7787560492122335,-2.8162907904849486,6.674519381656662,-63.557578739165955,2.439782137156387,1.4270683940795257,25
-82.50687892105174,81.36979289597683,-18.531142729099468,127.13822550862251,86.44637808603369,71.69284103719986,-0.41726884195214603,-141.39756874990877,-90.0,1.0322459434075384,-2.968994518140306,6.791723902382678,-63.54787223944452,2.56023705385622,1.48531857335304,26
-83.4983741998021,81.42155700628692,-18.213771674341622,127.13211250976941,85.9589502823688,71.04745332749931,-1.6090350831034945,-141.38105690352472,-90.0,1.3580284869967936,-3.041831397194541,6.912168729427062,-63.53953797177232,2.7166533458874143,1.5470650769276466,27
-84.20354814140154,81.51948864914921,-18.11090398922444,127.03437229836928,85.54228310944926,70.49360085138638,-2.836356263830313,-141.31072899503644,-90.0,1.7191585171648565,-3.0250305181600474,7.090624811137436,-63.511342368434875,2.903959335239245,1.6253895937342302,28
-84.85363849568981,81.61595233735456,-17.9367383931829,126.95502523354939,85.10869471772277,70.38690138717232,-4.47729891835746,-141.38985198908154,-90.0,2.0639730089720993,-3.1003806661660707,7.244589146334762,-63.454705807291695,3.115061331727397,1.6612683053016726,29
-85.6830754272113,81.64906826959673,-17.452769148110253,127.02633628106064,84.31187189005522,70.14248166591912,-5.5863163013682895,-141.45767861237354,-90.0,2.315730602168891,-3.243362701390995,7.377874413628734,-63.239519576803836,3.3451932611088533,1.6421822689568146,30
-86.41370885715767,81.65318223589988,-16.99488829992468,127.16110845396244,83.29022438694005,69.91148426247092,-6.592120341106,-141.51060864620803,-90.0,2.5721335240158787,-3.3039436971569676,7.534354805793279,-62.96292741570669,3.589831747403505,1.5939045984218414,31
-86.98548822460951,81.68038229802107,-16.63660550465639,127.15898597315739,82.3766517458798,67.61910419789939,-6.575311427130995,-141.64609497620356,-90.0,2.842702358503827,-3.348020388297029,7.754898447561299,-62.73513942298905,3.8278392660239047,1.567443833062302,32
-87.61280921355346,81.53793389970224,-16.06639136154792,127.49687119768666,81.19450511982576,67.16936192722689,-7.789271500989185,-141.76616026863172,-90.0,3.1145171060304144,-3.4515934873944616,7.939067531866873,-62.45909081707045,4.077596307954318,1.5000622324291595,33
-87.63497332396057,79.89492056685707,-17.187908655040857,127.19498647932608,80.06784941282625,66.73213816352583,-8.755116055657407,-141.89647138356784,-90.0,3.358883483239031,-3.607325304878188,8.123121955410998,-62.129133176437136,4.348986802747341,1.3883764504565714,34
-88.39244397955383,79.86442904280574,-16.446946420464883,127.5496861615427,78.94434202985202,66.23942661987242,-9.825231017731666,-142.03289794724537,-90.0,3.460689299826402,-3.8195534751272935,8.314914779925779,-61.708786217246505,4.667274521165639,1.2429675259857325,35
-89.21345496447117,79.88006184427344,-15.522944504574074,127.95157655241599,77.94714304866027,63.61862041439966,-9.541118077352372,-142.16782619246968,-90.0,3.451153442073914,-4.11783316433293,8.563018253272253,-61.191487501553794,4.982496995565234,1.1063612105609077,36
-89.72635678933511,79.93551472167151,-14.75934786240988,128.03087907050207,76.55579968286776,63.00517207257811,-10.038366484084431,-142.26223469225272,-90.0,3.5561916936268503,-4.379707712426966,8.87355385128023,-60.733362855591345,5.252113628895187,1.0263026135948947,37
-89.96540811948162,80.00042331689116,-14.331192289870975,127.800246984275,75.8819778948532,62.782016085390254,-10.518521860726427,-142.43191740295956,-90.0,3.8351941879493516,-4.535163925604342,9.140194935336142,-60.43317480973028,5.500958779252625,0.9559141456727809,38
-90.79343035470187,80.14199919425947,-13.561879376191424,127.79685159136417,75.33423245339121,62.698669208151706,-10.44982308257618,-142.5675426820706,-90.0,4.019214867330392,-4.7840443055598,9.415128790656375,-60.01374314641441,5.755427218054154,0.90924902925968,39
-91.69224599566452,80.21818923303643,-12.735091348374832,127.84633388720923,75.35345860327975,60.873372064784064,-8.81194880183644,-142.62986189874775,-90.0,4.196793852840125,-5.040649403624285,9.663393147328373,-59.612407010448614,6.00951322744685,0.8514765628075041,40
-92.19077520744358,80.25881846258135,-12.239456357148647,127.80801135334913,75.85901470918922,61.22507829932504,-9.066099915977627,-142.93371791565886,-90.0,4.367627657910167,-5.299114604534017,9.822898600367896,-59.37495184389844,6.3089601884883715,0.6876845625865476,41
-92.92366825935814,80.4369175155904,-11.451984133999627,127.82727770609681,76.78555939959317,61.80963892640471,-8.886253660851503,-143.52693125044513,-90.0,4.398681841563148,-5.745267042342761,10.023656447363175,-58.95561520739194,6.666075318239832,0.5113010374391215,42
-93.57746456630557,78.84165075470624,-11.908412990904663,127.87407049773778,77.681592696068,62.62574286030923,-7.581945769203809,-143.98057384629433,-90.0,4.434247492942495,-6.1432662405856675,10.226802375318684,-58.29675289209106,6.948941110719955,0.3541446435230819,43
-94.42599703744396,79.03722051390666,-10.99113033562487,127.81598638293033,78.99068294701455,63.54131310650613,-6.629132180413044,-144.36582236328152,-90.0,4.517298437326983,-6.309254810213753,10.422537247366108,-57.7225721506347,7.094844703046127,0.23255218636712088,44
-95.57356185233638,79.28181348065772,-9.916753089016707,127.77364476303796,80.58161048856361,62.56870565465451,-4.604709786408799,-144.69552437804361,-90.0,4.516258780699829,-6.495994231643146,10.518866370436305,-57.082898219533305,7.197561497209737,0.11491029855377582,45
-96.83559429948002,79.45723757903141,-8.81550831773101,127.75118569053768,82.05078074188205,64.55018595860854,-4.35324407232463,-145.0540094394438,-90.0,4.583559819967426,-6.635727476565885,10.57593526644579,-56.49080238412896,7.255381699342054,0.010877204584810037,46
-97.80615672974801,79.49146376422725,-7.914400106768585,127.64288381724788,83.94908102022158,64.94248531323015,-2.7754964018541095,-145.25807443853648,-90.0,4.743078011149949,-6.5041746691573,10.621117202740836,-56.019803912311765,7.141019146856715,-0.0625406541742621,47
-98.81366920564047,79.47912995502016,-7.079298954362215,127.44543336996924,85.94372356223651,65.33948423282291,-1.130685290502722,-145.31093215912696,-90.0,4.875587211937185,-6.284560328552577,10.508114093556353,-55.62501776898068,6.932009977896249,-0.17751865333078665,48
-99.95741788404395,79.38645131595568,-6.23575703110614,127.36399452175746,88.43841757183327,65.79839457000394,0.2927687269128319,-145.46374045360272,-90.0,4.993923920638229,-6.155483096317527,10.27977421495875,-55.29434743663582,6.822186175922994,-0.3604936673417373,49
-100.91191340901361,77.62215604346692,-6.905360525478524,127.37061615746846,91.05310542994827,66.22531132355448,1.9100433734733515,-145.5352034478909,-90.0,5.0333121993420376,-6.160929143605283,10.129263740951094,-54.832467272467184,6.795395298095828,-0.5015890612757956,50
-102.05008017619413,78.04360871688425,-6.062900287537101,127.17580078487607,93.29405299017715,68.19131010387486,2.466321628685798,-145.5147256671179,-90.0,4.9398437756341735,-6.256260979511571,9.970864680922379,-54.26149916695201,6.691261397918525,-0.6531744947744815,51
-103.35275233490226,78.44533768435453,-5.119978733402274,127.01107090617788,95.24205210457333,69.6919600301017,3.0886349318089668,-145.40849687720186,-90.0,4.754453487254574,-6.343473025243177,9.765215336089303,-53.698723777676946,6.493019590701655,-0.819987384639591,52
-104.77862438342802,78.6991443246375,-4.183561494107214,126.93013324014417,97.04526398744177,69.02716340500484,5.040944697361203,-145.18817561684725,-90.0,4.558825586979337,-6.487825781690703,9.501883345622694,-53.271466942393225,6.323599843162319,-0.9941863500942406,53
-105.80203319328658,78.75131448461637,-3.4815452234641073,126.71807444088292,99.30599024220427,70.14512057989776,5.0874013796716335,-145.02993564918268,-86.18988219635887,4.418365039469058,-6.66289083240548,9.222825857361043,-53.076944328263096,6.177886112178504,-1.2034838293706067,54
-106.72782993162946,78.95126549832555,-2.910419809104028,126.55101248348355,101.5098784206896,70.88129017327827,4.997627663142496,-144.87406420638462,-82.79415618173164,4.305811755557214,-6.928513626114885,9.021208982749252,-52.87056676689638,6.082759895478908,-1.3626775808858376,55
-107.90350631981633,79.2780585547376,-2.163813134346585,125.86817391027692,103.09644249604625,71.48638814294517,5.317243857778284,-145.35199786533315,-76.65783051695945,4.017623807672798,-7.392233651653313,8.465115089124184,-52.52264524329416,6.042807970157659,-1.883768508111191,56
-108.54344285214343,77.44450580821588,-2.93096955352502,126.08091867874768,104.79071144612051,72.07640731062617,5.478420657430782,-144.58836998993823,-72.35332918941921,4.512183644637322,-7.171266617286129,8.49265042698934,-52.007997101324854,6.0029425614774015,-2.0109186633692504,57
-109.58010171587607,77.86426193504977,-2.2330200102385835,125.87702765172271,106.04270702316076,73.94871155094663,4.162934829455806,-144.24474242038713,-68.70285979630131,4.444354946684461,-7.625361636987865,8.428080951305153,-51.59151245448475,6.030996920748572,-2.130762797734339,58
-110.67323893525143,78.04409841795105,-1.4900540182079567,125.58480756262992,107.04959210485431,73.80326552657807,4.072813238991387,-144.3308118753297,-64.82683453066109,4.468229223520474,-8.176855605624462,8.237514257312409,-51.31758710832589,6.1522083352644845,-2.437948185047932,59
-111.46293156017894,77.95271040180356,-0.7371729442094548,125.588394405681,107.97876497042387,73.52350073212283,3.6895259815795587,-144.0332114460212,-62.010602977544195,4.8509204253575895,-8.430692665573812,8.18154024819276,-51.060487934776724,6.300893385954595,-2.733967300719862,60
-112.08416783316625,77.98021387707998,-0.11351172155906525,125.44085504744022,108.41905011021933,74.68953544994528,1.6672042938457583,-143.55451305648126,-57.86684408646544,5.154778050598704,-8.773618604363474,8.202195486213482,-50.84871399536173,6.397377748038288,-2.9791790334002295,61
-112.34493190178783,78.12279169775283,0.1364450728731289,125.24931847900893,108.71209883992348,73.62296930092506,0.709795054871296,-142.97050693120522,-54.208671545313074,5.437571708802749,-9.169010009932816,8.381448402419974,-50.826586905302044,6.40510914855504,-3.05671918147005,62
-112.52443991463137,78.55830273943866,0.1975699184759434,125.11164616019727,108.7665644506385,71.9473330890354,-0.5009461719668102,-142.12944055375294,-51.95838047723478,5.4831888848581745,-9.718499525521498,8.68763576568679,-50.806980846882695,6.320731201435829,-2.895683140545914,63
-113.53972464795105,77.17659215647097,-0.8053749637561878,123.570592804298,108.10715848008937,71.85906688399291,-2.7278498577635393,-143.13207783594896,-44.44358153193914,5.185640017073161,-10.812685192013388,7.84727060704292,-50.54429958123305,6.3247446053694185,-3.7343385834829594,64
-114.34043977263956,76.99099672314549,0.07962959406968138,124.51622417177776,107.53966075395248,70.42358257346486,-3.620369735147569,-141.08369799271716,-50.574941915234916,6.000000000000009,-10.118111112836123,8.443236778441783,-50.14681453477221,6.124006466543011,-3.4840680297876414,65
-115.44642723823259,77.61274034831445,0.5273616851194065,123.1053535571314,106.53492990633688,67.71906175622043,-4.534339410767574,-141.22061788870153,-47.2352757756648,5.59829152677435,-11.121199139562616,7.984304552242262,-49.90948631428219,5.93684069249381,-3.7569754049904023,66
-116.27673005532095,77.95519303737817,1.0773789376164749,122.61008515467772,104.98654618205624,67.29005371581933,-6.540869366375041,-140.5063623938451,-48.49033081779269,5.699236803437408,-11.209795327725518,7.71924005392427,-49.47077324212215,5.692484978968041,-4.006890980444323,67
-116.82928660716578,78.35873315589625,1.426032735119336,121.94791887263088,103.10278071920408,64.48599835079341,-7.158784405994613,-139.80518102396482,-49.270594166077466,5.75837154462599,-11.367197552759505,7.41282196247659,-49.10294968730579,5.409934110507597,-4.257511904974033,68
-117.3761456614339,78.5998082107579,1.787791339986114,121.38127188373197,101.06926525309699,61.69093982220265,-7.661680651592562,-139.05275760566514,-49.28617733881188,5.885149284108486,-11.441896796684667,7.1083200828083,-48.82347486264802,5.1246154993451425,-4.4618542497953,69
-118.1409644807311,78.75554717972852,2.308560198281926,120.90916247763164,98.35445987349033,60.726919330277596,-9.105286491670732,-138.05548947223036,-48.953974410247326,5.981103636509645,-11.41250916474772,6.876194029830034,-48.51291122781519,4.829381186292161,-4.544955887349487,70
-119.31368004670828,78.89036354580966,3.031175185112587,120.50155853916482,95.39684901561591,57.57283035568084,-8.79188469605852,-136.73872173410237,-50.06930323026453,6.000000000000009,-11.35350990338385,6.601777117440557,-48.129448286367946,4.498925261322361,-4.6033786200250315,71
-120.30136196149161,79.0111595696031,3.6518412660804254,120.08274599084812,92.23220767861253,54.39203399688466,-8.19303901099353,-135.23134020295205,-52.131141719784225,6.000000000000009,-11.387227784336545,6.230377778483717,-47.772445837074876,4.259312067368058,-4.711490871774035,72
-120.96209626328586,79.20488472402252,4.226137205108179,119.52771721930363,88.1662023807613,52.97093256077752,-8.341406667907988,-133.51970358090043,-53.4810831122084,6.000000000000009,-11.478862535333333,5.952897013483024,-47.38081137739066,4.0266754521092185,-4.803214206944361,73
-121.5954485284773,79.37353609500427,4.906322426459546,119.08570721537822,83.3763756231537,51.5621827165134,-7.708590322827574,-131.1828512739874,-55.26008588731657,6.000000000000009,-11.441892229032991,5.671276303198879,-46.934412567706694,3.7116554994049995,-4.884825278975607,74
-122.05951811923998,79.41578509817603,5.570224023870322,118.69777665480152,78.38751543743133,50.4269042329688,-6.652883155789974,-128.40176667910984,-57.28048198044516,6.000000000000009,-11.379642288455967,5.3423800796904715,-46.57703769562216,3.389797932469377,-4.979226542904414,75
-122.30412125973747,79.40870180235143,6.2490763165125465,118.20011297196073,73.35726189992303,47.6127551989747,-3.8299411060164235,-125.2460481536161,-58.17823276033747,6.000000000000009,-11.305145609192296,4.96176289687509,-46.23140461806206,3.0348536028551516,-5.157735319567082,76
-122.5597460550714,79.4417921210255,7.089940014816712,117.72374037098604,67.51379647138769,46.88336806076716,-1.6706390648984095,-121.55867251703057,-58.76364905107621,6.000000000000009,-11.195656983581767,4.445614783041814,-45.74306728326757,2.6308016486859853,-5.517259592970492,77
-123.19256293938398,77.71136894033533,6.56313761218137,117.55964634359323,61.24317447511791,47.20959006537533,0.5225837843372299,-117.08663771915663,-58.51871277054481,6.000000000000009,-11.001577942431561,3.9673656346391746,-45.15729727815919,2.1660750639752737,-5.929438967140858,78
-123.39970357821464,77.77757186075655,7.532166976028575,117.35612285637336,54.9052960080486,46.31991174469309,4.312013586379205,-111.96799138842697,-56.80863638306354,6.000000000000009,-10.753275247183668,3.6337025158145315,-44.62743564704719,1.6572708039377564,-6.21367875960191,79
-123.4494991604788,77.85319434233801,8.473073382774409,117.0451230650815,48.31031600494523,47.60281182309131,6.857810024741507,-106.38323849267438,-55.86633828626219,6.000000000000009,-10.498686741614467,3.3404928459182432,-44.09356655725813,1.1311571563413876,-6.383156161380399,80
-123.9284271825238,77.97783377567306,9.553342096538282,117.14448180268323,41.265233058939884,47.686422058927036,11.60290562675395,-100.41131587506412,-56.48332242882529,6.000000000000009,-10.184753398111779,3.0815840892489246,-43.53475877980718,0.507047228173422,-6.454265747827283,81
-124.48391085261986,76.299990498824,9.090012909577615,116.88161811831449,35.15539016783715,49.896015516350275,14.066740918895045,-93.81576048168849,-58.69857054864376,6.000000000000009,-9.796586213215162,2.6327346471227906,-42.89112205408975,-0.15603987198184038,-6.547033849741286,82
-124.98892517196177,76.56582654561505,10.276954178651948,117.18559056210823,28.954583947194028,51.07184703201676,18.477200619854095,-86.94707613210656,-60.927899812395076,6.000000000000009,-9.519610725902018,1.9976868153538312,-42.06387025446014,-0.7335352592357541,-6.807480548686387,83
-125.56711812627769,75.20152518902856,9.930961130884967,117.36599715417354,23.908230157568227,53.85100806422794,20.213845437598298,-80.85511697858826,-60.04018607954013,6.000000000000009,-9.463953502494794,1.6233508494089741,-41.197012607918445,-1.2881660605642964,-7.00272141981624,84
-125.72693621378004,75.65317380940712,11.126165100230036,117.42295163954768,19.249669896267473,55.52569439167292,23.65676298688187,-75.42709258000468,-58.52822804393673,6.000000000000009,-9.436903341337043,1.3093755727025247,-40.271347420221495,-1.8190921429925337,-7.11594864493934,85
-125.71757213225536,76.02497822473072,12.329170336521587,117.67328080783595,16.119534842701604,58.52432866001241,24.089455740623972,-70.69753080222327,-58.01753197928382,6.000000000000009,-9.378920174383586,0.9577456927477155,-39.34306595324043,-2.3058716314087717,-7.245158244594141,86
-125.83052541875371,74.71532843080749,11.964209936797111,117.96572813052593,13.80667960589913,60.0760892173238,26.18858471362586,-68.36307071786472,-55.333260935347326,6.000000000000009,-9.472529305647408,0.6935981516427007,-38.37381904789525,-2.763206387374422,-7.393806185479195,87
-125.4542773963546,75.35233605977241,13.020786794118763,118.24075258834098,12.88796678995631,62.67875733387974,25.68379502264631,-67.7276155807078,-50.8820289783561,6.000000000000009,-9.73744820786738,0.5413853107451516,-37.32994720409613,-3.205793846106662,-7.494203557808398,88
-125.55381610276905,74.20433772409321,12.605203093652113,118.6521385263042,12.406606685611695,63.9800553829697,27.137066406930437,-68.87602572102749,-47.38168403983932,6.000000000000009,-10.062117644528119,0.2892492615172052,-36.253943871339295,-3.5884053741346102,-7.669297721582593,89
-125.48384981578404,73.03377965222917,12.314722113712609,119.22745994315885,12.537796623060736,65.35372382714237,28.311997372811568,-70.9558251952886,-45.55673942986023,6.000000000000009,-10.266155714237176,0.158780381451506,-35.06957009793555,-3.968765295144416,-7.8167618222864235,90
-124.74432540039017,73.71434177493674,13.516351128333318,119.70696492555514,12.900509071180904,66.95225474876361,29.52075797693555,-73.57048175695654,-44.999717769280835,6.000000000000009,-10.426157441475654,0.07062132650163035,-33.715053621253794,-4.374290305449174,-7.9919957298544135,91
-124.41084800284186,72.66033497200453,13.374493202112458,120.38790825774092,13.473996299161575,68.71323699584548,30.75170279671603,-76.41672888031175,-45.15503419972072,6.000000000000009,-10.550489079504533,-0.01611375867877415,-32.18862156349383,-4.7705754479333855,-8.219784897090113,92
-123.66820762960548,73.60145202951243,14.720228761789242,121.26053530139913,14.164040435796604,70.46560845514514,32.118711102149625,-79.16288281124167,-45.1068676362607,6.000000000000009,-10.75019218710024,0.07305808722457569,-30.501850084444488,-5.176673660448167,-8.398596431239406,93
-123.33499770500285,72.93528118806847,14.730839650706892,122.07844236404276,14.90313854712836,72.47872341716938,33.753091728792015,-82.05485714765085,-45.836690520177925,6.000000000000009,-10.962855562321097,0.22791392033319355,-28.554209412536142,-5.635474567313551,-8.571619721061914,94
-122.41446326964427,74.15337579226808,16.32415236175019,122.79526255592242,15.893577949195402,74.70703030268703,35.544072958047394,-84.7534223299595,-47.24381426093045,6.000000000000009,-11.02874892932687,0.32496226961817243,-26.274923190463618,-6.189055692777632,-8.83697847617913,95
-121.69154960991719,73.47676025873952,16.63794203993437,123.3627119388736,17.037752868653783,76.87387370946489,37.40662327465377,-87.01243849232893,-48.6375076291602,6.000000000000009,-10.971381347233795,0.4968868944352534,-23.83700376888716,-6.807684795260052,-9.130062001763257,96
-120.00216457463671,74.33378247979319,18.26771183017532,123.86166591550167,18.386363142229797,78.78809789324032,39.326582975728144,-89.31343631651767,-50.387064373549244,6.000000000000009,-10.875145377540415,0.7754783679867006,-21.44859402453083,-7.438642914230158,-9.391461707396303,97
-118.61481824006951,73.17745410130696,18.421391945955335,124.40182389279809,20.186991366677525,80.35231995382374,41.3028285512265,-91.97201698971801,-53.59533827823234,6.000000000000009,-10.73777186326812,1.1530731155108183,-19.067122164304863,-8.045808014049397,-9.545473013750076,98
-116.58417328112199,73.7015967994116,20.04168972809483,124.92747402091152,22.256140139647716,81.7393047948885,43.467470997657784,-94.44770096991958,-58.59813408258137,5.446658258980185,-10.63247248843593,1.632683466850186,-16.45853632331013,-8.580924941002104,-9.584340608655804,99
-114.99204631542645,72.2196300798828,20.276659693686234,125.28043718451993,24.401503790486483,82.83537841492522,45.72560712854147,-96.54343481138179,-65.63543786474115,4.771625778005273,-10.560400703298331,2.141077670895903,-13.762553554735913,-9.047308001503449,-9.59744094553656,100
-112.48228874669803,70.15969557618969,19.93097370307791,125.19972548714948,27.731134492781948,84.47949659074114,45.95732618275997,-98.69223574058307,-73.5834251508223,4.222287320495744,-10.52398570482775,2.6942511054993807,-11.348471391300224,-9.451137905967123,-9.567685860092412,101
-108.7527659714547,69.49828664796686,20.43059313631756,124.94441515819035,29.933888597930235,84.5751908277793,48.07713654325534,-100.99127918485229,-82.84976801345881,3.68844524905347,-10.567459165080516,3.269591450533368,-9.06309903781192,-9.752601501939576,-9.502748133789112,102
-106.81444599445226,67.10609797976856,20.283890123287357,124.13797589061818,30.852492106497614,85.09989319715038,49.93595540798487,-101.41964685557575,-90.0,3.4664437669118016,-10.625184994510636,3.8291048977738824,-6.653117073396417,-10.09819526106089,-9.512493382716759,103
-101.36788038704825,62.247643976306996,17.212665072255334,123.47565732992275,33.685922367181526,83.62793739384645,50.369047024622624,-103.53727374703854,-90.0,4.3839172349107045,-9.901308041330216,3.97460080313156,-6.030116169918088,-10.287738502094024,-9.56336317857716,104
-95.3613903142289,60.607129811379366,15.907620148849151,122.44855657682999,37.45775420182885,83.4920690717267,49.723424964327194,-105.61221713058033,-90.0,4.496184329506177,-9.72291112562134,4.349024783920363,-4.651472685711569,-10.37915478566085,-9.645564634869503,105
-90.41522770803192,57.873410169147,13.78608349189529,121.04942934714651,39.38452084092197,82.45107913090987,51.50596264950709,-107.23439263896726,-90.0,4.081894269731478,-10.001438580684555,5.0227141022330395,-2.630988106444771,-10.356150668555353,-9.657033580494417,106
-85.46425786102228,55.63711274644309,11.91490038583956,119.11175595855498,40.97971781832611,81.48307924384198,53.51133315814642,-108.13606431421941,-90.0,3.6101947426618164,-10.479234732823725,5.802489072128227,-0.19836792816419305,-10.280104174229463,-9.597128840423363,107
-80.75999039052859,53.723511172462025,10.348824453660376,116.89971958559781,43.65018513834662,81.63955944327108,53.516991332189,-108.35323282121763,-90.0,3.7129789648907185,-10.91267120764209,6.48365952541633,2.3805295118887853,-10.248781037194691,-9.601249488458816,108
-75.88070368838436,50.00642303885164,6.861193532888543,114.33128814178278,44.81541703606897,80.65215278511528,54.96771956502127,-108.4820763533805,-90.0,4.437866580813088,-11.185673227456611,7.0627110464552585,4.640468449885958,-10.193475958659386,-9.65814551473629,109
-69.62193038808553,48.16026873340962,3.6559838423576387,110.86334485285242,45.99906773379716,79.54377032527059,55.932736938512946,-108.5733209660737,-90.0,5.115573234567626,-11.269224853355183,7.381865249655191,6.6121148737382,-10.124572326731125,-9.869718187821857,110
-62.68477973986586,46.544715632951394,-0.08227198594716105,106.83081695513216,48.35479630894957,79.53657389430664,54.65886074273736,-108.64800052770545,-90.0,5.5278791254241275,-11.212078777316712,7.909235902365901,8.366766988839565,-10.027897415548239,-10.015916907351027,111
-55.51171920086191,45.2939663906978,-4.238034601432563,102.35866301002936,49.14782404727197,78.74129149430463,55.079965453416996,-108.44760680397404,-90.0,6.000000000000009,-11.034185326737171,8.48098487648042,10.039742773142446,-9.916226182608552,-10.034950784113818,112
-48.03295876778163,43.00023211670679,-10.778372696195245,97.45028007133209,50.51036761193125,78.21089127043545,54.77644597092774,-108.23076133138842,-90.0,6.000000000000009,-10.813598680965605,8.830985356084685,11.61792980987537,-9.771953002152284,-10.122243369689555,113
-41.27640505449703,42.84198702126832,-15.144154262872247,92.26563302424327,51.43198250235381,77.46090497935317,54.883464131666166,-108.14207560361224,-90.0,6.000000000000009,-10.676022374516005,9.131782593977762,13.167615934385955,-9.538352056202578,-10.274945057872593,114
-34.333893466731055,41.62202593615749,-21.604957648122557,86.75856675366768,52.04600746228175,76.8400978398327,55.181807839449824,-108.06631751215528,-90.0,6.000000000000009,-10.58047476300659,9.441077801558258,14.763159259846072,-9.268960578463325,-10.405424509715731,115
-28.390706905088773,42.104619632048674,-25.516506418210998,80.92648487953934,52.40464269022737,76.43380966989449,55.65293757278282,-107.7903375390762,-90.0,6.000000000000009,-10.46614504384258,9.668432636475165,16.4450960156515,-8.981079312468626,-10.563037556559033,116
-21.07401625117338,42.12899597081238,-32.6727536772997,74.60853114336517,54.56014143719318,76.85881833544325,53.86810474866603,-107.88876355119636,-90.0,6.000000000000009,-10.331016265588215,9.779254327313481,17.85461913937939,-8.667736042283261,-10.780956342559383,117
-15.802317006515493,43.60497161911415,-36.18967456574019,68.34764737675977,55.09070524136522,76.23237669772558,54.355445201301336,-108.13398930773981,-90.0,6.000000000000009,-10.329413017452353,9.913470360001106,19.27680236743391,-8.41601520667204,-10.982465053856695,118
-11.280442139078662,44.80055573227996,-39.65968311931911,61.98579788642467,55.146924456957805,75.78032707068166,55.02051202488718,-108.34393287714954,-90.0,6.000000000000009,-10.303096865950895,10.07971482458152,20.66917717141466,-8.296927729049216,-11.064433270580164,119
-6.572786805582795,46.67664694564508,-42.87210091823803,54.53738635182727,55.979402717645094,75.41879502780398,55.585600724480344,-109.29495735933972,-90.0,6.000000000000009,-9.992424786034098,10.3173330658709,21.879086090583634,-8.189175055478232,-11.001176046838728,120
-4.567704628852784,45.57820675371532,-45.82947541350543,50.46949017772047,56.09094986011535,77.02914118968907,54.947370796864746,-108.05796843797218,-90.0,6.000000000000009,-9.321536856895804,10.390219778566546,24.1754723638563,-8.450063694657572,-10.996661260417513,121
0.5516161598585402,48.4406501193934,-49.722354765394385,43.45478747901636,57.27736720231157,76.71805670422347,54.37940523978124,-109.18489207663173,-90.0,6.000000000000009,-8.433146420927107,10.57813238798398,24.23377927805147,-8.516717838255541,-11.00516280478133,122
2.3238623739301163,48.836181039523204,-50.890765913139376,39.07186855814925,56.93726579970887,76.78063587678295,55.21771247043924,-109.283134497285,-90.0,6.000000000000009,-7.9190235084304135,10.683369355575337,25.641235118964378,-8.719535259367603,-11.0339623461378,123
3.913357750942703,50.024557847806335,-49.69598622399269,34.99145321159015,58.04835047110533,77.93065981081003,53.53071593758898,-109.65674164851337,-90.0,6.000000000000009,-7.218940498267824,10.942350168178862,26.42540774256081,-8.956819753903943,-11.030877607568952,124
7.755916604650502,52.53177048485476,-52.248160762393624,28.29882286208985,59.68626006348771,76.05773904258258,56.440812928825835,-112.70484726284056,-90.0,6.000000000000009,-7.277201710299467,11.16698383455663,27.292846758352823,-8.394920310256165,-11.046772716160392,125
-1.9805656096474227,43.4255551362555,-42.46866752371624,35.88189521981447,54.48420397107044,79.33471851466446,58.741131351862656,-107.52932626512643,-90.0,6.000000000000009,-7.390208488331559,11.220880495173263,33.1514027235072,-9.167085262772787,-10.755628668467617,126
5.056131486959801,49.8018644840996,-45.90305627186584,29.057935875258803,56.565254141068394,78.37763216207131,55.45580536271253,-110.36049602833793,-90.0,6.000000000000009,-5.992959059388925,11.653427992475322,29.76621452950752,-9.379573611777142,-10.644505755906987,127
4.782464161474527,50.01802734257164,-43.45282876506597,28.65503983946876,57.92459045945035,79.3309547685898,53.62774052160974,-111.01375356091533,-90.0,6.000000000000009,-5.597406315487748,11.760791805395607,30.111414034217404,-9.587603449606112,-10.637805280012037,128
4.3925387409725944,49.375752407002686,-43.16759164906783,29.27157352141881,57.866631517260274,79.21957064943888,53.96408968968996,-111.79513865025582,-90.0,6.000000000000009,-5.33159065449434,11.958865108811722,30.56874377594626,-9.762237817550888,-10.590540997068144,129
2.221958760204115,48.34534041870121,-39.33884918304606,31.85085647471181,57.38925402584259,79.22594588562792,54.328680513422185,-112.04551756126288,-90.0,6.000000000000009,-5.075454850064233,12.141703145097107,31.199299653918295,-9.980046408181721,-10.499518999209126,130
1.0419364872719261,47.82663468452778,-38.561089479505256,33.760057444504405,58.81016360963062,80.01688948782518,52.320725065316324,-112.77002613924611,-90.0,6.000000000000009,-4.907272859604826,12.32066546054356,31.185104603941276,-10.155675168863054,-10.385933470709514,131
-1.5018708224683353,47.55690948593431,-34.465144999546844,36.236992147850295,58.755152595858725,79.76406705352365,52.42341743868388,-113.43198671015342,-90.0,6.000000000000009,-4.910097787308325,12.505951941063822,31.279448587530197,-10.30580220626804,-10.201251316071653,132
-3.873065460739116,46.790756483852874,-32.89361120943122,38.91763535995246,58.725193409086366,79.54330532950563,52.438299499395086,-113.86562320699501,-90.0,6.000000000000009,-4.88292451192306,12.594750016287298,31.3595442292691,-10.449317070358356,-10.031521446127266,133
-6.735258623933499,45.93581827425844,-30.93600978356947,42.725372281782064,59.42925036434262,80.45032375350863,49.987114771937854,-113.54431551712602,-90.0,6.000000000000009,-4.879351979632068,12.396607022253843,31.14629954803109,-10.59496196709999,-10.180383290590733,134
-7.430124852238357,47.13023171087343,-30.428992860629673,43.82898480782514,59.532727262019826,79.678801540783,48.85888474312029,-115.0639563566129,-90.0,6.000000000000009,-5.279919662406071,12.769946515771682,29.55251855115906,-10.695114026697844,-9.92102325164492,135
-9.37488100815081,46.92171807929943,-29.816022045588365,45.61222583526539,60.14879471168411,79.34432853147335,48.70401679261764,-116.01630231417987,-90.0,6.000000000000009,-5.488885772286266,12.919474938994057,29.160345732395495,-10.687198588685824,-9.514042697380043,136
-13.065012777757675,45.98033720157251,-27.41823994438323,48.56561222267583,60.39353084469678,79.18459425352884,48.9965225824222,-116.0751162472651,-90.0,6.000000000000009,-5.823289841221469,12.817234751877118,29.505776806649465,-10.569043743775268,-9.209420531918875,137
-17.261329343052882,45.46405884630487,-24.602642820098147,51.571594908622835,61.32165297802603,80.34050052837144,47.1752855876706,-116.09296563961483,-90.0,6.000000000000009,-6.1344305384942786,12.76755934198638,29.36011881715736,-10.739415126391854,-8.866491034730945,138
-19.373506141573372,45.69158931117744,-23.77967560036884,54.491442460021766,61.67092342991338,80.15724124625402,46.079593437377234,-116.02232997853498,-90.0,6.000000000000009,-6.07603772472883,12.557967502487166,28.344498016547835,-10.748860867100364,-8.766136605853635,139
-20.89027343780074,47.06476113741049,-23.181857915265294,55.47512512693003,62.208325508229954,79.67445467425264,45.34054862023987,-117.7007944235709,-90.0,6.000000000000009,-6.663937936981753,12.900370454853668,26.674615319865357,-10.815410461758661,-8.189157325520815,140
-26.365860117221587,47.081427092426125,-17.90091198908469,60.45682640268629,61.117878091740906,80.2379404702473,44.724411273652436,-115.68299361729375,-90.0,6.000000000000009,-6.511229652530386,12.320441044097612,26.571445773370307,-10.861748041772339,-8.198859048216411,141
-25.547771678447965,49.73160733533807,-19.738721180219184,60.881024991298446,63.08597872134555,79.1763882789308,42.57732398511689,-118.37171091704555,-90.0,6.000000000000009,-7.218949845979481,12.40598066115475,23.384238787263858,-10.667571275711024,-7.804128338093151,142
-29.96964640844344,49.68473011666309,-17.271382904222243,63.97474370189411,63.27753701935715,78.94389968123252,42.678554109818855,-118.3935607100304,-90.0,6.000000000000009,-7.909367444809638,11.986804096263585,23.190548265788507,-10.545871017720335,-7.565965007813057,143
-33.46569928175958,50.04777317485867,-15.511768977163362,66.76144292994321,63.10926876105346,78.8442082124502,42.450443052734,-118.7629661597781,-90.0,6.000000000000009,-8.512865851034512,12.03771211772935,22.337181641103143,-10.517054259766422,-7.082415674637758,144
-36.4605733573528,50.321685180801296,-14.63443374512534,69.68229303359401,63.60538808120968,78.8817328121974,41.66608846157546,-119.11972372482396,-90.0,6.000000000000009,-8.686664133239857,11.870711489209347,21.207262305963244,-10.461090090258413,-6.630124117091919,145
-39.83162902684263,51.93199272263756,-11.656768480881478,73.02122767456306,64.48873764516405,78.7697182198895,40.67135857082335,-119.54467975016087,-90.0,6.000000000000009,-8.941444678152921,11.264486787496576,19.929623758060952,-10.327964707366185,-6.567721302425453,146
-42.274546019023866,52.77168679405339,-11.40377397146988,75.65819813342486,64.67093797783932,78.73646050037014,39.779202767281355,-120.2983872472147,-90.0,6.000000000000009,-9.316638516045908,11.0507584852889,18.28756462238419,-10.344301979338029,-6.231119212930494,147
-44.29716374919713,53.14551603927311,-11.749769782131178,78.76486558713076,65.80364517668822,78.79411573928111,38.44169714278,-120.97899829922459,-90.0,6.000000000000009,-9.325314346978873,10.582071352349455,16.75007925780455,-10.157939753849572,-6.080246638785283,148
-47.895458803703754,54.90670550738068,-8.895418002374276,82.05227288234475,65.85462575210207,78.86790786016613,37.74556259713553,-121.46272646929201,-90.0,6.000000000000009,-9.634897696258214,10.236169351488584,15.396834310478429,-10.141463611941992,-5.92603177981442,149
-50.31796040059753,55.11482563476401,-9.235715589260515,85.29857663193256,66.31255278153421,79.19766265670533,36.45110185026814,-121.89727976061016,-90.0,6.000000000000009,-9.46331410316167,9.84024557048495,13.66610351182603,-10.132243876622212,-5.814916857871517,150
-52.45810257921712,56.867467327273694,-8.061538088767838,88.1841553032821,67.53643649699183,79.3734216351376,34.94474824545682,-122.89852106628665,-90.0,6.000000000000009,-9.320684890914956,9.486917465405623,11.76873728845893,-10.058125823446016,-5.6691750651643735,151
-55.69020778607679,58.54237380830415,-5.995068846523786,91.29814641749566,68.61955328435349,79.46395172545284,34.15869347037041,-123.63860707887875,-90.0,6.000000000000009,-9.548608977334387,9.142644051829238,10.56175786962999,-9.861001205884822,-5.526735077852831,152
-59.672040596494334,58.688760558657094,-5.322958327140167,94.6360936669094,69.21700341482392,79.5323064712438,33.86920731577595,-123.93053471785746,-90.0,6.000000000000009,-9.827650363808251,8.725694869272248,9.79704254673105,-9.790627537155395,-5.499964966477135,153
-63.59051778387207,60.38031291765677,-3.0195469350624173,97.92895187510531,69.7440090414624,79.6362441487243,33.506796937562946,-124.33340928899108,-90.0,6.000000000000009,-10.065393220571835,8.50477372359008,8.964970143422773,-9.689173310515894,-5.43242514803883,154
-67.52761543638084,61.958674681401895,-0.8506087753636201,101.31457194591827,69.21060794825384,78.20343881358525,34.77067157301652,-124.69512255533137,-90.0,6.000000000000009,-10.234774989129297,8.024561299458641,8.193414582501097,-9.5684318896476,-5.593763743637605,155
-70.9292967588401,63.546626362593926,0.6847112941193112,104.25136610048052,69.02924385758499,78.3956938784262,34.062057187927664,-124.7820985715541,-90.0,6.000000000000009,-10.332338548914429,7.83730146286906,6.991285179357932,-9.520637034439014,-5.577114198126442,156
-73.06881147461253,64.98383286815455,0.8829148655083836,106.6272941529193,69.98450901130121,78.69304491210606,32.499009155758365,-125.46048805627746,-90.0,6.000000000000009,-10.192947627416904,7.440669683747879,5.171821519773303,-9.387113180443997,-5.637390879912198,157
-75.331987939888,66.361283936816,1.334218931941228,108.87517622049427,70.83281145322046,78.94605884545561,31.20888945391607,-126.18799708645913,-90.0,6.000000000000009,-10.18119627786814,7.0864101947113385,3.666721765270908,-9.191982972495522,-5.72686334430554,158
-77.91612178770127,67.72303536125852,2.0141186666008535,111.00276903019935,70.22879364213999,77.54079552686466,31.982399695413793,-126.76961094977469,-90.0,6.000000000000009,-10.2850503550104,6.742012052900975,2.454880260559954,-8.986228579368362,-5.84865515673134,159
-80.1806992823588,69.00463252023349,2.504715430737828,113.1881971158128,70.84669615470547,77.73885285099419,30.858640741730166,-127.34534921535709,-90.0,6.000000000000009,-10.37458175033683,6.342828505798165,1.228639822994566,-8.71863389045135,-6.056394133011658,160
-82.1266228630812,70.26038126934984,3.0519746895483846,115.07265060891883,70.75697673241226,77.85738641299206,29.892938999064324,-127.8581373068847,-90.0,6.000000000000009,-10.476870171043844,6.121128569519086,-0.016276392595157594,-8.538057463894669,-6.159230849640459,161
-83.85156346563656,71.23261104178319,3.595467789400664,117.02052735242579,69.86395700151067,76.40854573126774,30.402766180577686,-128.54788032442863,-90.0,6.000000000000009,-10.487070515283751,5.557289682949263,-1.2370517350339654,-8.237194469810031,-6.586572817060559,162
-85.2649639406212,72.18118696748783,4.159509174857165,118.80277162795119,69.59013525416142,76.52686586638022,29.241010533894205,-129.26094558760005,-90.0,6.000000000000009,-10.66118459015856,5.3528775669461615,-2.4671458395146675,-7.795449625751532,-6.842941426303619,163
-86.50578134306728,73.10643609978905,4.789435559707944,120.27874257563914,68.14291128207843,74.89865077735793,29.873546334075158,-129.94569339695101,-90.0,6.000000000000009,-10.890238701328906,5.125104586531855,-3.6636295543583404,-7.339245743650649,-6.99260315244537,164
-87.3292504438408,73.97730578426696,5.435648296528492,121.60378203835546,67.45202250739163,74.81539955776836,28.671365037996715,-130.67451558960443,-90.0,6.000000000000009,-11.092877511319557,4.895559440823248,-4.954588395538637,-6.8980867303970985,-7.106748515383652,165
-87.92164263401925,74.65943490058397,6.092663196794249,123.08926447108092,66.83422168401644,74.69956990483324,27.20958287838894,-131.52433912461595,-90.0,6.000000000000009,-11.28812981865721,4.656338693522023,-6.425830306507924,-6.387655398192138,-7.227333431137568,166
-88.42506781582675,75.14919156380145,6.888836286448369,124.48609303682282,64.99861795401296,72.79633584955012,27.436652087072968,-132.29145810742264,-90.0,6.000000000000009,-11.498726974480885,4.328005306564313,-7.961166887181728,-5.827096702479761,-7.369149762216233,167
-88.16357384686039,73.82020542977864,6.166405726647213,125.31008314282887,63.75362683272193,72.60519714606316,25.855698502960074,-132.67162322015147,-90.0,5.269235995802289,-11.492569726379788,3.951262780660059,-9.581488569048885,-5.352953532971522,-7.6064157197684885,168
-86.92595086156356,74.49491012240222,6.826072806878223,126.34817932504238,62.659268681158,70.69455612689612,25.5981038427092,-134.2565400334139,-90.0,4.750458624899267,-11.620888149109737,4.181933122519881,-11.389660335549774,-4.7089032894794824,-7.5791077426586195,169
-87.50519314634057,75.14240408157197,8.736991218536625,127.39001203118696,61.11647606217229,71.21793382123661,24.378839253059944,-134.62166738674807,-90.0,4.840937067131784,-12.08861988883941,3.9257825593379168,-12.164195210738953,-4.15752669813021,-7.681295332852515,170
-87.33904370256623,74.69921371879727,9.880134861245041,128.25223722754612,58.27860048342996,69.90171242328428,24.553026370358754,-134.7005114217565,-90.0,4.1921086237821985,-12.1766772366238,3.6876530513989154,-13.43132588228526,-3.6898613138199203,-7.888285678346239,171
-85.61259003360487,73.88402009766685,10.093407448685703,128.89143438996408,56.315675481032365,68.28884348881371,23.800936792251775,-135.62307554358702,-90.0,3.367130240762157,-11.909971509838956,3.6278112198845935,-15.388832521147188,-3.2254024003820545,-8.05916254696139,172
-84.6671269041816,72.58585748650914,10.581801554747768,129.5406341868123,54.427588972376434,68.5408912177228,21.925325182589305,-135.9997652425552,-90.0,2.767090401332517,-11.705814141666762,3.5983349085318648,-16.92510596912641,-2.8471112032379553,-8.16750172583519,173
-82.84669788499293,72.83290064613621,12.168914763835536,130.11989114553901,52.08902883464705,66.91527488715451,21.794272722693336,-136.29924964274954,-90.0,2.154467744737665,-11.379223753107855,3.514366202614765,-18.472307072139415,-2.5062133304368426,-8.31673870269195,174
-81.70473525178635,71.53493017248074,12.916574238643099,130.65127010230418,49.19617818150565,65.28614817626502,22.30318932460657,-136.31257367960248,-90.0,1.6341611268263132,-11.228533858743571,3.5831334774039574,-19.789692191400608,-2.179001573526002,-8.4689097894371,175
-80.46039805321239,70.13190766806461,13.449118092854489,130.95564544370208,47.22385434836993,65.38969939170522,21.00828852427723,-136.42583719868162,-90.0,1.1874691051103548,-11.014632895600482,3.586499417197484,-21.182827663680047,-1.8625684430784295,-8.621395055266431,176
-78.6509257247729,70.54471468742459,15.165734581840368,131.1990127741136,44.662522671895935,63.692313127477874,21.676532408915776,-136.39024363927086,-90.0,0.8545157381266308,-10.732057809030529,3.6584709053702658,-22.505268678418282,-1.6109854575261529,-8.668410964839602,177
-77.40576090856096,69.24174294099075,15.421333645098255,131.27094864742716,42.95415549072719,63.783313728762174,20.880209911814937,-136.16414942932076,-90.0,0.7886642099392916,-10.462604733599214,3.6742005788006917,-23.753509929898982,-1.4569205470552475,-8.679222456609892,178
-75.72875258971156,69.93617256560125,16.876711213114227,131.2546749480837,41.35626285973907,63.93885981858342,20.40689351725519,-135.8784256719692,-90.0,0.8009779203012034,-10.248921194241188,3.5804664654694363,-24.8940174555048,-1.3169841489892444,-8.757905777621474,179
-74.69039734054013,68.86648509792394,17.052782723008796,131.23408193242736,39.18566795459934,62.24212600094328,21.759092786829374,-135.53794574290785,-90.0,0.7498114486951944,-9.98555518788419,3.4958153208262175,-25.962725582866415,-1.2534195674335562,-8.845811423673124,180
-73.68097829563939,67.9247031783627,17.106166200244576,131.08923562239568,38.073079644101846,62.273922336939954,21.370281410523617,-134.9128175789592,-90.0,0.7168459389665072,-9.68208117599138,3.414203548808064,-26.935440040694907,-1.30850381873722,-8.900074142829036,181
-72.77558813994635,67.25730283916742,17.083888727685604,130.83585250147016,37.260648005049944,62.166727173925466,21.0958578220675,-134.29144560198245,-90.0,0.8633565577182635,-9.524683170068519,3.145387305394633,-27.82160691225793,-1.3779465295865378,-9.153316783814418,182
-71.55607794219138,68.70794891983934,18.565684624260314,130.78462957844454,36.7794726712922,62.00338316628701,20.920789894162123,-134.0585495540148,-90.0,1.1485483792359958,-9.462925319608607,3.0932974801399897,-28.72642414149438,-1.4577161414664541,-9.358783329598465,183
-71.11280242012282,68.42107063507171,18.47116887053261,130.6248283131182,37.22677268775193,61.71963465225809,20.460832282219936,-134.02848995950194,-90.0,1.3186527479255064,-9.363394324412317,2.9084119892035973,-29.651374110278507,-1.5188453771829415,-9.534493953776593,184
-70.82857595197856,68.28841073597536,18.27571073953529,130.39115633398794,37.939745031701165,61.335403994881844,19.82931682229863,-133.9483814718782,-90.0,1.4329222610215218,-9.279522194554506,2.6649978749666494,-30.550071113637284,-1.5609243237118882,-9.772852122975952,185
-70.50520806368058,68.27914679257388,17.891067797796342,130.18384968093443,38.91411653613988,60.86798851295417,19.025413488906946,-133.87825836233597,-90.0,1.569659440678654,-9.245205146415366,2.560480815566491,-31.429044837386478,-1.555984008171382,-9.960837912118294,186
-70.83740905491432,68.7336736612849,17.97436223573378,130.17223594172162,39.592769809477005,60.43513155496126,18.610199733120638,-133.69934746406153,-90.0,1.9329777849954464,-9.504193560868131,2.5346834286188398,-32.08217725148401,-1.4587513016410667,-10.161091832347337,187
-71.35071808664983,69.2705089575018,18.01241550399485,130.3044475636722,40.602736081891926,60.10337189251321,18.13319800892763,-133.56722525253045,-90.0,2.1682315959136815,-9.763504192784046,2.6080077829001738,-32.71832469789806,-1.2849328553469341,-10.305521985851898,188
-71.86341053906499,69.81962713898837,17.732959726440942,130.34501916670712,42.15951967115073,59.81389946266849,17.44385049215653,-133.6601946428703,-90.0,2.1886022507832608,-9.999509614197226,2.7656184302441726,-33.43579413624902,-1.0408623349924921,-10.318075697736107,189
-73.36436457384866,68.60554300215271,16.506495578600987,130.56917158294303,43.91109900382777,59.75017869092802,16.99166174465061,-133.63761717038642,-90.0,2.1517659846337525,-10.26079606064724,2.950636855383048,-33.889698449673745,-0.741919845933182,-10.293891694172407,190
-74.30955396583035,70.3057774443033,17.489156328212992,130.97197059252233,45.67055705125281,59.78848038475225,16.75457390412467,-133.54370148327305,-90.0,2.2248187591217965,-10.583664880535864,3.180819910551318,-34.1872766393004,-0.4117601625080369,-10.268028783807027,191
-76.13759171748782,69.42282411628284,16.60157876570487,131.47694492690394,47.73417498349295,59.79087989230414,16.35799081563034,-133.52300876168854,-90.0,2.306044812129463,-10.889890901229284,3.471515032825104,-34.56830104426382,-0.079806818536603,-10.180958070467351,192
-77.1466360184425,70.41866155116226,16.559078217215557,131.74808714636825,50.788106976927615,61.48132151507882,13.834852343292487,-133.8544102250639,-90.0,2.3427483389256145,-11.235303599422135,3.7273253248726994,-35.11811904928226,0.2632917811112227,-10.046019765723267,193
-78.9848800727212,69.6132532040903,15.539493525959937,132.02960156966412,53.19304552893581,61.35433757001741,13.193924461168484,-134.25954107309093,-90.0,2.4391292556203577,-11.648606878737791,3.9507787820456053,-35.46042225188115,0.6279704297268041,-9.958914495611,194
-80.23315368127288,70.48384337975186,15.954309372838122,132.40403993835108,55.43714304228035,61.323477697887014,12.593048824979853,-134.57319103187686,-90.0,2.5894945941889875,-12.015674409543955,4.154821327968494,-35.64448049840689,1.0004177380230164,-9.973303055780795,195
-81.221539956518,71.31695705117629,16.261896462822815,132.69756329671782,57.32181773225761,61.1929354073781,11.875125396506354,-134.73836622069345,-90.0,2.8064186258124146,-12.428794588650907,4.410295783809129,-35.85135197240661,1.3525699714845225,-10.023978463763413,196
-82.13204542289756,72.2387948089471,16.505161022858513,132.87792592015563,58.88260974573927,60.9940775843575,11.240143890684969,-135.04152873502213,-90.0,3.0337465915654795,-12.87511162396994,4.727607426966809,-36.080250553433174,1.6414849472309276,-10.046059984269846,197
-83.49654681652038,71.09824875679172,15.356860598414785,133.03639494388716,60.36021575156311,60.922000454621,10.766142399520392,-135.47194886843022,-90.0,3.12830698857034,-13.233903498297074,4.909073142150158,-36.31000862700194,1.920674100619113,-10.111511761934649,198
-84.12711870814337,71.63787783472212,15.344694422664674,133.13731970670793,61.65115148248463,60.83461248391982,10.103138106745062,-135.90812969763104,-90.0,3.1555168647325265,-13.539790531287316,5.084525583525726,-36.67754599075525,2.1759392128454573,-10.18945032769595,199
-84.68692430401867,72.08887643378112,15.27033150746544,133.1749188429037,62.94233564482947,60.68319623660264,9.05412412155405,-136.3984841002189,-90.0,3.122662894764585,-13.80986793010112,5.272084434829533,-37.13446383534062,2.3889307504807533,-10.255362481017833,200
-85.15777223550212,72.43476256969483,15.176339057665619,133.15516622223413,64.26658093121067,61.12645548914902,7.355124526764797,-136.970818830601,-90.0,3.094679393940082,-14.07208252978996,5.40797094656766,-37.54619449487387,2.6094732771008324,-10.329769766974016,201
-85.70482027808562,72.70373200367841,15.322169065793172,133.17565403974876,64.87187277867628,59.13500845085359,7.857595032177673,-137.53459848698552,-90.0,3.0718099309707365,-14.381050690045816,5.588990680549376,-37.814162702577875,2.869145309097833,-10.379295851429351,202
-86.22129819676258,72.93124151207448,15.617544783750304,133.2218107788162,65.30524189165313,58.90510095914732,7.114294146751553,-137.94515282254392,-90.0,3.0263054984518325,-14.706089560868255,5.835399766337138,-37.96729707795873,3.1153481665037033,-10.38583493654657,203
-86.62227090262725,73.1907139978956,15.879340336439064,133.12657070219515,65.26926845583105,58.33995862904315,6.587921501901626,-138.38077851691534,-90.0,3.011936788487456,-15.068952774612116,6.003769513281986,-38.064587307627235,3.3282897643944103,-10.45695099062603,204
-87.22462957949308,73.38723169321815,16.48995809033071,133.0881647768613,64.68029910373141,57.66806282892969,6.460371484034492,-138.80758304650334,-90.0,3.0744029256428735,-15.401672534747298,6.10790262180951,-38.003776784752404,3.525072759782545,-10.657141943260553,205
-87.81258233512777,73.35585794260017,17.274421599073754,133.16787653577677,63.6627129421437,56.94000466792247,6.465994497591156,-139.14469649552518,-90.0,3.080465570383978,-15.635185242088772,6.357301439062573,-37.97838681146831,3.7237890923026153,-10.787726208424758,206
-88.47642338937929,73.19584576703407,18.081919218759975,133.24743408116825,62.24534405650096,56.02180660222225,6.589488756995507,-139.3325299184413,-90.0,2.8904528239495133,-15.829546494332387,6.648694045846138,-38.04656434287112,3.9360845541865355,-10.804265492902832,207
-88.9565495913148,72.8393166377818,18.525521893931472,133.20131212470542,61.21718768765501,57.04104366424179,4.901913740938846,-139.60086399797117,-90.0,2.4540953299848476,-15.931343313898376,6.708279942941646,-38.35302874074052,4.136774643711713,-10.903958518388034,208
-88.61957026311993,72.134895170391,18.423363381808326,133.02099471428906,60.72209046300358,56.21722862452338,3.919819738610323,-140.19700862412967,-90.0,2.1188645590898934,-15.93288746699702,6.683023473331838,-38.880573172870044,4.3542911579272925,-11.120638194402702,209
-88.28079785869721,71.63803834871133,18.667122089757395,132.87602614011044,59.485255406509495,54.49867505159526,3.9289204848977883,-140.6579064512786,-90.0,2.282658922257489,-16.056492985708058,6.886317643618949,-39.12412038685373,4.566215243329854,-11.302629191435981,210
-88.31369094832029,71.44636770027448,19.236751684966343,132.7088544755245,57.15133112404042,53.8535019206635,3.6416460300760347,-140.90302581216477,-90.0,2.6724550422378166,-16.302475254357983,7.171345916084796,-39.16004177954158,4.758530993757413,-11.433102047452046,211
-89.07837070502349,69.34091493400786,18.642797379292013,132.5143226455674,54.61205958443861,53.06743221938279,3.233882864104402,-141.01431368376575,-90.0,2.832507623354232,-16.50220980725719,7.341830412997581,-39.20650520120148,4.922136067407503,-11.627072376501534,212
-89.10360198895344,68.98229831988122,19.259485657993583,132.40874902448678,52.55417908847285,52.51999406690647,3.073530864668065,-141.17151324557352,-90.0,2.954512276769577,-16.587985917222106,7.474003597764256,-39.252599452590026,5.03054351389642,-11.854111683334283,213
-88.78664745913764,68.69387530817629,19.48024676308513,132.12665342113917,50.78747774306471,51.88889168638598,2.7425251120993286,-141.40816350925635,-90.0,3.1856116416591,-16.66216196227499,7.543180038300283,-39.39171927125627,5.066570894319907,-12.103326560859808,214
-88.5512320196137,68.58848210541677,19.74605574169827,131.80572076122277,48.82738687651976,51.21324607081297,2.7326561224128594,-141.55244375239695,-90.0,3.4925175561157777,-16.803730084969832,7.593543001246066,-39.43861170116495,5.07689191787962,-12.386501669967101,215
-88.7536301545218,68.64615523374023,20.39756126985638,131.648981067882,46.74787512349927,50.741741730592885,3.3108168765143504,-141.55911405753298,-90.0,3.7704247877544574,-16.987626388930735,7.769830539404583,-39.34178940078675,5.097815429000238,-12.582407661136566,216
-89.18291466498812,68.70900814626495,20.995384110273402,131.54601805801218,45.21320607186567,50.44238592542951,3.8842428420197845,-141.47362817739372,-90.0,3.8845357549684234,-17.17796147640646,7.87040319448986,-39.346128551409386,5.1518484564517735,-12.728299066270967,217
-89.46190267673109,68.72533376997849,21.206093889856785,131.32934423156323,44.22493785943224,50.1743411603671,4.213338112669074,-141.43383760276862,-90.0,3.9273931449166883,-17.359199557969774,7.973173136242968,-39.610817278345685,5.196814116797886,-12.751869441975813,218
-89.6626332876618,68.79085864561803,21.107056127823693,131.0568679019903,44.13789464259486,50.07391896105931,4.3286922808215325,-141.4958230207475,-90.0,3.930854509628523,-17.501723208692322,8.044004707914008,-39.93893242225984,5.219685905549751,-12.659782359976354,219
-90.09868604942417,69.07413409256965,21.023495849537625,130.73465635322898,44.678960792612955,50.111015886963074,4.529037433304731,-141.65373486253856,-90.0,3.8867329338176138,-17.70972692448481,8.036627261790773,-40.19200597594482,5.22085792822632,-12.581384868763456,220
-91.56496385897631,67.62069963800701,19.913418670106854,130.45045693302242,45.943608496878554,50.26111091999538,4.492408837038769,-141.94143523239538,-90.0,3.865228756754082,-17.862708863740668,8.05280167590534,-40.46230140837062,5.159856342691739,-12.488738270310161,221
-92.40951470582897,67.77671592300264,19.950987796544286,130.2193619375776,48.484467168321586,50.55916772523761,3.714933612836464,-142.46513403630962,8.815562493969347,3.770543398953008,-17.935765168531944,8.075154701142292,-40.874325692986865,5.139029374413715,-12.271198605138673,222
-93.1512301605616,67.79626543368967,19.81332239522562,129.99549583107068,51.92312142628234,51.044313704585896,2.505655705839831,-143.1314828773545,6.617608899133218,3.616666665533613,-17.972990052155975,8.06044761528247,-41.344011014096736,5.174696712775182,-11.979801992892172,223
-94.0032702905542,67.90239338924033,19.766962957331273,129.76379379879623,55.38244461064794,51.75102602304648,1.7189268325740508,-143.6902616166182,5.517106724647828,3.5539686991511314,-17.932940555701833,7.9800395409923155,-41.65342234902872,5.1497446040522075,-11.745214070084197,224
-95.18462254246822,68.07388741063262,20.046539319036228,129.63929441185775,58.719914484641805,52.59693887582679,1.3358642906722153,-144.03495334774323,4.9693990276514235,3.601214197769812,-17.792273297918225,7.89487150247089,-41.7903690294899,5.05552785179968,-11.530288561433258,225
-96.6814805390072,68.28131053145783,20.44465250087619,129.7052969206897,62.02508163633243,53.16839167770284,1.4466262932552876,-144.14357702410382,2.747061467333468,3.581942424710536,-17.562392112922204,7.82414341669871,-41.977725397616375,4.879662934303066,-11.258994811239278,226
-98.04163031650279,68.44440298076039,20.328496439881363,129.69574198859513,65.56141062458443,55.39803294734248,0.13729032147439982,-144.37224597201603,-0.4279752870499776,3.5316481056073785,-17.286625243209567,7.630380262703166,-42.515261018533565,4.606274124179789,-10.970625735934687,227
-98.85283847104431,68.3987561671194,19.54891303899773,129.56215668233574,69.89725975208974,56.00794559624471,-0.4110778874904103,-144.87297442765083,-3.274795880333673,3.430991120717002,-17.02296730105974,7.1478889608588085,-43.26889426927172,4.408124616130429,-10.85521442137746,228
-99.94987721506868,68.62046293783749,19.164724961057885,129.57709220527096,73.82417685219275,58.89010319194742,-1.7161958823468972,-145.21734093807987,-1.947879294233079,3.4290788175533202,-16.811475041969025,6.96509267169962,-43.76763300961663,4.213490723040204,-10.661592843713255,229
-101.39076972420422,69.04253107327727,18.98055384879866,129.53722107146615,77.43423270143379,61.77686490579123,-2.506255674245708,-145.32077791742057,2.4929935704706745,3.375583518319484,-16.778403993717667,6.8675338546401274,-44.09830380223013,4.116193939586954,-10.371549625657886,230
-102.77668330811707,69.46770779201111,18.593641665383167,129.36181520708328,81.28943708694779,62.83507111863956,-1.9853723276618362,-145.42585962765887,7.409941520586974,3.397203193832265,-16.79954766580382,6.736151994457834,-44.49115136551627,4.071400719542499,-10.11158588833115,231
-103.36217867891555,71.6163696207116,19.25612121770579,129.1144710381896,85.1396762817147,66.17780804222508,-2.7933432234411844,-145.4500614905734,10.899284356677786,3.4605520504866063,-16.769028851065162,6.6498859293416634,-45.02129064809474,4.02060888734546,-9.850791662795455,232
-104.28125667626378,71.79320501436983,18.33363156163645,128.7119252090312,89.1724498662237,69.69414408441415,-3.805496947868188,-145.45669864325407,11.253321609809163,3.675648737744358,-16.790382252760395,6.603918268157749,-45.798211422355095,4.01859801337999,-9.568207767052032,233
-105.15472290060552,71.9836098292619,17.272634618267926,128.04697638303597,92.95955679430674,70.69237906438165,-3.559641619075771,-145.4276692930118,16.41987593855651,3.950385098349574,-16.937232538904546,6.506901509870688,-46.64084278743267,4.062062414870777,-9.36355478288011,234
-105.98774823099403,72.15529062061877,15.921514318779142,127.46083571510572,96.60766458962789,73.77070502413227,-4.66555732619474,-145.1552392369134,19.975682628553432,4.332257626648078,-16.98097401543289,6.3818550134449845,-47.55971881283543,4.116464793343908,-9.220944070517405,235
-106.52300229727409,72.34236325920695,14.046233873927124,126.81089290277491,99.96319205532393,78.5259931348457,-7.441006071907103,-144.70186438026883,23.25211128737401,4.639527248395523,-17.02997908806493,6.238877750112302,-48.700217786466126,4.131158356373617,-9.098174838816057,236
-106.9730876477462,72.66655790557873,11.94959007209361,125.87316566451989,103.03597047080595,79.43161721277107,-7.996384614078891,-144.28287694420862,27.45860464658005,4.964617274831281,-17.293940959438366,6.0354439382959475,-49.87038602884079,4.185506531470163,-9.04739414339299,237
-107.4156415178932,73.02036922661604,9.840177640501564,124.88483738785591,105.2179901697368,82.21162988705882,-10.023258090760557,-143.6673662543576,31.102732792744515,5.394300656361121,-17.55293368411179,5.978627128689594,-51.041010533834786,4.232157828901654,-8.930682782429331,238
-107.37275836861006,75.25296986226655,8.98379657651533,123.72425305192307,107.1396670514583,84.79155146476053,-12.372128083417158,-142.77792428524862,34.821351952411625,5.7924109942787805,-17.917617261643112,6.001241068923846,-52.29400519481293,4.316199250108052,-8.70971405480328,239
-107.58556733668824,75.72089349388561,6.554277058493954,122.20099178700572,108.52208438377842,87.00254566044258,-15.176492114598865,-141.82176412528926,39.04385214535845,6.000000000000009,-18.453441524413076,5.970840545336225,-53.61638267649385,4.389426550749812,-8.546834802759232,240
-107.71658730964845,76.17383501558047,4.088754745212165,120.43473825140798,109.18511399162425,88.82536777572777,-18.401736279142217,-140.71410983354323,41.99659161694714,6.000000000000009,-18.99275252527113,5.839042494107588,-54.940093041445635,4.432012938977293,-8.523641030266717,241
-107.75550319560752,78.38626626284048,3.263719798517665,118.62473441862379,109.28214605871788,90.30984168757281,-21.88844247826419,-139.1813575125569,43.33317209780434,6.000000000000009,-19.469946093200406,5.678106633144109,-56.19807778816345,4.506490486823881,-8.57608469976222,242
-108.00157916652003,78.71290561088969,1.0613067312722,116.70835545417309,109.28092534234212,89.95234741764286,-24.30905504019312,-137.21978210063858,44.782508515001226,6.000000000000009,-20.01789998687191,5.6352749560918305,-57.43511891289163,4.625207070199953,-8.570316403974111,243
-108.07749177495148,78.96981339996759,-1.1172326739842466,114.48254844986646,107.8948038937184,90.68689741128026,-28.044375424512612,-134.8212680059766,45.98723732885509,6.000000000000009,-20.51290812327692,5.653895513215486,-58.71831351919783,4.695752448815561,-8.499010640220757,244
-108.07357651687961,79.1461326192949,-3.161574445624485,112.10090736424526,106.79351929641993,89.29337393465762,-30.13029749156087,-131.84691190536154,46.73372938049264,6.000000000000009,-20.898401952007557,5.598977836033844,-59.90617872895888,4.761057261298231,-8.463718615245304,245
-108.2009371575209,80.93576303824678,-3.357309182088247,109.61963317214948,104.20794641964956,89.2191158532478,-33.51622482362622,-128.58846632125343,46.622927512655664,6.000000000000009,-21.086649503863313,5.7191053614026615,-61.17066720061237,4.647247122109403,-8.308972709609126,246
-108.29163719842599,80.81125733269921,-5.217183125041967,106.88416064230002,102.54363156365694,87.15863716911309,-35.36247053307385,-124.76836389968912,47.782223274809155,6.000000000000009,-21.335153758767365,5.238035047145816,-62.300424738114316,4.718740603601537,-8.408489299448833,247
-107.86563494922964,80.61583312636762,-7.110756700552692,104.10405539450416,100.26731336310043,84.80128689951681,-37.135562446894205,-120.41318404537125,45.92296418115196,6.000000000000009,-21.349432354242865,5.162575367128235,-63.628780584508775,4.664611201731468,-8.44055180704224,248
-107.52334173787413,82.04690483927847,-7.15166596970711,101.09155089850755,97.82481955079153,82.12180502459975,-38.65641737068239,-115.79218577524732,44.60819406727243,6.000000000000009,-21.362158158080465,5.029554088387294,-64.96279268299966,4.596145446677753,-8.425975754333882,249
-107.12005360196588,81.72957439602216,-8.689430992123658,98.09730895282141,95.15076081847324,79.19033853069135,-39.648623595477034,-110.95773322011149,45.48753579960383,5.778179189279972,-21.388471832709854,4.893662924488041,-66.14852055117062,4.600433048777446,-8.367709578109388,250
-106.75129620499985,81.35614976780218,-9.972421827374555,95.20476693528113,91.13188736012906,77.45381724087258,-41.55796530980595,-106.19220857946989,45.134080184333214,5.566084282184481,-21.462107469958326,4.778475279480743,-67.17983142735345,4.681471853623324,-8.346093600080632,251
-106.26892007247855,80.97188936858346,-11.026848398658796,92.31794803137898,87.91221432160113,74.17307152758941,-41.46143062420912,-101.48662085605534,44.70459729364924,5.5551897313991025,-21.527208948594748,4.525482040438713,-67.9982051836168,4.744915252867588,-8.607317903444853,252
-106.10268172410485,82.10049412082724,-9.910488830840514,89.55005967655785,84.27598932637534,70.5792787996357,-40.64752332304107,-97.6763468282947,44.41776560384925,5.484521990709455,-21.515669142163322,4.36436013261839,-68.64703753325982,4.714750637643572,-8.88299811256393,253
-105.77183197286641,81.74468959039604,-10.50530640631176,86.59764316835462,79.8900314206476,68.79399732773997,-40.69528665167357,-95.40802676965131,45.690676983375354,5.339285458142079,-21.677005759422098,4.069823807541448,-69.09379469589996,4.738209604515817,-9.20846677639434,254
-105.30402984412015,80.45567503439086,-12.025309997630863,83.7674901450032,76.89828298621426,66.29256662916289,-38.966701701590495,-95.8374845269478,45.08854092069058,5.213693679066824,-21.730003356352434,3.723555155967286,-69.37177623902039,4.783076500081394,-9.731829785484324,255
-105.16348093743828,79.88498179224446,-12.178298477657323,81.12213559090254,72.88641310912766,65.72274030875312,-38.06364377993888,-97.4471483440425,43.15223592993747,5.021325732755058,-21.691716288897684,3.402001315413843,-69.44545655931975,4.857207150201061,-10.315192244690037,256
-105.51194911096475,80.6444916397335,-10.008890612628749,78.66776492999486,68.6767842280926,65.7505233761074,-36.348852781770134,-99.74200684620455,40.54196737469559,4.818312365079279,-21.586411474862654,3.149029175235902,-69.2920827071174,4.932896461349456,-10.92127677715985,257
-105.87221587291701,80.12581857604289,-9.487973600973257,76.53878874000618,65.11711622932324,64.84078197200357,-32.415638146463166,-101.89455087816427,36.737343789721045,4.433526062389483,-21.255119265999088,2.9126993793496245,-68.80760412553916,4.942085027254985,-11.589336461536638,258
-106.50320837768892,79.8201020461775,-8.63697499028882,74.52145676843087,60.1158072214832,65.70743293579802,-28.943075618605064,-104.20560196551774,32.755677186527016,3.872967909087477,-20.942826837629735,2.7598232994886303,-67.98671333123991,4.972388137050227,-12.18879995690564,259
-107.27623041543005,79.7590217344088,-7.479876936770512,72.69057115977458,55.53026683724136,65.47600692697789,-23.85646117483226,-105.70017569522125,29.823346688232903,3.526690895851825,-20.633654014559163,2.875176747214157,-66.90868638906139,5.023451864927164,-12.576605499343005,260
-108.09222351526505,78.89369388441017,-8.005205926827585,70.84879329218022,51.33168341344949,64.35180104391775,-17.064228129180883,-106.51531424734387,29.664020783821115,3.4442895569931395,-20.225567769979865,3.2035438300237002,-65.37155328727451,5.0416502876893405,-12.815780815236261,261
-108.97801141798014,79.50878697790039,-6.2248898229143155,68.75160571448006,47.27562854302475,65.702343258123,-12.192382278210989,-107.34419832799172,21.430440341256443,2.679940110865183,-19.65738093194773,3.590198823269328,-63.582957955600534,5.0330901566585995,-12.960211056294142,262
-109.65783744456614,80.12819788078376,-4.345136650711858,66.85312010628415,44.81689212109541,65.9354185591084,-6.871611573410208,-108.61708395857815,10.999291707610288,2.1062312711825943,-18.926121908144793,4.022461879775918,-61.73360208755545,5.091596765033081,-12.99894150181305,263
-109.90186819709942,79.69684284869882,-4.407326191153415,65.09909188995529,42.79624639543737,66.44965508467916,-2.0705663782244104,-110.08001343352606,2.4286895036363387,1.6860301457677203,-18.131491997007213,4.639586933000356,-59.69392098566805,5.218471215212274,-12.931284029368808,264
-109.97006229843771,79.48398080901933,-4.456853762130596,63.47756240191733,40.67879913418478,68.65566706286282,0.588444530645518,-110.47851898234562,-4.3190243609569725,1.3368390018676093,-17.331296777280137,5.404521844791336,-57.56975053545102,5.355751421009301,-12.788744252571908,265
-109.8064954080217,80.51582422000452,-2.6935278188669445,61.74592934749533,38.92731211378462,68.99074938888705,4.449158645988347,-111.26584633259556,-11.976706205716567,1.0181415659547859,-16.628435850529407,6.095624192897742,-55.63017733232243,5.544446773013189,-12.625327656455392,266
-109.1883201478207,80.32925866416426,-3.18845269499246,60.24715962907403,38.134232977543135,71.06265087843994,5.9267116987101405,-112.61174443154397,-37.796669019707146,0.8212601503307438,-15.817969449715719,6.778988236954152,-53.78940920610077,5.789353186514324,-12.393118115033621,267
-108.41385557199489,80.2803157617489,-3.457829844844714,58.979064904305496,37.58057659290536,71.44899554360525,8.868508765662497,-113.77165775455317,-63.09321468944739,0.7499601605924385,-14.895696933141329,7.404390558216457,-51.63183401009228,6.0532224952995595,-12.231897548773563,268
-107.27163880457896,80.45957558312,-3.7625891857109117,57.71337158911409,37.53482616823613,73.43514805924214,9.884645802979085,-115.2145219458621,-78.9393062767264,0.5661916832366984,-13.9720265088978,7.980319142302776,-49.342712998300925,6.285329780286415,-12.18378025286396,269
-106.106961842862,80.7023819727963,-3.8436972866091996,56.981152764556434,38.07054421070664,75.43694445333358,10.610234826991707,-117.05075107684866,-90.0,0.6596810798438513,-12.855446958356236,8.74010236478457,-46.8624813349522,6.510939436093129,-11.902869069723884,270
-105.2315726528613,81.1975445262559,-3.5026304688958474,56.27203313014263,38.76203549954116,77.60149206409703,11.58183744785658,-117.84642798939056,-90.0,1.1966683964846205,-11.639616519416789,9.419444117265742,-43.88282045857774,6.6911347595659185,-11.38963414649969,271
-103.79920102648879,80.57200908178565,-5.835473101085693,55.20009820742983,39.25648434974681,77.56506916057549,13.924282559065112,-118.62195762439596,-90.0,1.7911749086841178,-10.65319637714197,9.653089598256978,-41.22851445800194,6.940781292894746,-11.049390312664205,272
-102.16363524649284,80.64420982694935,-6.2192114439862785,55.22795370674459,40.80276650903389,79.04750049346728,13.839930626955756,-120.02846182927965,-90.0,2.3506745464745595,-9.459592464673173,9.939603635560447,-38.93293239076064,7.214295273565101,-10.707816185588353,273
-100.4885077545965,81.01667595725165,-6.2860362806416274,55.58553251081463,42.50802726415554,80.55816841711129,13.98787708876017,-121.3810763000439,-90.0,2.7748001091407373,-8.425848955198614,10.004470551716704,-36.146182041308286,7.63273956999845,-10.548658596784692,274
-98.1597310477422,81.64632136838308,-6.115819947923976,55.54022222193515,43.178331066680585,80.2882740685677,15.982160530436946,-121.82300108613855,-90.0,3.1871783607485287,-7.315647346864847,10.52807367393223,-33.074121249278505,7.862767607479017,-9.996782958800205,275
-95.62247461440316,82.07834535935818,-6.271159040845135,55.50966843093999,44.748182272527124,81.49646345538368,15.8901715137083,-122.19375682288941,-90.0,3.7356627928498605,-6.387841053363267,10.56723358159977,-30.29797220725298,8.22386284752882,-9.594824075535023,276
-92.88675320791782,82.46109834058603,-6.174243573620499,56.16265687936402,46.63080499215098,82.54827774711768,15.372107184190574,-122.93105745739184,-90.0,4.158124165091914,-5.458205416071683,10.549473807836495,-27.805291448480098,8.685834043788564,-9.32448506319979,277
-89.72939690320882,82.35460226741182,-7.075871266175941,56.963875212715344,47.907340105759715,81.86840243020895,16.526817022458456,-123.57582728974224,-90.0,4.552133100795654,-4.529099003510236,10.5389787460729,-25.219845303476042,9.174519500415926,-9.066062934019088,278
-86.5361044727046,82.38887595859737,-7.242915367167616,57.79804765144839,49.41191654400057,83.0700561699012,16.192479340016707,-123.70738774281688,-90.0,4.942652478861362,-3.5794789481985423,10.489543133834722,-22.40320730843904,9.623574959327321,-8.771361228725826,279
-83.15363612142994,82.17453874395083,-7.609281702384095,58.891175708716524,50.44781408407191,82.34585790546193,17.040699371029564,-123.77025854611547,-90.0,5.404973496742302,-2.601027250211622,10.394524694367137,-19.765966721888276,10.04753799620908,-8.453972528905826,280
-79.6210890500102,82.87525419662529,-6.127569434033663,60.45559970430084,52.14645843444591,83.32391746431448,15.908670458349695,-123.67636643887242,-90.0,5.874176665165623,-1.6256495277695617,10.154105219385352,-17.35150446828577,10.488045821335259,-8.228784202912339,281
-75.43970363263223,82.50543169289583,-7.154356102238025,61.955699609179554,53.216662979374036,82.72924938417457,16.103810269550756,-123.5977861883876,-90.0,6.000000000000009,-0.7901656547940414,9.860664864067628,-15.101862835896396,10.965821832839714,-8.084904425567307,282
-71.12840340608196,83.24717723630337,-6.258312481227449,63.47642837617127,54.42527223785191,82.79148351443693,15.705771284558487,-123.72762630120324,-90.0,6.000000000000009,-0.02533949211609694,9.564276662418045,-12.948097436171642,11.399051777607673,-7.972672571934053,283
-66.60245666112765,82.8861998899736,-7.728012861784526,65.01899044001107,55.75243759162524,82.72541542644257,15.342507089404426,-123.86043487820032,-90.0,6.000000000000009,0.6343665945803455,9.130769503012157,-10.876270371626843,11.810719341500121,-7.958204173900681,284
-61.938924303223864,83.69932742808037,-7.245112025514987,66.22603551634745,56.7806361550097,82.51943522717087,15.113741927544433,-123.9299140467385,-90.0,6.000000000000009,1.1354608081417628,8.681603546294538,-8.879253849669336,12.20968536457658,-7.9844430228894065,285
-57.301708347673184,84.43625315679296,-6.978441986554519,67.33942327203093,57.32830332332183,82.31379992483396,14.987024667343904,-123.983111999766,-90.0,6.000000000000009,1.6281121763034798,8.234072600749851,-6.997834999187749,12.542849047679596,-8.04073763478309,286
-52.887735660422095,85.07695974629655,-7.0457983655542735,68.43918079354557,57.74622064661388,82.12745035935203,14.73476510197717,-124.13958684708224,-90.0,6.000000000000009,2.1272211243213928,7.825616068159556,-5.307105216281564,12.887576194900848,-8.117374242289848,287
-48.72729138279583,85.66056720096545,-7.335919211042497,69.47778122832145,58.251913181824726,81.90136247829174,14.396738937727184,-124.53357898636148,-90.0,6.000000000000009,2.52946978427772,7.418277121980153,-3.7168547489389767,13.307120469827439,-8.206385210156656,288
-44.878953036207065,87.37921527933156,-5.610442188899986,70.6451340712473,58.78207928760551,81.70006589713029,14.182271530397244,-124.99749438437311,-90.0,6.000000000000009,2.824467181489836,6.958612163063102,-2.14991625104728,13.752102534686559,-8.285028695581307,289
-41.221121444374795,89.123629215806,-3.92264972859844,72.08970306605653,58.90842039877816,81.676140722772,14.363208937631551,-125.1444101521374,-90.0,6.000000000000009,3.0121557980988385,6.4968753153039955,-0.6151100567638579,14.130256813284198,-8.268635163165195,290
-39.36329723683772,87.99847628915863,-6.2369792596104165,72.32901541160538,59.731692585982515,81.58152393407701,14.38491567022464,-125.83342277445601,-90.0,6.000000000000009,3.0922945326748437,5.987941513506899,0.6560422866438095,14.58773502779335,-8.248816597060667,291
-37.681045029931084,88.00904198734892,-5.92181370788619,72.82799864921215,59.26859034860441,81.57357512752282,15.135862821659076,-125.43792762503597,-90.0,6.000000000000009,2.886103546427878,5.394748920941024,2.1950689140259265,14.897538585350887,-7.98332091965559,292
-35.59809121543803,88.15753915335115,-6.244210344407787,72.1980706778421,59.48988574529418,81.54492902850244,15.245621845568406,-125.55250673306497,-90.0,6.000000000000009,2.9478416711704014,4.975237629104955,3.2318760946638574,15.172810972395705,-7.660483150010107,293
-34.04687559356853,86.91026068135272,-8.26376716638907,71.7161762955312,59.58660185847138,81.61161882204199,15.855501144267825,-125.67702642485332,-90.0,6.000000000000009,2.922312522188611,4.366984579765747,4.43339342036489,15.317393241420726,-7.405664026761876,294
-33.315589771295556,86.85470050971905,-8.072441710700812,71.61160122761038,59.455877453068766,81.76227795750616,16.643019808405082,-125.62063877407584,-90.0,6.000000000000009,2.8495062529511492,3.686037547602286,5.588257409401952,15.391440329819707,-7.281247706666249,295
-32.879756208868905,86.90350147617939,-8.048884781544748,71.6416751491155,59.403214711335536,81.86109682686529,17.162292807279208,-125.59077813725897,-90.0,6.000000000000009,2.8205333934936436,3.0718062867751237,6.427398898781115,15.446458056130526,-7.362333187849731,296
-32.27421575130351,85.93870895499408,-10.31599767260385,71.59342353995508,59.71742332177999,81.75110150209926,17.34349716616182,-126.00627855693506,-90.0,6.000000000000009,2.8189579613192692,2.839319161941739,6.941016167786394,15.494589489818734,-7.444203166910114,297
-32.58824805333131,86.22547082364171,-10.227363601047692,71.92160917306892,59.83208716860118,81.57095040264348,17.631771980922633,-126.20192034264831,-90.0,6.000000000000009,2.61748411317667,2.70820139907816,7.3553214745650655,15.541571079495704,-7.446611894647289,298
-32.9904576374066,86.78558903943892,-10.433279578711314,72.01315202875995,60.43943231746974,81.21525796720351,17.491554697183126,-126.65421998120992,-90.0,6.000000000000009,2.4380623232462066,2.809700215305194,7.287016966099119,15.610126579323186,-7.351912663939242,299
-33.61022741297696,87.47283999309855,-10.662868195896714,71.94776301329028,61.27543536333165,80.77419137673968,17.22278292942747,-127.25580870705785,-90.0,6.000000000000009,2.2547934849928173,2.968223948134383,6.916720699829899,15.608484117166476,-7.212602124135719,300
-34.22282752430962,86.85419810707396,-12.854449958223189,71.84044331699607,62.04090054681491,80.39961641927282,17.015429711281644,-127.62043223719216,-90.0,6.000000000000009,2.106429190456523,3.0727704450221665,6.457224340735923,15.5294170775872,-7.125454484970701,301
-35.17370236044588,87.47610592677485,-13.035672226529067,71.66075627903857,62.5894446454429,80.113370251552,16.705118956951182,-127.82910005318942,-90.0,6.000000000000009,1.9878150103719312,3.2932343420523593,5.853995808457447,15.458692875579223,-7.0629623879105,302
-36.065799635244346,88.15628917170143,-13.479810433671926,71.55384910422134,63.66548874895053,79.79580483855266,16.1436931665251,-128.50253746104954,-90.0,6.000000000000009,1.9153921278353023,3.7032227663538273,5.029770811512725,15.454853367307155,-6.944712031619631,303
-37.583977051557326,88.61191007048166,-13.560401051064446,71.96974480190089,64.52643554994893,79.60978871312535,15.99741376888736,-128.7940428795008,-90.0,6.000000000000009,1.7744827385714155,3.846679426908642,4.318527843510722,15.343265289115903,-6.868092629631427,304
-39.069562446541184,89.03830945127503,-13.766950184082983,72.44499715486681,65.38847816504126,79.46635989227416,15.69616807030245,-129.10787510696156,-90.0,6.000000000000009,1.7568177750185086,4.167310572877941,3.449222870254178,15.15899185174863,-6.774329102423457,305
-40.546177650276285,89.48262241504372,-13.99466117442292,72.91215242012176,66.21383637225951,79.23784105875171,15.256167379051181,-129.44392622669005,-90.0,6.000000000000009,1.7790258257253557,4.505612129902837,2.4650018381693903,14.870291945102634,-6.705551957119237,306
-41.71985990315975,88.67610183676395,-16.25354449172589,73.42546323256313,66.88157707946849,79.10102010942698,14.925450815547538,-129.72453532103995,-90.0,6.000000000000009,1.787459762710721,4.942613576138015,1.3940454741443744,14.51025374824523,-6.592588347866732,307
-43.28139183137896,89.04436665751533,-16.489737868419052,73.82382063326902,67.76884585100356,79.05195458546996,14.646145268761861,-130.02213635161996,-90.0,6.000000000000009,1.7587382927271995,5.3861658709600375,0.2800167313232783,14.193826273967913,-6.4534614681082125,308
-45.03926909248033,89.31523389548349,-16.627336021545315,74.51169001675832,68.72481491671306,78.90116990050988,14.347106940283899,-130.27531102065632,-90.0,6.000000000000009,1.6578677012552476,5.643291049205385,-0.8101312373928706,13.861331416890415,-6.445156300823159,309
-46.673955197210155,89.68527434903056,-16.881870274552384,75.44523295962048,69.61851684442391,78.60018922546388,13.826789824963042,-130.7579975512034,-90.0,6.000000000000009,1.4865077247025276,6.0812426520337635,-2.0288264087578805,13.49926165613266,-6.410316997572234,310
-48.428757022311345,90.07822320602632,-17.01016216282546,76.27637932807788,70.2843318054998,78.2771163063199,13.458440632872183,-131.1777831501832,-90.0,6.000000000000009,1.180322302675251,6.513545231626107,-3.2777455113763643,13.081900948016415,-6.27046142412499,311
-50.1597219413808,90.34174253301099,-17.208521626177152,76.84501907386955,70.74443437578763,76.17251331247564,14.582823327070535,-131.70775028936671,-90.0,6.000000000000009,0.9406468085552955,6.887269860266858,-4.607179680759394,12.651402062532096,-6.1196906058139104,312
-52.01698313340389,90.41515740344673,-17.397075843789757,77.53861817128426,71.80178389197405,76.01831840291075,14.157954317184059,-132.29519539448447,-90.0,6.000000000000009,0.7055513172436354,7.215926009804003,-5.870023703062102,12.275550376968283,-5.970946170973323,313
-53.927575849208594,90.42794767219178,-17.52713372463785,78.25385240914704,72.64571278024492,75.91043579890284,13.857221279097038,-132.56083179652396,-90.0,6.000000000000009,0.47188310786959253,7.212432247822314,-7.101040335337642,11.84339233759362,-6.0270072603158855,314
-55.64947474512939,90.43214117975174,-17.842711143420185,79.47638660179102,73.58836781701761,75.82399700994397,13.409618573683286,-133.08174873874097,-90.0,6.000000000000009,0.21153998918885697,7.55159073715402,-8.386416660152433,11.447089145678378,-6.03520649326582,315
-57.338086006907105,90.4367053348405,-18.20741987684527,80.58493147496526,74.44993868847666,75.69717365276011,12.865764816098965,-133.58650920986105,-90.0,6.000000000000009,-0.08169927774859954,7.816295311165347,-9.798552508643796,10.997936138498638,-6.042549532099988,316
-58.28962144287238,89.05871419286753,-20.644465342931333,81.43085670714737,75.33006121479671,75.61876664768285,12.177153243085082,-134.1264828492435,-90.0,6.000000000000009,-0.2755342751081408,8.157165082961397,-11.29133439507254,10.493180296011209,-5.983509253560477,317
-59.732968635199754,88.8877322194795,-21.038301615857254,82.27316259134527,76.32056699323562,75.58234020749595,11.548645610814948,-134.5510240919046,-90.0,6.000000000000009,-0.5184309596871033,8.410820701534764,-12.675906357068706,10.07087943307982,-5.848119349001206,318
-61.2826769126633,88.6720314390317,-21.4146422708926,83.29012746958674,77.33532007990173,75.54870453337163,10.949962892810154,-134.86078300847353,-90.0,6.000000000000009,-0.8435148004985414,8.549346823010087,-14.036245625196804,9.698265756254473,-5.7064817383205595,319
-63.11506250549478,89.81060498454524,-19.86492930944793,84.25079396243459,78.35419298631244,75.50315973226544,10.286337988967567,-135.23137873520398,-90.0,6.000000000000009,-1.2235246731174696,8.673043304713746,-15.461116252471404,9.323591887519134,-5.579642304428184,320
-64.21577436486317,89.61099946282066,-20.311661817597802,85.10101604079445,79.31266032402716,75.45506634810877,9.538255252482163,-135.67154128215734,-90.0,5.985327128973965,-1.5893097563882865,8.78467640297071,-16.907601561525194,8.93968275178923,-5.486093550416703,321
-65.36660520124424,89.29934328962845,-20.833288400790856,86.14244431844205,80.42943109333218,75.44804419332525,8.631369055322178,-136.13870713947742,-90.0,5.877479254502843,-1.899773517378593,8.924747066051262,-18.406740091090487,8.546997392490688,-5.348683581873885,322
-66.48369500667958,88.88110998726113,-21.416708966019442,87.1737244733737,81.44048723345718,73.62655297369389,9.12297811077634,-136.50633491526213,-90.0,5.7131665365924755,-2.174578708988235,8.976303415184075,-20.017705053038863,8.145040093803928,-5.204607479538519,323
-67.38373087838046,88.44927576476753,-22.063548755076134,88.10418895328219,82.86875126287148,73.816287167102,7.994746839241514,-136.91156155207548,-90.0,5.611011464135124,-2.4607030863835146,8.998876099478293,-21.74302869818975,7.73233799174436,-5.0894739776574385,324
-68.24576736246433,87.95246383917299,-22.717796452047452,89.08590678600152,84.60078434732061,74.16011348932344,6.836324283817078,-137.68520404458283,-90.0,5.549656146103028,-2.7670528728809716,9.109452382460086,-23.463030433055867,7.361520708583595,-4.875184217533393,325
-69.99326592602971,88.54920996936603,-21.30277849302744,90.36588685207009,86.58977586621303,74.69872953022164,5.815975107355661,-138.41394344795123,-90.0,5.4665514119980525,-2.962937095464175,9.110246322641242,-24.964596847684188,7.0649329708752875,-4.562939673010398,326
-71.4359413290812,87.55197436384856,-21.60205959690167,92.04737566878308,88.10337784877123,75.2108891397995,5.056685962252201,-138.57671096497282,-90.0,5.4431774938645825,-3.038620121579428,8.927588393030744,-26.233293437195474,6.740019959228282,-4.328994863406684,327
-72.32937502315356,86.89376110761606,-22.182855846830225,93.4874221918206,89.4408693778024,75.60316873491657,3.937148260608014,-138.58742988959273,-90.0,5.44583163886603,-3.2072950164935117,8.807416228284158,-27.802628171209573,6.358198441216836,-4.171825931806326,328
-72.75240076351217,86.50058290696649,-23.02165743114877,94.44048037516417,91.10946525215638,75.98775609858848,2.364420762085305,-139.0557816045787,-90.0,5.537916030266988,-3.6329728467896816,8.80248030221017,-29.722113954577832,6.035050389078527,-3.9988799172449996,329
-73.81226799992378,87.37495250869155,-21.885394599731974,95.35310571959074,92.86553275215255,76.60650646624092,0.9451462362796257,-139.68490803843412,-90.0,5.606214980221533,-4.03463756335139,8.685659535280818,-31.539783652442605,5.796120551895647,-3.8534671269722045,330
-73.98106640639224,86.67522392326471,-22.36090601695536,96.22804253051393,94.44085630622207,75.45122605545743,1.2341938623286406,-140.17948173648156,-90.0,5.549810484169272,-4.153069451785574,8.46076823489113,-33.08722800839807,5.498499962039964,-3.795988584467513,331
-73.6608400269379,86.16873946135733,-22.683985327588246,97.01680246027297,96.00633458310176,76.18719264917496,0.08291785165522124,-140.30159395514582,-90.0,5.466439341877982,-4.147152567744997,8.495923641021042,-34.46466654887063,5.19450382721276,-3.508072510385208,332
-74.34321854669115,87.23924885465325,-20.99888169621186,97.79509041947384,97.25388031819682,76.56676466407762,-0.9031377509487887,-140.67027173487855,-90.0,5.742308335766415,-4.45886340082117,8.35572023920836,-35.76690353497124,4.8953256106278875,-3.250077079347181,333
-74.86068430366363,86.40145728078217,-21.095589944896638,98.91835625368716,98.09127468252231,76.89982142349064,-1.7791488779238078,-141.28607851206274,-90.0,5.8980845140341955,-4.622023475148842,7.909423634271049,-36.989769977896614,4.546418146537575,-3.283945374806462,334
-74.98242829027555,85.4677738022972,-21.382441061283796,100.27735244295812,99.06272758547688,77.46323859843581,-2.996899894033992,-141.3955409116596,-90.0,5.654447077395064,-4.336674030546112,7.7137268252390365,-38.26974781185384,4.192134557029634,-3.177538853910961,335
-75.775253312201,86.2854230453813,-19.7676043344407,101.43139459725201,99.93554174797481,77.73444643438201,-4.175444155492224,-141.81920222379478,-90.0,5.648865985337337,-4.496703151918651,7.531183811680772,-39.49755394382523,4.005429282186009,-3.011674841779667,336
-76.09179428339164,85.50995491821554,-19.753484381319478,102.87544020671783,100.66524730547803,77.86446628010336,-5.191501764618896,-142.1911490540896,-90.0,5.698100220338977,-4.705497231093702,7.437321299005739,-40.484157982388965,3.8861677001065935,-2.8064250855468598,337
-76.27313022805996,84.86946142725363,-19.72613947347973,104.10570544391452,101.23389000605148,77.77676267266698,-6.291551014866132,-142.5735234598365,-90.0,5.781308135630101,-4.898553707125958,7.289798277064805,-41.429078989736794,3.735810085135758,-2.651403115758566,338
-77.14440507836593,85.71133910718672,-17.916689357167147,105.16765474026286,101.31196264092439,77.4825327580679,-7.243144117892752,-143.25172389869562,-90.0,5.784610315402866,-5.106305662214342,7.008336414542512,-42.28425836388895,3.6031562671214457,-2.651011065942863,339
-77.49309426704514,84.74725040843558,-17.890597907774936,106.70273328016349,101.26021988964439,77.28184782301435,-8.181156062461353,-143.60382548752887,-90.0,5.544235661982167,-4.965097891379735,6.846252116976853,-43.03959002688714,3.44652471057249,-2.6109519541886788,340
-77.70201050913481,83.96022139017926,-17.956843922503612,108.1539813914798,101.62330483407867,77.04814711729384,-9.469207026086696,-143.93298617774283,-90.0,5.385338636334933,-4.892465147883684,6.752479855438647,-43.89534923806307,3.307380933434576,-2.4959677746674798,341
-77.99289878865076,83.27719441208707,-17.959119727332,109.4093272084719,102.03477597355496,76.62163716459686,-10.758170384163254,-144.5119514238282,-90.0,5.3998321597213925,-5.059918690129271,6.593922102420663,-44.695756702126815,3.201373557867422,-2.4279093558043807,342
-78.9671553041993,84.08087611916395,-16.149160796611596,110.81128929278798,101.91014697273778,76.00097782066781,-11.801155625764302,-145.09597843141736,-90.0,5.284894420236349,-5.1901778094133,6.41271064164893,-45.36801656205047,3.099062942176824,-2.4250380137889254,343
-79.1233518496731,83.21837730686632,-16.15792723615286,112.14317626234832,102.12796398813404,75.60610634272258,-13.123984114066955,-145.526921616731,-90.0,4.983465089672464,-5.151844130980025,6.249470560221282,-46.1192477827996,3.033393005271219,-2.4544796767817587,344
-79.24142185707053,82.47363440757422,-15.99747772275891,113.39297428714758,102.45180826410116,75.05479926820344,-14.42810483074885,-145.97738232947913,-90.0,4.854304162722673,-5.28208194054115,6.139113571293195,-46.689772477113365,3.025764111838616,-2.4918367967202513,345
-80.18094870186732,83.35727908243368,-13.939262050463373,114.75401887921696,102.2902004598462,74.2012444134285,-15.27752090640046,-146.59358289723144,-90.0,4.858968030265312,-5.591168881598279,6.1299129778028965,-46.96790729296809,3.0563161358533484,-2.482876994867069,346
-80.80229502762776,82.30758057316686,-13.58464456391999,116.25786038270569,102.0545462845013,73.53980797777277,-15.942197331375489,-147.0846965595405,-90.0,4.749656963852388,-5.739097162883193,6.091553138965188,-47.220261255507396,3.076211550961652,-2.4820703312476864,347
-81.2868981103335,81.25676603557964,-13.430387151844421,117.61114320002486,102.23047082341922,73.30257631047722,-16.756736621960542,-147.50621215669236,-90.0,4.541129432202913,-5.721641704295108,6.001028561468587,-47.6421480218766,3.0582351922715594,-2.4992509931010334,348
-82.31627730643811,82.33315149151049,-11.294341583364108,118.92702502210979,102.97333320473493,71.32037732307003,-16.14983593731885,-147.88975045365683,-90.0,4.330605468700976,-5.737293648659657,5.912138036168042,-48.02265207083194,3.089408558806854,-2.5131092117197036,349
-82.96720840140041,81.30095827632415,-10.972354233561896,120.34999945687403,103.05830015966217,71.2921592951255,-16.65621057017087,-148.0,-90.0,4.054287560789811,-5.805778760742363,5.826757967309596,-48.34905353077841,3.224088957132396,-2.5618498003488277,350
-83.58428930369065,80.22426708252695,-10.57249016793189,121.71198459409018,102.9964278324393,71.49045706890224,-16.942175739798177,-148.0,-90.0,3.722384967325717,-5.919518717219524,5.862941344839446,-48.7003871882007,3.4153388848566264,-2.6034241691627553,351
-83.96616565257854,79.12731370409924,-10.291504077946962,122.82093504023585,103.82076635743702,70.30117933706165,-15.932971203036757,-148.0,-90.0,3.400472566911787,-5.918388741372615,6.014366891161239,-49.12854605717502,3.5733678262313022,-2.596572083955752,352
-84.78237224034746,79.98828664733225,-8.317984938948046,123.91798560001456,104.27157482969282,71.228428610086,-15.917932343133753,-148.0,-90.0,3.1310953849215544,-5.89035636222416,6.164490670981588,-49.41749485712638,3.7518100689147857,-2.559431263868112,353
-85.39230301943498,79.0900835557129,-7.857590658072241,125.01144821545977,104.72058590852697,72.30440603810874,-15.65735170180873,-148.0,-90.0,2.872166355165279,-5.9662824409331865,6.334186572739199,-49.657857893206945,4.012201907099264,-2.482870100945155,354
-85.89173320258368,78.1916573609793,-7.468349374502075,125.96841499559177,106.00517187565691,71.74981918026609,-14.246176884563754,-148.0,-90.0,2.7057595827490233,-6.0702717420096235,6.634494339497805,-50.01710544555782,4.2749142112036695,-2.336407885842643,355
-86.34776877792716,77.30284635898731,-7.078994552962595,126.8330386614224,107.5878582689361,71.34862065595121,-12.849970533905768,-148.0,-90.0,2.6955144341960504,-6.206921212021992,6.932092777778316,-50.377092272383564,4.563091775220337,-2.173274610349142,356
-87.21947920783475,76.56989826730941,-6.348233920544809,127.76017273873137,108.18899681636151,72.65471378517101,-12.264999486310904,-148.0,-90.0,2.8474503682905676,-6.3862913630012095,7.201484895590943,-50.52358408464806,4.857522085501987,-2.038989037925059,357
-88.06939739346366,77.67791651137142,-4.285278968327448,128.69391710494688,109.39871491337996,72.28843519947388,-10.444551523603693,-148.0,-90.0,2.9334998919919184,-6.467017629973093,7.524211132895457,-50.753521989595754,5.1869912355519485,-1.8868022820680623,358
-88.5822445319181,76.98045201221704,-3.839837874183349,129.46822827331525,110.34680923249691,73.90777058657375,-9.944405792863511,-148.0,-90.0,3.135654136045732,-6.598547831402492,7.92118011195522,-51.02626940591395,5.517069624143044,-1.7101306331009871,359
-89.37891198189918,76.42748301152055,-3.1935341414137044,130.14203326099735,111.34575059375875,73.53774834277465,-7.808233434311798,-148.0,-90.0,3.3695261160617,-6.765170371777171,8.265186897762389,-51.18805743023498,5.831834546158712,-1.5886556338625413,360
-90.07070972159065,75.79756888681871,-2.6379728298608214,130.79947230987278,112.15505188746589,75.1183910262677,-7.151320987279481,-148.0,-90.0,3.5755260332271783,-6.8216703238842,8.643990688229794,-51.38620258875248,6.159212105143145,-1.4710934205340152,361
-90.68126099500851,75.22774512956354,-2.153864526388548,131.4309168521353,112.96050719872574,76.60682813878469,-6.563338975052565,-148.0,-90.0,3.964787415227475,-6.925947052492517,9.082592192631099,-51.6008621379148,6.525567800259444,-1.3193918539310745,362
