JMW9912/AVATAR/Dynamixel/dynamixel_control/data/csv/poppy/0428_1514_13_18_waist_test_comparison_5DoF_Trial_4_srew_rate_bvh_motor_degree.csv
theta1,theta2,theta3,theta4,theta5,theta6,theta7,theta8,theta9,theta10,theta11,theta12,theta13,theta14,theta15,frame
-95.22115145328934,22.096782884579685,95.27613377082073,28.298822862089825,-104.14006541085776,6.752362764410201,-75.53460956166059,-28.29882286208962,11.949525018099951,4.227855492074081,-2.1207448039576757,1.5574253403185758,0.06106657397293881,0.7360967837554502,2.8051766135533387,0
-97.97115145328934,24.846782884579685,93.77613377082073,31.048822862089825,-101.39006541085776,9.5023627644102,-74.03460956166059,-31.04882286208962,14.699525018099951,6.977855492074081,-1.1207448039576755,0.5574253403185756,0.1429610194844961,-0.26390321624455004,1.8051766135533385,1
-95.22115145328934,27.596782884579685,92.27613377082073,33.79882286208982,-98.64006541085776,12.2523627644102,-72.53460956166059,-33.79882286208962,11.949525018099951,5.758163456354852,-2.1207448039576757,1.5574253403185758,-0.8570389805155041,-0.5610153349652571,1.5676611299321013,2
-92.47115145328934,30.346782884579685,90.77613377082073,36.54882286208982,-95.89006541085776,15.0023627644102,-71.03460956166059,-36.54882286208962,9.199525018099951,5.369641274067865,-2.2550443331884886,2.5574253403185763,-1.8570389805155043,-0.4463242702561103,1.4589474168923264,3
-89.72115145328934,33.09678288457968,89.27613377082073,39.29882286208982,-93.14006541085776,17.7523627644102,-69.53460956166059,-39.29882286208962,6.449525018099951,4.985252643564808,-2.4345387440074755,3.0895848254845157,-2.8570389805155045,-0.31449160719174646,1.3959784430006912,4
-86.97115145328934,35.84678288457968,87.77613377082073,42.04882286208982,-90.39006541085776,20.5023627644102,-68.03460956166059,-42.04882286208962,3.6995250180999513,4.639048549335143,-2.6192800050891982,3.164574332915441,-3.8570389805155045,-0.18210715864614838,1.2828737943240334,5
-84.22115145328934,38.59678288457968,86.27613377082073,44.79882286208982,-87.64006541085776,23.2523627644102,-66.53460956166059,-44.79882286208962,0.9495250180999513,4.318567866548605,-2.671011276454858,3.2493287283507786,-4.8570389805155045,-0.028827028005856264,1.16802657753201,6
-81.47115145328934,41.34678288457968,84.77613377082073,47.54882286208982,-84.89006541085776,26.0023627644102,-65.03460956166059,-47.54882286208962,-1.8004749819000487,3.9325093738680272,-2.709320897184686,3.4755190128479057,-5.8570389805155045,0.11154764131094722,1.1537600669623398,7
-78.72115145328934,44.09678288457968,83.27613377082073,50.29882286208982,-82.14006541085776,28.7523627644102,-63.53460956166059,-50.29882286208962,-4.550474981900049,3.536214689675498,-2.88896313467501,3.667045307054905,-6.8570389805155045,0.28956399821487055,1.137764862055825,8
-75.97115145328934,46.84678288457968,81.77613377082073,53.04882286208982,-79.39006541085776,31.5023627644102,-62.03460956166059,-53.04882286208962,-7.300474981900049,3.079851040550859,-3.0686812125135323,3.8836468721205892,-7.8570389805155045,0.4678924110056283,1.1038419956007923,9
-73.22115145328934,49.59678288457968,80.27613377082073,55.79882286208982,-76.64006541085776,34.2523627644102,-60.53460956166059,-55.79882286208962,-10.050474981900049,2.6492791424404665,-3.1315050170392293,4.076317469511413,-8.857038980515505,0.6413005476805548,1.0621446740777871,10
-70.47115145328934,52.34678288457968,78.77613377082073,58.54882286208982,-73.89006541085776,37.0023627644102,-59.03460956166059,-58.54882286208962,-12.800474981900049,2.284825318352512,-3.053494614261989,4.28006328077659,-9.857038980515505,0.8201777161546183,1.025875613500634,11
-67.72115145328934,55.09678288457968,77.27613377082073,61.29882286208982,-71.14006541085776,39.7523627644102,-57.53460956166059,-61.29882286208962,-15.550474981900049,1.8970398696491235,-3.0336461664672023,4.546435902226252,-10.857038980515505,1.001085428411265,1.039417496433591,12
-68.64040766081698,57.84678288457968,75.77613377082073,64.04882286208982,-68.39006541085776,42.5023627644102,-56.03460956166059,-64.04882286208962,-18.30047498190005,1.4831357449366058,-3.0494190023891057,4.7910240191131725,-11.857038980515505,1.1895984384710072,1.0494843304552046,13
-69.38573831945371,60.59678288457968,74.27613377082073,66.79882286208982,-65.64006541085776,45.2523627644102,-54.53460956166059,-66.79882286208962,-21.05047498190005,1.0529464110490663,-3.034666655909264,4.965171105076874,-12.857038980515505,1.3534017237951905,0.9730310754223224,14
-70.02491831889643,63.34678288457968,72.77613377082073,69.54882286208982,-62.89006541085776,48.0023627644102,-53.03460956166059,-69.54882286208962,-23.80047498190005,0.6515508195530731,-2.9462203995948686,5.130403727531263,-13.857038980515505,1.512631400516057,0.8706234271909044,15
-70.62214098679975,66.09678288457968,71.27613377082073,72.29882286208982,-60.14006541085776,50.7523627644102,-51.53460956166059,-72.29882286208962,-26.55047498190005,0.31397512887503115,-2.9101090610230527,5.338317781975065,-14.857038980515505,1.6946999947897738,0.8131683341710496,16
-71.51445032627176,68.84678288457968,69.77613377082073,75.04882286208982,-57.39006541085776,53.5023627644102,-50.03460956166059,-75.04882286208962,-23.80047498190005,0.016620630020064853,-3.0126066957672992,5.546396797106553,-15.857038980515505,1.8864978558326242,0.7537505042445962,17
-73.17460055070792,71.59678288457968,68.27613377082073,77.79882286208982,-54.64006541085776,56.2523627644102,-48.53460956166059,-77.79882286208962,-21.05047498190005,0.3548542104453811,-3.052854294173098,5.797414244572161,-16.857038980515505,2.027261199455518,0.728533529315343,18
-74.23984030177078,74.34678288457968,66.77613377082073,80.54882286208982,-51.89006541085776,59.0023627644102,-47.03460956166059,-80.54882286208962,-18.30047498190005,0.5306488973476119,-2.9952799321995545,6.032279344809643,-17.857038980515505,2.1125537650495207,0.7809433049140702,19
-75.33204639641853,77.09678288457968,65.27613377082073,83.29882286208982,-49.14006541085776,61.7523627644102,-45.53460956166059,-83.29882286208962,-15.550474981900049,0.5341436859451015,-2.972940853053947,6.217242469682833,-18.857038980515505,2.1643159793883204,0.8986162707135805,20
-76.72341079718828,79.84678288457968,63.776133770820735,86.04882286208982,-46.39006541085776,64.50236276441021,-44.03460956166059,-86.04882286208962,-12.800474981900049,0.42981519284578834,-2.9476583523294333,6.2873613863646485,-19.857038980515505,2.1710266451039195,0.9620138424491951,21
-77.97342616894603,80.77243090390681,62.276133770820735,88.79882286208982,-43.64006541085776,67.25236276441021,-42.53460956166059,-88.79882286208962,-10.050474981900049,0.21290885830207887,-2.7864616175291874,6.349938721567258,-20.857038980515505,2.1720957800640175,1.0220778192921103,22
-79.02891471158114,80.82842125625778,60.776133770820735,91.54882286208982,-40.89006541085776,70.00236276441021,-41.03460956166059,-91.54882286208962,-12.800474981900049,0.27763879524358454,-2.6404439718736374,6.512502422148787,-21.857038980515505,2.220760998132646,1.1987696403104087,23
-80.21810699736822,81.0079763160166,59.276133770820735,94.29882286208982,-38.14006541085776,72.75236276441021,-39.53460956166059,-94.29882286208962,-15.550474981900049,0.520746502655591,-2.685955564708841,6.630655824194922,-22.857038980515505,2.3133142115258822,1.3645897737189816,24
-81.34964915885472,81.22086755797046,57.776133770820735,97.04882286208982,-35.39006541085776,72.62075620152415,-38.03460956166059,-97.04882286208962,-18.30047498190005,0.7787560492122335,-2.816290790484961,6.674519381656675,-23.857038980515505,2.43978213715638,1.4270683940795152,25
-82.50687892105174,81.36979289597683,56.276133770820735,99.79882286208982,-32.64006541085776,71.69284103719987,-36.53460956166059,-99.79882286208962,-21.05047498190005,1.0322459434075384,-2.9689945181403186,6.791723902382678,-24.857038980515505,2.560237053856212,1.485318573353047,26
-83.4983741998021,81.42155700628692,54.776133770820735,102.54882286208982,-29.89006541085776,71.04745332749928,-35.03460956166059,-102.54882286208962,-23.80047498190005,1.3580284869967936,-3.041831397194554,6.912168729427062,-25.857038980515505,2.7166533458874245,1.547065076927658,27
-84.20354814140154,81.51948864914922,53.276133770820735,105.29882286208982,-27.14006541085776,70.49360085138635,-33.53460956166059,-105.29882286208962,-26.55047498190005,1.7191585171648565,-3.02503051816006,7.090624811137436,-26.857038980515505,2.903959335239251,1.6253895937342375,28
-84.85363849568981,81.61595233735457,51.776133770820735,108.04882286208982,-24.39006541085776,70.3869013871723,-32.03460956166059,-108.04882286208962,-29.30047498190005,2.0639730089720993,-3.1003806661660707,7.244589146334762,-27.857038980515505,3.1150613317273885,1.6612683053016644,29
-85.6830754272113,81.64906826959671,50.276133770820735,110.79882286208982,-21.64006541085776,70.14248166591909,-30.534609561660588,-110.79882286208962,-32.05047498190005,2.315730602168891,-3.2433627013909887,7.377874413628734,-28.857038980515505,3.345193261108848,1.6421822689568146,30
-86.41370885715767,81.65318223589989,48.776133770820735,113.54882286208982,-18.89006541085776,69.91148426247092,-29.034609561660588,-113.54882286208962,-34.80047498190005,2.5721335240158787,-3.3039436971569804,7.534354805793292,-29.857038980515505,3.589831747403502,1.5939045984218383,31
-86.98548822460951,81.68038229802106,47.276133770820735,116.29882286208982,-16.14006541085776,67.6191041978994,-27.534609561660588,-116.29882286208962,-37.55047498190005,2.842702358503827,-3.3480203882970163,7.754898447561299,-30.857038980515505,3.827839266023912,1.5674438330622904,32
-87.61280921355345,81.53793389970221,45.776133770820735,119.04882286208982,-13.390065410857758,67.1693619272269,-26.034609561660588,-119.04882286208962,-40.30047498190005,3.1145171060304144,-3.4515934873944616,7.9390675318668595,-31.857038980515505,4.077596307954329,1.5000622324291597,33
-87.63497332396057,79.89492056685708,44.276133770820735,121.79882286208982,-10.640065410857758,66.73213816352583,-24.534609561660588,-121.79882286208962,-43.05047498190005,3.358883483239031,-3.6073253048781946,8.123121955410998,-32.857038980515505,4.3489868027473335,1.388376450456569,34
-88.39244397955383,79.86442904280575,42.776133770820735,124.54882286208982,-7.890065410857758,66.2394266198724,-23.034609561660588,-124.54882286208962,-45.80047498190005,3.460689299826402,-3.8195534751272935,8.314914779925779,-33.857038980515505,4.667274521165644,1.2429675259857225,35
-89.21345496447117,79.88006184427343,41.276133770820735,127.29882286208982,-5.140065410857758,63.618620414399686,-21.534609561660588,-127.29882286208962,-48.55047498190005,3.451153442073914,-4.11783316433293,8.563018253272253,-34.857038980515505,4.982496995565226,1.1063612105609,36
-89.72635678933511,79.93551472167152,39.776133770820735,128.03087907050207,-2.3900654108577584,63.00517207257811,-20.034609561660588,-130.04882286208962,-51.30047498190005,3.5561916936268503,-4.379707712426972,8.873553851280217,-35.857038980515505,5.252113628895177,1.0263026135949027,37
-89.96540811948162,80.00042331689117,38.276133770820735,127.80024698427498,0.35993458914224163,62.782016085390254,-18.534609561660588,-132.79882286208962,-54.05047498190005,3.8351941879493516,-4.535163925604352,9.140194935336154,-36.857038980515505,5.500958779252635,0.9559141456727749,38
-90.79343035470187,80.14199919425948,36.776133770820735,127.79685159136417,3.1099345891422416,62.698669208151706,-17.034609561660588,-135.54882286208962,-56.80047498190005,4.019214867330392,-4.7840443055597905,9.415128790656363,-37.857038980515505,5.755427218054152,0.9092490292596852,39
-91.69224599566452,80.21818923303644,35.276133770820735,127.8463338872092,5.859934589142242,60.873372064784064,-15.534609561660588,-138.29882286208962,-59.55047498190005,4.196793852840125,-5.0406494036242915,9.663393147328373,-38.857038980515505,6.009513227446852,0.8514765628075025,40
-92.19077520744358,80.25881846258136,33.776133770820735,127.80801135334913,8.609934589142242,61.22507829932504,-14.034609561660588,-141.04882286208962,-62.30047498190005,4.367627657910167,-5.299114604534029,9.822898600367896,-39.857038980515505,6.308960188488377,0.6876845625865406,41
-92.92366825935814,80.43691751559038,32.276133770820735,127.82727770609681,11.359934589142242,61.80963892640471,-12.534609561660588,-143.52693125044513,-65.05047498190005,4.398681841563148,-5.745267042342749,10.023656447363187,-40.857038980515505,6.666075318239835,0.5113010374391112,42
-93.57746456630557,78.84165075470622,30.776133770820735,127.87407049773775,14.109934589142242,62.62574286030921,-11.034609561660588,-143.98057384629433,-67.80047498190005,4.434247492942495,-6.143266240585661,10.226802375318671,-41.857038980515505,6.948941110719955,0.35414464352308817,43
-94.42599703744396,79.03722051390666,29.276133770820735,127.81598638293033,16.85993458914224,63.54131310650613,-9.534609561660588,-144.36582236328152,-70.55047498190005,4.517298437326983,-6.309254810213759,10.422537247366108,-42.857038980515505,7.094844703046125,0.23255218636712707,44
-95.57356185233638,79.28181348065772,27.776133770820735,127.77364476303796,19.60993458914224,62.56870565465448,-8.034609561660588,-144.69552437804361,-73.30047498190005,4.516258780699829,-6.495994231643155,10.518866370436292,-43.857038980515505,7.197561497209739,0.11491029855378242,45
-96.83559429948002,79.45723757903143,26.276133770820735,127.75118569053768,22.35993458914224,64.55018595860854,-6.534609561660588,-145.0540094394438,-76.05047498190005,4.583559819967426,-6.635727476565872,10.57593526644579,-44.857038980515505,7.255381699342066,0.01087720458481449,46
-97.80615672974801,79.49146376422722,24.776133770820735,127.64288381724788,25.10993458914224,64.94248531323015,-5.034609561660588,-145.25807443853648,-78.80047498190005,4.743078011149949,-6.504174669157303,10.621117202740836,-45.857038980515505,7.141019146856721,-0.06254065417426759,47
-98.81366920564047,79.47912995502017,23.276133770820735,127.44543336996924,27.85993458914224,65.33948423282294,-3.534609561660588,-145.31093215912696,-81.55047498190005,4.875587211937185,-6.284560328552571,10.50811409355634,-46.857038980515505,6.932009977896257,-0.17751865333078962,48
-99.95741788404395,79.38645131595567,21.776133770820735,127.36399452175746,30.60993458914224,65.79839457000391,-2.034609561660588,-145.46374045360272,-84.30047498190005,4.993923920638229,-6.155483096317517,10.279774214958737,-47.857038980515505,6.822186175922983,-0.36049366734174515,49
-100.91191340901361,77.62215604346693,20.276133770820735,127.37061615746843,33.35993458914224,66.22531132355446,-0.5346095616605879,-145.5352034478909,-87.05047498190005,5.0333121993420376,-6.160929143605292,10.129263740951094,-48.857038980515505,6.795395298095829,-0.5015890612757868,50
-102.05008017619413,78.04360871688426,18.776133770820735,127.17580078487607,36.10993458914224,68.19131010387484,0.9653904383394121,-145.5147256671179,-89.80047498190005,4.9398437756341735,-6.256260979511574,9.970864680922379,-49.857038980515505,6.691261397918535,-0.6531744947744822,51
-103.35275233490226,78.44533768435451,17.276133770820735,127.0110709061779,38.85993458914224,69.69196003010167,2.465390438339412,-145.40849687720186,-92.47403274776201,4.754453487254574,-6.343473025243187,9.765215336089303,-50.857038980515505,6.493019590701664,-0.8199873846395881,52
-104.77862438342802,78.69914432463747,15.776133770820735,126.9301332401442,41.60993458914224,69.02716340500484,3.965390438339412,-145.18817561684725,-90.0096453048582,4.558825586979337,-6.487825781690694,9.501883345622682,-51.857038980515505,6.323599843162314,-0.9941863500942302,53
-105.80203319328658,78.75131448461637,14.276133770820735,126.71807444088294,44.35993458914224,70.14512057989774,5.08740137967162,-145.02993564918268,-87.2596453048582,4.418365039469058,-6.662890832405476,9.222825857361043,-52.857038980515505,6.177886112178498,-1.2034838293706176,54
-106.72782993162946,78.95126549832558,12.776133770820735,126.55101248348358,47.10993458914224,70.88129017327827,4.997627663142485,-144.87406420638462,-84.5096453048582,4.305811755557214,-6.928513626114885,9.02120898274924,-52.87056676689638,6.082759895478917,-1.3626775808858282,55
-107.90350631981633,79.2780585547376,11.276133770820735,125.86817391027692,49.85993458914224,71.48638814294519,5.317243857778297,-145.35199786533315,-81.7596453048582,4.017623807672798,-7.392233651653304,8.465115089124184,-52.522645243294164,6.0428079701576545,-1.883768508111193,56
-108.54344285214343,77.44450580821587,9.776133770820735,126.08091867874771,52.60993458914224,72.07640731062618,5.478420657430773,-144.58836998993823,-79.0096453048582,4.512183644637322,-7.171266617286135,8.492650426989327,-52.00799710132485,6.002942561477408,-2.0109186633692544,57
-109.58010171587605,77.86426193504974,8.276133770820735,125.87702765172271,55.35993458914224,73.94871155094664,4.162934829455808,-144.24474242038713,-76.2596453048582,4.444354946684461,-7.625361636987859,8.42808095130514,-51.59151245448475,6.030996920748568,-2.1307627977343264,58
-110.67323893525143,78.04409841795102,6.776133770820735,125.58480756262992,58.10993458914224,73.80326552657806,4.072813238991393,-144.3308118753297,-73.5096453048582,4.468229223520474,-8.176855605624452,8.237514257312421,-51.317587108325874,6.152208335264484,-2.437948185047926,59
-111.46293156017894,77.95271040180354,5.276133770820735,125.58839440568103,60.85993458914224,73.52350073212283,3.6895259815795507,-144.0332114460212,-70.7596453048582,4.8509204253575895,-8.430692665573803,8.181540248192773,-51.06048793477673,6.300893385954593,-2.7339673007198746,60
-112.08416783316625,77.98021387707998,3.776133770820735,125.4408550474402,63.60993458914224,74.68953544994528,2.1895259815795507,-143.55451305648126,-68.0096453048582,5.154778050598704,-8.773618604363461,8.202195486213482,-50.84871399536174,6.397377748038295,-2.97917903340022,61
-112.34493190178782,78.12279169775282,2.276133770820735,125.2493184790089,66.35993458914224,73.62296930092506,0.7097950548712912,-142.97050693120522,-65.2596453048582,5.437571708802749,-9.169010009932808,8.381448402419961,-50.82658690530205,6.4051091485550415,-3.0567191814700503,62
-112.52443991463137,78.55830273943867,0.776133770820735,125.11164616019727,69.10993458914224,71.9473330890354,-0.5009461719668116,-142.12944055375294,-62.509645304858196,5.4831888848581745,-9.718499525521487,8.687635765686778,-50.80698084688268,6.32073120143584,-2.8956831405459234,63
-113.53972464795105,77.17659215647097,-0.723866229179265,123.570592804298,71.85993458914224,71.8590668839929,-2.0009461719668113,-143.13207783594896,-59.759645304858196,5.185640017073161,-10.718499525521487,7.847270607042933,-50.54429958123305,6.324744605369428,-3.734338583482961,64
-114.34043977263956,76.9909967231455,0.07962959406968138,124.51622417177774,74.60993458914224,70.42358257346484,-3.5009461719668113,-141.08369799271716,-57.009645304858196,6.174315058498148,-10.118111112836134,8.443236778441769,-50.146814534772226,6.124006466543001,-3.48406802978765,65
-115.44642723823259,77.61274034831443,0.5273616851194065,123.1053535571314,77.35993458914224,67.71906175622043,-4.534339410767568,-141.22061788870153,-54.259645304858196,5.59829152677435,-11.118111112836134,7.984304552242262,-49.909486314282184,5.936840692493818,-3.7569754049904045,66
-116.27673005532095,77.95519303737817,1.0773789376164749,122.61008515467772,80.10993458914224,67.29005371581933,-6.034339410767568,-140.5063623938451,-51.509645304858196,5.699236803437408,-11.209795327725516,7.71924005392427,-49.470773242122156,5.692484978968045,-4.00689098044431,67
-116.82928660716578,78.35873315589623,1.426032735119336,121.94791887263091,82.85993458914224,64.54005371581933,-7.158784405994617,-139.80518102396482,-49.270594166077466,5.75837154462599,-11.367197552759501,7.4128219624766025,-49.102949687305774,5.409934110507607,-4.257511904974042,68
-117.3761456614339,78.59980821075791,1.787791339986114,121.38127188373194,85.60993458914224,61.790053715819326,-7.661680651592575,-139.05275760566514,-49.28617733881188,5.885149284108486,-11.441896796684656,7.1083200828083,-48.82347486264802,5.124615499345132,-4.4618542497953015,69
-118.1409644807311,78.75554717972855,2.308560198281926,120.90916247763161,88.35993458914224,60.726919330277596,-9.105286491670725,-138.05548947223036,-48.953974410247326,5.981103636509645,-11.412509164747714,6.876194029830047,-48.512911227815195,4.829381186292155,-4.544955887349496,70
-119.31368004670828,78.89036354580966,3.031175185112587,120.50155853916482,91.10993458914224,57.976919330277596,-8.791884696058519,-136.73872173410237,-50.06930323026453,6.035620410746108,-11.353509903383843,6.601777117440544,-48.12944828636795,4.498925261322365,-4.603378620025038,71
-120.30136196149161,79.01115956960312,3.6518412660804254,120.08274599084812,92.23220767861253,55.226919330277596,-8.193039010993541,-135.23134020295205,-52.131141719784225,6.1730433041405615,-11.387227784336533,6.230377778483717,-47.772445837074876,4.25931206736805,-4.711490871774044,72
-120.96209626328586,79.20488472402253,4.226137205108179,119.5277172193036,89.48220767861253,52.97093256077752,-8.341406667907993,-133.51970358090043,-53.4810831122084,6.315035030511468,-11.47886253533334,5.952897013483036,-47.380811377390664,4.026675452109224,-4.80321420694437,73
-121.5954485284773,79.37353609500425,4.906322426459546,119.08570721537822,86.73220767861253,51.56218271651338,-7.70859032282756,-131.1828512739874,-55.26008588731657,6.415270812508526,-11.441892229033,5.671276303198867,-46.934412567706694,3.7116554994049897,-4.884825278975605,74
-122.05951811923998,79.41578509817602,5.570224023870322,118.69777665480149,83.98220767861253,50.426904232968774,-6.652883155789969,-128.4328512739874,-57.28048198044516,6.552262168987845,-11.379642288455955,5.3423800796904715,-46.57703769562216,3.3897979324693686,-4.979226542904424,75
-122.30412125973747,79.40870180235143,6.2490763165125465,118.2001129719607,81.23220767861253,47.676904232968774,-5.152883155789969,-125.68285127398741,-58.17823276033747,6.737363920672028,-11.305145609192305,4.9617628968750775,-46.231404618062044,3.0348536028551396,-5.157735319567079,76
-122.5597460550714,79.44179212102551,7.089940014816712,117.72374037098604,78.48220767861253,46.88336806076716,-3.6528831557899686,-122.93285127398741,-58.76364905107621,6.861935389124986,-11.195656983581776,4.445614783041826,-45.74306728326757,2.6308016486859964,-5.517259592970491,77
-123.19256293938398,77.7113689403353,6.56313761218137,117.5596463435932,75.73220767861253,47.20959006537533,-2.1528831557899686,-120.18285127398741,-58.51871277054481,6.9926583046723545,-11.001577942431553,3.9673656346391617,-45.15729727815919,2.1660750639752617,-5.929438967140854,78
-123.39970357821464,77.77757186075652,7.532166976028575,117.35612285637339,72.98220767861253,46.31991174469309,-0.6528831557899686,-117.43285127398741,-56.80863638306354,7.23174290601352,-10.753275247183662,3.633702515814519,-44.62743564704721,1.6572708039377488,-6.213678759601907,79
-123.4494991604788,77.85319434233801,8.473073382774409,117.0451230650815,70.23220767861253,47.60281182309131,0.8471168442100314,-114.68285127398741,-55.86633828626219,7.49024817758274,-10.498686741614467,3.340492845918231,-44.09356655725812,1.1311571563413922,-6.3831561613804055,80
-123.9284271825238,77.97783377567303,9.553342096538282,117.14448180268323,67.48220767861253,47.686422058927036,2.3471168442100314,-111.93285127398741,-56.48332242882529,7.6686956809304085,-10.184753398111791,3.0815840892489375,-43.53475877980717,0.5070472281734222,-6.454265747827291,81
-124.48391085261986,76.29999049882402,9.090012909577615,116.88161811831446,64.73220767861253,49.896015516350275,3.8471168442100314,-109.18285127398741,-58.69857054864376,7.780318143853445,-9.79658621321515,2.6327346471228035,-42.89112205408975,-0.15603987198184377,-6.547033849741295,82
-124.98892517196177,76.56582654561507,10.276954178651948,117.18559056210823,61.982207678612525,51.07184703201676,5.347116844210031,-106.43285127398741,-60.927899812395076,7.842207291373485,-9.519610725902028,1.9976868153538312,-42.06387025446014,-0.7335352592357565,-6.8074805486863825,83
-125.56711812627769,75.20152518902853,9.930961130884967,117.36599715417357,59.232207678612525,53.82184703201676,6.847116844210031,-103.68285127398741,-60.04018607954013,7.851497866435497,-9.463953502494801,1.6233508494089615,-41.19701260791844,-1.2881660605643013,-7.002721419816226,84
-125.72693621378004,75.65317380940712,11.126165100230036,117.42295163954765,56.482207678612525,55.52569439167292,8.347116844210031,-100.93285127398741,-58.52822804393673,7.926940300219887,-9.43690334133705,1.3093755727025247,-40.27134742022148,-1.8190921429925422,-7.115948644939328,85
-125.71757213225536,76.02497822473072,12.329170336521587,117.67328080783592,53.732207678612525,58.27569439167292,9.847116844210031,-98.18285127398741,-58.01753197928382,8.083999150222398,-9.378920174383586,0.9577456927477155,-39.34306595324043,-2.305871631408762,-7.245158244594133,86
-125.83052541875371,74.71532843080749,11.964209936797111,117.96572813052592,50.982207678612525,60.0760892173238,11.347116844210031,-95.43285127398741,-55.333260935347326,8.137670741861708,-9.472529305647418,0.693598151642688,-38.37381904789525,-2.763206387374425,-7.393806185479183,87
-125.4542773963546,75.35233605977243,13.020786794118763,118.24075258834098,48.232207678612525,62.67875733387974,12.847116844210031,-92.68285127398741,-52.583260935347326,8.10674240415336,-9.737448207867388,0.541385310745139,-37.37381904789525,-3.2057938461066744,-7.4942035578084,88
-125.55381610276905,74.20433772409318,12.605203093652113,118.6521385263042,45.482207678612525,63.9800553829697,14.347116844210031,-89.93285127398741,-49.833260935347326,8.118970515204417,-10.062117644528112,0.2892492615171925,-36.37381904789525,-3.588405374134606,-7.669297721582581,89
-125.48384981578404,73.03377965222917,12.314722113712609,119.22745994315882,42.732207678612525,65.35372382714237,15.847116844210031,-87.18285127398741,-47.083260935347326,8.21766555126005,-10.266155714237179,0.15878038145149329,-35.37381904789525,-3.968765295144411,-7.81676182228643,90
-124.74432540039017,73.71434177493673,13.516351128333318,119.70696492555514,39.982207678612525,66.95225474876358,17.34711684421003,-84.43285127398741,-44.999717769280835,8.246227085358798,-10.426157441475647,0.07062132650164307,-34.37381904789525,-4.374290305449165,-7.9919957298544135,91
-124.41084800284186,72.66033497200453,13.374493202112458,120.38790825774092,37.232207678612525,68.71323699584548,18.84711684421003,-81.68285127398741,-45.15503419972072,8.168283923728247,-10.55048907950453,-0.016113758678761428,-33.37381904789525,-4.770575447933384,-8.219784897090104,92
-123.66820762960548,73.60145202951242,14.720228761789242,121.26053530139914,34.482207678612525,70.46560845514513,20.34711684421003,-79.16288281124167,-45.1068676362607,7.89919786874543,-10.750192187100241,0.07305808722456296,-32.37381904789525,-5.176673660448165,-8.398596431239396,93
-123.33499770500285,72.9352811880685,14.730839650706892,122.07844236404276,31.732207678612525,72.47872341716938,21.84711684421003,-81.91288281124167,-45.836690520177925,7.583302392242125,-10.962855562321108,0.22791392033319355,-31.373819047895253,-5.635474567313546,-8.57161972106192,94
-122.41446326964427,74.15337579226811,16.23083965070689,122.79526255592242,28.982207678612525,74.70703030268702,23.34711684421003,-84.66288281124167,-47.24381426093045,7.31395293317045,-11.028748929326861,0.3249622696181597,-30.373819047895253,-6.189055692777629,-8.836978476179134,95
-121.69154960991719,73.47676025873949,16.63794203993437,123.36271193887357,26.232207678612525,76.8738737094649,24.84711684421003,-87.01243849232893,-48.6375076291602,6.963854782560083,-10.971381347233807,0.4968868944352661,-29.373819047895253,-6.80768479526005,-9.130062001763255,96
-120.00216457463671,74.33378247979321,18.13794203993437,123.86166591550167,23.482207678612525,78.78809789324033,26.34711684421003,-89.31343631651767,-50.387064373549244,6.529145625653633,-10.875145377540417,0.7754783679866878,-28.373819047895253,-7.438642914230155,-9.3914617073963,97
-118.61481824006951,73.17745410130695,18.421391945955335,124.40182389279809,20.732207678612525,80.35231995382372,27.84711684421003,-91.97201698971801,-53.137064373549244,6.058411728722792,-10.737771863268126,1.1530731155108054,-27.373819047895253,-8.045808014049403,-9.545473013750065,98
-116.58417328112199,73.7015967994116,19.921391945955335,124.92747402091153,22.256140139647716,81.73930479488847,29.34711684421003,-94.44770096991958,-55.887064373549244,5.446658258980185,-10.632472488435932,1.632683466850186,-26.373819047895253,-8.580924941002113,-9.5843406086558,99
-114.99204631542645,72.2196300798828,20.276659693686234,125.28043718451993,24.401503790486483,82.8353784149252,30.84711684421003,-96.54343481138179,-58.637064373549244,4.771625778005273,-10.560400703298336,2.14107767089589,-25.373819047895253,-9.047308001503447,-9.59744094553655,100
-112.48228874669803,70.15969557618968,19.93097370307791,125.19972548714948,27.151503790486483,84.47949659074114,32.347116844210035,-98.69223574058307,-61.387064373549244,4.222287320495744,-10.523985704827748,2.6942511054993807,-24.373819047895253,-9.451137905967123,-9.56768586009241,101
-109.73228874669803,69.49828664796689,20.43059313631756,124.94441515819035,29.901503790486483,84.57519082777928,33.847116844210035,-100.99127918485229,-64.13706437354924,3.68844524905347,-10.567459165080518,3.269591450533368,-23.373819047895253,-9.75260150193957,-9.502748133789108,102
-106.98228874669803,67.10609797976855,20.283890123287357,124.13797589061818,30.852492106497614,85.09989319715041,35.347116844210035,-101.41964685557575,-66.88706437354924,3.4664437669118016,-10.62518499451063,3.8291048977738695,-22.373819047895253,-10.098195261060885,-9.512493382716768,103
-104.23228874669803,64.35609797976855,18.783890123287357,123.47565732992275,33.602492106497614,83.62793739384647,36.847116844210035,-103.53727374703854,-69.63706437354924,4.3839172349107045,-9.901308041330227,3.974600803131573,-21.373819047895253,-10.287738502094033,-9.563363178577172,104
-101.48228874669803,61.60609797976855,17.283890123287357,122.44855657682999,36.352492106497614,83.4920690717267,38.347116844210035,-105.61221713058033,-72.38706437354924,4.496184329506177,-9.72291112562134,4.349024783920363,-20.373819047895253,-10.379154785660841,-9.64556463486951,105
-98.73228874669803,58.85609797976855,15.783890123287357,121.04942934714649,39.102492106497614,82.45107913090987,39.847116844210035,-107.23439263896726,-75.13706437354924,4.081894269731478,-10.001438580684553,5.022714102233052,-19.373819047895253,-10.35615066855535,-9.657033580494405,106
-95.98228874669803,56.10609797976855,14.283890123287357,119.11175595855495,40.97971781832611,81.48307924384197,41.347116844210035,-108.13606431421941,-77.88706437354924,3.6101947426618164,-10.479234732823723,5.802489072128215,-18.373819047895253,-10.280104174229459,-9.597128840423352,107
-93.23228874669803,53.723511172462025,12.783890123287357,116.89971958559781,43.65018513834662,81.63955944327107,42.847116844210035,-108.35323282121763,-80.63706437354924,3.7129789648907185,-10.91267120764208,6.483659525416343,-17.373819047895253,-10.24878103719469,-9.60124948845882,108
-90.48228874669803,50.973511172462025,11.283890123287357,114.33128814178279,44.81541703606897,80.65215278511529,44.347116844210035,-108.4820763533805,-83.38706437354924,4.437866580813088,-11.185673227456608,7.062711046455246,-16.373819047895253,-10.193475958659377,-9.65814551473628,109
-87.73228874669803,48.223511172462025,9.783890123287357,111.58128814178279,45.99906773379716,79.54377032527059,45.847116844210035,-108.5733209660737,-86.13706437354924,5.115573234567626,-11.269224853355192,7.381865249655191,-15.373819047895253,-10.124572326731112,-9.86971818782186,110
-84.98228874669803,46.54471563295139,8.283890123287357,108.83128814178279,48.35479630894957,79.53657389430664,47.347116844210035,-108.64800052770545,-83.38706437354924,5.5278791254241275,-11.212078777316703,7.909235902365901,-14.373819047895253,-10.027897415548235,-10.01591690735103,111
-82.23228874669803,45.2939663906978,6.783890123287357,106.08128814178279,49.14782404727197,78.7412914943046,48.847116844210035,-108.44760680397404,-80.63706437354924,6.090768024493056,-11.034185326737163,8.48098487648042,-13.373819047895253,-9.916226182608561,-10.034950784113809,112
-79.48228874669803,43.0002321167068,5.283890123287357,103.33128814178279,50.51036761193125,78.21089127043543,50.347116844210035,-108.23076133138842,-77.88706437354924,6.71561157133389,-10.813598680965598,8.830985356084685,-12.373819047895253,-9.77195300215229,-10.122243369689555,113
-76.73228874669803,42.84198702126832,3.7838901232873567,100.58128814178279,51.43198250235381,77.46090497935316,51.847116844210035,-108.14207560361224,-75.13706437354924,7.23750191802169,-10.676022374516014,9.131782593977762,-11.373819047895253,-9.538352056202589,-10.274945057872586,114
-73.98228874669803,41.622025936157506,2.2838901232873567,97.83128814178279,52.04600746228175,76.84009783983271,53.347116844210035,-108.06631751215528,-72.38706437354924,7.811900474961242,-10.580474763006595,9.441077801558258,-10.373819047895253,-9.268960578463336,-10.405424509715722,115
-71.23228874669803,42.10461963204868,0.7838901232873567,95.08128814178279,52.40464269022737,76.43380966989449,54.847116844210035,-107.7903375390762,-69.63706437354924,8.388515696691234,-10.466145043842571,9.668432636475178,-9.373819047895253,-8.981079312468635,-10.563037556559033,116
-68.48228874669803,42.128995970812376,-0.7161098767126433,92.33128814178279,54.56014143719318,76.85881833544326,53.868104748666006,-107.88876355119636,-66.88706437354924,8.80106688193161,-10.331016265588206,9.779254327313469,-8.373819047895253,-8.667736042283263,-10.780956342559394,117
-65.73228874669803,43.60497161911416,-2.2161098767126433,89.58128814178279,55.09070524136522,76.23237669772556,54.35544520130134,-108.13398930773981,-64.13706437354924,9.244328502704402,-10.329413017452344,9.913470360001119,-7.373819047895253,-8.41601520667204,-10.9824650538567,118
-62.98228874669803,44.800555732279946,-3.7161098767126433,86.83128814178279,55.146924456957805,75.78032707068168,55.02051202488716,-108.34393287714954,-61.38706437354924,9.75002569849136,-10.303096865950904,10.079714824581533,-6.373819047895253,-8.29692772904921,-11.06443327058017,119
-60.23228874669803,46.67664694564509,-5.216109876712643,84.08128814178279,55.979402717645094,75.418795027804,55.585600724480344,-109.29495735933972,-58.63706437354924,10.463708604984237,-9.992424786034093,10.317333065870885,-5.373819047895253,-8.18917505547824,-11.00117604683873,120
-57.48228874669803,45.578206753715335,-6.716109876712643,81.33128814178279,56.09094986011535,77.02914118968908,54.94737079686476,-108.05796843797218,-55.88706437354924,11.124129336172325,-9.321536856895795,10.390219778566546,-4.373819047895253,-8.450063694657572,-10.99666126041752,121
-54.73228874669803,48.328206753715335,-8.216109876712643,78.58128814178279,57.27736720231157,76.71805670422347,54.379405239781256,-109.18489207663173,-53.13706437354924,10.942209395005007,-8.433146420927107,10.57813238798398,-3.373819047895253,-8.516717838255545,-11.005162804781332,122
-51.98228874669803,48.83618103952321,-9.716109876712643,75.83128814178279,56.93726579970887,76.78063587678294,55.217712470439245,-109.283134497285,-50.38706437354924,11.28582258592629,-7.9190235084304135,10.68336935557535,-2.373819047895253,-8.719535259367593,-11.03396234613781,123
-49.23228874669803,50.02455784780635,-11.216109876712643,73.08128814178279,58.04835047110533,77.93065981081004,53.717712470439245,-109.65674164851336,-47.63706437354924,11.25132719709487,-7.218940498267816,10.942350168178862,-1.373819047895253,-8.956819753903956,-11.030877607568945,124
-46.48228874669803,52.53177048485476,-12.716109876712643,70.33128814178279,59.68626006348771,76.05773904258261,55.217712470439245,-112.40674164851336,-44.88706437354924,12.342650914132626,-7.2772017102994635,11.16698383455663,-0.3738190478952528,-8.394920310256161,-11.046772716160401,125
-43.73228874669803,49.78177048485476,-14.216109876712643,67.58128814178279,56.93626006348771,78.80773904258261,56.717712470439245,-109.65674164851336,-42.13706437354924,14.474797850911735,-7.390208488331559,11.220880495173263,0.6261809521047474,-9.167085262772781,-10.755628668467606,126
-40.98228874669803,49.80186448409961,-15.716109876712643,64.83128814178279,56.565254141068394,78.37763216207131,55.455805362712546,-110.36049602833793,-39.38706437354924,12.023209051917474,-6.390208488331559,11.65342799247531,1.6261809521047477,-9.379573611777152,-10.64450575590699,127
-38.23228874669803,50.01802734257163,-17.216109876712643,62.08128814178279,57.92459045945035,79.33095476858982,53.955805362712546,-111.01375356091533,-36.63706437354924,11.865063165947063,-5.59740631548775,11.760791805395595,2.6261809521047477,-9.587603449606117,-10.63780528001204,128
-35.48228874669803,49.375752407002686,-18.716109876712643,59.33128814178279,57.866631517260274,79.21957064943886,53.964089689689935,-111.79513865025582,-33.88706437354924,11.901665874278011,-5.33159065449434,11.958865108811722,3.6261809521047477,-9.762237817550893,-10.59054099706815,129
-32.73228874669803,48.345340418701205,-20.216109876712643,56.58128814178279,57.38925402584259,79.22594588562791,54.32868051342218,-112.04551756126288,-31.137064373549237,11.925279665546796,-5.075454850064229,12.14170314509712,4.626180952104748,-9.980046408181709,-10.499518999209128,130
-29.982288746698032,47.82663468452777,-21.716109876712643,53.83128814178279,58.81016360963062,80.01688948782517,52.82868051342218,-112.77002613924611,-28.387064373549237,11.633533709905953,-4.907272859604814,12.320665460543573,5.626180952104748,-10.155675168863057,-10.385933470709505,131
-27.232288746698032,47.5569094859343,-23.216109876712643,51.08128814178279,58.755152595858725,79.76406705352363,52.42341743868388,-113.43198671015341,-25.637064373549237,11.547461851709802,-4.9100977873083185,12.50595194106381,6.626180952104748,-10.305802206268034,-10.201251316071646,132
-24.482288746698032,46.79075648385288,-24.716109876712643,48.33128814178279,58.725193409086366,79.54330532950561,52.438299499395086,-113.86562320699501,-22.887064373549237,11.506484175633371,-4.882924511923059,12.594750016287298,7.626180952104748,-10.44931707035835,-10.031521446127257,133
-21.732288746698032,45.93581827425844,-26.216109876712643,45.58128814178279,59.42925036434262,80.45032375350863,50.938299499395086,-113.54431551712602,-20.137064373549237,10.889570149248891,-4.879351979632063,12.396607022253855,8.626180952104749,-10.594961967099993,-10.180383290590731,134
-18.982288746698032,47.13023171087343,-27.716109876712643,43.82898480782514,59.532727262019826,79.67880154078301,49.438299499395086,-115.0639563566129,-17.387064373549237,10.329738087290222,-5.27991966240608,12.769946515771682,9.626180952104749,-10.695114026697844,-9.92102325164492,135
-16.232288746698032,46.92171807929943,-29.216109876712643,45.61222583526539,60.14879471168411,79.34432853147334,48.704016792617644,-116.01630231417987,-14.637064373549237,10.681273502813323,-5.488885772286276,12.919474938994044,10.626180952104749,-10.687198588685831,-9.514042697380038,136
-13.482288746698032,45.98033720157251,-27.716109876712643,48.36222583526539,60.39353084469678,79.18459425352887,48.99652258242219,-116.0751162472651,-11.887064373549237,11.324836184106887,-5.823289841221471,12.817234751877118,11.626180952104749,-10.569043743775266,-9.209420531918886,137
-16.232288746698032,45.46405884630487,-26.216109876712643,51.11222583526539,61.32165297802603,80.34050052837142,47.49652258242219,-116.09296563961483,-9.137064373549237,11.64077703852197,-6.134430538494285,12.767559341986393,12.626180952104749,-10.739415126391863,-8.86649103473094,138
-18.982288746698032,45.691589311177445,-24.716109876712643,53.86222583526539,61.67092342991338,80.15724124625403,46.07959343737724,-116.02232997853498,-6.3870643735492365,10.978694534376727,-6.076037724728834,12.557967502487166,13.626180952104749,-10.748860867100356,-8.766136605853635,139
-20.89027343780074,47.06476113741049,-23.216109876712643,55.47512512693005,62.208325508229954,79.67445467425263,45.34054862023988,-117.7007944235709,-3.6370643735492365,11.017442175928986,-6.663937936981743,12.90037045485368,14.626180952104749,-10.815410461758667,-8.189157325520807,140
-23.64027343780074,47.081427092426125,-21.716109876712643,58.22512512693005,61.117878091740906,80.23794047024727,44.724411273652436,-115.68299361729375,-0.8870643735492365,10.585589500799216,-6.51122965253038,12.320441044097612,15.626180952104749,-10.861748041772337,-8.19885904821641,141
-25.547771678447972,49.731607335338076,-20.216109876712643,60.881024991298446,63.08597872134555,79.1763882789308,43.224411273652436,-118.37171091704555,1.8629356264507635,9.9256842117481,-7.218949845979493,12.405980661154738,16.62618095210475,-10.667571275711023,-7.804128338093155,142
-28.297771678447972,49.68473011666309,-18.716109876712643,63.631024991298446,63.27753701935715,78.94389968123255,42.678554109818855,-118.3935607100304,4.6129356264507635,10.445750469733373,-7.909367444809649,11.986804096263597,17.62618095210475,-10.54587101772033,-7.565965007813046,143
-31.047771678447972,50.04777317485865,-17.216109876712643,66.38102499129845,63.10926876105346,78.84420821245021,42.45044305273401,-118.7629661597781,7.3629356264507635,10.544065959109723,-8.512865851034503,12.03771211772935,18.62618095210475,-10.517054259766415,-7.08241567463775,144
-33.79777167844797,50.32168518080131,-15.716109876712643,69.13102499129845,63.60538808120968,78.8817328121974,41.66608846157546,-119.11972372482396,10.112935626450763,10.622044248255413,-8.686664133239864,11.870711489209347,19.62618095210475,-10.461090090258411,-6.63012411709193,145
-36.54777167844797,51.931992722637574,-14.216109876712643,71.88102499129845,64.48873764516405,78.76971821988948,40.67135857082334,-119.54467975016087,12.862935626450763,10.650157861542986,-8.94144467815293,11.264486787496576,19.92962375806095,-10.327964707366183,-6.567721302425449,146
-39.29777167844797,52.77168679405337,-12.716109876712643,74.63102499129845,64.67093797783932,78.73646050037016,39.779202767281355,-120.2983872472147,15.612935626450763,10.676100174929868,-9.3166385160459,11.050758485288913,18.92962375806095,-10.34430197933802,-6.231119212930507,147
-42.04777167844797,53.145516039273105,-11.749769782131178,77.38102499129845,65.80364517668822,78.7941157392811,38.44169714278001,-120.97899829922459,18.362935626450763,10.274266485687336,-9.325314346978864,10.582071352349441,17.92962375806095,-10.157939753849583,-6.080246638785296,148
-44.79777167844797,54.90670550738065,-10.249769782131178,80.13102499129845,65.85462575210207,78.86790786016613,37.74556259713553,-121.46272646929201,21.112935626450763,10.068139368216535,-9.634897696258205,10.236169351488584,16.92962375806095,-10.141463611941983,-5.92603177981441,149
-47.54777167844797,55.114825634764,-9.235715589260515,82.88102499129845,66.31255278153421,79.19766265670535,36.45110185026814,-121.89727976061016,23.862935626450763,9.514623798117608,-9.463314103161673,9.84024557048495,15.929623758060949,-10.1322438766222,-5.814916857871513,150
-50.29777167844797,56.8674673272737,-8.061538088767838,85.63102499129845,67.53643649699183,79.37342163513759,34.95110185026814,-122.89852106628665,26.612935626450763,9.161746133003874,-9.320684890914961,9.486917465405623,14.929623758060949,-10.058125823446016,-5.669175065164366,151
-53.04777167844797,58.54237380830412,-6.561538088767838,88.38102499129845,68.61955328435349,79.46395172545284,34.158693470370416,-123.63860707887875,29.362935626450763,9.384496049346147,-9.548608977334393,9.142644051829238,13.929623758060949,-9.86100120588483,-5.5267350778528295,152
-55.79777167844797,58.68876055865709,-5.322958327140167,91.13102499129845,69.21700341482392,79.53230647124377,33.86920731577595,-123.93053471785746,32.11293562645076,9.749365237489766,-9.827650363808258,8.725694869272248,12.929623758060949,-9.790627537155405,-5.4999649664771395,153
-58.54777167844797,60.38031291765675,-3.8229583271401673,93.88102499129845,69.7440090414624,79.63624414872432,33.506796937562946,-124.33340928899108,34.86293562645076,10.038854394290295,-10.065393220571831,8.504773723590068,11.929623758060949,-9.689173310515882,-5.432425148038834,154
-61.29777167844797,61.95867468140191,-2.3229583271401673,96.63102499129845,69.21060794825384,78.20343881358527,34.770671573016514,-124.69512255533137,37.61293562645076,10.125422427086633,-10.234774989129301,8.024561299458641,10.929623758060949,-9.568431889647606,-5.5937637436375995,155
-64.04777167844797,63.546626362593955,-0.8229583271401673,99.38102499129845,69.02924385758499,78.39569387842619,34.06205718792767,-124.7820985715541,40.36293562645076,9.906889278168522,-10.332338548914427,7.83730146286906,9.929623758060949,-9.520637034439012,-5.5771141981264405,156
-66.79777167844797,64.98383286815455,0.6770416728598327,102.13102499129845,69.98450901130121,78.69304491210606,32.56205718792767,-125.46048805627746,43.11293562645076,9.445067985830514,-10.1929476274169,7.440669683747866,8.929623758060949,-9.387113180443986,-5.637390879912194,157
-69.54777167844797,66.36128393681602,1.334218931941228,104.88102499129845,70.83281145322046,78.94605884545562,31.20888945391606,-126.18799708645913,45.86293562645076,9.22471744288757,-10.181196277868148,7.086410194711351,7.9296237580609485,-9.19198297249552,-5.726863344305547,158
-72.29777167844797,67.72303536125854,2.0141186666008535,107.63102499129845,70.22879364213999,77.54079552686466,31.9823996954138,-126.76961094977469,48.61293562645076,9.177361635892279,-10.285050355010396,6.7420120529009875,6.9296237580609485,-8.986228579368367,-5.848655156731338,159
-75.04777167844797,69.00463252023349,2.504715430737828,110.38102499129845,70.84669615470547,77.73885285099419,30.858640741730166,-127.34534921535709,51.36293562645076,9.020140476697609,-10.374581750336834,6.342828505798153,5.9296237580609485,-8.718633890451349,-6.056394133011655,160
-77.79777167844797,70.26038126934985,3.0519746895483846,113.13102499129845,70.75697673241226,77.85738641299203,29.892938999064334,-127.8581373068847,54.11293562645076,8.874055547692699,-10.476870171043835,6.121128569519086,4.9296237580609485,-8.538057463894663,-6.159230849640461,161
-80.54777167844797,71.23261104178322,3.595467789400664,115.88102499129845,69.86395700151067,76.40854573126776,30.40276618057767,-128.54788032442863,56.86293562645076,8.40289977711612,-10.487070515283762,5.557289682949263,3.9296237580609485,-8.237194469810026,-6.58657281706056,162
-83.29777167844797,72.18118696748786,4.159509174857165,118.63102499129845,69.59013525416142,76.52686586638022,29.241010533894194,-129.26094558760005,59.61293562645076,7.817948313655769,-10.661184590158566,5.3528775669461615,2.9296237580609485,-7.795449625751526,-6.842941426303623,163
-86.04777167844797,73.10643609978905,4.789435559707944,120.27874257563914,68.14291128207843,74.89865077735793,29.873546334075165,-129.94569339695101,62.36293562645076,7.439350018528838,-10.890238701328913,5.125104586531855,1.9296237580609483,-7.339245743650647,-6.99260315244537,164
-87.3292504438408,73.97730578426699,5.435648296528492,121.60378203835549,67.45202250739163,74.81539955776834,28.671365037996715,-130.67451558960443,65.11293562645076,7.056570068025162,-11.092877511319555,4.895559440823248,0.9296237580609481,-6.898086730397106,-7.106748515383661,165
-87.92164263401925,74.65943490058399,6.092663196794249,123.08926447108091,66.83422168401644,74.69956990483324,27.20958287838894,-131.52433912461595,67.86293562645076,6.640515194137211,-11.28812981865722,4.656338693522036,-0.07037624193905212,-6.387655398192147,-7.227333431137563,166
-88.42506781582675,75.14919156380145,6.888836286448369,124.4860930368228,64.99861795401296,72.79633584955013,27.436652087072954,-132.29145810742264,70.61293562645076,6.183698357497516,-11.498726974480881,4.328005306564325,-1.0703762419390523,-5.827096702479754,-7.36914976221624,167
-88.16357384686039,73.82020542977862,6.166405726647213,125.31008314282887,63.75362683272193,72.60519714606315,25.936652087072954,-132.67162322015147,73.36293562645076,5.269235995802289,-11.492569726379795,3.951262780660059,-2.0703762419390523,-5.352953532971525,-7.606415719768487,168
-86.92595086156356,74.49491012240219,6.826072806878223,126.34817932504241,62.659268681158,70.69455612689613,25.598103842709204,-134.2565400334139,76.11293562645076,4.750458624899267,-11.620888149109746,4.181933122519869,-3.0703762419390523,-4.708903289479488,-7.579107742658611,169
-87.50519314634057,75.14240408157198,8.326072806878223,127.39001203118698,61.11647606217229,71.21793382123661,24.378839253059944,-134.62166738674807,78.86293562645076,4.840937067131784,-12.088619888839398,3.9257825593379168,-4.070376241939052,-4.157526698130201,-7.6812953328525015,170
-87.33904370256623,74.6992137187973,9.826072806878223,128.2522372275461,58.36647606217229,69.90171242328425,24.55302637035875,-134.7005114217565,81.61293562645076,4.1921086237821985,-12.176677236623789,3.6876530513989154,-5.070376241939052,-3.6898613138199283,-7.888285678346251,171
-85.61259003360487,73.88402009766683,10.093407448685703,128.89143438996408,56.315675481032365,68.28884348881371,23.800936792251782,-135.62307554358702,84.36293562645076,3.367130240762157,-11.909971509838956,3.6278112198845935,-6.070376241939052,-3.225402400382045,-8.0591625469614,172
-84.6671269041816,72.58585748650916,10.581801554747768,129.5406341868123,54.427588972376434,68.54089121772282,22.300936792251782,-135.9997652425552,87.11293562645076,2.767090401332517,-11.705814141666757,3.598334908531877,-7.070376241939052,-2.8471112032379438,-8.167501725835193,173
-82.84669788499293,72.83290064613624,12.081801554747768,130.11989114553901,52.08902883464705,66.91527488715454,21.794272722693343,-136.29924964274954,89.86293562645076,2.154467744737665,-11.37922375310786,3.5143662026147777,-8.070376241939053,-2.5062133304368555,-8.31673870269195,174
-81.70473525178635,71.53493017248076,12.916574238643099,130.6512701023042,49.33902883464705,65.28614817626502,22.30318932460657,-136.31257367960248,92.61293562645076,1.6341611268263132,-11.228533858743576,3.5831334774039574,-9.070376241939053,-2.179001573525995,-8.46890978943711,175
-80.46039805321239,70.13190766806463,13.449118092854489,130.95564544370205,47.22385434836993,65.38969939170522,21.00828852427723,-136.42583719868162,95.36293562645076,1.1874691051103548,-11.014632895600482,3.5864994171974716,-10.070376241939053,-1.8625684430784393,-8.62139505526644,176
-78.6509257247729,70.5447146874246,14.949118092854489,131.1990127741136,44.662522671895935,63.692313127477874,21.676532408915765,-136.39024363927086,98.11293562645076,0.8545157381266308,-10.732057809030529,3.6584709053702658,-11.070376241939053,-1.6109854575261635,-8.668410964839591,177
-77.40576090856096,69.24174294099072,15.421333645098255,131.27094864742716,42.95415549072719,63.783313728762174,20.88020991181494,-136.16414942932076,100.86293562645076,0.7886642099392916,-10.462604733599221,3.6742005788006793,-12.070376241939053,-1.456920547055239,-8.679222456609905,178
-75.72875258971156,69.93617256560124,16.876711213114227,131.25467494808368,41.35626285973907,63.93885981858342,20.406893517255202,-135.8784256719692,103.61293562645076,0.8009779203012034,-10.248921194241186,3.5804664654694363,-13.070376241939053,-1.316984148989256,-8.757905777621465,179
-74.69039734054013,68.86648509792393,17.052782723008796,131.23408193242733,39.18566795459934,62.24212600094326,21.759092786829367,-135.53794574290785,106.36293562645076,0.7498114486951944,-9.985555187884186,3.4958153208262175,-14.070376241939053,-1.2534195674335562,-8.845811423673126,180
-73.68097829563939,67.9247031783627,17.106166200244576,131.08923562239565,38.073079644101846,62.273922336939926,21.370281410523617,-134.9128175789592,109.11293562645076,0.7168459389665072,-9.682081175991373,3.4142035488080764,-15.070376241939053,-1.3085038187372307,-8.900074142829041,181
-72.77558813994635,67.25730283916744,17.083888727685604,130.83585250147019,37.260648005049944,62.166727173925466,21.095857822067497,-134.29144560198245,108.65522389201483,0.8633565577182635,-9.524683170068506,3.14538730539462,-16.070376241939055,-1.3779465295865396,-9.153316783814422,182
-71.55607794219138,68.70794891983932,18.565684624260314,130.78462957844457,36.7794726712922,62.00338316628699,20.920789894162127,-134.0585495540148,105.90522389201483,1.1485483792359958,-9.462925319608594,3.0932974801399773,-17.070376241939055,-1.4577161414664532,-9.358783329598475,183
-71.11280242012282,68.42107063507173,18.47116887053261,130.62482831311823,37.22677268775193,61.71963465225809,20.460832282219943,-134.02848995950194,103.15522389201483,1.3186527479255064,-9.36339432441232,2.9084119892035973,-18.070376241939055,-1.5188453771829504,-9.534493953776582,184
-70.82857595197856,68.28841073597535,18.27571073953529,130.3911563339879,37.939745031701165,61.335403994881844,19.82931682229862,-133.9483814718782,100.40522389201483,1.4329222610215218,-9.279522194554518,2.6649978749666365,-19.070376241939055,-1.5609243237118953,-9.772852122975944,185
-70.50520806368058,68.27914679257387,17.891067797796342,130.18384968093443,38.91411653613988,60.86798851295417,19.025413488906935,-133.87825836233597,97.65522389201483,1.569659440678654,-9.245205146415374,2.5604808155665038,-20.070376241939055,-1.5559840081713865,-9.960837912118288,186
-70.83740905491432,68.7336736612849,17.97436223573378,130.17223594172162,39.592769809477005,60.43513155496126,18.61019973312065,-133.69934746406153,94.90522389201483,1.9329777849954464,-9.504193560868123,2.534683428618827,-21.070376241939055,-1.4587513016410705,-10.16109183234735,187
-71.35071808664983,69.27050895750182,18.01241550399485,130.3044475636722,40.602736081891926,60.10337189251321,18.133198008927625,-133.56722525253045,92.15522389201483,2.1682315959136815,-9.763504192784037,2.608007782900186,-22.070376241939055,-1.284932855346926,-10.305521985851902,188
-71.86341053906499,69.81962713898838,17.732959726440942,130.34501916670712,42.15951967115073,59.81389946266849,17.44385049215653,-133.6601946428703,89.40522389201483,2.1886022507832608,-9.999509614197217,2.7656184302441726,-23.070376241939055,-1.040862334992487,-10.318075697736106,189
-73.36436457384866,68.60554300215271,16.506495578600987,130.56917158294306,43.91109900382777,59.75017869092802,16.991661744650603,-133.63761717038642,86.65522389201483,2.1517659846337525,-10.260796060647252,2.950636855383048,-24.070376241939055,-0.7419198459331741,-10.293891694172395,190
-74.30955396583035,70.30577744430332,17.489156328212992,130.97197059252235,45.67055705125281,59.788480384752276,16.75457390412467,-133.54370148327305,83.90522389201483,2.2248187591217965,-10.583664880535856,3.1808199105513055,-25.070376241939055,-0.4117601625080317,-10.26802878380702,191
-76.13759171748782,69.42282411628281,16.60157876570487,131.47694492690394,47.73417498349295,59.79087989230414,16.35799081563034,-133.52300876168854,81.15522389201483,2.306044812129463,-10.889890901229283,3.471515032825104,-26.070376241939055,-0.07980681853659341,-10.180958070467346,192
-77.1466360184425,70.41866155116226,16.559078217215557,131.74808714636825,50.48417498349295,61.48132151507882,14.857990815630341,-133.8544102250639,78.40522389201483,2.3427483389256145,-11.235303599422124,3.7273253248726994,-27.070376241939055,0.26329178111123464,-10.04601976572327,193
-78.9848800727212,69.6132532040903,15.539493525959937,132.02960156966412,53.19304552893581,61.35433757001741,13.357990815630341,-134.25954107309093,75.65522389201483,2.4391292556203577,-11.648606878737787,3.9507787820456177,-28.070376241939055,0.6279704297268092,-9.958914495611008,194
-80.23315368127288,70.48384337975185,15.954309372838122,132.4040399383511,55.43714304228035,61.323477697887036,12.593048824979851,-134.57319103187686,72.90522389201483,2.5894945941889875,-12.015674409543948,4.154821327968494,-29.070376241939055,1.0004177380230068,-9.973303055780786,195
-81.221539956518,71.31695705117627,16.261896462822815,132.69756329671782,57.32181773225761,61.19293540737813,11.875125396506354,-134.73836622069345,70.15522389201483,2.8064186258124146,-12.428794588650902,4.410295783809116,-30.070376241939055,1.3525699714845214,-10.023978463763411,196
-82.13204542289756,72.23879480894713,16.505161022858513,132.87792592015563,58.88260974573927,60.9940775843575,11.240143890684958,-135.04152873502213,67.40522389201483,3.0337465915654795,-12.875111623969946,4.727607426966809,-31.070376241939055,1.6414849472309363,-10.046059984269853,197
-83.49654681652036,71.09824875679169,15.356860598414785,133.0363949438872,60.36021575156311,60.92200045462098,10.7661423995204,-135.47194886843022,64.65522389201483,3.12830698857034,-13.233903498297074,4.909073142150144,-32.07037624193906,1.9206741006191081,-10.111511761934642,198
-84.12711870814337,71.63787783472209,15.344694422664674,133.13731970670796,61.65115148248463,60.83461248391982,10.103138106745064,-135.90812969763104,61.90522389201483,3.1555168647325265,-13.539790531287322,5.084525583525738,-33.07037624193906,2.1759392128454693,-10.189450327695956,199
-84.68692430401867,72.0888764337811,15.27033150746544,133.1749188429037,62.94233564482947,60.68319623660264,9.05412412155404,-136.3984841002189,59.15522389201483,3.122662894764585,-13.809867930101122,5.272084434829533,-34.07037624193906,2.388930750480762,-10.255362481017844,200
-85.15777223550212,72.43476256969481,15.176339057665619,133.15516622223413,64.26658093121067,61.126455489148995,7.55412412155404,-136.970818830601,56.40522389201483,3.094679393940082,-14.072082529789968,5.407970946567648,-35.07037624193906,2.6094732771008444,-10.329769766974012,201
-85.70482027808562,72.70373200367841,15.322169065793172,133.17565403974876,64.87187277867628,59.13500845085359,7.857595032177683,-137.53459848698552,53.65522389201483,3.0718099309707365,-14.381050690045813,5.588990680549376,-36.07037624193906,2.8691453090978363,-10.379295851429356,202
-86.22129819676258,72.93124151207451,15.617544783750304,133.2218107788162,65.30524189165313,58.90510095914735,7.114294146751566,-137.94515282254392,50.90522389201483,3.0263054984518325,-14.706089560868262,5.835399766337125,-37.07037624193906,3.115348166503713,-10.38583493654658,203
-86.62227090262725,73.1907139978956,15.879340336439064,133.12657070219518,65.26926845583105,58.33995862904315,6.587921501901615,-138.38077851691534,48.15522389201483,3.011936788487456,-15.068952774612107,6.003769513281986,-38.06458730762725,3.328289764394407,-10.456950990626039,204
-87.22462957949308,73.38723169321814,16.48995809033071,133.08816477686133,64.68029910373141,57.66806282892969,6.460371484034479,-138.80758304650334,45.40522389201483,3.0744029256428735,-15.401672534747293,6.10790262180951,-38.003776784752404,3.525072759782541,-10.65714194326055,205
-87.81258233512777,73.35585794260017,17.274421599073754,133.16787653577677,63.6627129421437,56.94000466792247,6.465994497591168,-139.14469649552518,43.48715475906058,3.080465570383978,-15.635185242088772,6.357301439062573,-37.97838681146832,3.723789092302605,-10.787726208424768,206
-88.47642338937929,73.19584576703409,18.081919218759975,133.24743408116825,62.24534405650096,56.02180660222227,6.589488756995499,-139.3325299184413,45.54866709812644,2.8904528239495133,-15.829546494332394,6.648694045846138,-38.046564342871115,3.936084554186536,-10.804265492902823,207
-88.9565495913148,72.83931663778183,18.525521893931472,133.20131212470542,61.21718768765501,57.04104366424179,5.089488756995499,-139.60086399797117,42.79866709812644,2.4540953299848476,-15.931343313898372,6.708279942941646,-38.35302874074052,4.136774643711723,-10.903958518388025,208
-88.61957026311993,72.13489517039098,18.423363381808326,133.02099471428903,60.72209046300358,56.21722862452338,3.919819738610327,-140.19700862412967,40.04866709812644,2.1188645590898934,-15.932887466997013,6.683023473331826,-38.88057317287003,4.354291157927294,-11.120638194402712,209
-88.28079785869721,71.63803834871135,18.667122089757395,132.87602614011044,59.485255406509495,54.49867505159526,3.9289204848977994,-140.6579064512786,37.29866709812644,2.282658922257489,-16.056492985708065,6.886317643618949,-39.12412038685373,4.566215243329848,-11.30262919143597,210
-88.31369094832027,71.4463677002745,19.236751684966343,132.70885447552453,57.15133112404042,53.8535019206635,3.6416460300760267,-140.90302581216477,34.54866709812644,2.6724550422378166,-16.302475254357976,7.1713459160848085,-39.16004177954159,4.758530993757422,-11.433102047452055,211
-89.07837070502349,69.34091493400783,18.642797379292013,132.51432264556738,54.61205958443861,53.06743221938276,3.2338828641044146,-141.01431368376575,31.798667098126437,2.832507623354232,-16.50220980725718,7.341830412997593,-39.20650520120148,4.922136067407501,-11.627072376501523,212
-89.10360198895344,68.98229831988122,19.259485657993583,132.40874902448675,52.55417908847285,52.51999406690645,3.0735308646680557,-141.17151324557352,29.048667098126437,2.954512276769577,-16.58798591722211,7.474003597764256,-39.25259945259002,5.030543513896429,-11.854111683334288,213
-88.78664745913764,68.69387530817627,19.48024676308513,132.12665342113914,50.78747774306471,51.88889168638601,2.7425251120993237,-141.40816350925635,26.298667098126437,3.1856116416591,-16.662161962274975,7.543180038300283,-39.391719271256285,5.0665708943199,-12.103326560859815,214
-88.5512320196137,68.58848210541677,19.74605574169827,131.80572076122277,48.82738687651976,51.21324607081299,2.7326561224128576,-141.55244375239695,23.548667098126437,3.4925175561157777,-16.803730084969825,7.593543001246066,-39.43861170116496,5.076891917879625,-12.386501669967108,215
-88.7536301545218,68.64615523374025,20.39756126985638,131.64898106788198,46.74787512349927,50.741741730592885,3.3108168765143584,-141.55911405753298,20.798667098126437,3.7704247877544574,-16.98762638893073,7.769830539404571,-39.34178940078675,5.097815429000242,-12.582407661136557,216
-89.18291466498812,68.70900814626494,20.995384110273402,131.54601805801218,45.21320607186567,50.44238592542951,3.8842428420197956,-141.47362817739372,18.048667098126437,3.8845357549684234,-17.17796147640646,7.87040319448986,-39.346128551409386,5.151848456451775,-12.72829906627096,217
-89.46190267673109,68.72533376997848,21.206093889856785,131.32934423156323,44.22493785943224,50.1743411603671,4.213338112669074,-141.43383760276862,15.298667098126437,3.9273931449166883,-17.35919955796977,7.973173136242955,-39.61081727834567,5.196814116797897,-12.751869441975803,218
-89.6626332876618,68.79085864561802,21.107056127823693,131.05686790199027,44.13789464259486,50.07391896105929,4.328692280821523,-141.4958230207475,12.548667098126437,3.930854509628523,-17.50172320869231,8.044004707914008,-39.93893242225984,5.219685905549758,-12.659782359976361,219
-90.09868604942417,69.07413409256962,21.023495849537625,130.734656353229,44.678960792612955,50.111015886963074,4.52903743330474,-141.65373486253856,11.247131467431457,3.8867329338176138,-17.7097269244848,8.036627261790786,-40.19200597594483,5.22085792822632,-12.581384868763463,220
-91.56496385897631,67.62069963800703,19.913418670106854,130.45045693302245,45.943608496878554,50.26111091999538,4.492408837038761,-141.94143523239538,10.916476621404705,3.865228756754082,-17.862708863740675,8.05280167590534,-40.462301408370614,5.159856342691738,-12.48873827031017,221
-92.40951470582897,67.77671592300264,19.950987796544286,130.21936193757762,48.484467168321586,50.55916772523761,3.714933612836462,-142.46513403630962,8.815562493969347,3.770543398953008,-17.935765168531947,8.075154701142292,-40.87432569298685,5.1390293744137185,-12.27119860513868,222
-93.1512301605616,67.79626543368967,19.81332239522562,129.99549583107068,51.234467168321586,51.044313704585896,2.5056557058398226,-143.1314828773545,6.617608899133218,3.616666665533613,-17.972990052155982,8.06044761528247,-41.34401101409673,5.174696712775179,-11.979801992892172,223
-94.0032702905542,67.90239338924032,19.766962957331273,129.76379379879626,53.984467168321586,51.75102602304648,1.7189268325740583,-143.6902616166182,5.517106724647828,3.5539686991511314,-17.932940555701826,7.9800395409923155,-41.65342234902872,5.149744604052208,-11.74521407008419,224
-95.18462254246822,68.07388741063264,20.046539319036228,129.63929441185775,56.734467168321586,52.59693887582679,1.3358642906722047,-144.03495334774323,4.9693990276514235,3.601214197769812,-17.792273297918232,7.89487150247089,-41.79036902948991,5.055527851799677,-11.530288561433265,225
-96.6814805390072,68.28131053145785,20.44465250087619,129.70529692068968,59.484467168321586,53.16839167770284,1.4466262932552838,-144.14357702410382,2.747061467333468,3.581942424710536,-17.562392112922193,7.82414341669871,-41.97772539761637,4.8796629343030675,-11.25899481123928,226
-98.04163031650279,68.44440298076037,20.328496439881363,129.69574198859513,62.234467168321586,55.39803294734246,0.13729032147439557,-144.37224597201603,-0.002938532666532101,3.5316481056073785,-17.286625243209574,7.630380262703166,-42.51526101853356,4.606274124179797,-10.970625735934695,227
-98.85283847104431,68.39875616711942,19.54891303899773,129.56215668233574,64.98446716832159,56.00794559624471,-0.4110778874904075,-144.8729744276508,-2.752938532666532,3.430991120717002,-17.022967301059747,7.1478889608588085,-43.26889426927172,4.4081246161304195,-10.855214421377468,228
-99.94987721506868,68.62046293783747,19.164724961057885,129.57709220527093,67.73446716832159,58.75794559624471,-1.716195882346894,-145.21734093807987,-1.947879294233079,3.4290788175533202,-16.811475041969018,6.965092671699632,-43.76763300961663,4.21349072304021,-10.661592843713251,229
-101.39076972420422,69.04253107327729,18.98055384879866,129.53722107146612,70.48446716832159,61.50794559624471,-2.506255674245706,-145.32077791742057,0.8021207057669211,3.375583518319484,-16.778403993717667,6.8675338546401274,-44.098303802230134,4.116193939586965,-10.371549625657876,230
-102.77668330811707,69.4677077920111,18.593641665383167,129.3618152070833,73.23446716832159,62.83507111863956,-1.9853723276618411,-145.42585962765887,3.552120705766921,3.397203193832265,-16.799547665803807,6.736151994457846,-44.49115136551627,4.071400719542503,-10.111585888331145,231
-103.36217867891555,71.61636962071158,19.25612121770579,129.11447103818963,75.98446716832159,65.58507111863956,-2.793343223441174,-145.4500614905734,6.302120705766921,3.4605520504866063,-16.769028851065155,6.6498859293416634,-45.02129064809475,4.020608887345474,-9.850791662795464,232
-104.28125667626378,71.79320501436983,18.33363156163645,128.7119252090312,78.73446716832159,68.33507111863956,-3.8054969478681824,-145.45669864325407,9.05212070576692,3.675648737744358,-16.790382252760395,6.603918268157749,-45.79821142235508,4.018598013379985,-9.56820776705202,233
-105.15472290060552,71.98360982926192,17.272634618267926,128.04697638303594,81.48446716832159,70.69237906438165,-3.5596416190757716,-145.4276692930118,11.80212070576692,3.950385098349574,-16.937232538904535,6.506901509870701,-46.64084278743267,4.0620624148707805,-9.363554782880108,234
-105.98774823099403,72.15529062061876,15.921514318779142,127.46083571510572,84.23446716832159,73.44237906438165,-4.665557326194745,-145.1552392369134,14.55212070576692,4.332257626648078,-16.98097401543289,6.381855013444998,-47.55971881283544,4.116464793343906,-9.22094407051741,235
-106.52300229727409,72.34236325920692,14.421514318779142,126.81089290277491,86.98446716832159,76.19237906438165,-6.165557326194745,-144.70186438026883,17.30212070576692,4.639527248395523,-17.029979088064927,6.238877750112289,-48.55971881283544,4.131158356373609,-9.098174838816059,236
-106.9730876477462,72.66655790557874,12.921514318779142,125.8731656645199,89.73446716832159,78.94237906438165,-7.665557326194745,-144.28287694420862,20.05212070576692,4.964617274831281,-17.293940959438366,6.035443938295935,-49.55971881283544,4.185506531470172,-9.047394143392987,237
-107.4156415178932,73.02036922661603,11.421514318779142,124.88483738785588,92.48446716832159,81.69237906438165,-9.165557326194744,-143.6673662543576,22.80212070576692,5.394300656361121,-17.55293368411178,5.978627128689607,-50.55971881283544,4.232157828901662,-8.930682782429319,238
-107.37275836861006,75.25296986226655,9.921514318779142,123.7242530519231,95.23446716832159,84.44237906438165,-10.665557326194744,-142.77792428524862,25.55212070576692,5.7924109942787805,-17.917617261643105,6.001241068923846,-51.55971881283544,4.316199250108063,-8.709714054803289,239
-107.58556733668824,75.72089349388563,8.421514318779142,122.20099178700572,97.98446716832159,87.00254566044258,-12.165557326194744,-141.82176412528926,28.30212070576692,6.226075232417477,-18.45344152441307,5.970840545336237,-52.55971881283544,4.389426550749815,-8.54683480275923,240
-107.71658730964845,76.17383501558044,6.921514318779142,120.434738251408,100.73446716832159,88.82536777572778,-13.665557326194744,-140.71410983354323,31.05212070576692,6.658366729628551,-18.992752525271126,5.839042494107601,-53.55971881283544,4.432012938977301,-8.523641030266727,241
-107.75550319560752,78.3862662628405,5.421514318779142,118.62473441862382,103.48446716832159,90.30984168757281,-15.165557326194744,-139.1813575125569,33.802120705766924,6.979336275587042,-19.469946093200413,5.678106633144123,-54.55971881283544,4.506490486823881,-8.576084699762223,242
-108.00157916652003,78.7129056108897,3.921514318779142,116.70835545417306,106.23446716832159,89.95234741764286,-16.665557326194744,-137.21978210063858,36.552120705766924,7.249214922504546,-20.01789998687191,5.6352749560918305,-55.55971881283544,4.625207070199953,-8.570316403974104,243
-108.07749177495148,78.96981339996758,2.421514318779142,114.48254844986644,107.8948038937184,90.68689741128027,-18.165557326194744,-134.8212680059766,39.302120705766924,7.410996169623603,-20.51290812327692,5.653895513215498,-56.55971881283544,4.695752448815572,-8.499010640220765,244
-108.07357651687961,79.14613261929492,0.9215143187791419,112.10090736424524,106.79351929641993,89.29337393465762,-19.665557326194744,-132.0712680059766,42.052120705766924,7.385363360494789,-20.898401952007564,5.598977836033831,-57.55971881283544,4.761057261298226,-8.463718615245307,245
-108.2009371575209,80.93576303824675,-0.5784856812208581,109.6196331721495,104.20794641964956,89.21911585324779,-21.165557326194744,-129.3212680059766,44.802120705766924,7.338649289092806,-21.086649503863303,5.719105361402674,-58.55971881283544,4.647247122109409,-8.308972709609138,246
-108.29163719842599,80.81125733269924,-2.078485681220858,106.88416064230003,102.54363156365694,87.1586371691131,-22.665557326194744,-126.5712680059766,47.552120705766924,6.913739419314842,-21.33515375876736,5.238035047145829,-59.55971881283544,4.7187406036015425,-8.408489299448844,247
-107.86563494922964,80.61583312636765,-3.578485681220858,104.13416064230003,100.26731336310043,84.8012868995168,-24.165557326194744,-123.8212680059766,45.92296418115196,6.6921264605556665,-21.349432354242865,5.162575367128247,-60.55971881283544,4.664611201731465,-8.440551807042226,248
-107.52334173787413,82.04690483927844,-5.078485681220858,101.38416064230003,97.82481955079153,82.12180502459972,-25.665557326194744,-121.0712680059766,44.60819406727243,6.334206983339829,-21.36215815808047,5.029554088387282,-61.55971881283544,4.596145446677743,-8.425975754333878,249
-107.12005360196588,81.72957439602219,-6.578485681220858,98.63416064230003,95.15076081847324,79.37180502459972,-27.165557326194744,-118.3212680059766,45.48753579960383,5.778179189279972,-21.38847183270986,4.893662924488041,-62.55971881283544,4.600433048777449,-8.367709578109398,250
-106.75129620499985,81.3561497678022,-8.078485681220858,95.88416064230003,92.40076081847324,77.45381724087258,-28.665557326194744,-115.5712680059766,45.134080184333214,5.566084282184481,-21.462107469958315,4.778475279480743,-63.55971881283544,4.681471853623325,-8.346093600080627,251
-106.26892007247855,80.97188936858343,-9.578485681220858,93.13416064230003,89.65076081847324,74.70381724087258,-30.165557326194744,-112.8212680059766,44.70459729364924,5.5551897313991025,-21.527208948594755,4.525482040438713,-64.55971881283544,4.744915252867576,-8.60731790344484,252
-106.10268172410485,82.10049412082721,-9.910488830840514,90.38416064230003,86.90076081847324,71.95381724087258,-31.665557326194744,-110.0712680059766,44.41776560384925,5.484521990709455,-21.515669142163315,4.364360132618377,-65.55971881283544,4.7147506376435775,-8.882998112563923,253
-105.77183197286641,81.74468959039604,-10.50530640631176,87.63416064230003,84.15076081847324,69.20381724087258,-33.165557326194744,-107.3212680059766,45.690676983375354,5.339285458142079,-21.677005759422098,4.069823807541461,-66.55971881283544,4.738209604515824,-9.20846677639434,254
-105.30402984412015,80.45567503439086,-12.00530640631176,84.88416064230003,81.40076081847324,66.45381724087258,-34.665557326194744,-104.5712680059766,45.08854092069058,5.213693679066824,-21.73000335635243,3.723555155967299,-67.55971881283544,4.783076500081386,-9.731829785484315,255
-105.16348093743828,79.88498179224447,-12.178298477657323,82.13416064230003,78.65076081847324,65.72274030875313,-36.165557326194744,-101.8212680059766,43.15223592993747,5.021325732755058,-21.691716288897677,3.402001315413843,-68.55971881283544,4.85720715020105,-10.315192244690031,256
-105.51194911096475,80.6444916397335,-10.678298477657323,79.38416064230003,75.90076081847324,65.75052337610738,-36.348852781770134,-99.74200684620455,40.54196737469559,4.818312365079279,-21.586411474862654,3.1490291752359147,-69.2920827071174,4.932896461349445,-10.921276777159855,257
-105.87221587291701,80.12581857604287,-9.487973600973257,76.63416064230003,73.15076081847324,64.84078197200357,-34.848852781770134,-101.89455087816427,37.79196737469559,4.433526062389483,-21.2551192659991,2.9126993793496117,-68.80760412553916,4.942085027254997,-11.58933646153664,258
-106.50320837768892,79.82010204617748,-8.63697499028882,74.52145676843088,70.40076081847324,65.70743293579804,-33.348852781770134,-104.20560196551774,35.04196737469559,3.872967909087477,-20.942826837629724,2.7598232994886303,-67.98671333123991,4.972388137050232,-12.18879995690564,259
-107.27623041543005,79.75902173440882,-7.479876936770512,72.69057115977459,67.65076081847324,65.47600692697789,-31.848852781770134,-105.70017569522125,32.29196737469559,3.526690895851825,-20.633654014559173,2.875176747214157,-66.98671333123991,5.023451864927161,-12.576605499342994,260
-108.09222351526505,78.89369388441018,-8.005205926827585,70.84879329218019,64.90076081847324,64.35180104391775,-30.348852781770134,-106.51531424734387,29.664020783821115,3.4442895569931395,-20.22556776997987,3.2035438300237002,-65.98671333123991,5.041650287689346,-12.815780815236252,261
-108.97801141798014,79.50878697790041,-6.5052059268275855,68.75160571448008,62.150760818473245,65.702343258123,-28.848852781770134,-107.34419832799172,26.914020783821115,2.679940110865183,-19.65738093194772,3.590198823269328,-64.98671333123991,5.0330901566585915,-12.960211056294149,262
-109.65783744456613,80.12819788078376,-5.0052059268275855,66.85312010628415,59.400760818473245,65.93541855910838,-27.348852781770134,-108.61708395857815,24.164020783821115,2.1062312711825943,-18.926121908144783,4.022461879775918,-63.98671333123991,5.0915967650330725,-12.99894150181305,263
-109.90186819709942,79.69684284869884,-4.407326191153415,65.09909188995528,56.650760818473245,66.44965508467916,-25.848852781770134,-110.08001343352606,21.414020783821115,1.6860301457677203,-18.131491997007206,4.639586933000343,-62.98671333123991,5.218471215212281,-12.9312840293688,264
-109.97006229843771,79.48398080901936,-4.456853762130596,63.47756240191733,53.900760818473245,68.6556670628628,-24.348852781770134,-110.4785189823456,18.664020783821115,1.3368390018676093,-17.331296777280134,5.404521844791336,-61.98671333123991,5.3557514210093045,-12.788744252571908,265
-109.8064954080217,80.5158242200045,-2.9568537621305957,61.745929347495355,51.150760818473245,68.99074938888707,-22.848852781770134,-111.26584633259556,15.914020783821115,1.0181415659547859,-16.628435850529403,6.095624192897742,-60.98671333123991,5.544446773013176,-12.625327656455386,266
-109.1883201478207,80.32925866416424,-3.18845269499246,60.24715962907403,48.400760818473245,71.06265087843994,-21.348852781770134,-112.61174443154397,13.164020783821115,0.8212601503307438,-15.817969449715727,6.77898823695414,-59.98671333123991,5.789353186514333,-12.393118115033623,267
-108.41385557199489,80.28031576174888,-3.457829844844714,58.979064904305496,45.650760818473245,71.44899554360526,-19.848852781770134,-113.77165775455317,10.414020783821115,0.7499601605924385,-14.895696933141338,7.404390558216457,-58.98671333123991,6.053222495299565,-12.231897548773553,268
-107.27163880457896,80.45957558312003,-3.7625891857109117,57.71337158911406,42.900760818473245,73.43514805924217,-18.348852781770134,-115.2145219458621,7.664020783821115,0.5661916832366984,-13.972026508897809,7.980319142302789,-57.98671333123991,6.2853297802864105,-12.183780252863958,269
-106.106961842862,80.70238197279629,-3.8436972866091996,56.981152764556434,40.150760818473245,75.43694445333355,-16.848852781770134,-117.05075107684866,4.914020783821115,0.6596810798438513,-12.972026508897809,8.74010236478457,-56.98671333123991,6.51093943609314,-11.902869069723883,270
-105.2315726528613,81.1975445262559,-3.5026304688958474,56.27203313014261,38.76203549954116,77.60149206409706,-15.348852781770134,-117.84642798939056,2.1640207838211154,1.1966683964846205,-11.972026508897809,9.419444117265742,-55.98671333123991,6.69113475956593,-11.389634146499676,271
-103.79920102648879,80.57200908178562,-5.002630468895847,55.20009820742983,39.25648434974681,77.56506916057549,-13.848852781770134,-118.62195762439596,-0.5859792161788846,1.7911749086841178,-10.972026508897809,9.653089598256978,-54.98671333123991,6.940781292894748,-11.049390312664213,272
-102.16363524649283,80.64420982694935,-6.2192114439862785,55.22795370674459,40.80276650903389,79.0475004934673,-12.348852781770134,-120.02846182927965,-3.3359792161788846,2.3506745464745595,-9.972026508897809,9.939603635560447,-53.98671333123991,7.214295273565104,-10.707816185588342,273
-100.4885077545965,81.01667595725166,-6.2860362806416274,55.58553251081463,42.50802726415554,80.55816841711129,-10.848852781770134,-121.3810763000439,-6.085979216178885,2.7748001091407373,-8.972026508897809,10.004470551716704,-52.98671333123991,7.632739569998446,-10.548658596784685,274
-98.1597310477422,81.64632136838307,-6.115819947923976,55.54022222193513,43.178331066680585,80.2882740685677,-9.348852781770134,-121.82300108613855,-3.3359792161788846,3.1871783607485287,-7.972026508897809,10.52807367393223,-51.98671333123991,7.862767607479011,-9.99678295880021,275
-95.62247461440316,82.0783453593582,-6.271159040845135,55.50966843093999,44.748182272527124,81.49646345538369,-7.848852781770134,-122.19375682288941,-0.5859792161788846,3.7356627928498605,-6.972026508897809,10.56723358159977,-50.98671333123991,8.223862847528823,-9.594824075535012,276
-92.88675320791782,82.46109834058605,-6.174243573620499,56.16265687936402,46.63080499215098,82.54827774711765,-6.348852781770134,-122.93105745739184,2.1640207838211154,4.158124165091914,-5.972026508897809,10.549473807836483,-49.98671333123991,8.685834043788551,-9.324485063199791,277
-90.13675320791782,82.35460226741182,-7.075871266175941,56.963875212715344,47.907340105759715,81.86840243020892,-4.848852781770134,-123.57582728974224,4.914020783821115,4.552133100795654,-4.972026508897809,10.5389787460729,-48.98671333123991,9.174519500415911,-9.066062934019094,278
-87.38675320791782,82.38887595859735,-7.242915367167616,57.79804765144839,49.41191654400057,83.07005616990119,-3.348852781770134,-123.70738774281688,7.664020783821115,4.942652478861362,-3.972026508897809,10.48954313383471,-47.98671333123991,9.623574959327327,-8.771361228725818,279
-84.63675320791782,82.17453874395082,-7.609281702384095,58.891175708716524,50.44781408407191,82.34585790546194,-1.848852781770134,-123.77025854611547,10.414020783821115,5.404973496742302,-2.972026508897809,10.394524694367137,-46.98671333123991,10.047537996209075,-8.453972528905833,280
-81.88675320791782,82.87525419662532,-6.127569434033663,60.455599704300816,52.14645843444591,83.32391746431449,-0.3488527817701339,-123.67636643887242,13.164020783821115,5.874176665165623,-1.9720265088978086,10.154105219385364,-45.98671333123991,10.488045821335266,-8.228784202912342,281
-79.13675320791782,82.50543169289581,-7.154356102238025,61.955699609179554,53.216662979374036,82.72924938417457,1.151147218229866,-123.5977861883876,15.914020783821115,6.214482450414208,-0.9720265088978084,9.86066486406764,-44.98671333123991,10.965821832839715,-8.084904425567318,282
-76.38675320791782,83.24717723630334,-6.258312481227449,63.47642837617127,54.42527223785191,82.7914835144369,2.651147218229866,-123.72762630120324,18.664020783821115,6.474877331407998,-0.025339492116084217,9.564276662418033,-43.98671333123991,11.399051777607673,-7.972672571934059,283
-73.63675320791782,82.88619988997358,-7.728012861784526,65.01899044001107,55.75243759162524,82.72541542644257,4.151147218229866,-123.86043487820032,21.414020783821115,6.7387188285497945,0.6343665945803415,9.130769503012145,-42.98671333123991,11.81071934150013,-7.958204173900675,284
-70.88675320791782,83.69932742808034,-7.245112025514987,66.22603551634748,56.7806361550097,82.51943522717087,5.651147218229866,-123.9299140467385,24.164020783821115,7.067489144928832,1.1354608081417739,8.681603546294538,-41.98671333123991,12.209685364576577,-7.98444302288942,285
-68.13675320791782,84.43625315679293,-6.978441986554519,67.33942327203094,57.32830332332183,82.31379992483399,7.151147218229866,-123.983111999766,26.914020783821115,7.333629563482258,1.6281121763034683,8.234072600749839,-40.98671333123991,12.542849047679603,-8.04073763478309,286
-65.38675320791782,85.07695974629658,-7.0457983655542735,68.43918079354555,57.74622064661388,82.12745035935203,8.651147218229866,-124.13958684708224,29.664020783821115,7.22689808868064,2.127221124321385,7.825616068159556,-39.98671333123991,12.887576194900848,-8.117374242289857,287
-62.63675320791782,85.66056720096543,-7.335919211042497,69.47778122832146,58.251913181824726,81.90136247829173,10.151147218229866,-124.53357898636148,32.414020783821115,7.076446992284574,2.529469784277719,7.418277121980153,-38.98671333123991,13.307120469827437,-8.20638521015666,288
-59.88675320791782,87.37921527933158,-5.835919211042497,70.64513407124731,58.78207928760551,81.70006589713029,11.651147218229866,-124.99749438437311,35.164020783821115,7.055287220466696,2.8244671814898363,6.958612163063115,-37.98671333123991,13.752102534686552,-8.285028695581316,289
-57.13675320791782,89.12362921580602,-4.335919211042497,72.08970306605652,58.90842039877816,81.67614072277202,13.151147218229866,-125.1444101521374,37.914020783821115,7.083942162596069,3.0121557980988385,6.496875315304008,-36.98671333123991,14.130256813284186,-8.2686351631652,290
-54.38675320791782,87.99847628915863,-5.835919211042497,72.3290154116054,59.731692585982515,81.581523934077,14.38491567022465,-125.83342277445601,40.664020783821115,7.341698901115005,3.0922945326748414,5.987941513506899,-35.98671333123991,14.58773502779335,-8.248816597060666,291
-51.63675320791782,88.00904198734891,-5.92181370788619,72.82799864921212,59.26859034860441,81.57357512752282,15.13586282165907,-125.43792762503597,43.414020783821115,7.885171327516099,2.8861035464278784,5.394748920941011,-34.98671333123991,14.8975385853509,-7.98332091965558,292
-48.88675320791782,88.15753915335114,-6.244210344407787,72.19807067784207,59.48988574529418,81.54492902850242,15.245621845568415,-125.55250673306497,46.164020783821115,8.396374259081089,2.9478416711703934,4.975237629104955,-33.98671333123991,15.172810972395698,-7.660483150010102,293
-46.13675320791782,86.91026068135271,-7.744210344407787,71.71617629553117,59.58660185847138,81.61161882204199,15.85550114426782,-125.67702642485332,48.914020783821115,9.109898132375777,2.922312522188618,4.366984579765747,-32.98671333123991,15.317393241420737,-7.405664026761882,294
-43.38675320791782,86.85470050971908,-8.072441710700812,71.6116012276104,59.455877453068766,81.76227795750614,16.643019808405068,-125.62063877407584,51.664020783821115,9.654405122922814,2.849506252951161,3.686037547602286,-31.986713331239912,15.391440329819698,-7.281247706666241,295
-40.63675320791782,86.9035014761794,-8.048884781544748,71.64167514911549,59.403214711335536,81.86109682686532,17.162292807279208,-125.59077813725897,54.414020783821115,9.733414182392032,2.8205333934936316,3.071806286775136,-30.986713331239912,15.44645805613052,-7.362333187849737,296
-37.88675320791782,85.93870895499407,-9.548884781544748,71.59342353995511,59.71742332177999,81.75110150209926,17.34349716616183,-126.00627855693506,57.164020783821115,9.596884917049186,2.8189579613192652,2.839319161941739,-29.986713331239912,15.494589489818745,-7.4442031669101265,297
-35.13675320791782,86.2254708236417,-10.227363601047692,71.9216091730689,59.83208716860118,81.57095040264348,17.63177198092262,-126.20192034264831,59.914020783821115,9.66244805601623,2.6174841131766633,2.70820139907816,-28.986713331239912,15.541571079495709,-7.446611894647302,298
-32.99045763740659,86.78558903943892,-10.433279578711314,72.01315202875992,60.43943231746974,81.21525796720353,17.49155469718313,-126.65421998120992,62.664020783821115,9.651901520179306,2.4380623232462075,2.8097002153051815,-27.986713331239912,15.610126579323182,-7.351912663939232,299
-33.61022741297695,87.47283999309855,-10.662868195896714,71.94776301329027,61.27543536333165,80.77419137673967,17.22278292942746,-127.25580870705785,65.41402078382112,9.620815096618333,2.2547934849928177,2.9682239481343706,-26.986713331239912,15.608484117166482,-7.21260212413573,300
-34.22282752430962,86.85419810707394,-12.162868195896714,71.84044331699606,62.04090054681491,80.39961641927282,17.015429711281637,-127.62043223719216,68.16402078382112,9.567790777291693,2.1064291904565273,3.0727704450221536,-25.986713331239912,15.529417077587198,-7.12545448497069,301
-35.173702360445894,87.47610592677484,-13.035672226529067,71.66075627903857,62.5894446454429,80.11337025155198,16.70511895695119,-127.82910005318942,70.91402078382112,9.323593081107111,1.9878150103719374,3.2932343420523593,-24.986713331239912,15.458692875579231,-7.062962387910499,302
-36.065799635244346,88.15628917170142,-13.479810433671926,71.55384910422136,63.66548874895053,79.79580483855264,16.143693166525107,-128.50253746104954,73.66402078382112,9.080643706421544,1.9153921278353059,3.7032227663538273,-23.986713331239912,15.454853367307159,-6.944712031619621,303
-37.58397705155733,88.61191007048167,-13.560401051064446,71.96974480190089,64.52643554994893,79.60978871312534,15.997413768887371,-128.7940428795008,76.41402078382112,9.014550312115949,1.7744827385714144,3.846679426908642,-22.986713331239912,15.343265289115916,-6.868092629631421,304
-39.06956244654118,89.03830945127504,-13.766950184082983,72.44499715486684,65.38847816504126,79.46635989227417,15.696168070302447,-129.10787510696156,79.16402078382112,8.859825124781025,1.7568177750185066,4.1673105728779545,-21.986713331239912,15.158991851748622,-6.774329102423447,305
-40.546177650276285,89.4826224150437,-13.99466117442292,72.91215242012177,66.21383637225951,79.2378410587517,15.256167379051178,-129.44392622669005,81.91402078382112,8.831424448989177,1.7790258257253633,4.505612129902825,-20.986713331239912,14.870291945102641,-6.7055519571192495,306
-41.71985990315974,88.67610183676392,-15.49466117442292,73.42546323256312,66.88157707946849,79.10102010942695,14.925450815547528,-129.72453532103995,84.66402078382112,8.70918953347621,1.7874597627107152,4.942613576138002,-19.986713331239912,14.510253748245239,-6.592588347866741,307
-43.28139183137897,89.04436665751533,-16.489737868419052,73.82382063326902,67.76884585100356,79.05195458546997,14.646145268761849,-130.02213635161996,87.41402078382112,8.436521675746697,1.7587382927271962,5.386165870960025,-18.986713331239912,14.193826273967906,-6.453461468108209,308
-45.03926909248034,89.31523389548347,-16.627336021545315,74.51169001675834,68.72481491671306,78.9011699005099,14.34710694028389,-130.27531102065632,90.16402078382112,8.197413815162449,1.6578677012552474,5.643291049205398,-17.986713331239912,13.861331416890428,-6.445156300823168,309
-46.67395519721016,89.68527434903055,-16.881870274552384,75.44523295962051,69.61851684442391,78.60018922546385,13.826789824963045,-130.7579975512034,92.91402078382112,7.852460099022171,1.48650772470252,6.081242652033776,-16.986713331239912,13.499261656132653,-6.4103169975722265,310
-48.428757022311345,90.07822320602632,-17.01016216282546,76.27637932807788,70.2843318054998,78.27711630631987,13.458440632872184,-131.1777831501832,95.66402078382112,7.491623287778977,1.180322302675261,6.513545231626107,-15.986713331239912,13.081900948016404,-6.270461424124994,311
-50.15972194138081,90.34174253301101,-17.208521626177152,76.84501907386954,70.74443437578763,76.17251331247566,14.582823327070523,-131.70775028936671,98.41402078382112,7.24416753670519,0.9406468085552867,6.887269860266844,-14.986713331239912,12.651402062532103,-6.119690605813914,312
-52.01698313340388,90.41515740344673,-17.397075843789757,77.53861817128426,71.80178389197405,76.01831840291074,14.157954317184052,-132.29519539448447,101.16402078382112,7.161048402536174,0.7055513172436286,7.215926009804003,-13.986713331239912,12.275550376968285,-5.970946170973326,313
-53.927575849208594,90.42794767219176,-17.52713372463785,78.25385240914704,72.64571278024492,75.91043579890287,13.857221279097033,-132.56083179652396,103.91402078382112,7.068335657729166,0.4718831078695921,7.212432247822328,-12.986713331239912,11.843392337593608,-6.027007260315885,314
-55.64947474512939,90.43214117975175,-17.842711143420185,79.47638660179103,73.58836781701761,75.82399700994394,13.409618573683275,-133.08174873874097,106.66402078382112,6.827886816642243,0.2115399891888681,7.551590737154006,-11.986713331239912,11.447089145678376,-6.035206493265812,315
-57.33808600690712,90.43670533484052,-18.20741987684527,80.58493147496526,74.44993868847666,75.69717365276011,12.865764816098975,-133.58650920986105,109.41402078382112,6.650578615920612,-0.08169927774859796,7.816295311165347,-10.986713331239912,10.997936138498648,-6.042549532099996,316
-58.28962144287237,89.0587141928675,-19.70741987684527,81.43085670714738,75.33006121479671,75.61876664768283,12.177153243085076,-134.1264828492435,112.16402078382112,6.381539904265526,-0.27553427510813766,8.157165082961397,-11.291334395072536,10.49318029601121,-5.983509253560485,317
-59.732968635199754,88.88773221947949,-21.038301615857254,82.27316259134524,76.32056699323562,75.58234020749593,11.548645610814935,-134.5510240919046,114.91402078382112,6.149177733602776,-0.5184309596871033,8.410820701534764,-12.291334395072536,10.070879433079833,-5.848119349001217,318
-61.2826769126633,88.67203143903171,-21.4146422708926,83.29012746958675,77.33532007990173,75.54870453337162,10.94996289281015,-134.86078300847353,117.66402078382112,6.048319622395519,-0.8435148004985462,8.549346823010074,-13.291334395072536,9.69826575625448,-5.706481738320565,319
-63.11506250549479,89.81060498454525,-19.9146422708926,84.2507939624346,78.35419298631244,75.50315973226544,10.286337988967556,-135.23137873520398,120.41402078382112,6.021665994053385,-1.2235246731174736,8.673043304713758,-14.291334395072536,9.323591887519136,-5.579642304428172,320
-64.21577436486315,89.61099946282069,-20.311661817597802,85.10101604079445,79.31266032402716,75.45506634810877,9.538255252482154,-135.67154128215734,123.16402078382112,5.985327128973965,-1.5893097563882754,8.784676402970723,-15.291334395072536,8.939682751789226,-5.4860935504167,321
-65.36660520124424,89.29934328962847,-20.833288400790856,86.14244431844203,80.42943109333218,75.44804419332527,8.631369055322187,-136.13870713947742,125.16853696349567,5.877479254502843,-1.8997735173786026,8.924747066051262,-16.291334395072536,8.546997392490685,-5.348683581873875,322
-66.48369500667958,88.88110998726114,-21.416708966019442,87.17372447337367,81.44048723345718,73.62655297369389,9.122978110776343,-136.50633491526213,123.7818435900261,5.7131665365924755,-2.1745787089882462,8.976303415184075,-17.291334395072536,8.145040093803937,-5.204607479538511,323
-67.38373087838046,88.44927576476753,-22.063548755076134,88.10418895328218,82.86875126287148,73.81628716710199,7.99474683924151,-136.91156155207548,121.82345496631645,5.611011464135124,-2.4607030863835084,8.998876099478293,-18.291334395072536,7.7323379917443535,-5.089473977657448,324
-68.24576736246433,87.95246383917299,-22.717796452047452,89.08590678600154,84.60078434732061,74.16011348932344,6.8363242838170795,-137.68520404458283,122.06742682356402,5.549656146103028,-2.767052872880984,9.109452382460073,-19.291334395072536,7.361520708583587,-4.87518421753339,325
-69.99326592602971,88.54920996936602,-21.30277849302744,90.36588685207006,86.58977586621303,74.69872953022164,5.815975107355654,-138.41394344795123,124.81742682356402,5.4665514119980525,-2.9629370954641843,9.110246322641242,-20.291334395072536,7.064932970875296,-4.5629396730104,326
-71.4359413290812,87.55197436384856,-21.60205959690167,92.04737566878306,88.10337784877123,75.21088913979952,5.056685962252192,-138.57671096497282,126.69037217439949,5.4431774938645825,-3.038620121579417,8.927588393030732,-21.291334395072536,6.740019959228293,-4.328994863406686,327
-72.32937502315356,86.89376110761606,-22.182855846830225,93.48742219182057,89.4408693778024,75.60316873491658,3.937148260608007,-138.58742988959273,124.66945832647251,5.44583163886603,-3.2072950164935152,8.807416228284145,-22.291334395072536,6.358198441216833,-4.171825931806325,328
-72.75240076351217,86.50058290696646,-23.02165743114877,94.44048037516417,91.10946525215638,75.98775609858846,2.437148260608007,-139.0557816045787,122.77878676207193,5.537916030266988,-3.6329728467896865,8.80248030221017,-23.291334395072536,6.035050389078524,-3.9988799172450116,329
-73.81226799992378,87.37495250869155,-21.885394599731974,95.35310571959072,92.86553275215255,76.6065064662409,0.9451462362796174,-139.68490803843412,123.01411457027699,5.606214980221533,-4.034637563351393,8.685659535280806,-24.291334395072536,5.796120551895642,-3.8534671269722054,330
-73.98106640639224,86.67522392326474,-22.36090601695536,96.22804253051395,94.44085630622207,75.45122605545741,1.2341938623286282,-140.17948173648156,123.4365097177847,5.549810484169272,-4.153069451785586,8.46076823489113,-25.291334395072536,5.498499962039966,-3.795988584467513,331
-73.66084002693789,86.16873946135735,-22.683985327588246,97.01680246027296,96.00633458310176,76.18719264917496,0.08291785165521776,-140.30159395514582,124.37859001218567,5.466439341877982,-4.147152567744997,8.495923641021042,-26.291334395072536,5.194503827212765,-3.5080725103852117,332
-74.34321854669115,87.23924885465325,-21.183985327588246,97.79509041947381,97.25388031819682,76.56676466407761,-0.9031377509487839,-140.67027173487855,125.04909072890102,5.742308335766415,-4.4588634008211825,8.355720239208345,-27.291334395072536,4.895325610627891,-3.25007707934718,333
-74.86068430366363,86.4014572807822,-21.095589944896638,98.91835625368716,98.09127468252231,76.89982142349064,-1.7791488779238167,-141.28607851206274,125.64690885735435,5.8980845140341955,-4.622023475148832,7.909423634271036,-28.291334395072536,4.5464181465375795,-3.2839453748064638,334
-74.98242829027555,85.46777380229722,-21.382441061283796,100.2773524429581,99.06272758547688,77.4632385984358,-2.9968998940339806,-141.3955409116596,128.11845452807182,5.654447077395064,-4.3366740305461215,7.7137268252390365,-29.291334395072536,4.19213455702963,-3.1775388539109573,335
-75.775253312201,86.28542304538128,-19.882441061283796,101.43139459725202,99.93554174797481,77.734446434382,-4.175444155492227,-141.81920222379478,129.2571700294052,5.648865985337337,-4.496703151918639,7.531183811680772,-30.291334395072536,4.005429282186002,-3.011674841779673,336
-76.09179428339164,85.50995491821554,-19.753484381319478,102.87544020671783,100.66524730547803,77.86446628010334,-5.1915017646188995,-142.1911490540896,129.7607202134245,5.698100220338977,-4.705497231093702,7.437321299005727,-31.291334395072536,3.8861677001065935,-2.806425085546847,337
-76.27313022805996,84.86946142725363,-19.72613947347973,104.10570544391452,101.23389000605148,77.77676267266699,-6.291551014866142,-142.5735234598365,129.91334658022782,5.781308135630101,-4.898553707125955,7.2897982770648175,-32.29133439507254,3.7358100851357516,-2.651403115758571,338
-77.14440507836593,85.71133910718672,-18.22613947347973,105.16765474026285,101.31196264092439,77.4825327580679,-7.243144117892747,-143.25172389869562,129.99566531353096,5.784610315402866,-5.106305662214338,7.008336414542525,-33.29133439507254,3.6031562671214448,-2.651011065942857,339
-77.49309426704514,84.74725040843559,-17.890597907774936,106.70273328016349,101.26021988964439,77.28184782301435,-8.181156062461344,-143.60382548752887,131.35811389836223,5.544235661982167,-4.965097891379737,6.846252116976865,-34.29133439507254,3.4465247105724988,-2.610951954188673,340
-77.70201050913481,83.96022139017927,-17.956843922503612,108.15398139147982,101.62330483407867,77.04814711729382,-9.46920702608669,-143.93298617774283,132.21059832989258,5.385338636334933,-4.892465147883693,6.752479855438647,-35.29133439507254,3.307380933434588,-2.4959677746674775,341
-77.99289878865076,83.27719441208707,-17.959119727332,109.40932720847188,102.03477597355496,76.62163716459689,-10.758170384163266,-144.5119514238282,131.8288463407886,5.3998321597213925,-5.059918690129267,6.5939221024206764,-36.29133439507254,3.2013735578674143,-2.4279093558043865,342
-78.96715530419928,84.08087611916395,-16.459119727332,110.81128929278798,101.91014697273778,76.0009778206678,-11.80115562576429,-145.09597843141736,131.18242914332188,5.284894420236349,-5.19017780941331,6.41271064164893,-37.29133439507254,3.099062942176813,-2.4250380137889302,343
-79.12335184967309,83.21837730686633,-16.15792723615286,112.14317626234829,102.12796398813404,75.60610634272258,-13.123984114066968,-145.526921616731,130.98301989514187,4.983465089672464,-5.151844130980015,6.249470560221295,-38.29133439507254,3.0333930052712144,-2.454479676781748,344
-79.24142185707053,82.47363440757422,-15.99747772275891,113.39297428714758,102.45180826410116,75.05479926820342,-14.42810483074884,-145.97738232947913,128.23301989514187,4.854304162722673,-5.2820819405411585,6.139113571293195,-39.29133439507254,3.0257641118386234,-2.491836796720254,345
-80.18094870186732,83.35727908243369,-14.49747772275891,114.75401887921693,102.2902004598462,74.20124441342848,-15.277520906400472,-146.59358289723144,125.48301989514187,4.858968030265312,-5.59116888159827,6.1299129778028965,-40.29133439507254,3.05631613585334,-2.482876994867071,346
-80.80229502762776,82.30758057316687,-13.58464456391999,116.25786038270567,102.0545462845013,73.53980797777275,-15.942197331375489,-147.0846965595405,122.73301989514187,4.749656963852388,-5.739097162883197,6.0915531389652005,-41.29133439507254,3.0762115509616645,-2.482070331247693,347
-81.2868981103335,81.25676603557964,-13.430387151844421,117.61114320002486,102.23047082341922,73.3025763104772,-16.75673662196055,-147.50621215669236,120.11132932190546,4.541129432202913,-5.721641704295108,6.001028561468599,-42.29133439507254,3.05823519227157,-2.499250993101039,348
-82.3162773064381,82.33315149151048,-11.930387151844421,118.92702502210976,102.97333320473493,71.32037732307002,-16.14983593731886,-147.88975045365683,118.81514279497955,4.330605468700976,-5.737293648659648,5.912138036168028,-43.29133439507254,3.0894085588068587,-2.513109211719707,349
