JMW9912/AVATAR/Dynamixel/dynamixel_control/data/csv/poppy/0428_1514_gymnast_2_waist_test_comparison_5DoF_Trial_4_srew_rate_smpl_motor_degree.csv
theta1,theta2,theta3,theta4,theta5,theta6,theta7,theta8,theta9,theta10,theta11,theta12,theta13,theta14,theta15,frame
-98.09429395386941,84.76317695399334,-4.680580500818249,28.298822862089697,96.59357541197664,86.53876257427865,5.588829666912777,-28.29882286208958,-29.4370268784348,0.6691964426448285,2.010044993930215,1.1274062683575872,-0.4842099347013871,-0.9407846655431982,-5.394260697766095,0
-102.80481590133127,85.31129791731813,-3.0414956756907228,28.298822862089697,101.21441732278997,86.86343761033855,5.075063812267321,-28.298822862089796,-26.432527440886023,0.8401245173077846,2.0428798970250557,1.2472175636260563,-0.5179197766219011,-0.8047609780248786,-4.020756019123266,1
-103.74971491431909,86.19567130055279,-0.8927527537176574,28.29882286208985,102.30875510388753,87.44597472045312,5.077376959195435,-28.298822862089672,-22.483753729733625,1.0050335927271952,1.998451765128893,1.1721718953051132,-0.6535739816617143,-0.7075774015398747,-3.7221333760196664,2
-103.95410083491653,85.90864133763345,-0.7597962809631382,28.29882286208985,102.5552995647973,87.71424651279206,2.728943641024405,-28.298822862089594,-21.254929921987003,1.057525146272178,1.9929192873651556,1.1155049823344423,-0.5770117790159143,-0.6967825822656775,-3.33445782400631,3
-104.73574440244624,85.96778464849837,-0.8337684466570876,28.29882286208985,103.32665814102681,87.833814530963,2.6944860617628703,-28.2988228620897,-19.881981865999958,1.1411078309322826,1.9769875347936408,0.9069255557535207,-0.6414804672862288,-0.6745033936388234,-2.980662532835222,4
-104.58449138135349,85.92290458478075,-0.9053968580613476,28.29882286208962,103.14195985074039,87.88511919602885,2.623055730237562,-28.298822862089796,-19.363979162398206,1.1578351644176479,1.978409360483135,0.7173667019269666,-0.705967160807457,-0.6598041457471362,-2.6355780928537285,5
-104.38888381858595,86.42853603910706,1.3992528518440506,28.29882286208972,102.96121611285852,87.88352841618047,2.565292839883958,-28.298822862089864,-17.180223971556803,1.233867222253317,1.9845783971202944,0.49687672595422244,-0.7537714553643442,-0.6743307378597632,-2.5235193516949512,6
-103.71656967640841,86.37820656355045,1.4318558951789917,28.29882286208972,102.43175285162049,87.73623475023675,3.0548524971298363,-28.298822862089608,-14.697680683878886,1.317265351711939,2.0034930608323274,0.23637450515712996,-0.7114923280967483,-0.697247829337467,-2.357923337918132,7
-102.61805561537123,85.96161783723619,-0.21234331363685285,28.298822862089697,101.55036274966321,87.62769698008478,3.110533064688986,-28.298822862089853,-12.259254776163738,1.4307034537032437,2.0112753604274265,-0.004056103870829396,-0.6693375879289102,-0.7179918815418062,-2.2952885238989307,8
-101.2539816448334,86.01375742992667,-0.3015551146160438,28.29882286208972,100.2845881989875,87.53007896524554,3.2006758084759497,-28.298822862089732,-11.100210833600265,1.5527693401130602,1.9991884837463754,-0.27451553572549237,-0.6166289622170523,-0.7507954779912106,-1.9925034498042933,9
-98.39693381060837,85.56600401338434,-3.407921823492567,28.298822862089697,97.91478923032406,87.12200066852822,4.850531627304159,-28.29882286208982,-9.014350150705214,1.653442961697674,1.9466214205157288,-0.4889816186720428,-0.64662901121416,-0.8269521751846077,-1.724537691758748,10
-90.15248736069327,85.12467108879727,-8.23535780532574,28.298822862089672,89.607439820649,86.57920259828417,9.7199659387551,-28.29882286208968,-8.606075144129608,1.7098229165888166,1.9005219598487895,-0.760179334365148,-0.4832325768171573,-0.9040108899419073,-1.502080544709579,11
-79.15248736069327,84.12020503731867,-14.23535780532574,34.817670508448735,79.0120389333045,85.15796673791539,15.7199659387551,-37.95256100363144,-12.472251348250033,1.325178285123125,1.8865835155439359,-0.7584702186346082,-0.6203304730606788,-0.9150377694217681,-0.7417142413019435,12
-68.15248736069327,81.68289112862296,-20.23535780532574,34.81147605197182,68.0120389333045,82.69905221254373,21.719965938755102,-37.07601319192429,-17.654401343176094,1.1118700795344485,1.847027818473117,-1.216718568699029,-0.6166528937757827,-1.0316382144467935,-0.5748321317437232,13
-57.15248736069327,85.35261944960386,-26.23535780532574,28.29882286208972,57.012038933304495,86.87587692954118,27.719965938755102,-28.298822862089818,-13.659954095840583,1.4255587914194119,1.8176134949668599,-2.0582042664717406,-0.7727390982731941,-1.0939903279206882,-0.5054448083820958,14
-46.15248736069327,84.74687972089205,-32.23535780532574,28.298822862089697,46.012038933304495,86.6354040697499,33.7199659387551,-28.298822862089605,-17.835222028921162,1.0890313634173217,1.8070710330431556,-2.529750785019391,-0.6598409311316553,-1.08944087239706,0.6192438761249264,15
-35.15248736069327,84.50166153541895,-38.23535780532574,30.077110908240527,35.012038933304495,87.26949022700221,39.7199659387551,-28.663152943606523,-28.835222028921162,0.5692422997524653,1.7597225573825368,-2.6853788259530083,-0.4073372149082334,-1.0824764488248524,2.642302624018483,16
-24.15248736069327,86.59468285560197,-40.14919351815697,28.298822862089594,24.012038933304495,89.24816163426082,45.53355592367581,-28.29882286208959,-37.601367886037536,0.6438058693880253,1.7053969242406117,-3.0350164726153515,-0.3525310639447076,-1.09117447357602,1.5794286046644777,17
-13.152487360693272,88.60453918556229,-35.021649615177736,28.29882286208962,13.012038933304495,90.94644842460767,40.01350229181092,-28.298822862089814,-26.601367886037536,0.8460775045488261,1.680777485506281,-3.4971866097958704,-0.5038367566146471,-1.0574791209127088,0.21754968016046117,18
-8.401163577198133,90.56204134086987,-29.021649615177736,28.2988228620898,7.803050977580475,92.17573510124369,35.001803027581445,-28.29882286208973,-20.565162090556598,0.9643292777297845,1.6467697280805023,-3.9334898979190602,-0.4797085353841848,-1.067710101334641,0.2516819596621202,19
-6.345370600068941,92.35763308019179,-26.925232597714956,28.298822862089697,5.787970783612655,93.52437472295071,32.13229022010574,-28.298822862089814,-20.813766922350332,0.8387398320069984,1.6768593510890788,-4.222210430777408,-0.5564433053196449,-1.0549813238013759,0.6485520272887375,20
-3.77609230439526,93.96247005931235,-24.856454222279403,28.29882286208972,3.8559375847378585,95.0427956630501,28.783810170190648,-28.298822862089843,-16.949204915829498,0.9250848707562509,1.6176103006349785,-4.471873537215854,-0.2541919831133304,-0.9876042851790675,0.5189777744225326,21
-1.7675350214961434,94.83807328800509,-22.606990865760547,28.298822862089647,1.423511336334679,95.30760846448071,28.82898401637173,-28.29882286208968,-18.649506557304974,0.9352572630273087,1.5958433617969925,-4.59663749672177,-0.07409297903620693,-0.9900283967522316,0.4612338568979754,22
0.09761498551111734,95.00051330866904,-22.62475796753295,28.298822862089697,-0.06560127867025839,95.7869207795932,26.514291457623735,-28.29882286208974,-19.050716411249454,0.8944917415326277,1.575087702800293,-4.6886394912524345,0.011449815549600098,-1.0037888496093186,0.6506547302572191,23
1.1267041889447522,94.91139257445894,-22.56478813140263,28.298822862089672,-1.1097283819960422,95.6040227827331,26.518550213986742,-28.29882286208971,-19.626553616775947,0.8641895924740787,1.565012764163065,-4.721104243157006,0.03713808099530704,-1.0402709352170785,0.7390999145766659,24
1.3203296653322334,95.01755627628393,-22.52603990576804,28.29882286208985,-1.3545976818601382,95.5869620741658,26.576264981309084,-28.29882286208971,-19.14634560091136,0.8837951647452412,1.5619852625265331,-4.746510841222008,0.013898978692322556,-1.0903217734176245,0.7758961237203786,25
0.9019562591271189,94.9866671539722,-22.48315592500566,28.298822862089697,-1.0171343020706145,95.51660541314928,26.598657935943194,-28.298822862089708,-19.05487953486657,0.9056354601667597,1.5597277217630938,-4.76048185494791,0.0293442738308435,-1.1298434794215741,0.8429453271379649,26
-1.340538793181204,95.14015217345698,-20.03576811185653,28.298822862089697,1.124549328187091,95.0752699658537,26.54394416265346,-28.29882286208968,-17.806602206511442,0.9085714163038127,1.5424991227832079,-4.72124019507313,0.06704640314777344,-1.1604773293827093,0.8686857083820421,27
-5.543174830931088,94.56444462060009,-19.883451061653822,28.298822862089594,5.301264963840646,94.91698641260622,24.104993018268264,-28.298822862089597,-16.436295461771174,0.9672003784224854,1.5457866707549972,-4.579743159983576,0.09822035663758019,-1.1999985086213825,0.5202982171862898,28
-9.436078331846133,94.73971806514835,-18.12198402324085,28.298822862089672,8.999082354204338,94.68690451753858,23.524382027688205,-28.298822862089814,-17.71447739840222,0.956382355547883,1.5391516999035562,-4.462375756130825,-0.016607710664319694,-1.2595739085752848,0.08612794331706866,29
-11.18960092380823,93.89398374149846,-20.676161415382065,28.298822862089697,10.884339118336166,94.2866035311087,23.95088307135964,-28.298822862089686,-21.263767470746174,0.7802397736883031,1.5045209876515098,-4.306917493109836,0.03589628098538945,-1.3167078207202874,-0.11442654586869944,30
-17.691193176257716,90.86857205942209,-25.70961263760195,28.29882286208985,17.34484422784085,91.02290083736813,29.063471711092507,-28.29882286208969,-32.263767470746174,0.3293226373844516,1.4777333127121295,-4.122389293166627,0.33487899901396523,-1.3055257387257335,1.6518155533358718,31
-23.397715339634715,90.60478687942813,-26.14846154964631,28.298822862089825,22.90737272330894,90.57294249555447,29.76041399311706,-28.298822862089683,-38.96225607842361,0.5485661854789015,1.467936835284619,-4.08280640371553,0.026106472859059936,-1.3622124740126795,1.341644340027297,32
-31.75094355172198,89.11168529128501,-25.934267584709577,28.298822862089594,31.201166749006173,89.25369838797404,28.02595758053749,-28.298822862089853,-27.962256078423607,0.7946077616345034,1.503791930024206,-4.014613367094152,-0.1509667533509101,-1.3511994021939346,1.0690251632858778,33
-42.75094355172198,86.89987364748606,-22.863334848010894,28.298822862089825,42.20116674900618,86.98194641432254,25.26823765756234,-28.298822862089676,-16.962256078423607,1.232875278946853,1.4948197907769134,-3.8847353055852976,0.23468526936933864,-1.339418630948618,1.1923024577197774,34
-53.75094355172198,84.6901271781315,-17.51313247140843,28.29882286208985,53.20116674900618,84.99277343034481,19.846535039807108,-28.29882286208963,-10.719097525165363,1.8380107201730795,1.5137971724933545,-3.469748483977369,0.017062937176201436,-1.3542453173043596,0.2645648541217306,35
-64.75094355172197,83.17391529618936,-11.51313247140843,28.298822862089697,64.20116674900618,83.37797197026238,13.846535039807108,-28.29882286208974,-9.476787686652406,2.036669634347621,1.5503786784926867,-2.49278494399891,-0.1303845429990493,-1.3580569414393753,-1.0685543452970834,36
-75.75094355172197,83.43919117811377,-5.513132471408429,28.298822862089825,75.20116674900618,83.25239968760327,7.846535039807108,-28.298822862089835,-8.566592544818825,2.0802749245806176,1.5870044936599899,-1.6502013120111472,-0.21264071128383732,-1.3497415196594826,-1.7525421470735887,37
-86.75094355172197,83.38774066869874,0.4868675285915707,28.298822862089875,86.20116674900618,83.71128816784619,1.846535039807108,-28.298822862089704,-12.635012422067188,1.5917296412570177,1.538150867094144,-0.49204912546513974,-0.1758291813272282,-1.31604503625973,-1.6481853426751478,38
-97.75094355172197,82.31234379530916,6.486867528591571,28.298822862089825,97.20116674900618,82.84526994112016,-4.153464960192892,-28.298822862089697,-23.49696404930966,0.8659005604793495,1.5738304191562156,0.7872108263122539,-0.05742846903986088,-1.2443785092385264,-0.9461838961535314,39
-108.75094355172197,78.48875460668553,12.48686752859157,28.298822862089697,108.20116674900618,79.49759942263196,-10.153464960192892,-28.29882286208959,-34.49696404930966,0.3670803260515438,1.6113936684463495,2.4353067211175476,0.1380694691302427,-1.2506545408784842,-0.2941672659936116,40
-117.4602581853885,77.30222040391196,18.48686752859157,28.298822862089825,118.22601439227586,78.24412561091356,-16.153464960192892,-28.29882286208971,-45.49696404930966,0.9977733397393573,1.560051969078517,4.093297835635499,0.25566341372913026,-1.2979619218853053,-0.09472219115861703,41
-121.98248648826868,76.39165648632112,24.48686752859157,28.29882286208957,122.6362054963175,78.03771131161399,-22.153464960192892,-28.29882286208979,-56.49696404930966,1.6671617169730466,1.5259780631915199,5.364962972547046,0.19727253187342106,-1.2456664773620538,0.2193493408813143,42
-126.98995525318814,76.70836923885638,30.48686752859157,28.29882286208972,127.2822567517277,78.54831058275336,-28.153464960192892,-28.298822862089843,-67.49696404930967,2.2624439494039463,1.5177993102187506,6.407974240418434,0.08083827710361514,-1.2058784326386516,0.4230897031951584,43
-129.07424740493536,77.90216650958337,36.486867528591574,28.298822862089697,129.50262980138967,80.03333987648668,-34.15346496019289,-28.298822862089796,-78.49696404930967,2.6119700182419505,1.464531291537213,7.0357480776128885,0.005901762941286197,-1.1579320494637766,0.464803770174919,44
-130.46345297745992,79.22799388986991,42.486867528591574,28.298822862089875,130.4255494672962,81.61875692256588,-40.15346496019289,-28.298822862089857,-89.49696404930967,2.808244674378817,1.4294266970309601,7.437435801694028,-0.0696913842097272,-1.1284200009244456,0.47404555570602086,45
-129.9481530106257,80.31249386592899,48.486867528591574,28.29882286208972,129.6687394701556,83.03154379712515,-46.15346496019289,-28.298822862089878,-100.49696404930967,2.8061706285049057,1.380546721703356,7.5920208967748435,-0.21769415415095872,-1.087791427724382,0.5572812627648719,46
-126.7146548181871,81.7988854659088,46.56489969408849,28.29882286208977,126.28692893769576,84.3169878392215,-44.05723899011624,-28.29882286208966,-111.49696404930967,2.365956460357321,1.3327163488369356,6.800070515230642,-0.28892526139237457,-1.079502500796803,0.5071823773718316,47
-121.1484151410515,81.37036315996869,40.56489969408849,28.298822862089672,120.99002891286653,83.73175077972606,-38.05723899011624,-28.29882286208968,-122.49696404930967,1.6023122309261921,1.3502392420962224,5.538279066956618,-0.3388420469703742,-1.070382643174338,0.12127133021084496,48
-114.53789632489092,81.29796206690564,34.56489969408849,28.298822862089875,114.88424422475578,83.24035987015407,-32.05723899011624,-28.29882286208983,-133.49696404930967,0.6866682784527414,1.3613878947996292,3.728100211155171,-0.4824967055591289,-1.0868534646876569,-0.49111552423038535,49
-109.58045205326582,83.18506651823597,28.56489969408849,28.29882286208962,108.82554925339502,84.62803268080603,-26.506241199358296,-28.298822862089853,-122.49696404930967,0.9074869833892673,1.424994870025693,1.7524389789737407,-0.49855130333034164,-1.0829687868596354,-1.6691298831320869,50
-102.62995100604813,84.09527591539529,22.56489969408849,28.29882286208972,102.3899656690429,84.87042696906919,-20.506241199358296,-28.298822862089875,-111.49696404930967,1.8407038843679295,1.5044029444671296,0.16460020840179826,-0.3089259560774912,-1.0913806783531386,-2.357052913213822,51
-94.9095196680753,83.69099870188533,16.56489969408849,28.29882286208985,94.07630720277942,84.812828778196,-14.506241199358296,-28.298822862089647,-100.49696404930967,2.227188226640947,1.5336555544982242,-0.7299766365729687,-0.3257588499568082,-1.0957783019621865,-1.99831360462094,52
-83.9095196680753,80.63288261080312,10.564899694088489,28.29882286208972,83.07630720277942,81.54223930573698,-8.506241199358296,-28.353743232166256,-89.49696404930967,1.5747948516995973,1.6406658602648645,-0.5040333426186374,-0.26275708040689866,-1.2389749667776098,-0.7546003433675023,53
-72.9095196680753,83.57387860247833,4.5648996940884885,39.29882286208972,72.07630720277942,83.7329049775822,-2.5062411993582963,-39.35374323216625,-78.49696404930967,0.8801458697454092,1.6052196549761335,-0.7784344003060687,-0.04596100116023445,-1.236753501514237,0.497553316812671,54
-61.909519668075305,79.07291033522755,-1.4351003059115115,50.29882286208972,61.07630720277942,78.68892209410677,3.4937588006417037,-50.35374323216625,-89.49696404930967,0.3974887578153615,1.6842086366113744,-1.5032411913137984,0.1544446032184239,-1.2190444358228492,1.2288700061049591,55
-50.909519668075305,85.17494110031642,-7.4351003059115115,39.29882286208972,50.07630720277942,85.23045133325716,9.493758800641704,-39.35374323216625,-78.49696404930967,0.46614640998970525,1.6336244565947442,-2.8678500810786334,-0.1563298452331408,-1.3066223791367675,1.0665679429348967,56
-39.909519668075305,89.46242049024038,-13.435100305911511,28.29882286208972,39.07630720277942,89.28812629841724,15.493758800641704,-28.353743232166252,-67.49696404930967,0.7842315377286088,1.5726746477784543,-3.824792481843165,0.1601295340648694,-1.3399942760349146,0.6072822156400026,57
-28.909519668075305,89.64030839275033,-19.43510030591151,28.298822862089594,28.076307202779418,89.20162971645817,21.493758800641704,-28.298822862089597,-78.49696404930967,0.41550092704087044,1.5523000939592049,-3.927245210288499,0.14328103690640606,-1.3159265485411158,1.5912798802208366,58
-17.909519668075305,90.5625014024979,-25.43510030591151,28.298822862089953,17.076307202779418,90.38317958866263,27.493758800641704,-28.298822862089658,-89.49696404930967,0.467738106821304,1.5138949479852248,-4.08290025006431,0.1585452305863918,-1.2849822182425166,2.059709212825012,59
-6.909519668075305,90.60443964189356,-26.231471288480773,28.2988228620898,6.076307202779418,90.47186703850706,30.71496858440062,-28.298822862089573,-100.49696404930967,1.160838504735387,1.5030744073400328,-3.9736689951989894,0.057785865247602104,-1.2690968983507729,2.5388283934400437,60
4.090480331924695,91.96721187822261,-24.042954875775816,28.298822862089697,-4.923692797220582,91.76678086876778,28.540416971610224,-28.298822862089832,-111.49696404930967,1.3500973065947788,1.4824573319869687,-4.034372241630303,0.01934804129873819,-1.2123072110020356,2.513922669807215,61
15.090480331924695,93.48167868023434,-21.888120236997437,28.29882286208972,-15.923692797220582,93.33040426393363,26.4329015808013,-28.298822862089825,-122.49696404930967,1.513396192653628,1.4704563414262337,-4.084662282744238,0.0048825208090334,-1.202998228616437,2.475548346053744,62
26.090480331924695,94.34843748591793,-22.121640149393677,28.298822862089594,-26.923692797220582,94.26361617492752,26.57099284377212,-28.298822862089754,-133.49696404930967,1.6846761692896672,1.4839283335049387,-4.122561740513875,0.06601552205174063,-1.1991777077733705,2.705851214595533,63
33.962250113154454,95.09651943292822,-22.26746860094525,28.298822862089594,-34.26773427073268,94.98601319001199,26.729647970203338,-28.29882286208983,-144.49696404930967,1.7619188057887387,1.4854505355743546,-4.16546714399844,0.06811674219411802,-1.2118570458252735,2.8652174394493373,64
34.48353513669448,95.31425469621229,-22.323393330003356,28.29882286208962,-34.7416567928955,95.10025990155407,26.743005860140094,-28.298822862089775,-155.49696404930967,1.8144586715808215,1.460816847757428,-4.157796996790922,0.12675638248243742,-1.2358619286180619,3.0251531128070837,65
35.57722579268548,94.53964591878007,-24.569209226002634,28.298822862089697,-35.78579705958121,94.20795857795487,29.028262612155068,-28.298822862089903,-166.49696404930967,1.9200931431296362,1.4229452034483216,-4.154302273485271,0.15119071130414338,-1.2665869272314203,3.3006374698362047,66
36.10518718568148,94.12682282873523,-24.458240034882255,28.29882286208972,-36.420269632938414,93.76325080185127,28.965924778523096,-28.298822862089697,-167.77775305249736,1.959006338239287,1.405636729371011,-4.137831913797274,0.1643791211676806,-1.3021256692510887,3.3111838015360866,67
36.3508705056167,93.86306332429928,-24.384458338542597,28.298822862089697,-36.98372176328658,92.96494022594918,31.260640807048652,-28.298822862089658,-168.0161679883094,2.0127246339988543,1.3849180915429733,-4.12708897335096,0.20562761921826372,-1.3592164016897863,3.396611348451398,68
36.43588547672081,93.57953137911552,-24.31308105614845,28.298822862089647,-37.02558304449464,92.71126838740078,31.224636708885797,-28.298822862089892,-167.74685803476478,2.035406727576542,1.3598839055037983,-4.097786339572797,0.2345879814260241,-1.3912931548542276,3.35731315782054,69
36.93402544642154,92.70341921738682,-26.50246818883474,28.298822862089825,-37.12699793422355,92.27519689045803,31.214915995080773,-28.298822862089665,-168.47904122148503,2.1351145236997398,1.333188754364412,-4.031179904059256,0.17537237960807808,-1.404097068629293,3.2975198248371034,70
36.13840794356368,92.51766574986718,-26.48295317519801,28.298822862089697,-36.43180137857862,92.21720796336979,31.185913753368432,-28.29882286208972,-168.05517498139326,2.1838419273695076,1.2999512374683393,-4.00066141555462,0.24815588402050015,-1.4340445076151047,3.2431159620962107,71
34.215089676406244,92.17314809468296,-26.394155104165563,28.298822862089875,-34.40831745620175,91.69150256065639,31.104543767856978,-28.298822862089768,-168.92141501725607,2.2952769097649774,1.26385877110183,-3.926089098030691,0.292469851365266,-1.4679303830061,3.236482959333802,72
31.071022762692333,91.69706459116301,-26.28200268159391,28.298822862089825,-31.485647736618947,91.29539625301003,31.04326518933417,-28.298822862089672,-168.49213210173448,2.342937700275464,1.2475621085089041,-3.823844300901465,0.34467769004702853,-1.50763267287234,3.1774316238200555,73
22.5007396847021,92.33177920831658,-26.45960570326229,28.298822862089825,-22.853532929926686,91.9319899548392,28.677155148587723,-28.298822862089626,-167.3352456533664,1.9604877384377741,1.2764107281512058,-3.9450464777565384,0.45921914802901653,-1.503409803363736,3.3782067021723923,74
18.569519977186165,92.40577912101084,-21.539743010007,28.29882286208972,-19.60215417023613,91.47284711910005,26.174744821996118,-28.298822862089754,-166.54799919958649,2.0468757980031382,1.2402543932963481,-3.671640997056003,0.5907409401642939,-1.575520798012489,3.034161890413379,75
7.5695199771861645,91.30868392682855,-18.590812445186124,28.298822862089697,-8.60215417023613,90.17016336536962,23.717673263235973,-28.298822862089928,-155.54799919958649,1.0532719215670099,1.2547323235977865,-3.9306246660654858,0.5086210852644315,-1.6156221032991704,2.697894493213919,76
-3.4304800228138355,88.3191166839951,-22.170851881441447,28.29882286208985,2.3978458297638703,87.32014089714352,26.531196851968062,-28.298822862089697,-158.93031926839618,1.3701851997650265,1.1769727412685673,-3.7246374196946346,0.7456298163827125,-1.6285481515973226,3.6442980314268185,77
-14.430480022813835,87.54595996036431,-22.372474200135,28.298822862089697,13.39784582976387,87.08480073148147,25.906510906141474,-28.2988228620897,-152.8858948723632,1.054755578444817,1.2334385159890717,-3.220054658648004,0.6897731999691524,-1.6812927576977696,2.542444671105335,78
-25.430480022813835,85.89692786565405,-16.372474200135,28.29882286208962,24.39784582976387,85.09004352193587,20.57392036749393,-28.29882286208968,-141.8858948723632,0.7165153020609594,1.3277750406223683,-2.819587733967582,0.6775648242618221,-1.6685446997077187,2.0342322874922933,79
-36.43048002281384,81.97188400378272,-10.372474200134999,28.2988228620898,35.39784582976387,81.3116991736704,14.57392036749393,-28.298822862089864,-130.8858948723632,0.4710735842751872,1.4183545765300816,-1.8436765842145315,0.42168093323829176,-1.6577743995558978,1.0554865401825795,80
-47.43048002281384,81.80751908823122,-4.372474200134999,28.29882286208985,46.39784582976387,81.0014630284812,8.57392036749393,-28.298822862089704,-119.8858948723632,0.5675117576771768,1.5545351690544396,-0.8936024942054147,0.27579422120821717,-1.5709995348572052,-0.37079672406331265,81
-58.43048002281384,83.02668286819441,1.6275257998650012,28.298822862089672,57.39784582976387,82.09347392880989,2.5739203674939297,-28.298822862089672,-108.8858948723632,0.501936056493817,1.5767498985058077,0.2774341069134694,0.1625640183923885,-1.492744463145869,-0.9937469941371008,82
-69.43048002281384,79.80742967412479,7.627525799865001,28.29882286208957,68.39784582976387,79.95605510170263,-3.4260796325060703,-28.298822862089665,-119.8858948723632,0.5930672556306238,1.510780833331238,1.794220260045914,0.1800220037426486,-1.4079886725146094,-0.22501339347580931,83
-80.43048002281384,71.73656559628331,13.627525799865001,28.29882286208977,79.39784582976387,73.36326270013785,-9.42607963250607,-28.298822862089867,-130.8858948723632,1.6870758061199127,1.492858654553802,3.8854446732085317,0.10118340705034568,-1.346117962103865,0.9142025551974806,84
-91.43048002281384,68.040729114758,19.627525799865,28.298822862089672,90.39784582976387,70.86835436075448,-15.42607963250607,-29.072101642554586,-141.8858948723632,2.45515814512188,1.3334015873789618,5.781046445485064,0.1576745406278839,-1.2522551040319796,1.0199236468593194,85
-102.43048002281384,68.16161596525791,25.627525799865,28.29882286208972,101.39784582976387,70.75484279938114,-21.42607963250607,-28.298822862089708,-152.8858948723632,3.021876585911889,1.3784969540149108,6.924373573912521,0.05900492146068966,-1.1991447924977703,1.1531952209006566,86
-113.43048002281384,64.63260989195908,31.627525799865,28.298822862089747,112.39784582976387,68.09094007944351,-27.42607963250607,-28.743864645080322,-163.8858948723632,3.9090318674453717,1.2206553301084646,7.816631850970937,0.04316365728528554,-1.1776297090456833,1.8136084550456322,87
-124.43048002281384,63.49709775111027,37.627525799865,28.29882286208972,123.39784582976387,67.84772804612828,-33.426079632506074,-28.298822862089814,-172.5416668556234,4.513170033951673,1.1555999937416925,8.517827113304651,-0.00831161657393988,-1.1510798618415652,2.0411812961691123,88
-135.43048002281384,63.80963363088386,43.627525799865,28.29882286208985,134.39784582976387,68.92353012139117,-39.426079632506074,-29.704140112227094,-172.60422349125716,4.721135204096444,1.1053684881322996,8.884439478927646,-0.023463725232005662,-1.1732566470697416,1.9518242243601607,89
-137.7471145660061,66.36483235284234,49.627525799865,28.29882286208972,137.09362836780645,71.43861510853863,-45.426079632506074,-28.298822862089697,-172.3631421997358,4.7175388642876666,1.0214819850221384,9.175401799874196,-0.09841304993002163,-1.1400383492176085,1.7107643729648458,90
-135.03180852629748,70.79900449671254,55.627525799865,28.29882286208985,134.24547432251705,75.27493698428138,-51.426079632506074,-28.29882286208969,-171.51732186912804,4.394069431320785,0.997902506796973,9.013430101861271,-0.14340148157137092,-1.1456702302714896,1.4039606977935084,91
-129.81527031443753,73.05054133864597,54.701685025020915,28.298822862089697,129.94795036665505,78.2458291913151,-52.2270272659837,-28.29882286208964,-170.43002413875843,3.7921030993829077,0.9073192452760042,8.275854614455225,-0.18856424084135837,-1.1368125645849776,1.2897430183951986,92
-122.12926114235965,74.80255803816011,48.701685025020915,28.298822862089697,121.67465282780041,79.20269864105585,-46.2270272659837,-28.298822862089708,-164.9178846629358,2.6442526105347297,0.8511513118347177,6.533963717304578,-0.38801099828054936,-1.2134027675735022,0.6068612790986508,93
-112.12732247206144,76.43880349119512,42.701685025020915,28.298822862089697,112.4638436748341,80.38175191192184,-40.2270272659837,-28.298822862089605,-153.9178846629358,1.2620767453834094,0.956909299677445,4.155912102095756,-0.6158578473463882,-1.1709750069272418,-0.35841251262405116,94
-105.98850922928621,80.97816638991665,36.701685025020915,28.298822862089594,106.01652940647725,83.53141205575446,-34.2270272659837,-28.298822862089636,-142.9178846629358,0.8196307093955343,1.0903205869348775,1.9015789611512732,-0.6323465311747596,-1.1685082372442555,-1.5781606314281111,95
-99.0772074609596,84.49635320917395,30.701685025020915,28.298822862089647,98.49386404061731,85.91405789335674,-28.2270272659837,-28.29882286208969,-131.9178846629358,1.7747521536267483,1.2164930966867726,0.31874870267587874,-0.34728716722148956,-1.1458090561946577,-2.65835458322074,96
-91.42657565574255,86.26876460702941,24.701685025020915,28.29882286208985,90.63515713873316,87.661223063911,-22.2270272659837,-28.298822862089647,-120.91788466293579,1.711399981095098,1.3861565636360622,-0.15019464155077333,0.2405510863923557,-1.156796142872422,-1.904068854099289,97
-80.42657565574255,84.44042490221813,18.701685025020915,28.29882286208962,79.63515713873316,84.77671848478357,-16.2270272659837,-28.298822862089708,-109.91788466293579,0.7048949779666682,1.567574017787181,0.27101261418422035,0.2848857195555723,-1.2478860165810015,0.05563012097764764,98
-69.42657565574255,86.92244002294865,12.701685025020915,35.367019844793724,68.63515713873316,87.19638487895395,-10.2270272659837,-35.656485724579596,-120.91788466293579,0.9978791113206341,1.5844689146820787,-0.42447429466068753,-0.15100176122968087,-1.3485916758261443,1.273067559481805,99
-58.42657565574255,88.05020521911918,6.701685025020915,28.29882286208972,57.63515713873316,88.50927892405358,-4.2270272659837005,-28.298822862089708,-131.9178846629358,1.4673971093313611,1.5293415748177337,-1.0513899062768124,0.16162481926372224,-1.3914967422254703,2.1228898629130697,100
-47.42657565574255,90.459630817654,0.7016850250209146,28.298822862089825,46.63515713873316,90.67079949190001,1.7729727340162995,-28.298822862089832,-142.9178846629358,0.8560264025250554,1.5181894766502801,-2.122519045828301,0.06121963650137059,-1.3473351292192477,0.9529046184847327,101
-36.42657565574255,90.27485685683058,-5.298314974979085,28.298822862089672,35.63515713873316,90.4268720944131,7.7729727340162995,-28.298822862089708,-153.9178846629358,2.037844516885528,1.5056367047808754,-2.1748050388080564,0.18826540852694168,-1.29884523141921,1.9119777961543651,102
-25.426575655742553,90.988991837235,-11.298314974979085,28.29882286208972,24.635157138733163,90.67362263523566,13.7729727340163,-28.298822862089608,-163.92313708963434,1.687501109345346,1.5284157836364016,-2.581471895863142,0.17595499507784404,-1.3148918976581274,2.120722020776884,103
-14.426575655742553,88.5106688936081,-17.298314974979085,28.298822862089825,13.635157138733163,87.97378146117664,19.7729727340163,-28.298822862089647,-170.4350127629622,2.7885756230719276,1.525995103068762,-2.387676894347461,0.1299795690866209,-1.299693163771543,3.1490365917866545,104
-3.4265756557425533,88.66587944136279,-23.298314974979085,28.29882286208972,2.635157138733163,87.80943317692382,25.7729727340163,-28.298822862089807,-172.26621617535488,3.2724160086810428,1.5097383449614927,-2.266738701232489,0.23604846509974267,-1.318375658774995,3.206443954258436,105
7.573424344257447,88.60907223532631,-20.978501955800617,28.298822862089647,-8.364842861266837,87.69702661378031,27.64757221828099,-28.29882286208963,-173.35551702934387,3.611115391682827,1.4482667310145345,-2.2510503318768147,0.2645043710213142,-1.2757281031772796,3.511940790898301,106
18.573424344257447,86.77489545166686,-20.647674583313833,28.298822862089825,-19.364842861266837,85.72581367989844,27.20363240623182,-28.29882286208956,-173.84669154786275,3.926839667760819,1.3809881869439153,-2.189589526785381,0.3787189725960781,-1.2624538492774546,4.104103619774681,107
29.573424344257447,83.56054441250647,-19.976760016138382,28.29882286208957,-30.364842861266837,82.42074682872439,26.536896148419395,-28.29882286208971,-174.09964515297813,4.237090856659031,1.335138106736066,-2.103527710647387,0.45366288388321746,-1.2955481839309528,4.921272977489571,108
40.57342434425745,78.07471453796877,-21.20729505643156,28.29882286208985,-41.36484286126684,76.5923393318662,30.462212922320003,-28.298822862089928,-174.29066238785697,4.659027008712211,1.2811084368366383,-1.858443793821221,0.4169629840362696,-1.3325354842417572,5.744982337642024,109
42.47845036132518,68.76430594272715,-24.214581422435717,28.298822862089875,-43.61357585166186,66.95586397208129,33.58231853607264,-28.298822862089622,-174.33342516276687,5.252963114995515,1.246832265987481,-1.2831013355814251,0.4643995105699485,-1.3707877859217001,6.376064780935742,110
45.46866670344118,57.76430594272715,-30.214581422435717,28.29882286208962,-45.18604358028354,55.95586397208129,36.092072173966876,-31.182874303161157,-174.69362760690683,5.82983458215626,1.253274092529153,-0.46975272635834364,0.33362404292365005,-1.3810594264453981,6.885733159949145,111
44.26830200162406,46.76430594272715,-24.855938240266074,34.57592716220777,-42.78956685721526,44.95586397208129,31.114905634561495,-39.035007544228364,-175.15773912726,6.411951722875921,1.1620562223144084,0.3964877716240309,0.39507788153731604,-1.364195720988886,7.187816783447154,112
37.78036651841331,35.76430594272715,-18.855938240266074,39.31182494265573,-33.31960375224113,33.95586397208129,25.114905634561495,-44.1437966929524,-175.3971669898816,6.961168712077225,1.1628288089217595,1.4977497118240668,0.1766438529292206,-1.3892893871898868,7.160254211012522,113
26.78036651841331,24.764305942727148,-12.855938240266074,39.33330224492775,-22.31960375224113,22.95586397208129,19.114905634561495,-45.06875441226265,-175.8828522349245,7.15840732154769,1.1627121257426054,2.490607278990235,-0.053659105361206744,-1.3537108067612305,7.174866982471185,114
15.78036651841331,13.764305942727148,-6.855938240266074,36.88200328755034,-11.319603752241129,18.32001381914199,13.114905634561495,-43.38567812943703,-175.64423548884315,7.0820425949053245,1.1565786625733514,3.2148590267578343,-0.12794013318298894,-1.3367464757432015,6.905224028054103,115
4.7803665184133095,24.764305942727148,-0.8559382402660738,35.62586373983381,-0.3196037522411288,29.32001381914199,7.114905634561495,-41.75181780343508,-175.9814692322424,6.6206950982530035,1.14887826551354,3.4446920841800006,0.03594092334096264,-1.2985904778090451,6.70469881979828,116
-6.2196334815866905,35.76430594272715,5.144061759733926,32.43149202578818,10.680396247758871,40.32001381914199,1.1149056345614952,-37.81759577853275,-176.1316027252941,5.8620975605808425,1.1295724324647871,3.6035954996828714,0.42658223578868815,-1.306163687861826,5.998632952661825,117
-17.21963348158669,46.76430594272715,11.144061759733926,28.298822862089697,21.68039624775887,51.32001381914199,-4.885094365438505,-28.298822862089686,-175.0776096705407,4.912619501430882,1.173980934783938,3.8069213006516183,0.4801897238518591,-1.3896979939628549,4.6920625896151344,118
-28.21963348158669,57.76430594272715,17.144061759733926,28.29882286208972,32.68039624775887,62.32001381914199,-10.885094365438505,-28.298822862089835,-173.58032548034592,3.4411995302983582,1.2483312955545351,3.0475815201446466,0.3977853422562943,-1.4401989702505276,3.205274407630801,119
-39.21963348158669,68.76430594272715,23.144061759733926,28.298822862089697,43.68039624775887,73.32001381914199,-16.885094365438505,-28.29882286208984,-168.7310271194174,2.0210302016048813,1.3806610480895798,2.2144773964749778,0.25118557768227484,-1.380385834725591,1.4584868672601743,120
-50.21963348158669,79.76430594272715,29.144061759733926,28.29882286208972,54.68039624775887,84.32001381914199,-22.885094365438505,-28.298822862089768,-157.7310271194174,0.617190425485288,1.4563372960729832,0.9653053006961797,0.13316920235941565,-1.3353239630602656,0.23540189509245948,121
-61.21963348158669,89.75397689880349,24.130454932082124,28.298822862089875,65.68039624775886,89.40007352063789,-18.04654971078166,-28.298822862089832,-146.7310271194174,0.6262906419261844,1.4875935605054809,-0.0405133453354704,0.6254973577685382,-1.386555293624635,-0.8358896913161865,122
-72.2196334815867,91.14110813349018,18.130454932082124,28.29882286208972,76.68039624775886,91.15147888769991,-12.046549710781662,-28.2988228620897,-135.7310271194174,0.2861924601627922,1.5375728201356076,0.22633761637300467,0.5505681035563519,-1.3241228124407398,-0.16519387142748704,123
-61.2196334815867,91.1749767176394,12.130454932082124,28.298822862089594,65.68039624775886,90.87476643247967,-6.046549710781662,-28.298822862089615,-146.7310271194174,0.8731827199024292,1.5713139876407338,0.2075925809334597,0.3650030980397691,-1.3125229184182217,0.12668611200116445,124
-50.2196334815867,94.05415199640335,6.130454932082124,28.29882286208972,54.680396247758864,92.72763181762187,-0.0465497107816617,-28.298822862089697,-156.7626509678491,0.7538840859464175,1.5893760744408805,-0.5771978261831996,0.2288028991393399,-1.291876448051166,-0.4356867968911746,125
-39.2196334815867,94.86123329410829,0.13045493208212378,28.298822862089697,43.680396247758864,93.18367044368766,5.953450289218338,-28.29882286208974,-167.03588339928575,1.2123566224757243,1.5687367957335563,-0.788331147759912,0.511655426879593,-1.275348357742601,0.5284653547204128,126
-28.219633481586698,95.13170813387467,-5.869545067917876,28.298822862089697,32.680396247758864,94.02699731103957,11.953450289218338,-28.298822862089686,-172.25936582225046,1.9608906008319316,1.5627393545627275,-0.8396704838973158,0.6300157545643272,-1.273666519667291,1.197290602597964,127
-17.219633481586698,97.13567251988997,-11.869545067917876,28.29882286208962,21.680396247758864,95.95795306496764,17.95345028921834,-28.29882286208969,-170.877556504609,2.0284571369966238,1.5601213014406872,-1.1767992439526709,0.4897944726481022,-1.2879914701933,0.1333648017309143,128
-7.1937733318590515,97.88314843452783,-13.602856873055302,28.298822862089697,10.680396247758864,96.72307896909862,19.036873429411806,-28.298822862089608,-170.41879872725457,2.03123089041962,1.4889171967840362,-1.4728600057120431,0.36876974044257066,-1.2936469073721657,0.20234256338572837,129
-3.6248055613449233,99.10544372116802,-12.894221530694159,28.298822862089697,2.981967743790482,98.26000657227442,18.271698988414354,-28.29882286208971,-171.50872838749683,2.263727276065725,1.4922010813197124,-1.7101249006396815,0.3283784133923164,-1.2825140828430353,0.4495077437097246,130
-3.0992602564436007,99.78658147141284,-10.425953669819997,28.29882286208972,2.427631079535442,98.92229588919591,15.777059334717523,-28.298822862089725,-170.8639061497689,2.2385302320819984,1.4918634482005568,-1.8447650953278896,0.2798192102563584,-1.2775024192475877,0.3378395068370793,131
-2.879769775046089,100.1092774322906,-8.794772171678252,28.29882286208962,2.220875655115706,99.04898408613835,15.266924006667871,-28.298822862089686,-171.47404942086052,2.3050652291701215,1.4847416002971334,-1.9568624269766437,0.35006665238120804,-1.2387393473080643,0.5130672774901321,132
-3.0236285805745307,99.9179426956497,-8.709525567876229,28.29882286208962,2.307766350953095,98.85126166135132,15.263350369700435,-28.29882286208983,-171.22589778703403,2.387636788840658,1.4707479286615426,-1.9465496822944592,0.35181239314791746,-1.264317195778585,0.5484334845395964,133
-4.635793492692062,100.56504055790171,-5.875707409759753,28.298822862089594,3.740648599738585,99.34177774041373,13.632510854583668,-28.29882286208962,-170.77631813634363,2.2619380512702776,1.4667978923618241,-2.0558363838313083,0.3894550886165453,-1.295954342987603,0.6050390388758925,134
-6.316582172004651,100.4851570257129,-6.151393429258612,28.298822862089697,5.421929435021117,99.19821295144277,14.039108795056631,-28.29882286208982,-169.7801511893413,2.13154527990606,1.450785080170363,-2.1228927699403757,0.32007225964690433,-1.3391500172227944,0.5613477235523787,135
-9.52958156806787,100.39997205459397,-4.42926253953511,28.298822862089697,8.864916901787714,98.8011809981051,12.433643980888155,-28.29882286208982,-168.64724411978756,1.843069734817782,1.4278529257831094,-2.1669980103022923,0.3791002973013176,-1.3505508395369907,0.07402149780514129,136
-16.93732100965762,96.58070989898127,-10.42926253953511,28.298822862089697,15.939862533475088,95.76529016768481,18.029922453580518,-28.298822862089697,-169.27784301329487,2.0385453380659637,1.4137866672849526,-2.134161824414427,0.2353961603429708,-1.4004034992500178,0.9692918437219464,137
-24.844357439100538,95.08330952925884,-12.168638880825526,28.298822862089697,23.714834411359945,94.01386135167118,19.4776825012725,-28.29882286208983,-168.5547116957142,1.9345151920815824,1.4022400030486073,-2.069265414379679,0.4248132093656264,-1.4260492211442464,1.1058083225263697,138
-34.73674452983276,93.47360866047715,-11.742998621481483,28.298822862089697,33.889244096243395,92.86052092514171,16.844907768921797,-28.29882286208968,-163.09374947965,1.2476253643518989,1.3908138304668232,-2.2104298624861336,0.4117264173584486,-1.4201147712183058,0.9442963387571953,139
-45.73674452983276,90.83255366491532,-6.151557870806456,28.298822862089594,44.889244096243395,89.58440939901678,13.737031396743644,-28.298822862089843,-152.09374947965,0.6161552744921226,1.3671551383869316,-2.14674141000049,0.3696769176657583,-1.4040312706208078,1.0465256101260254,140
-56.73674452983276,87.05282491768926,-0.15155787080645577,28.298822862089825,55.889244096243395,86.34826768226903,7.737031396743644,-28.29882286208985,-141.09374947965,0.3929529050656572,1.3463498139541576,-1.7033495824530138,0.25869469259637795,-1.380475896400409,0.31887578485853124,141
-67.73674452983276,82.97518652203206,5.848442129193544,28.29882286208972,66.8892440962434,82.53237825804872,1.7370313967436442,-28.298822862089633,-130.09374947965,0.39830224540631076,1.3030486042036327,-0.737008723678979,0.16424519169283786,-1.337177517687134,-0.08384109519385467,142
-78.73674452983276,74.87754247939677,11.848442129193543,28.29882286208972,77.8892440962434,74.67761350880116,-4.262968603256356,-28.298822862089704,-141.09374947965,0.9948146705435363,1.2707239800066525,0.818443287275982,0.2923419382463793,-1.3764411511295274,0.3753623789104474,143
-89.73674452983276,63.877542479396766,17.848442129193543,28.29882286208972,88.8892440962434,63.67761350880116,-10.262968603256356,-28.298822862089622,-152.09374947965,2.2494738333680115,1.2446182768981846,2.3790552241407195,0.3930597554444677,-1.3763942352015013,2.109572820753908,144
-100.73674452983276,52.877542479396766,23.848442129193543,28.298822862089697,99.8892440962434,54.45875763467174,-16.262968603256354,-30.75845700147238,-163.09374947965,3.2844357436450617,1.291147993819127,3.773119934097409,0.4554567904166471,-1.3683483666058656,3.444607322141892,145
-111.73674452983276,41.877542479396766,29.848442129193543,30.09427046782443,110.8892440962434,45.88989573739856,-22.262968603256354,-37.44171986098434,-172.1719595095814,3.757493737193524,1.274372936021441,3.958434863133293,0.47014598901895766,-1.3836271380571532,4.304742691859479,146
-122.73674452983276,31.999392337054893,35.84844212919354,32.5119283333216,121.8892440962434,36.567270447218874,-28.262968603256354,-39.624004126918635,-172.6341358396762,4.172072234655034,1.2381664169788578,3.930395209296662,0.5480015063111722,-1.4092478186233146,4.890262335788249,147
-133.73674452983278,24.58477154013655,41.84844212919354,32.2201008403161,132.8892440962434,29.02377598543817,-34.262968603256354,-39.53731587195511,-172.86488859244434,4.679815938116634,1.2233606662354586,3.9118917872233334,0.37681401108306506,-1.4425999539709058,5.178150056154118,148
-144.73674452983278,17.47683121543258,47.84844212919354,32.48790604055032,143.8892440962434,20.729828882190926,-40.262968603256354,-39.73937896685472,-173.14329770275546,5.388744689836654,1.1128514762509887,3.7346037299446957,0.31026485198394127,-1.4352658817101982,5.760379110080402,149
-133.73674452983278,14.598929456796279,41.84844212919354,31.465635424478553,132.8892440962434,16.102842913666247,-34.262968603256354,-38.38759115316916,-173.7899892176105,5.943883191882352,1.0805732857437726,3.536936784048896,0.33496287705885874,-1.4632493573924572,6.17963976550189,150
-122.73674452983278,21.5901529846718,35.84844212919354,29.817161702444736,121.8892440962434,17.92512856734714,-28.262968603256354,-36.646553642869605,-173.9125573962693,6.161001650192282,0.9603333438464198,2.86412488954926,0.24889334416109632,-1.4722653841885087,6.663546413755078,151
-111.73674452983278,32.5901529846718,29.848442129193543,28.298822862089594,110.8892440962434,28.92512856734714,-22.262968603256354,-30.90187906862114,-174.4378806398875,6.486641851385868,0.9269335551945818,2.4895419292484653,0.42488856076922904,-1.517332868166921,6.907048805774671,152
-100.73674452983278,43.5901529846718,23.848442129193543,28.29882286208985,99.8892440962434,39.925128567347144,-16.262968603256354,-28.29882286208971,-174.16706390375936,6.711467599102576,0.8757441070344231,1.9693253899895464,0.32710196204344766,-1.5684130138066699,7.111409728545784,153
-89.73674452983278,54.5901529846718,17.848442129193543,28.29882286208962,88.8892440962434,50.925128567347144,-10.262968603256354,-28.29882286208965,-173.988136562021,6.868659301912851,0.8763234781542928,1.5720548867525976,-0.012663599897169921,-1.6132884536464123,7.060367383708742,154
-78.73674452983278,65.5901529846718,11.848442129193543,28.2988228620899,77.8892440962434,61.925128567347144,-4.262968603256354,-28.298822862089843,-173.93297624459035,6.956720072903206,0.8456174305345374,1.2970784794926187,-0.046076241675580644,-1.6263159806867031,6.764922770743712,155
-67.73674452983278,72.81525067279125,5.848442129193543,28.29882286208962,66.8892440962434,71.39910289052072,1.737031396743646,-28.298822862089605,-173.7583833675723,6.961116703187649,0.8069654918937039,1.0755649033618147,0.1419810058762678,-1.6201548892020645,6.3605255601150805,156
-56.73674452983278,76.71860424962853,-0.15155787080645666,28.29882286208985,55.8892440962434,75.25755984954883,7.737031396743646,-28.2988228620897,-174.032945021393,7.0265823815314175,0.8171355333565846,0.9299060811245793,0.11975245489335228,-1.6215458420195643,6.215213134117238,157
-45.73674452983278,80.64750055284647,-6.151557870806457,28.298822862089953,44.8892440962434,79.38680311203873,13.737031396743646,-28.298822862089754,-173.96820045814016,6.986752216870858,0.7734251708936937,0.717430121938163,0.2615022677560384,-1.5705900637885801,5.9007733578040265,158
-34.73674452983278,86.8409619200677,-12.151557870806457,28.298822862089924,33.8892440962434,85.34198588824006,19.737031396743646,-28.2988228620897,-174.00914557960817,6.640177259784457,0.8042368552702078,0.3639681270450491,0.2968045107192212,-1.6116461448743267,5.169147455307437,159
-23.736744529832777,93.52629038473606,-18.151557870806457,28.29882286208957,22.889244096243402,92.03454351501055,25.737031396743646,-28.29882286208987,-173.38042258736434,5.604989911313178,0.9132697232890664,-0.40318975191639744,0.27555634857176675,-1.6144786722900142,4.34132599111632,160
-12.736744529832777,97.3082258972333,-12.310280143029479,28.298822862089747,11.889244096243402,95.69003710794401,20.193772633317483,-28.29882286208985,-173.26762074205655,5.193392140166547,1.0540662217278725,-0.4685050652465738,0.29951267824448524,-1.684075373795096,2.8971760870438765,161
-1.7367445298327766,99.5706763924542,-10.393307592762254,28.298822862089697,0.8892440962434023,97.78905632533001,18.17689123119217,-28.298822862089747,-172.64522811451488,4.159056602301847,1.0479304732972194,-0.9514213309122116,0.5870072891677133,-1.6524459322416518,1.5169981896148341,162
-9.532808103813682,96.58108180203675,-16.393307592762255,28.29882286208962,9.422568704331724,95.45095004832349,22.59294982547513,-28.298822862089605,-172.582470691829,4.1243932460752815,1.1052456678326363,-0.8386017191831328,0.38669750956871535,-1.6435211046558944,0.6695908686682285,163
-20.532808103813682,94.10230095572966,-16.81130195072464,28.298822862089697,20.422568704331724,92.75354927755953,22.19169290932966,-28.298822862089622,-173.54908471733995,4.32188593732268,1.1201203568040239,-0.6299800748178125,0.5622678146302201,-1.6545792496291836,1.160674990966204,164
-31.532808103813682,94.73908117260218,-10.81130195072464,28.298822862089594,31.422568704331724,93.05105077741122,16.19169290932966,-28.298822862089704,-172.44058151260947,3.277744160993073,1.1629420056089712,-0.8295168327948413,0.7552107850535262,-1.5630434246311873,0.26356572967123676,165
-42.53280810381368,92.51292187759194,-4.811301950724641,28.298822862089697,42.422568704331724,91.20751894052697,10.19169290932966,-28.29882286208982,-169.95653123530886,2.242774176711684,1.2575027088362556,-0.6995226554867484,0.46418959741184135,-1.4469750134531398,-0.4729978684154362,166
-53.53280810381368,89.6456200491393,1.1886980492753594,28.298822862089672,53.422568704331724,88.92839828772429,4.19169290932966,-28.298822862089587,-158.95653123530886,0.9326093168417471,1.2911044799728089,-0.14566649977550927,0.40015031415272956,-1.3760107007911593,-1.840386147712929,167
-64.53280810381368,89.91715519164498,7.188698049275359,28.298822862089697,64.42256870433172,89.19463102894244,-1.8083070906703398,-28.29882286208971,-147.95653123530886,0.3882413689374909,1.3653328720911868,0.46835170425405576,0.48018371877071575,-1.3295787144130466,-2.744855810287753,168
-75.53280810381368,86.66608204043644,13.18869804927536,28.298822862089594,75.42256870433172,87.1044679413112,-7.80830709067034,-28.298822862089803,-138.84898169729533,0.6224363172193393,1.3145296459989302,1.6208565161934032,0.5028537002977327,-1.2778112049488943,-2.1841753650881977,169
-86.53280810381368,79.26332195825323,19.18869804927536,28.29882286208962,86.42256870433172,80.07649606295847,-13.80830709067034,-28.298822862089825,-149.84898169729533,1.5908702943567559,1.3236561724339402,3.30750498482409,0.571743481396206,-1.2987784685972816,-0.9447122849887005,170
-97.53280810381368,70.89278723759652,25.18869804927536,28.298822862089825,97.42256870433172,72.61782882272972,-19.80830709067034,-28.298822862089818,-160.84898169729533,2.8239294544525038,1.2964648917982315,5.0814134484185205,0.5113628854398339,-1.3037824608214892,0.15446063467160182,171
-108.53280810381368,69.2179561676902,31.18869804927536,28.29882286208957,108.42256870433172,70.25475329804694,-25.80830709067034,-28.298822862089605,-171.84898169729533,3.6456883310724355,1.3185677393593909,6.74364924817474,0.4769178249816971,-1.291156003930208,0.2980687091958496,172
-119.53280810381368,66.37444786100102,37.18869804927536,28.298822862089647,119.42256870433172,67.88535363571494,-31.80830709067034,-28.298822862089953,-174.24589128046932,4.422786674717327,1.207333469520336,7.654826699367137,0.4433196062382436,-1.2728467581954084,1.0063467787092542,173
-130.5328081038137,65.57730544092665,43.18869804927536,28.298822862089697,130.42256870433172,67.53264567939902,-37.80830709067034,-28.298822862089583,-175.06126188691175,5.152263911686893,1.2532438496427523,8.470390122128832,0.42094453325955056,-1.256042159552815,1.3850208377196365,174
-136.7301605069134,66.1879891143695,49.18869804927536,28.298822862089647,137.13866925234828,67.72994943983612,-43.80830709067034,-28.29882286208974,-175.06645430539515,5.438445241181208,1.2850970850214856,8.817487849369899,0.4544676364580908,-1.2746243617886768,1.4397587242960321,175
-137.0984036075931,67.22261208250978,55.18869804927536,28.298822862089697,137.455602435328,69.1784679841671,-49.80830709067034,-28.298822862089892,-175.4510922506913,5.610587926436306,1.2783386481569017,9.063830587560533,0.44409287554393834,-1.2747989806794082,1.578499932250472,176
-135.67159312951193,70.48232932336134,61.18869804927536,28.298822862089672,135.77135649499377,72.60189840883743,-55.80830709067034,-28.29882286208976,-175.57357178372493,5.46809209592398,1.2590485983328723,9.042531833797135,0.4485491373638409,-1.2825086122940688,1.4250844948283918,177
-132.03968754105554,72.64947788193255,67.18869804927536,28.298822862089594,132.45855546765594,74.33437820981318,-61.80830709067034,-28.29882286208959,-174.96393734066964,5.0534253762201775,1.2081026294856951,8.67118250328629,0.42735134268332126,-1.3289469292698055,1.3896048893520299,178
-125.90190401791597,73.97288619000497,66.43898534988908,28.29882286208972,126.69726330445404,76.10321483504788,-65.67093552370577,-28.298822862089846,-174.5574385382257,4.310158343070888,1.182882052860153,7.543125894965587,0.4462306905354728,-1.3267257488815551,1.0863768241323675,179
-118.93445321313162,76.35892364829766,60.43898534988908,28.298822862089647,119.21345718456415,77.64094728324815,-59.670935523705765,-28.29882286208968,-171.78164178614915,3.1662533602956002,1.1961803751417834,5.863576346219099,0.4052016956715138,-1.3436830460790303,0.3377090987982966,180
-110.87715281204866,78.87110685103148,54.43898534988908,28.298822862089647,111.44318548281699,79.27997204648138,-53.670935523705765,-28.29882286208983,-166.39910745143357,1.848817244548922,1.2772605730622157,3.8175947953863916,0.2848617332781286,-1.3610440323448822,-0.5096035740384285,181
-102.90404528021105,81.27215003784039,48.43898534988908,28.298822862089697,103.00035778646743,81.42369619060322,-47.670935523705765,-28.298822862089562,-155.39910745143357,0.6587413697654539,1.313658527768125,1.9593735751000803,0.28960731951945085,-1.3804080300893253,-1.2934527134817808,182
-104.12417488657654,77.39445252120589,42.43898534988908,28.29882286208972,105.54673173850274,80.66298304845402,-41.670935523705765,-28.2988228620897,-151.0816773661841,1.4671678006551558,0.5822659553368823,3.4652513070409663,-0.029509039894635075,-1.193023722480603,-2.060316705912106,183
-105.0005145774837,72.58862313549557,36.43898534988908,28.298822862089697,106.42767673932285,79.37958627905529,-35.670935523705765,-28.29882286208987,-147.3005728433277,2.1895967327428507,-0.2161423011477843,4.178181690158741,0.1107794997112898,-1.324587186218438,-3.704267056059611,184
-104.26602564145279,65.69457602609214,30.43898534988908,28.298822862089647,105.2256640585575,78.28879278184391,-29.670935523705765,-28.29882286208964,-147.15649432164236,3.2209016134609887,-1.144746298281587,4.844671216071543,0.04252585533580639,-1.7005247799338463,-3.5340117828420894,185
-104.5685515264375,58.325893764852836,36.43898534988908,34.28061472384869,107.04160192721709,78.07163035082728,-23.670935523705765,-28.298822862089857,-143.35742285848335,3.8169281296835367,-2.5589524555858723,4.975799547035164,-0.5309727914008588,-2.116414669866498,-2.6848856222426574,186
-106.98241305787754,53.762629788496284,42.43898534988908,32.99036635743802,108.67727709731464,78.11062115925081,-27.823517146216222,-28.298822862089594,-136.91448348330715,4.195733340131129,-4.178869012593232,4.717261841125314,-0.8357297598489826,-2.951820094935862,-2.4987739069378767,187
-107.78164414205209,48.40024987395542,48.43898534988908,36.77358888426241,108.45984497721084,77.53813217010614,-30.841218876468574,-28.298822862089683,-131.9981627626146,4.615337308464012,-5.931147868816727,4.415662381502931,-0.9762182358926821,-3.662028511978019,-2.360208105391408,188
-112.78797897345105,42.02882125094607,54.43898534988908,39.914037776311666,109.22180027352609,76.92660206031441,-36.773517663288075,-28.298822862089647,-130.3800256417041,5.279954248564062,-7.969765206120322,4.371397738984372,-1.374945451275541,-4.427211734871983,-2.053514331989111,189
-109.8995752695339,31.25336073138994,60.43898534988908,47.611193907096336,108.82919553352725,75.7377149526736,-37.43592683093484,-28.298822862089715,-131.24180678662282,5.8094417051165035,-10.224324768527389,4.045580155984089,-1.4252137737134687,-5.545736568201525,-1.7248756850877103,190
-111.46211913423875,23.045179636502795,66.43898534988908,50.442613484304935,107.7618418099949,74.01814089608176,-36.56551450079771,-28.29882286208971,-128.15207045934955,6.47441239831615,-12.463000862852724,3.649820609729383,-2.4074488582119704,-7.060885562551002,-2.104825158518347,191
-113.82792028804096,14.436280792250075,72.43898534988908,52.00780516809068,108.23291344238022,72.80141779933307,-38.748703588691384,-28.298822862089605,-126.42528073341346,6.931445986043924,-14.772992230011726,2.9008844988042477,-3.6627109701058043,-8.892007598819124,-2.011883765666577,192
-117.50398605965933,6.593617968465685,78.43898534988908,53.171886615296195,106.9142298503923,69.7613949599054,-42.1295948372499,-28.29882286208961,-123.80922368159871,7.795577685034397,-17.246530550454995,2.2186978953745533,-3.814859202328825,-11.829920508561653,-2.4653396695102603,193
-128.50398605965933,1.5935365303601357,84.43898534988908,53.15882355635797,104.96436371502315,65.30905474309654,-41.26773219195263,-28.29882286208969,-120.20377625031787,8.53561014258737,-19.713693293910985,1.1510460063663697,-4.688574558487095,-14.982252319830668,-3.88173025821843,194
-117.50398605965933,3.949544360535999,78.43898534988908,53.367406484676394,105.29008600180671,61.88692725667323,-45.08756973518246,-28.298822862089953,-117.98049408083226,9.132933585819355,-21.739804648689113,0.4989368269280965,-4.379745296797502,-18.18623342215519,-5.12127658679769,195
-106.50398605965933,7.152797721885508,72.43898534988908,53.350826659879395,105.99290939117937,58.37646282521928,-49.38009922292614,-28.29882286208982,-115.70581067829359,9.70537091593982,-23.39508992130558,-0.23589701598447085,-4.239207003718676,-21.184167699529677,-6.39153882327032,196
-95.50398605965933,10.303338754206695,66.43898534988908,53.523764304375725,105.55423191952885,54.250460564583896,-50.388393257012964,-28.298822862089867,-113.40504304814671,10.30814422656494,-25.079063197255564,-1.0615784049847508,-3.927166147066129,-23.99012978083282,-7.874108332112965,197
-84.50398605965933,15.784195651905952,60.43898534988908,52.99684797849522,104.50476518390487,51.21978027142845,-50.36221297378489,-28.298822862089704,-112.09416812572793,10.636997129289277,-26.421281199439207,-1.8514375577699886,-3.6382097991322646,-25.924339857205755,-8.716908911472688,198
-73.50398605965933,20.298832136476594,54.43898534988908,52.35433352928283,103.88291313391798,48.68803067968596,-49.86064793178553,-28.29882286208968,-111.98151659738903,10.908055109050638,-27.25025741306201,-1.9331511011945235,-2.7821359634001315,-27.30462269999696,-9.5573078036122,199
-62.503986059659326,23.725346185206067,48.43898534988908,52.01365435109952,103.08438993876115,46.611859407900766,-46.79285960658785,-28.298822862089843,-112.08783865507351,11.110782715443776,-27.756840211191548,-2.007717121576558,-2.20661989752508,-28.14801184759175,-10.250130632233097,200
-51.503986059659326,24.61451298222731,42.43898534988908,51.87344690017116,102.48601641078834,45.72901096515744,-46.24859574460608,-28.298822862089715,-112.33347705696777,11.296095481951093,-27.93974380384866,-1.9564576366405784,-1.8328077964898934,-28.493008138964107,-10.677104857659673,201
-40.503986059659326,24.158925341767542,36.43898534988908,52.034204276121585,101.80626410441513,45.415342954442636,-45.58327850642674,-28.29882286208982,-112.74764475517915,11.37074152340135,-27.7998112172788,-1.871117630955461,-1.6318596331705173,-28.40289074467574,-10.88118996220712,202
-29.503986059659326,22.03635869937514,30.43898534988908,52.83594456899918,101.71987192651763,45.397483138072786,-45.657602522568254,-28.29882286208971,-113.16315066219634,11.413585634457512,-27.4890833973597,-2.011205593076221,-1.8853439288291518,-28.08729036246746,-10.715371853300303,203
-18.503986059659326,18.40320131669856,24.43898534988908,53.58125708094561,101.90737856597349,46.06282818616125,-45.68927154145244,-28.298822862089832,-113.734840662464,11.367080350367905,-26.893897677976536,-1.949520384725076,-2.0861496300085434,-27.31521952288977,-10.353966466505653,204
-7.503986059659326,14.898029716742311,18.43898534988908,54.469743818204684,101.9228566399729,47.0048879071141,-45.58598953906389,-28.29882286208971,-114.56292391852931,11.082924397388611,-25.98188760022304,-1.8398533850798353,-2.3736150943079077,-26.17237079213153,-9.98304729988676,205
3.4960139403406743,8.985216489266222,12.43898534988908,55.26787089175539,102.77526189978323,48.322225235097356,-46.02109900988354,-28.298822862089857,-115.71402417794955,10.743150762151542,-24.677010531610165,-1.5427178507064707,-2.6785475264571414,-24.506934375730822,-9.553876918845424,206
14.496013940340674,3.5963349026520937,6.43898534988908,55.2646766744474,103.47907107918711,51.07137435085902,-45.730631771754986,-28.298822862089708,-118.04943770302982,10.131896083907558,-22.873587436148444,-0.8957490547910899,-2.8253239287263683,-21.808577960611014,-8.9163508983001,207
3.4960139403406743,2.3135479525151217,12.43898534988908,55.08034787930644,103.72682777892518,54.70727685326193,-47.11462107581053,-28.298822862089704,-121.63541237060468,9.401274510585385,-21.067098021285094,-0.0930652910987297,-2.788445978309641,-18.7038666122128,-8.157524798958896,208
-7.503986059659326,6.677052466906645,18.43898534988908,55.324221933501136,103.48894474274651,58.45542610365698,-46.16219208942751,-28.298822862089683,-124.42709844677569,8.778172546913565,-19.19058402023027,0.43192347331563874,-3.2589480372329245,-15.536678527706718,-7.291655848876768,209
-18.503986059659326,11.904390335330724,24.43898534988908,54.46931615861344,103.76321940035824,61.699225151974176,-44.8820794323141,-28.298822862089846,-127.8563376250412,8.17972275150339,-17.348617802150265,1.1569961274026481,-3.0548516911613866,-12.65552410005119,-6.287007192385643,210
-29.503986059659326,16.94024423263929,30.43898534988908,53.74684424477043,104.85000461632754,65.73071082965313,-46.01301759448613,-28.298822862089686,-133.23398649010397,7.432867955247497,-15.63583519313882,1.9417214336745516,-2.530618379939868,-10.258943962272836,-5.570343205690341,211
-40.503986059659326,25.81827126108406,36.43898534988908,51.45717996688345,104.74993717882282,69.0503185901597,-45.08789883788387,-28.298822862089732,-136.09857036996323,7.074194312389513,-13.79734786141107,2.477488232922403,-2.808308101405617,-8.16450436617685,-4.921413532857417,212
-51.503986059659326,34.91932840431675,42.43898534988908,47.45731353084639,104.80457112358056,72.58886453462917,-44.07753703008474,-28.298822862089665,-138.77672968917113,6.49982379659281,-11.660559498393113,2.84016892522859,-3.0294313035879825,-6.243632580491771,-4.0952498785252684,213
-62.503986059659326,43.87450844984952,48.43898534988908,41.560223197268485,105.63443989713367,76.18528108239113,-44.14849191061431,-28.29882286208982,-140.12201952128294,5.901340874258296,-9.502367301708853,3.0777917884629327,-4.131672024952923,-4.525885351328361,-3.186734605127454,214
-73.50398605965933,51.00234627301695,54.43898534988908,35.435974897221236,104.82955743780218,79.99537010989003,-38.74657514111568,-28.298822862089853,-142.7393490113966,4.641028532420106,-6.905165930114909,3.108684128788888,-2.4638597378289515,-2.7093901636700735,-3.6304738082973116,215
-84.50398605965933,59.55861695293335,48.43898534988908,28.298822862089672,102.06861014855191,82.47893029694605,-32.74657514111568,-28.29882286208964,-136.93116653759267,3.765795318387832,-4.377209845081001,2.793860428412968,-2.3010756383749675,-0.7507630234357511,-3.9678211835271164,216
-93.32167099829587,68.69195394554892,42.43898534988908,28.29882286208972,101.27940960492882,84.6092191319985,-26.746575141115677,-28.298822862089626,-135.7809413247083,3.0203211615301564,-2.1952443425697648,2.657462807160381,-2.3321834711754477,0.6875692489156108,-3.6697399207787074,217
-94.21875956642864,76.0987362262785,36.43898534988908,28.298822862089697,99.94402445317849,86.43026504492433,-20.746575141115677,-28.29882286208965,-132.1957841642385,2.3956577567891766,-0.29511973043890183,2.453930730770216,-2.1080330628726527,1.8601833554148877,-3.72923933971747,218
-97.8754402162899,81.66742044055918,30.965275109443954,28.298822862089697,100.19779143546849,88.44405604633288,-16.705271051030632,-28.2988228620897,-129.7401097255593,2.1923112689810558,1.0356307328964858,2.6798589784674296,-2.5626128671931503,2.8288108188652306,-3.8038141867729394,219
-100.99757876384233,86.37770581693457,31.52266576090598,28.29882286208962,100.34719826405461,90.47449521699959,-16.21966747814081,-28.298822862089832,-129.90724930744238,2.0991855455654607,2.122228449533697,2.8269226793151017,-2.5591874666107315,3.3032411567700533,-3.638383003290828,220
-101.42657855262453,87.94467973942437,31.578307974151755,28.29882286208972,100.0240341302601,90.87737293580045,-13.493142378150678,-28.298822862089708,-130.49383397124507,1.9162706073845908,2.9750503280256146,2.956934486653639,-2.3383259939724694,3.9036206019538606,-3.8589741131347113,221
-99.83636388143137,86.60112650132342,29.117122350324603,28.29882286208962,98.93209657706976,89.97997737730223,-11.31859134033263,-28.29882286208964,-135.1921902755741,1.8067993384084264,3.1335556931821826,3.1254448257502205,-2.39961157330083,4.052156282736689,-3.961352986041064,222
-99.41334819121792,84.0466397366655,31.677143612978497,28.29882286208985,98.52369970624275,88.84804682571908,-11.930592501834766,-28.29882286208962,-135.14214479330136,1.9318635909256048,2.7402749736053855,3.397622779553753,-2.7081164329027576,3.9603981443697642,-3.8870602672056043,223
-98.2271712783622,79.63639315864819,33.88736789727956,28.298822862089647,97.6955307725454,87.10791439088769,-12.230036962018465,-28.298822862089676,-135.14014586176222,2.121102736557791,2.0258517457516443,3.5126907849006543,-2.743109214765407,3.517306080121114,-3.537298549505031,224
-95.24592517065078,73.50334276651557,37.093348316735856,28.29882286208972,97.46204344552386,84.97884507395162,-12.418714733568853,-28.29882286208969,-137.08733903083484,2.274972027813826,1.0220582564752552,3.5381253185641275,-2.60522608008292,2.7288349998993677,-3.351659821088511,225
-92.23558606342411,65.84524228519301,42.237951761681714,28.29882286208985,97.17885904089538,83.09948947094672,-12.553576927325299,-28.298822862089796,-135.93979590853803,2.4856179611662914,-0.24757304312905948,3.525908657074799,-2.5281547943859146,1.9231927001598295,-3.181248726231191,226
-89.42685371292241,57.771591402751056,46.85128630677835,28.298822862089697,98.41253398102387,81.2981353740916,-12.510975881313103,-28.298822862089843,-136.8803467973808,2.7546467710963043,-1.721341590944513,3.521165629029608,-2.1046026105103097,0.8418826869403858,-2.78402504093169,227
-90.8996842970234,52.060567823272315,52.85128630677835,33.506901407373064,100.07520970618745,80.362771579892,-14.971587974696172,-28.298822862089633,-135.583961720601,3.2760069918228316,-3.4968144318104573,3.6544383581309847,-1.7840272740169938,-0.4776828511130618,-2.3209801085306885,228
-92.92984507724742,46.07166263690404,58.141612966668795,39.76934171150785,101.32638793406123,78.9525829926876,-17.911435883075274,-28.298822862089715,-133.44926735204015,3.9086426910075494,-5.601827230753559,3.6944000730234547,-1.8739633121847739,-2.052234880165321,-1.8926841658352398,229
-93.68376854867289,41.10830300137227,64.14161296666879,43.14809250065564,102.17498145642449,77.05282735394766,-21.08705337179232,-28.29882286208973,-130.95626789264736,4.557366134547349,-7.78610342503376,3.6621744016861912,-2.0498286556691006,-4.021753339644518,-1.8504221352033998,230
-96.36034060859069,36.2346710157076,70.14161296666879,46.08312896750902,103.42176876721162,74.82798164617525,-25.449138282513406,-28.29882286208984,-127.36067362520129,5.428332579620075,-10.121653421789041,3.5212259598007383,-2.9569327473958906,-6.172911008657558,-1.7700616775487945,231
-96.3121631001038,29.156525092139777,76.14161296666879,49.44608766904912,103.36461169285455,72.62745444526949,-28.979586099210536,-28.29882286208983,-125.66796231504901,6.211593079741019,-12.389251281132296,3.281791145815972,-3.4170198689153333,-8.077596721932677,-1.833819931824698,232
-98.38027832667194,23.33929554522006,81.18534335284856,51.59537836819428,103.42626976372091,69.81986742448204,-30.673821753638954,-28.2988228620897,-122.77797704866718,7.015577574594315,-14.586720946146839,2.840800523533088,-4.275510649327241,-10.330944696722211,-2.1426007991912566,233
-94.62000772309729,16.934431799818192,82.94667209043416,53.04060412250062,104.44475054269486,67.17015155299806,-35.012358527681506,-28.29882286208981,-121.66007689917589,7.507862131482054,-16.75668180834202,2.2314768618278644,-4.811986209636853,-12.91548995635697,-2.5684435097506038,234
-93.32572011873175,10.449310588029745,84.97972118683809,53.79417449938762,103.55782573840001,63.427999770129915,-36.69169443894754,-28.298822862089725,-118.60719845290006,8.276874400162734,-19.12077515066421,1.1682092118189706,-5.801154101536855,-15.659915387018058,-3.1799235215553416,235
-97.45396217399437,4.683377485405178,89.82342534782036,54.11852333755736,103.32488216195263,59.79481733943374,-40.333620464648305,-28.298822862089605,-115.99326339527151,8.955190267804374,-21.297262280439995,0.2642718431736862,-5.878579126890509,-18.677881171754287,-4.203473930713274,236
-108.45396217399437,0.4714507431075125,95.82342534782036,53.83959629582715,104.37075740052052,56.12191258114466,-42.08137917557115,-28.29882286208982,-113.87577821032234,9.557909200272269,-23.254511574272566,-0.4722228579169076,-5.620287094564033,-21.44711310781551,-5.341970687384239,237
-97.45396217399437,4.456360751917031,89.82342534782036,53.27615116837021,105.65077091274605,52.99725155294826,-46.102237253818124,-28.29882286208972,-112.35096507487174,10.174161753235238,-25.019003256264007,-1.0602550723904942,-5.125012374939263,-24.020139281807673,-6.059845040835539,238
-86.45396217399437,8.547363360098073,83.82342534782036,53.51168405031879,105.06703615259693,49.62036438734773,-48.4175143627853,-28.298822862089683,-110.74112036152849,10.571287571842007,-26.494399034706856,-1.4427859977206852,-4.033139566674486,-26.567350436759384,-7.485133253275567,239
-75.45396217399437,13.357529236737108,77.82342534782036,53.438338533776566,102.9984669522021,46.32301820665712,-47.115846598844286,-28.298822862089807,-109.78805180023666,10.881238181019484,-27.568622446086316,-1.6681489213311624,-3.0536336229527854,-28.562231186261045,-9.22666733272869,240
-64.45396217399437,18.499417803962523,71.82342534782036,53.106031578081954,101.06340425442437,43.589948371827994,-45.68855129495991,-28.29882286208968,-109.43924964751444,11.138797242285161,-28.473071842204813,-1.9254924465486751,-2.2707752744447744,-30.134343100160795,-10.447410006281958,241
-53.45396217399437,24.84092057623361,65.82342534782036,51.775281563810545,100.04543065872558,40.89218414200415,-42.06387439144067,-28.29882286208956,-110.48876410985422,11.322069380708779,-29.028958029338863,-1.6413534899116067,-1.297398992274786,-31.077616200263595,-11.171767877187877,242
-42.45396217399437,29.53580538598532,59.82342534782036,50.64983378123622,97.51184981679285,39.00191681437969,-39.67948682816013,-28.29882286208981,-111.19014096487174,11.621769035084279,-29.478114192190375,-1.378532949423765,-0.4746706467691419,-31.90317109611093,-12.088098024067598,243
-31.45396217399437,31.904144517777997,53.82342534782036,50.36704096167999,94.66533001297216,37.41100075908769,-36.4939748760591,-28.298822862089672,-111.4497443781705,11.96152037120816,-29.80564405380396,-1.3012583736634418,0.1268915760541806,-32.671886664902026,-13.24150692068648,244
-20.45396217399437,32.22017544851783,47.82342534782036,50.5432053232509,93.55874267077445,36.23042042568144,-33.437946819854815,-28.29882286208962,-111.85079568588863,12.288915691020117,-30.072492425248715,-1.4913428620998144,0.22519242243485854,-33.07895303221207,-13.907603249118361,245
-9.45396217399437,30.827057906507754,41.82342534782036,51.20201049538918,92.64948105534694,36.03289954949567,-32.81512737804432,-28.298822862089587,-112.30820607385174,12.476142851035696,-30.00781713352958,-1.590933709296011,0.2165214369226489,-33.10092744373834,-14.180700728930574,246
1.5460378260056302,28.319351851587,35.82342534782036,52.28713986393345,92.56120196667152,36.0760638963512,-32.867279505596485,-28.2988228620896,-112.95601970561532,12.54413257815951,-29.698282821554294,-1.5964901404223835,0.14207174775633438,-32.84136634116713,-14.22386108318037,247
12.54603782600563,25.621731910462767,29.82342534782036,52.71123610616341,92.95510704493954,36.430300076044304,-33.88833963733782,-28.29882286208974,-113.56853874284117,12.536305117282144,-29.246978300331982,-1.5263828871912009,0.007492980747635452,-32.22067475958385,-13.877732311254752,248
23.54603782600563,21.197288253152646,23.82342534782036,53.86957611276795,94.68293300336211,36.88256132421264,-35.41350033177114,-28.298822862089686,-114.5741897606093,12.410083391252538,-28.477871702277753,-1.4347576124464703,-0.2808759058613734,-31.306982114758203,-13.2513301693484,249
34.54603782600563,16.306598716024443,17.82342534782036,54.778724134992686,96.24456467427774,38.12271337055007,-36.6331430438598,-28.2988228620896,-115.44719128357572,12.13055514792148,-27.467192937285997,-1.2670045581735385,-0.6519877363366963,-29.85246661617519,-12.389751152578327,250
45.54603782600563,10.731302808507925,11.823425347820361,55.80784526562379,97.91382629831341,40.14338782857931,-37.762703518539595,-28.298822862089594,-117.10140904785075,11.612737120309797,-25.839613362449285,-0.8772423775996949,-1.0483195336655649,-27.618944695651134,-11.439583982505884,251
56.54603782600563,4.6949492364784895,5.823425347820361,56.58228436040958,99.20659254522111,43.569710676363236,-40.87721680870722,-28.2988228620897,-119.5759219451768,10.808351635580733,-23.98643010123816,-0.7627031140304088,-2.0127758735182533,-24.72554376195931,-10.11127771239681,252
45.54603782600563,0.4767045894406036,-0.17657465217963875,56.337102654479835,100.98969367660145,47.195409113799286,-41.648314490081724,-28.298822862089605,-122.92533426965161,9.87323630581689,-22.06120630358166,-0.018345213567103797,-2.1400337027447867,-21.592378803247893,-9.269823954369055,253
34.54603782600563,3.4854121872426593,5.823425347820361,55.79514243753905,102.01970409804909,51.046607228054725,-41.67603668369801,-28.29882286208966,-127.10792696967593,8.835415636696919,-20.329575915036866,0.4936132351861478,-2.3370645967223025,-18.55472491919512,-8.417273656221672,254
23.54603782600563,6.358214945147442,11.823425347820361,55.81695701773594,102.93281932410818,54.963249751510254,-41.297719238516244,-28.29882286208971,-130.4870618867852,8.056371785800545,-18.65403430396513,1.006738842231569,-2.457126453919806,-15.667542367249348,-7.354162539786843,255
12.54603782600563,10.636372850279585,17.82342534782036,54.62074505936236,103.58143194120639,58.6588463351337,-41.24505006086483,-28.29882286208958,-134.82022903566045,7.417131275383239,-16.996654017897853,1.4344088313407868,-3.044832649742217,-12.788996777806558,-6.403523466483953,256
1.5460378260056302,14.68044474161456,23.82342534782036,53.816026965538335,105.388785277188,63.31208172546978,-40.845742724128414,-28.298822862089807,-141.39964919439282,6.629857493555691,-15.298434812073712,2.0330380924868567,-3.022134396220812,-10.280983169222752,-5.386119468496524,257
-9.45396217399437,22.116553009490524,29.82342534782036,51.481810745329874,104.28660127305561,66.90061086623581,-39.73596102900029,-28.298822862089636,-144.11918794622494,6.305618300041331,-13.608707258899098,2.521980235954933,-3.5628154985943237,-7.992692354899037,-4.893735519554393,258
-20.45396217399437,29.70604551086367,35.82342534782036,48.67547936443573,103.98585339731862,70.38902779079476,-35.91520359238259,-28.29882286208987,-148.62049584083775,5.712299438063478,-11.535662524743067,2.962830753482654,-3.4098914558685447,-5.961746040790629,-4.512008560042783,259
-31.45396217399437,38.32359914468612,41.82342534782036,43.371124326555886,103.63945086685186,74.1989294966546,-35.904447303709055,-28.298822862089622,-149.35782839462706,5.241644304866361,-9.598996963908045,3.142315416196001,-4.721716782576798,-4.070954655060965,-3.794302966191194,260
-42.45396217399437,45.225800683166824,47.82342534782036,37.46309274382446,103.52755797648857,77.8636623351348,-32.132228060909526,-28.298822862089583,-150.27603655947104,4.422813501382674,-7.4257860403777745,3.2875748926596287,-4.496201728670859,-2.3586755873412466,-3.7719871508930383,261
-53.45396217399437,51.887003558711875,49.592893666041164,29.808538558667813,102.06705248672192,80.72763676382608,-28.07172477401646,-28.29882286208987,-148.16757279550666,3.7435213043194926,-5.439458048775798,3.298704938762979,-4.129574223842466,-1.206500718879449,-4.029507307635676,262
-64.45396217399437,61.29466534343436,43.592893666041164,28.298822862089647,100.68925661381128,83.06858083978409,-22.07172477401646,-28.29882286208961,-146.52721265200788,3.046740682895495,-3.5707369452359994,3.077975552523944,-3.412604214551626,-0.2528075717576573,-4.48213332860056,263
-75.45396217399437,69.6252990715676,37.592893666041164,28.29882286208972,100.42437301504711,85.08190284098063,-18.697459827175443,-28.298822862089718,-144.0263625071587,2.6639631474236287,-2.1023932834882424,2.9505710317001057,-3.7985229758151577,0.5041816841890058,-4.075007558719596,264
-86.45396217399437,76.25454686780388,31.592893666041164,28.29882286208962,99.3315347722238,86.49986205905881,-15.569976868828878,-28.2988228620897,-143.15851389119538,2.2767143802867302,-0.9404472612074861,2.832840283397127,-3.701626293441554,0.888260194380146,-3.95637881908088,265
-97.45396217399437,80.95073500528193,27.516644509817553,28.298822862089697,99.64183963562284,87.9034422725293,-15.905756889038793,-28.29882286208969,-143.20592058437396,2.114254987445665,-0.2385234088368557,2.9663252573367878,-4.294269905165047,1.1109790482790285,-4.044318937392888,266
-100.9480751626912,84.68245410065352,27.065933901129327,28.298822862089697,100.96393080268717,88.80200314648383,-15.559105959125612,-28.29882286208966,-146.5595658737566,1.8870500990325993,0.5910519889063629,3.079147761157431,-4.029114724802613,1.3105073583060556,-4.00252788485332,267
-101.62041534819653,86.53529478523313,25.965885652144443,28.29882286208972,100.44556802516307,88.9217161552929,-14.675416834376486,-28.298822862089825,-153.8221140277941,1.6852839083944533,1.35927299837732,3.1755820040808853,-3.1753376023906723,1.5884140007175616,-4.040566122475674,268
-102.47151028120571,86.27682337088466,26.394238162432938,28.2988228620899,100.26875380339615,88.05544801212208,-14.853238922014038,-28.29882286208968,-163.56484443330575,1.644642974179303,2.1364827607574886,3.4767618893067436,-2.9408845474422813,2.2581156514370293,-4.024077814701502,269
-102.82399949596035,84.60237072942772,29.337930897875463,28.2988228620898,98.68758573986742,85.72317390267261,-15.57491652622391,-28.298822862089814,-171.35020781381414,1.7091993188046375,3.006114935050749,3.7385984484111505,-2.932645964300152,3.297605834347854,-4.039812863149751,270
-102.55122227677151,82.00402596225422,32.098330472763244,28.298822862089697,96.93015552630705,81.95767060017667,-21.57491652622391,-28.298822862089708,-179.45338434738906,1.7800888141952136,4.067934306602302,3.9228724578698206,-3.233286881869275,4.3996992810581155,-4.146376388025355,271
-102.13512363946207,78.45525621920198,35.013164930920624,28.298822862089647,94.39410680039089,74.51587891872431,-27.57491652622391,-28.298822862089708,-168.45338434738906,1.9522402684209104,5.644123935729007,4.137836643354715,-3.5970901410289846,5.909742801813108,-4.585074051621925,272
-101.92185046333769,74.6483212049177,38.78934278272283,28.298822862089825,93.6798735359767,65.14965705015578,-33.57491652622391,-28.29882286208982,-157.45338434738906,2.4539168147913317,8.102795431408843,4.33911522032866,-3.2778268762369613,8.012407422279054,-5.03325977739072,273
-101.97691543948675,71.08895274680583,40.26645636141439,28.298822862089697,95.85617938455391,58.32780757074371,-39.57491652622391,-38.226576659894434,-146.45338434738906,3.1534952123951623,10.906695686713409,4.384112495629952,-2.8800725131191625,10.370010870627912,-5.3760109665501705,274
-102.77525232538848,68.13801031361115,43.17088529923058,28.29882286208972,101.69479232293165,53.161004918595744,-45.57491652622391,-44.162713826220255,-135.45338434738906,4.347662089358118,13.676465068613945,4.095123050195377,-1.16890437019586,12.32643919844532,-5.267879419351568,275
-102.50754385010197,64.52289386460697,43.1935020093581,28.29882286208985,103.45864181170948,45.20285005912998,-51.57491652622391,-51.66874332201375,-124.45338434738906,5.431741851228624,16.60095907640469,3.548271452723592,0.2885107097359284,14.209203756474663,-5.765076650841647,276
-103.82981719974981,62.00596128413527,48.61698935057917,28.29882286208972,104.61634159452262,38.53448007232197,-57.57491652622391,-55.444588429986254,-113.45338434738906,6.235420794662885,19.225134953398353,2.9186998855450135,1.5569221306280332,16.403464228390764,-6.1695767774622405,277
-104.60750019738977,58.96980913028601,51.28156188262449,28.29882286208985,107.01870659513291,28.925621371429344,-63.57491652622391,-58.352480292312805,-102.45338434738906,7.108547969379858,21.96580594427719,2.0282330724969513,2.7418087827905966,18.221730039231296,-6.227408146177355,278
-105.76743097935385,55.58046875793165,53.76814583516474,28.29882286208962,114.38981752226812,21.2520933424015,-69.57491652622392,-59.26556080033428,-91.45338434738906,8.014008896799535,24.264731436677376,1.2030060292910816,3.2909131668935787,20.405518253010793,-6.606818504029891,279
-106.16139082061527,52.85285964548426,58.04940754407065,28.29882286208972,121.84821524177447,14.842629714714688,-75.57491652622392,-59.16971694653342,-80.45338434738906,8.838676188201198,26.41112789093506,0.46436167206638346,3.5008963539275144,22.52569664985959,-7.5601516088887175,280
-107.1988394293352,50.07572062200067,59.79210954261913,28.298822862089594,132.84821524177448,10.235084313356085,-81.57491652622392,-58.411964115808296,-69.45338434738906,9.648496331900619,28.310444109847502,-0.06941290031552871,3.3412587943360053,24.40797360295244,-8.07985396382318,281
-107.50321482116581,47.55473010072575,60.26478082262272,28.29882286208972,121.84821524177448,7.203713556298616,-75.57491652622392,-57.63561039344115,-58.45338434738906,10.259547209746984,29.935712504229095,-0.2596736864456199,2.6285951956994147,26.14510376642192,-8.47073627166925,282
-107.39205699146142,44.92372032763185,60.327840348638226,28.29882286208962,110.84821524177448,9.87110066781783,-69.57491652622392,-56.64795082972307,-47.45338434738906,10.672251382096718,31.079034626617926,-0.21186714658071257,1.8116883230662828,27.685611671771127,-9.193207555798633,283
-107.3888725495211,42.05825907469661,57.85992155921452,28.298822862089697,99.84821524177448,14.237872077303038,-63.574916526223916,-55.61607355754529,-36.45338434738906,11.01338566180491,31.900401608628638,0.01732935697654895,0.8069481847493473,28.98879446226973,-10.1446891196653,284
-106.67766913041628,39.87945363144724,56.87371495563501,28.29882286208985,88.84821524177448,20.18508361108179,-57.574916526223916,-53.89840303779868,-25.45338434738906,11.133279961864119,32.30554315498421,0.4281364751768105,-0.18771527115881473,29.706452868669526,-10.719974356285755,285
-105.41634457045338,38.199036743152455,55.11377481751053,28.29882286208972,77.84821524177448,25.504923379345207,-51.574916526223916,-51.88193746248632,-14.453384347389061,11.157644410112644,32.35581629635171,1.0687647040183184,-1.3269056095739826,30.12480799325564,-11.2989887422551,286
-103.57004512626095,36.52419481894852,50.56546039772279,28.29882286208985,66.84821524177448,29.388801384695032,-45.574916526223916,-50.53339224191058,-3.4533843473890613,11.149763993013112,32.22089764785675,1.6325726423869136,-2.342093794166608,30.37340287502935,-12.095772562041434,287
-101.50460551295123,35.59342331747086,48.45882889243633,28.298822862089697,55.84821524177448,32.323140871758,-39.574916526223916,-49.45636006023579,7.546615652610939,11.076425428332332,32.01784908802129,1.9389740497103602,-3.0213688362595454,30.49746151888726,-12.747199081436259,288
-100.18238084103811,35.38154286842144,47.24175173975391,28.298822862089697,44.84821524177448,33.08851039424967,-33.574916526223916,-49.21600370966754,18.54661565261094,11.039884680687708,31.8461283343203,2.000931360765096,-3.20648685019776,30.346036783508854,-13.022961156041625,289
-101.02851363152315,35.33926967892603,45.50687140853939,28.298822862089697,33.84821524177448,31.798882273757226,-27.574916526223916,-49.794587249912404,29.54661565261094,10.993199568374848,31.526369067331615,1.987850772771624,-3.1305464422935048,29.898767074767623,-12.836352580118534,290
-101.38543298035705,35.95134721942091,45.58545151208787,28.298822862089697,22.848215241774483,30.402080478847846,-21.574916526223916,-50.571567901248756,40.54661565261094,10.87217801638507,31.01728620891416,2.008513133687212,-2.9745122454391195,29.096418853388307,-12.293591268805143,291
-101.79699327066692,36.913181563551554,46.08643131167868,28.29882286208962,11.848215241774483,27.347063646082603,-15.574916526223916,-51.7718747435014,51.54661565261094,10.636680895179229,30.42533677110349,1.7938055588534798,-2.502754985094668,28.06903657040947,-11.974514145993991,292
-102.79812572772794,38.34878215620521,46.88890390070878,28.298822862089697,0.8482152417744828,22.15458746134642,-9.574916526223916,-53.73942993154526,62.54661565261094,10.259702974519781,29.342224713175806,1.7340086232720193,-2.0553366638957407,26.628683237148774,-11.582405524431254,293
-103.51172930957432,40.55128237363262,47.46970735152685,28.298822862089697,-10.151784758225517,16.075618133774377,-3.574916526223916,-55.76748915359754,73.54661565261094,9.784368939631776,27.87724941901464,1.5634398607235933,-1.226657052632827,24.43259167970775,-10.880037407692962,294
-103.72898313349359,43.96935083315767,49.23689226038378,28.298822862089825,-21.151784758225517,10.734068742178234,2.425083473776084,-56.97869525606709,84.54661565261094,9.004947497555714,26.01799098814619,1.89747611926013,-1.0577003799845905,21.666714248944693,-10.435696406516758,295
-104.31614535089356,48.51875781500081,49.02275805626594,28.298822862089747,-32.15178475822552,6.14103003388927,8.425083473776084,-57.98233325481988,95.54661565261094,8.134983254550312,24.305980255269116,1.7949457422632609,-0.13428300104033558,18.540068328470568,-9.271380965865143,296
-104.52692424108558,52.16637736704355,46.23898377564126,28.298822862089697,-43.15178475822552,2.9243709971568412,14.425083473776084,-58.15671108346141,106.54661565261094,7.342159824213076,22.739864668860168,1.767114014595087,0.7548078648648187,15.360017471075125,-8.172936277847299,297
-104.1784956465279,56.43829106952338,44.40871592146368,28.298822862089697,-32.15178475822552,1.7324519479638558,8.425083473776084,-58.58858596555533,117.54661565261094,6.700879956679557,21.01136771009459,2.132867576125645,0.6006740321041617,12.592536785926592,-7.18806216135292,298
-104.23109426191235,60.067709628446224,45.8815773658802,28.29882286208985,-21.151784758225517,5.6188194902017115,2.425083473776084,-58.67172333493444,128.54661565261094,6.327418001677941,19.441942148177343,2.431428582695924,0.8908508337131111,10.009111522018534,-6.306256356909597,299
-105.93414021860116,64.43081145832613,45.03303178080895,28.29882286208985,-10.151784758225517,12.279363791195443,-3.574916526223916,-58.451064176847424,139.54661565261094,5.699753079214378,17.627659707744648,2.768273213445914,0.8527635904965988,7.640720048318713,-5.056146930375957,300
-105.34033144464863,68.48200310432435,45.44976547853604,28.29882286208962,0.8482152417744828,21.891327176687643,-9.574916526223916,-56.599167058072105,150.54661565261094,5.33895853920628,15.546503680809378,3.263228056840193,0.42175941757748603,5.340798114468305,-4.64540003048834,301
-105.10982885899176,72.05090256772478,41.917639133526954,28.2988228620899,11.848215241774483,31.927901108689827,-15.574916526223916,-53.966498826678176,161.54661565261094,4.8715005666930455,13.368435650955183,3.4707631836244413,0.5775580134798095,3.483446525735843,-4.324630678430339,302
-105.67803472476658,75.77855206077287,41.19126503427694,28.29882286208957,22.848215241774483,42.61270281879945,-21.574916526223916,-47.89896821161397,169.7424082383796,4.407913569590879,11.05254025871753,3.5483298564156223,1.0776598150775265,1.8207116234740417,-3.2943687479117827,303
-105.3667617132872,79.15599612991805,39.6982358981467,28.29882286208972,33.84821524177448,49.15920182852225,-27.574916526223916,-41.73394720487665,173.40864332790684,3.6953466561240993,8.904301549625124,3.5747325083902446,0.7336552422953738,-0.08312887513982603,-3.28881442038188,304
-104.27147483019601,81.51125108100544,33.6982358981467,28.29882286208972,44.84821524177448,54.41269028544069,-33.574916526223916,-33.4851123149693,175.6882672987269,2.9907333296490632,6.683727055913939,3.3754486900291463,0.2731192910624658,-2.074329687316832,-3.452893612885141,305
-102.56762102149206,83.88164417767655,28.352180465238728,28.298822862089697,55.84821524177448,61.31441378736717,-37.93218180190513,-28.298822862089686,172.97964989617614,2.370069805227897,4.68547232309633,3.187054424297671,1.2737145841607322,-3.8715251136873676,-3.1753560591262238,306
-102.20391708639022,85.91168308108655,22.476725508839824,28.298822862089697,66.84821524177448,68.02137303289412,-32.51989990537093,-28.298822862089676,179.56435090249565,1.8671920796136365,2.8486531100335846,3.0844443156000687,0.9474504068492849,-5.1877278454624935,-3.4010536740538817,307
-101.7687286898333,87.94751198186862,19.955876471231015,28.298822862089594,77.84821524177448,74.41584749081883,-27.497905039062253,-28.298822862089686,168.56435090249565,1.46174982619837,1.5923955648340353,2.932158383750695,1.5233078006656111,-5.886844136052273,-3.5336977683835973,308
-101.49987077378972,88.77170715743317,15.62734443953149,28.29882286208985,88.84821524177448,79.0011422389177,-21.497905039062253,-28.298822862089835,157.56435090249565,1.1636651580677841,0.9273704135465433,2.9348351808355044,2.40878609408703,-6.2018129984021115,-3.7249839603997525,309
-102.24517621474853,90.43261029989624,18.371483078608517,28.29882286208972,99.84821524177448,83.31564919827746,-21.696463206094055,-28.29882286208972,168.56435090249565,0.9890520428081863,0.5882103844146847,3.0898180121037577,3.016250307208173,-6.125282733336697,-3.8601296907968994,310
-102.17832263813213,89.84723404371879,16.09995804373965,28.298822862089825,100.95508968099784,83.62920476086464,-19.061842703596994,-28.2988228620896,172.9101148625329,1.0292699183821334,0.5997811316559845,3.263031779523662,3.1017463707212776,-5.869116845793321,-3.7921381234539537,311
-101.72412342391328,88.92996654939469,17.91235635129996,28.298822862089594,97.55981440300296,81.87562830506339,-19.85620461476295,-28.298822862089658,161.9101148625329,1.0812537033826974,0.996639786979269,3.302542360909841,2.2292880765558114,-5.104429330040602,-3.909562638865121,312
-102.04782398870516,87.02100048073622,20.54625119102692,28.298822862089672,98.60838921571462,78.29471715185676,-24.339802151843028,-28.298822862089786,169.01450150285902,1.287711673657846,1.9948616413721205,3.584211676156502,1.803879281533054,-3.992639815971201,-3.902006446711133,313
-101.82404711547188,84.27574756592641,22.760339263188204,28.298822862089697,94.90057765670542,70.87475031314881,-30.339802151843028,-28.29882286208968,165.79402380272225,1.3624207493380402,3.428309607690851,3.5547997984965365,0.8632943710412427,-2.624950584422477,-3.9875679649035907,314
-102.14915135320248,81.09271296434687,22.982220385601973,28.298822862089697,89.68371427236693,60.41593165387729,-36.33980215184303,-28.29882286208985,156.0504645029494,1.5973020690431203,5.473805516255996,3.5961394641995184,0.21746448434564378,-0.8832798959909278,-4.295642789284995,315
-102.76419945398153,79.00445380216463,26.185360529303658,28.29882286208962,92.1181569949226,54.34197417885462,-42.33980215184303,-35.88698845602915,145.67293964650915,2.155978455044012,7.801537538944104,3.741899338167234,-0.3165962952201644,1.1503304565259118,-4.379201169361803,316
-102.97583989685222,76.54771489765021,29.741100289192627,28.298822862089647,94.55969118973738,48.43228329140434,-48.33980215184303,-43.30016057815945,141.01255067725032,2.9502140752883865,10.502243188327792,3.9966172418970993,-0.10645153667277404,3.4654240248447667,-4.628166392733331,317
-103.15939338905639,73.53025962487582,31.574098566265285,28.298822862089697,95.84200818877609,42.514402561996995,-54.33980215184303,-48.99993189564865,137.596277977579,3.7446202049084008,13.177294704239847,4.061955901184048,0.6154120671892667,6.044758627068392,-5.1537042940906845,318
-103.0807850431694,70.42608919069596,33.458758428426876,28.29882286208962,95.17223858010344,34.46878285811183,-60.33980215184303,-54.11862338370578,134.47257820254606,4.532867138540317,15.887900095900182,3.846050855197002,1.470387200661627,8.456602837544086,-5.518959843233941,319
-102.41770532150863,67.14574812600407,36.00377736208653,28.29882286208985,99.57437320254336,27.852187558903527,-66.33980215184303,-57.29641725086231,130.08639083476066,5.704017968755005,18.822975106541268,3.0809720217531114,3.2999636866741238,10.988479376635707,-5.605820833420678,320
-103.00217698387718,64.05954707234018,38.54297233538335,28.298822862089697,102.65256607977732,19.589067831056752,-72.33980215184303,-58.86376992134173,127.01500267791327,6.6731140086937435,21.29264171568724,2.1648716877763032,4.556991505576018,13.245339322337523,-5.8681530848441765,321
-104.08044789131782,60.939469514485126,43.080537201185784,28.29882286208962,109.42051245711578,13.217159968006529,-78.33980215184303,-59.07224936746383,124.85005481149246,7.487577723481286,23.52351035345907,1.4441200093931759,4.934531488129047,15.837296858571268,-6.22690650909498,322
-104.62209534185996,57.893000377260584,46.57210177497575,28.29882286208962,118.03383555062521,7.496318361929833,-84.33980215184303,-58.57123867300414,122.10284277755649,8.165166640220642,25.569048374880683,0.969663094342472,4.414780798226498,18.387090179961387,-6.925311472914055,323
-105.68417238927469,54.71620514039139,50.419117230241945,28.298822862089697,129.0338355506252,5.1510973376436615,-90.33980215184303,-57.67688678867476,120.5065122570286,8.971041920595823,27.262876854440126,0.8097872231563019,3.687678081281399,20.667217915656384,-7.984360620923348,324
-106.25179541889693,51.740752147445455,51.71151507665127,28.298822862089697,118.03383555062521,5.191457414514458,-84.33980215184303,-56.87676341222658,119.5773114006835,9.581396450864478,28.6863584443138,0.3851818189757874,3.4740860459696057,22.57028988360777,-8.611968794606367,325
-106.71365097038895,48.81720266780884,52.518364811270885,28.29882286208972,107.03383555062521,8.560319469572732,-78.33980215184303,-55.99564731575401,118.75717909201987,10.137222763845562,30.04119338909315,0.12569839234344624,2.8541150268490973,24.391985119325184,-9.261399352654783,326
-106.35593880604046,45.68858058840775,52.64083933838493,28.29882286208962,96.03383555062521,12.758414327328397,-72.33980215184303,-54.92299850016216,118.49800118246777,10.609814920930223,31.224583547568812,0.03680778971820923,2.119113814946382,26.08126043465202,-10.17723681102257,327
-104.89642741673207,42.72716163714477,51.751551761886496,28.298822862089697,85.03383555062521,18.02498834928017,-66.33980215184303,-53.699274790798775,118.31357364949713,10.92097532079415,32.107997052823514,-0.08282744748479785,1.3668102320028879,27.500741411508965,-11.258368113358078,328
-103.50791495156311,40.26244861119923,50.39367170882499,28.298822862089697,74.03383555062521,21.76227866311407,-60.33980215184303,-52.665438197174275,118.4457941559846,11.054960357843337,32.518560638994764,0.18400301575021152,0.30266963480579306,28.583043853144357,-12.309207532596735,329
-102.33976277659197,38.33947243399684,49.30092865344256,28.298822862089697,63.03383555062521,26.150275849578286,-54.33980215184303,-51.16360970637301,118.81890807970943,11.194375121868411,32.89832551816,0.25073924127861413,-0.2957507560337048,29.191735634218652,-12.780811179825996,330
-101.60451689682807,36.748526720311084,46.043499805286274,28.298822862089697,52.03383555062521,28.625868189071404,-48.33980215184303,-50.38732694646969,119.46341344880474,11.208141181583228,32.923368414139816,0.39207724790367343,-0.8098227364246701,29.492270091244666,-13.127126734859498,331
-99.62190636358706,35.68123391119647,44.04398887534926,28.29882286208985,41.03383555062521,31.32961811393948,-42.33980215184303,-49.25738549253323,120.07592500952421,11.150105978269515,32.8574341425991,0.6852355835843389,-1.4790221286519905,29.653484537017043,-13.726434039318413,332
-98.32495538189826,35.06028764482925,42.70863072727733,28.298822862089594,30.033835550625213,32.97523739941694,-36.33980215184303,-48.524242934553484,120.7211146303551,11.107098582196816,32.724621428094956,0.8395666396161366,-1.8477652934218791,29.62828764663177,-13.954971462517168,333
-97.8712161248845,34.93460063109436,42.16589439252019,28.298822862089825,19.033835550625213,32.75534322298643,-30.33980215184303,-48.718411446649704,121.5159803390245,11.06988175520529,32.50965823171167,0.859443132452758,-1.8975225305983063,29.36549107206104,-13.760907127459554,334
-98.14381232510446,34.972567459808026,39.7221062912983,28.298822862089697,8.033835550625213,32.41877686055351,-24.33980215184303,-49.00342312324216,122.42410252608445,10.928152465034932,32.08144393419609,0.9498909107635778,-1.9532468211338885,28.781608665032675,-13.446239665139519,335
-98.2910074716073,36.065181244290656,41.83959629277339,28.29882286208957,-2.966164449374787,30.26461700784957,-18.33980215184303,-50.11149715775331,123.79576717799041,10.713392875079519,31.398450198484053,1.2163558424253913,-2.065712192583107,27.980376444612617,-13.08429067053695,336
-98.98777888206918,36.875035663550044,42.16264176942107,28.29882286208985,-13.966164449374787,27.250491731093078,-12.339802151843031,-51.40570329354836,124.95974233973786,10.366522722501447,30.61624421918681,1.3064025432433495,-1.9755427319811658,27.060691721997483,-12.621327824134971,337
-100.70587724666854,38.88583545768259,43.0085313495744,28.29882286208985,-24.966164449374787,22.007059548841152,-6.339802151843031,-54.00530567524607,127.12713847950918,9.900047017815282,29.248886323600896,1.4712973763160153,-1.7073819508115655,25.307737798647494,-11.594786838434656,338
-102.54000456863497,41.69772232001542,43.78799951375393,28.29882286208962,-35.96616444937479,15.26151432898762,-0.3398021518430312,-55.970802579681504,130.20816555575618,9.30171588040104,27.386350208967425,1.753227067452547,-1.4177566662408811,22.792190988253076,-10.745851174829255,339
-104.50447193127447,46.291343472168805,46.126296304342,28.298822862089697,-46.96616444937479,8.383898799630103,5.660197848156969,-58.15430006620256,135.25244526678722,8.36337336686092,25.097558414222668,2.1570486372730726,-1.456654770557667,20.013818468637126,-9.745364225812772,340
-105.29641708438915,50.14578235373846,45.39380216955504,28.29882286208985,-56.64937005665834,4.733553904400941,11.660197848156969,-58.914237152064175,139.75141380279197,7.568434152240968,23.35296603940456,2.3834453248002805,-1.2758915393090935,17.10655285458026,-8.655061349884177,341
-105.27852975695575,54.372740632248515,43.790769307616316,28.298822862089672,-45.64937005665834,4.199140470510957,5.660197848156969,-59.59053829696662,145.60571895436607,6.781706415616122,21.356380973119837,2.589145185412377,-1.2561305840792507,14.118647944449416,-7.5366477280798,342
-106.03984705283848,57.71619727651476,43.16873837782248,28.298822862089924,-34.64937005665834,6.719484440923613,-0.3398021518430312,-59.66034325496456,150.56494701448855,6.3316400738772725,19.674802833320456,2.791306802908591,-0.9374633093102823,11.5291885662507,-6.523617979601748,343
-106.76262266263724,62.611195967149484,44.25326800117074,28.29882286208985,-23.64937005665834,13.195783005479573,-6.339802151843031,-59.27545660252456,157.1253436582793,5.682503868508878,17.698249075622766,3.009572395681921,-0.9643478412730337,9.045909455248742,-5.732995974528218,344
-107.49800293885407,66.0652344068819,43.84696911473708,28.298822862089697,-12.649370056658341,22.147156271097224,-12.339802151843031,-57.39751042992465,162.38108057118632,5.277159523608855,15.755918119328003,3.241978790124983,-0.19078172737847066,6.792721919495286,-4.719118636932067,345
-106.7617479747028,70.07395611605952,41.88670146496511,28.29882286208972,-1.6493700566583414,32.21735815730211,-18.33980215184303,-54.36735520283255,168.7912403719156,4.682510798001414,13.47502686180291,3.4566404665049166,-0.408459064359851,4.923025159292321,-4.079651331225464,346
