JMW9912/AVATAR/Dynamixel/dynamixel_control/data/csv/poppy/0429_2121_13_16_3DoF_pos_bvh_motor_degree.csv
theta1,theta2,theta3,theta4,theta5,theta6,theta7,theta8,theta9,theta10,theta11,theta12,theta13,theta14,theta15,frame
-94.43494790221065,24.917594212411334,94.45756007044649,28.298822862089697,-155.7001724463984,6.815183633119301,-45.342755250760135,-28.29882286208985,9.061519176957281,4.529334041110131,0.0,0.0,0.16486564300239123,-1.380775650506828,1.249808812688048,0
-91.68494790221065,27.667594212411334,92.95756007044649,31.048822862089697,-152.9501724463984,9.5651836331193,-43.842755250760135,-31.04882286208985,6.311519176957281,7.279334041110131,0.0,0.0,0.16486564300239223,-1.380775650506828,1.2498088126880473,1
-88.93494790221065,30.417594212411334,91.45756007044649,33.79882286208969,-150.2001724463984,12.3151836331193,-42.342755250760135,-33.79882286208985,9.061519176957281,5.599172207444953,0.0,0.0,-0.835134356997608,-2.3807756505068283,2.2498088126880473,2
-86.18494790221065,33.16759421241133,89.95756007044649,36.54882286208969,-147.4501724463984,15.0651836331193,-40.842755250760135,-36.54882286208985,11.811519176957281,5.8374957036342,0.0,0.0,-1.8351343569976082,-3.3807756505068287,3.2498088126880473,3
-83.43494790221065,35.91759421241133,88.45756007044649,39.29882286208969,-144.7001724463984,17.8151836331193,-39.342755250760135,-39.29882286208985,14.561519176957281,5.952530982838052,0.0,0.0,-2.8351343569976084,-3.82221122510141,4.249808812688047,4
-80.68494790221065,38.66759421241133,86.95756007044649,42.04882286208969,-141.9501724463984,20.5651836331193,-37.842755250760135,-42.04882286208985,17.311519176957283,5.853315933642408,0.0,0.0,-3.8351343569976084,-3.806552324085784,5.249808812688047,5
-77.93494790221065,41.41759421241133,85.45756007044649,44.79882286208969,-139.2001724463984,23.3151836331193,-36.342755250760135,-44.79882286208985,20.061519176957283,5.677198375184863,0.0,0.0,-4.835134356997608,-3.8697466236565345,6.249808812688047,6
-75.18494790221065,44.16759421241133,83.95756007044649,47.54882286208969,-136.4501724463984,24.56864484439758,-34.842755250760135,-47.54882286208985,22.811519176957283,5.498800430678555,0.0,0.0,-5.835134356997608,-3.919538805045796,7.249808812688047,7
-72.43494790221065,46.91759421241133,82.45756007044649,50.29882286208969,-133.7001724463984,22.9743818004766,-33.342755250760135,-50.29882286208985,25.561519176957283,5.317857925768122,0.0,0.0,-6.835134356997608,-3.909429938494265,8.249808812688048,8
-69.68494790221065,49.66759421241133,80.95756007044649,53.04882286208969,-130.9501724463984,22.721478844638284,-31.842755250760135,-53.04882286208985,28.311519176957283,5.119002173150807,0.0,0.0,-7.835134356997608,-3.8735861137577747,9.249808812688048,9
-66.93494790221065,52.41759421241133,79.45756007044649,55.79882286208969,-128.2001724463984,22.355261336835216,-30.342755250760135,-55.79882286208985,31.061519176957283,4.928627151927301,0.0,0.0,-8.835134356997608,-3.843065971909979,10.249808812688048,10
-64.18494790221065,53.656741569115475,77.95756007044649,58.54882286208969,-125.4501724463984,21.462560883468257,-28.842755250760135,-58.54882286208985,33.81151917695728,4.681143230249925,0.0,0.0,-9.835134356997608,-3.7408650051731027,11.249808812688048,11
-61.43494790221065,53.51592324497523,76.45756007044649,61.29882286208969,-122.7001724463984,20.567903682694126,-27.342755250760135,-61.29882286208985,36.56151917695728,4.347654932555421,0.0,0.0,-10.835134356997608,-3.5578603746971713,12.249808812688048,12
-58.68494790221065,52.28470910685529,74.95756007044649,64.0488228620897,-119.9501724463984,19.542843425912583,-25.842755250760135,-64.04882286208985,39.31151917695728,4.029436886828706,0.0,0.0,-11.835134356997608,-3.3640372906043456,13.249808812688048,13
-55.93494790221065,52.37795447606386,73.45756007044649,66.7988228620897,-117.2001724463984,18.555003019305207,-24.342755250760135,-66.79882286208985,42.06151917695728,3.6954955339332227,0.0,0.0,-12.835134356997608,-3.1497401311185294,14.249808812688048,14
-53.18494790221065,51.04687231408079,71.95756007044649,69.5488228620897,-114.4501724463984,19.21500471973883,-22.842755250760135,-69.54882286208985,44.81151917695728,3.378810301956335,0.0,0.0,-13.835134356997608,-2.9582788873716437,15.249808812688048,15
-50.43494790221065,51.00720050929136,70.45756007044649,72.2988228620897,-111.7001724463984,18.54245472151336,-21.342755250760135,-72.29882286208985,47.56151917695728,3.0658528440802293,0.0,0.0,-14.835134356997608,-2.751944817551921,15.513625411134106,16
-47.68494790221065,49.71984211910461,68.95756007044649,75.0488228620897,-108.9501724463984,17.768980751135267,-19.842755250760135,-75.04882286208985,50.31151917695728,2.7842877530458203,0.0,0.0,-15.67287707034367,-2.5314287178485384,14.757923093689415,17
-44.93494790221065,49.72026181755477,67.45756007044649,77.7988228620897,-106.2001724463984,17.14499259636222,-18.342755250760135,-77.79882286208985,53.06151917695728,2.501769614179225,0.0,0.0,-15.373880455253738,-2.330844395994069,13.99911718858411,18
-42.18494790221065,48.25817977730549,65.95756007044649,80.5488228620897,-103.4501724463984,16.48058888188329,-16.842755250760135,-80.54882286208985,55.81151917695728,2.334879599720518,0.0,0.0,-15.054891340936223,-2.095140136187996,13.284218090095255,19
-39.43494790221065,48.311687854202596,64.45756007044649,83.2988228620897,-100.7001724463984,15.706145128540578,-15.342755250760135,-83.29882286208985,58.56151917695728,2.5899747387537877,0.0,0.0,-14.780675717351464,-1.9813420701538942,12.671232437818334,20
-36.68494790221065,46.69518184391736,62.95756007044649,86.0488228620897,-97.9501724463984,15.47955395862093,-13.842755250760135,-86.04882286208985,61.31151917695728,2.7632178865174355,0.0,0.0,-14.33053461862518,-2.0563260926989084,12.273224769676414,21
-33.93494790221065,44.36317612897297,61.45756007044649,88.7988228620897,-95.2001724463984,17.47657741984147,-12.342755250760135,-88.79882286208985,64.06151917695729,3.141619575186366,0.0,0.0,-13.682195531363169,-2.1060377068887863,11.582882071050681,22
-31.184947902210652,45.464945342112486,59.95756007044649,91.5488228620897,-92.4501724463984,16.647200385122886,-10.842755250760135,-91.54882286208985,66.81151917695729,3.1785915365739577,0.0,0.0,-13.73181076339154,-1.8176196279373826,11.370340522875589,23
-28.434947902210652,42.7564165110539,58.45756007044649,94.2988228620897,-89.7001724463984,17.369369046814697,-9.342755250760135,-94.29882286208985,69.56151917695729,3.3459065936340333,0.0,0.0,-12.788387838357542,-2.183245310742239,10.460421052705858,24
-25.684947902210652,42.586347900388944,56.95756007044649,97.0488228620897,-86.9501724463984,17.571091196090702,-7.842755250760135,-97.04882286208985,72.31151917695729,3.518488846243147,0.0,0.0,-12.32736854784468,-2.236251746644815,9.889379490520547,25
-22.934947902210652,42.829498791319445,55.45756007044649,99.7988228620897,-84.2001724463984,17.716982306726248,-8.16179482122019,-99.79882286208985,75.06151917695729,3.6584373457454578,0.0,0.0,-12.059923907407128,-2.2012970511624323,9.3998038062828,26
-20.184947902210652,41.30807388266492,53.95756007044649,102.5488228620897,-81.4501724463984,16.184410010861182,-9.66179482122019,-102.54882286208985,77.81151917695729,3.8192359346073106,0.0,0.0,-11.829189880884865,-2.2007955287409358,8.893484371409441,27
-17.434947902210652,41.61243602174585,52.45756007044649,105.2988228620897,-78.7001724463984,16.65217332258712,-11.16179482122019,-105.29882286208985,80.56151917695729,3.9368847442326245,0.0,0.0,-11.65868404127265,-2.1664427749702715,8.346688678737678,28
-14.684947902210652,40.3692349953202,50.95756007044649,108.0488228620897,-75.9501724463984,17.195557664571826,-12.66179482122019,-108.04882286208985,83.31151917695729,4.027216983863028,0.0,0.0,-11.553607810431615,-2.041202032198709,7.73980511138773,29
-11.934947902210652,41.0332897536395,49.45756007044649,110.7988228620897,-73.2001724463984,17.990831503936402,-14.16179482122019,-110.79882286208985,86.06151917695729,4.243238318088974,0.0,0.0,-11.427183739074856,-1.9865217863992441,7.227724224891641,30
-9.184947902210652,39.798464585306135,47.95756007044649,113.5488228620897,-70.4501724463984,17.50952596971925,-15.66179482122019,-113.54882286208985,88.81151917695729,4.483838213319967,0.0,0.0,-11.211423988060146,-1.9960450548238702,6.8063432894838805,31
-6.434947902210652,40.68974619117948,46.45756007044649,116.2988228620897,-67.7001724463984,18.974330572312457,-17.16179482122019,-116.29882286208985,91.56151917695729,4.646755944009376,0.0,0.0,-11.080014492915293,-1.8956288420783385,6.399065931594735,32
-3.684947902210652,39.8565270745649,44.95756007044649,118.9835776177817,-64.9501724463984,20.53928188614658,-18.66179482122019,-119.04882286208985,94.31151917695729,4.869134847236449,0.0,0.0,-10.966839754121438,-1.836562463752944,6.012394435908367,33
-0.9349479022106522,41.175736091449785,43.45756007044649,119.75765881317034,-62.2001724463984,20.944333633962945,-20.16179482122019,-121.79882286208985,97.06151917695729,5.059745603169881,0.0,0.0,-10.843863561258335,-1.7521091406462388,5.677760796412437,34
1.8150520977893478,40.14577226392812,41.95756007044649,120.56901028655807,-59.4501724463984,23.17250814240565,-21.66179482122019,-124.54882286208985,99.81151917695729,5.2683044869668025,0.0,0.0,-10.440767101500212,-1.8194068719334493,5.48527249160993,35
4.565052097789348,39.75149278196571,40.45756007044649,121.2117342559043,-56.7001724463984,23.78817209752944,-23.16179482122019,-127.29882286208985,102.56151917695729,5.203712512464866,0.0,0.0,-10.32770463484691,-1.7650571092279077,5.233264958833724,36
7.315052097789348,39.707753956182174,38.95756007044649,121.67608477010897,-53.9501724463984,24.41783010888334,-24.66179482122019,-130.04882286208985,105.31151917695729,5.0256832679763335,0.0,0.0,-10.32425616900488,-1.7189565880160658,4.917972967248915,37
10.065052097789348,41.54791623470402,37.45756007044649,121.9837599962295,-51.2001724463984,26.342955875423193,-26.16179482122019,-131.7282865443131,108.06151917695729,4.916014768073818,0.0,0.0,-10.307322770907193,-1.740124838272272,4.5612029372000364,38
12.815052097789348,41.63225321582599,35.95756007044649,122.2320745486393,-48.4501724463984,26.82267300760343,-27.66179482122019,-131.13773672024664,110.81151917695729,4.8145597215693545,0.0,0.0,-10.195012599937787,-1.851420099175449,4.251333193521461,39
15.565052097789348,42.02697282625286,34.45756007044649,122.40134632836146,-45.7001724463984,28.714125820493233,-29.16179482122019,-130.42909099533523,113.56151917695729,4.633483502284771,0.0,0.0,-10.145894666676504,-1.9501478278217088,3.9491568339800605,40
13.89268666021028,42.76497493517922,32.95756007044649,122.39294218578783,-42.9501724463984,29.256898620334148,-30.66179482122019,-129.6325176631699,116.31151917695729,4.513233694234769,0.0,0.0,-10.163029422249025,-2.024754348409138,3.6721280551069575,41
11.14268666021028,41.888910421189486,31.45756007044649,122.2487623232633,-40.2001724463984,30.892945723590415,-32.16179482122019,-128.63004754251895,119.06151917695729,4.347783854044295,0.0,0.0,-10.106089328871995,-2.1377011539081354,3.409473359319782,42
8.39268666021028,42.80787281413583,29.95756007044649,122.08131791063138,-37.4501724463984,31.63082562722454,-33.66179482122019,-127.43990858838954,121.81151917695729,4.116806987222103,0.0,0.0,-10.008722991448241,-2.2338293246378695,3.173567500663597,43
5.9072731086118715,44.035289375424945,28.49398483707722,121.86482416702346,-34.7001724463984,32.401859592618266,-35.16179482122019,-126.14848140333892,124.56151917695729,3.9533468918761647,0.0,0.0,-9.951159282369032,-2.2810058276537886,2.997577276199955,44
3.1572731086118715,43.81506340191106,29.08781934862777,121.45833333411781,-31.950172446398398,34.59983678524661,-35.24241238074863,-124.80132264259854,127.31151917695729,3.8407802808833034,0.0,0.0,-9.910376378404065,-2.353701382410109,2.858659728720487,45
0.4072731086118715,45.198528116122944,30.424232536552864,121.0452528401439,-29.200172446398398,35.20853009696764,-33.74241238074863,-123.28210033469941,130.0615191769573,3.677846369199609,0.0,0.0,-9.80016901176632,-2.4530145904590834,2.7338860478052287,46
-2.3427268913881285,46.61507121302207,31.706859486162372,120.73392430505686,-26.450172446398398,37.32761015293998,-32.24241238074863,-121.6073799721352,132.8115191769573,3.477997704512511,0.0,0.0,-9.67708940921509,-2.512754982108705,2.6365160689471323,47
-5.0927268913881285,46.63388845447655,32.013299335780786,119.95294248633485,-23.700172446398398,37.838749197953554,-30.742412380748632,-119.8012652773993,135.5615191769573,3.361216538673976,0.0,0.0,-9.569275166881368,-2.5552050696861976,2.603824628214183,48
-7.8427268913881285,46.77913360166532,32.33614599477203,119.12654051133124,-20.950172446398398,39.83259203117456,-29.242412380748632,-117.95451600417293,138.3115191769573,3.188932464186797,0.0,0.0,-9.456656689453167,-2.6241000804370604,2.5670496129899627,49
-10.592726891388129,48.681330311631875,33.351876138309756,118.38623788913485,-18.200172446398398,41.76473591372656,-27.742412380748632,-115.85852966138563,141.0615191769573,2.9090300705646297,0.0,0.0,-9.253348265667185,-2.746499649205769,2.5598847490990804,50
-13.342726891388129,49.20361739518115,33.65469242746889,117.62559541680713,-15.450172446398398,43.653999302177674,-26.242412380748632,-113.44963679567714,143.8115191769573,2.6857567721026485,0.0,0.0,-9.06222812847341,-2.881870204681214,2.5530956564024665,51
-16.09272689138813,49.882755444313304,33.64700283097553,116.56437368311113,-12.700172446398398,43.72919546130109,-24.742412380748632,-110.93554729594302,146.5615191769573,2.46427086657295,0.0,0.0,-8.98327224597727,-2.9925165826666937,2.5150982532822153,52
-18.84272689138813,50.700907570312445,33.446352312363686,115.28239042151763,-9.950172446398398,45.361912524168574,-23.242412380748632,-108.37444657890478,149.3115191769573,2.2746290027688327,0.0,0.0,-8.890325649602323,-3.132428517664565,2.491982257305447,53
-21.59272689138813,53.15480764834863,34.353415942700956,113.99423707287127,-7.200172446398398,46.924071959563854,-21.742412380748632,-105.68199851380842,152.0615191769573,2.1507715454208176,0.0,0.0,-8.69090573308627,-3.3462095836280232,2.5076188366207517,54
-24.34272689138813,54.20341984097506,34.24174964090788,112.53543391585339,-4.450172446398398,48.505133358877664,-20.242412380748632,-102.93199851380842,154.8115191769573,2.0421929617568275,0.0,0.0,-8.503595059723112,-3.4550981523605864,2.569032149241876,55
-27.09272689138813,53.968310841140934,32.932007521566426,110.70800478076364,-1.7001724463983976,48.46351624374783,-18.742412380748632,-100.18199851380842,157.5615191769573,1.8101024149316887,0.0,0.0,-8.363283752455667,-3.50835894813725,2.621783452437811,56
-29.84272689138813,54.85524964446135,32.34418035041704,108.59509391717452,1.0498275536016024,49.9812706141543,-17.242412380748632,-97.43199851380842,160.3115191769573,1.5609683164744936,0.0,0.0,-8.16878404057321,-3.6099690644405786,2.6628848666803897,57
-32.592726891388125,55.59098033528323,31.73085850204022,106.43598463028431,3.7998275536016024,51.45797574667095,-15.742412380748632,-94.68199851380842,163.0615191769573,1.3938160931186923,0.0,0.0,-7.894404545119156,-3.7555679697395816,2.7259015054294937,58
-35.342726891388125,57.728900325638634,32.07700764583408,104.15715915709798,6.549827553601602,52.83360417842497,-14.242412380748632,-91.93199851380842,165.8115191769573,1.4299242255989748,0.0,0.0,-7.679059547807886,-3.90633220282836,2.78125795045933,59
-38.092726891388125,58.41928936301186,30.95270120711869,101.40715915709798,9.299827553601602,54.08640747999953,-12.742412380748632,-89.18199851380842,163.0615191769573,1.4282453187671689,0.0,0.0,-7.538213634456269,-4.064235414002464,2.9517365674779947,60
-40.842726891388125,58.924925242153996,29.77915337182907,98.65715915709798,12.049827553601602,55.2719355348096,-11.242412380748632,-86.43199851380842,160.3115191769573,1.3195974498055476,0.0,0.0,-7.346800340791721,-4.242667551402539,2.98667915292862,61
-42.74406552670217,59.28072122293163,28.402954412818357,95.90715915709798,14.799827553601602,56.506339656761334,-9.742412380748632,-83.68199851380842,157.5615191769573,1.2853958351776615,0.0,0.0,-7.0242165395484975,-4.44648984033518,3.0081877349907975,62
-44.1845128091676,60.80058095870661,28.94024794398124,93.15715915709798,17.549827553601602,57.75187492859164,-8.242412380748632,-80.93199851380842,154.8115191769573,1.2474852936441796,0.0,0.0,-6.530681844086477,-4.762039373028689,3.0765220620691083,63
-45.67023123127803,61.12716335313162,27.44024794398124,90.40715915709798,20.299827553601602,58.863257883163044,-6.7424123807486325,-78.18199851380842,152.0615191769573,1.2992246654652992,0.0,0.0,-6.464930520960064,-4.826842736318852,3.144161972658342,64
-47.30629476458541,61.38072047422117,25.94024794398124,87.65715915709798,23.049827553601602,59.97934120473571,-5.2424123807486325,-75.43199851380842,149.3115191769573,1.4219848032567395,0.0,0.0,-6.278075330258516,-4.969211851520891,3.35419807182225,65
-48.18459832619496,62.80024340684408,24.883539689424566,84.90715915709798,25.799827553601602,61.199889450630764,-3.7424123807486325,-72.68199851380842,146.5615191769573,1.4622777076095579,0.0,0.0,-6.057285937703467,-5.1186065123966555,3.5451284945091053,66
-49.603001483856055,62.796363826101796,23.383539689424566,82.15715915709798,28.549827553601602,62.3031706843667,-2.2424123807486325,-69.93199851380842,143.8115191769573,1.4802944479836477,0.0,0.0,-5.826793369619307,-5.218842740054702,3.6445883662540544,67
-50.991528059461345,62.79210729468153,21.883539689424566,79.40715915709798,31.299827553601602,64.56362750693846,-0.7424123807486325,-67.18199851380842,141.0615191769573,1.454656835819313,0.0,0.0,-5.599488607722374,-5.298389376317294,3.718276989092212,68
-52.14097012777275,62.86809517667553,20.383539689424566,76.65715915709798,34.0498275536016,65.56044938383806,0.7575876192513675,-64.43199851380842,138.3115191769573,1.365409797922272,0.0,0.0,-5.457659252905661,-5.376542625543199,3.7416311933003943,69
-52.95221887576164,64.22878270645535,18.883539689424566,73.90715915709798,36.7998275536016,66.54481827481456,2.2575876192513675,-61.68199851380842,135.5615191769573,1.2558758000071557,0.0,0.0,-5.2499594663327,-5.569788993533006,3.7751053506125354,70
-54.37346044880973,64.44270925912397,17.383539689424566,71.15715915709798,39.5498275536016,67.63293081199495,3.7575876192513675,-58.93199851380842,132.8115191769573,1.16340457417236,0.0,0.0,-4.948952228249892,-5.852380326539116,3.766919873353648,71
-55.598417817023304,64.68208113260151,15.883539689424566,68.40715915709798,42.2998275536016,67.76300397184262,5.2575876192513675,-56.18199851380842,130.0615191769573,1.0549617695411428,0.0,0.0,-4.6828607150590775,-6.1030235267015565,3.6609609698756973,72
-56.58614413206053,66.0208485414378,14.701168736412008,65.65715915709798,45.0498275536016,68.89616115003103,6.7575876192513675,-53.43199851380842,127.31151917695729,0.9592424073532522,0.0,0.0,-4.367590909146561,-6.344126499933813,3.5587286028369562,73
-58.09364696784061,66.35650630544342,13.201168736412008,62.90715915709798,47.7998275536016,70.01967594340225,8.257587619251368,-50.68199851380842,124.56151917695729,0.8380178816245115,0.0,0.0,-3.9308742214525285,-6.691630191485102,3.442193211354449,74
-59.46017349696995,66.81651431394357,11.701168736412008,60.15715915709798,50.5498275536016,71.10143755206806,9.757587619251368,-47.93199851380842,121.81151917695729,0.7297560965579074,0.0,0.0,-3.5091667377087714,-7.0931769714645565,3.298923517996151,75
-60.33949457189987,68.35543194993726,11.103510803120319,57.40715915709798,53.2998275536016,71.28856900356942,11.257587619251368,-45.18199851380842,119.06151917695729,0.6553937094398578,0.0,0.0,-3.1579757725711652,-7.510915367130405,3.166999528938281,76
-61.28238730617936,68.88295244474989,9.603510803120319,54.65715915709798,56.0498275536016,72.19774910112659,12.757587619251368,-44.08491171096831,116.31151917695729,0.7591548038136632,0.0,0.0,-2.818781392344663,-7.90344845036667,2.9548843549197534,77
-62.06638703841676,69.94947346753656,8.103510803120319,51.90715915709798,58.7998275536016,73.11041437414237,14.257587619251368,-43.277273203291415,113.56151917695729,0.9833822812188476,0.0,0.0,-2.5015965975453973,-8.227136905372276,2.770509784175331,78
-62.69702729584804,71.09146667309717,7.067589880988,49.15715915709798,60.088686107691366,73.27410149792027,15.757587619251368,-42.77165250440905,110.81151917695729,1.2546018353430934,0.0,0.0,-2.248531761023735,-8.48685946095876,2.6155153285579043,79
-63.2332714828988,71.40318756989048,5.567589880988,46.40715915709798,61.26445868139351,74.23289765422462,17.257587619251368,-42.367497082536026,108.06151917695729,1.5852315514444948,0.0,0.0,-1.999915624298781,-8.690510314982163,2.4406396105134975,80
-63.475696574478825,72.57193658345501,4.067589880988,43.65715915709798,62.42702492585771,75.20225471449814,18.757587619251368,-41.952894966238276,105.31151917695729,1.8840622843987782,0.0,0.0,-1.7693472311033462,-8.866421916963091,2.244754976209314,81
-63.6532269642224,73.05230448665046,2.567589880988,40.90715915709798,63.285222042992366,75.40756263553135,20.257587619251368,-41.65260252728779,102.56151917695729,2.0998264051068127,0.0,0.0,-1.575999500247572,-9.067689012733762,1.995030253488173,82
-63.62164455041739,74.31953564962886,1.0675898809879998,38.15715915709798,64.57644579799295,76.26874729836294,21.757587619251368,-41.633048616737504,99.81151917695729,2.255695559325616,0.0,0.0,-1.4673382361632203,-9.243911318156615,1.7607259266549793,83
-63.41697900591827,74.96471826067871,-0.4324101190120002,35.40715915709798,65.57030263727596,76.40787192505317,23.257587619251368,-41.5483051572841,97.06151917695729,2.5734346272944477,0.0,0.0,-1.3850416265060106,-9.36578816212487,1.4734634179302197,84
-63.1421178422106,75.70565485655708,-1.9324101190120002,32.65715915709798,66.76125393142225,77.22963751497196,24.757587619251368,-41.36886075771374,94.31151917695729,3.0277617955007616,0.0,0.0,-1.2283937073963989,-9.519008264579506,1.1424876827463573,85
-64.18454395823743,76.86650404887641,-3.432410119012,29.90715915709798,67.92177870154798,78.03655458547817,25.84391457460824,-41.355313536127035,91.56151917695729,3.54131458872697,0.0,0.0,-1.1290061921422934,-9.643901331632216,0.8023875685275629,86
-65.22139471427593,77.42302682585415,-4.932410119012,28.29882286208962,68.68803034061409,78.13284892681088,27.34391457460824,-41.35410731513318,88.81151917695729,4.043876791625008,0.0,0.0,-1.0380883855986294,-9.760190391554096,0.4052080285213278,87
-66.14535872565749,77.97508710421467,-6.432410119012,28.298822862089747,69.78245098344492,78.82101017771194,28.68029031032768,-41.36287164130491,86.06151917695729,4.537948918127412,0.0,0.0,-0.9127797046529488,-9.949361595028625,-0.10242383808200041,88
-67.11999767372383,78.55291170963507,-7.932410119012,28.298822862089697,70.74125090664762,79.43811767141742,29.02891279454842,-41.343255817858655,83.31151917695729,5.021205752658952,0.0,0.0,-0.7276027680135199,-10.213919058085478,-0.5576670874137621,89
-68.32028020076847,79.58829685769412,-9.432410119012001,28.298822862089697,71.25236360786471,79.37319360788294,30.52891279454842,-41.266221168167746,80.56151917695729,5.465657350613222,0.0,0.0,-0.5217707948494176,-10.465373341626492,-0.9557340938673887,90
-69.40942357467647,80.05670625202431,-10.932410119012001,28.298822862089697,72.08297725743292,79.93660898672117,32.02891279454842,-41.20247424227947,77.81151917695729,5.853671340161167,0.0,0.0,-0.2761652178246589,-10.705046019127423,-1.3619932072398213,91
-70.39143901966605,80.50784279260924,-12.432410119012001,28.298822862089697,72.79558890414143,80.55579776157565,32.52231722633892,-40.893622896284775,75.06151917695729,6.2510031891907305,0.0,0.0,0.01289856442918042,-10.911794883404612,-1.7726011721234032,92
-71.3503111900909,81.0024298577045,-13.932410119012001,28.298822862089594,73.40416603628962,81.09280907156023,33.03026331210489,-40.60055686768923,72.31151917695729,6.602950078541159,0.0,0.0,0.3815297593946535,-11.193885206440068,-2.206007348990766,93
-72.41545436938384,81.52691936882944,-15.432410119012001,28.298822862089697,73.91245441162211,81.50491299722985,33.655923089918204,-40.42944645611642,69.56151917695729,6.930503441390743,0.0,0.0,0.8371579270123237,-11.578056564092762,-2.6106095372222784,94
-73.42209934425084,82.05959987722973,-16.932410119012,28.298822862089697,74.41325379109668,81.79243193708315,34.269205281947194,-40.55290996167821,66.81151917695729,7.334471027553625,0.0,0.0,1.287397057078372,-11.973612643257999,-3.040527263185342,95
-73.98793080176527,82.10622249522955,-18.432410119012,28.29882286208985,74.9959412175122,81.99335827416049,34.805808627843895,-41.06593861351541,64.06151917695729,7.7816385929472345,0.0,0.0,1.6826753717829261,-12.328896008945419,-3.537787930754622,96
-74.78676081371884,82.52925858229854,-19.932410119012,28.298822862089697,75.4686226903349,82.22692361339507,35.40410235926058,-41.48706679903417,61.31151917695729,8.201070489494445,0.0,0.0,2.149086927615382,-12.640892806182084,-4.037590154791657,97
-75.57155329825063,82.92818339897931,-21.432410119012,28.298822862089825,75.88200070613131,82.37867746697134,36.061427476602155,-41.94233381969942,58.56151917695729,8.49836013721041,0.0,0.0,2.6820015794931344,-12.970468680204455,-4.539554884761028,98
-75.98500044982423,82.91846415128748,-22.932410119012,28.29882286208972,76.3626959456771,82.32895737457137,36.71665909715567,-42.77340990107834,55.81151917695729,8.670979805808438,0.0,0.0,3.2193634403405786,-13.35615874639267,-5.06819265356866,99
-76.69450803576983,83.25681055426477,-24.432410119012,28.29882286208972,77.28555826313642,82.85462829746447,35.21665909715567,-43.70546753140815,53.06151917695729,8.857884542879809,0.0,0.0,3.7709026313528553,-13.730029074212975,-5.576172069797804,100
-77.05579113516434,83.10797167619378,-25.932410119012,28.298822862089697,77.56945518435703,82.72827687425347,35.69939984968823,-44.60599258572044,50.31151917695729,9.117206466874144,0.0,0.0,4.307599184357171,-14.090082629653859,-6.0646752030702045,101
-77.44469959260643,83.39630328264622,-27.432410119012,28.298822862089697,77.68311291760422,82.62457961299303,36.392858190648155,-45.491541758923205,47.56151917695729,9.383953161855485,0.0,0.0,4.847601748570136,-14.42125914335808,-6.598397362884129,102
-77.84602410659747,83.6040660547409,-28.932410119012,28.29882286208972,77.74178954407186,82.54673818598067,37.112338595788394,-46.365391573086065,44.81151917695729,9.57181206991646,0.0,0.0,5.41505618484593,-14.717740334886527,-7.086754520310229,103
-78.64571242060447,84.0138869042828,-30.432410119012,28.298822862089697,77.83098637975286,82.41934464233155,37.76442554989493,-47.345993042919545,42.06151917695729,9.701819339815728,0.0,0.0,5.958192816034803,-14.945360364560429,-7.520134279048467,104
-78.88327025582093,83.99185611266523,-31.932410119012,28.298822862089697,78.37226359468772,82.93243185743351,36.26442554989493,-48.43888048744364,39.31151917695729,9.843045069515657,0.0,0.0,6.566061314138338,-15.156813142648302,-7.970513389316314,105
-79.30450951813297,84.20310208540663,-33.432410119012005,28.298822862089825,78.39225193691892,82.71331338152984,36.83882758686805,-49.57015398176967,36.56151917695729,9.865141026323462,0.0,0.0,7.184343459599174,-15.321450478525351,-8.40766581899407,106
-79.91077947644665,84.76376946950317,-34.932410119012005,28.298822862089594,78.39778720646943,82.43348751169167,37.627609491543915,-50.63389068888918,33.81151917695729,9.629770809001734,0.0,0.0,7.92276411877265,-15.53593083595127,-8.686724579346423,107
-80.03930259460323,85.04781204410381,-36.432410119012005,28.298822862089697,78.09698999121595,82.0071359081585,38.69178071624353,-51.863841378834984,31.06151917695729,9.301179166461669,0.0,0.0,8.860019674681768,-15.911738261637941,-8.865285349620569,108
-80.25469978332002,85.55083690572326,-37.932410119012005,28.298822862089697,78.20041724364954,82.4073431771551,37.19178071624353,-53.05630740299374,28.31151917695729,9.233306408111327,0.0,0.0,9.501645839463471,-16.119367193233117,-9.17847484022122,109
-79.72948709015529,85.57872178098846,-39.432410119012005,28.29882286208962,77.84910285018431,82.04013190504784,37.47238774242176,-54.381641233665746,25.56151917695729,9.186508491572356,0.0,0.0,9.763113361922048,-16.18692811827015,-9.567904770416098,110
-79.10625526954306,85.5294388563465,-40.932410119012005,28.298822862089825,77.44305474584199,81.64197469032811,37.77728286699364,-55.7831264590057,22.81151917695729,8.970022534163103,0.0,0.0,9.992427942000733,-16.277388480836912,-9.869615282325574,111
-78.34382848447763,85.34968138282429,-42.432410119012005,28.298822862089594,77.06859310878178,81.22781553862046,37.96065619968557,-57.22347895382997,20.06151917695729,8.79824329984347,0.0,0.0,10.138443081674835,-16.31208452366166,-10.174010325441417,112
-77.5288242538108,85.17302345955781,-43.76624515405555,28.298822862089697,77.30339378694056,81.5841017554115,36.46065619968557,-58.65348165426621,17.31151917695729,8.540184282364345,0.0,0.0,10.26058427635109,-16.346207459717085,-10.441199365056915,113
-76.67568389851628,85.04560982512287,-43.41060162447042,28.298822862089924,76.83577661789714,80.95884191617534,35.93212700025517,-60.19806713960116,14.56151917695729,8.149851757264827,0.0,0.0,10.36689131799977,-16.482705093497852,-10.626326404067232,114
-75.68161796710255,84.869233336544,-43.07603292309768,28.29882286208985,76.2191013203581,80.29498998530242,35.98603389180732,-61.6745862722876,11.81151917695729,7.838518001789368,0.0,0.0,10.402991351652782,-16.637130097192543,-10.786004141011913,115
-74.49493803975047,84.6691384399734,-42.758599480391965,28.298822862089594,75.4521344169253,79.66510985428647,35.9804505835205,-62.97090180240362,9.06151917695729,7.558523445918397,0.0,0.0,10.39110775376838,-16.75560261685193,-10.98040094465147,116
-73.66046882175151,84.86405118683714,-41.258599480391965,28.298822862089697,75.35234856116604,79.90965122051358,34.4804505835205,-64.32957422729885,6.31151917695729,7.130427962633192,0.0,0.0,10.393118614200958,-16.895380606853085,-11.095159060879412,117
-72.55996771933697,84.5619488402494,-39.758599480391965,28.298822862089697,74.64294340951601,79.25176553294348,33.67217731031739,-65.65768805987064,3.5615191769572903,6.712451799573978,0.0,0.0,10.419374158993847,-16.98349967835232,-11.148645555254856,118
-71.37399780975261,84.23980496604979,-39.29922880893973,28.298822862089697,73.70547062227811,78.6558907918606,33.6921996131663,-66.81246623930761,0.8115191769572903,6.367617172383064,0.0,0.0,10.47983948976778,-17.081012392237454,-11.230991825594037,119
-69.98219321938836,83.92340368033854,-38.92141861061498,28.298822862089594,72.71566564696899,78.03446647349755,33.64214469929861,-67.90625351869399,-1.9384808230427097,6.005180453928187,0.0,0.0,10.495783195544483,-17.17033618712672,-11.33030648613982,120
-68.82744548012685,84.0335840651377,-37.42141861061498,28.298822862089697,72.56785507568031,78.41734817759239,32.14214469929861,-68.98869845575425,-4.68848082304271,5.604166473614278,0.0,0.0,10.469322978153148,-17.222313121192613,-11.428681251612998,121
-67.29463034288861,83.7356159280012,-35.92141861061498,28.298822862089672,71.52182811593613,77.80127372224423,31.12144435713474,-69.91836153296636,-7.43848082304271,5.273576339730893,0.0,0.0,10.453929871140483,-17.283599182975262,-11.56650787402893,122
-65.69599688053077,83.44658400112922,-35.54477783279365,28.29882286208985,70.27486440856428,77.18101963396136,30.96850944987243,-70.73785672040009,-10.18848082304271,4.8847052653294085,0.0,0.0,10.405548984776095,-17.3644413589713,-11.678463195290348,123
-64.06839984211955,83.1642201055528,-35.25555784462236,28.298822862089697,69.80769157100909,77.65270377927979,29.46850944987243,-71.48896577096843,-12.93848082304271,4.463493524901364,0.0,0.0,10.337654382883361,-17.433885537551046,-11.726848750277927,124
-64.55284862573082,81.3790851019596,-34.738128993762835,31.048822862089697,68.92607595899715,77.0349133882936,28.246726713149712,-72.17839076722466,-15.68848082304271,4.078823620489913,0.0,0.0,10.199273171920682,-17.4848841548819,-11.805350037109232,125
-65.54061963484942,80.21914565021798,-33.238128993762835,33.79882286208969,68.13913363190497,76.31129090067625,27.827735429210158,-72.97935589775791,-18.43848082304271,3.631038438078163,0.0,0.0,9.966082262193332,-17.56832567490241,-11.891739705499639,126
-65.85280016189562,78.6606739311153,-31.738128993762835,36.54882286208969,67.34228877895272,75.57400361668184,27.288846684093812,-73.77112841836366,-21.18848082304271,3.218125807070197,0.0,0.0,9.65924991372685,-17.592080574580987,-11.984473496828864,127
-65.94303135064493,77.22003854279716,-30.841143533608307,39.29882286208969,67.25953075243869,75.99593731202698,25.788846684093812,-74.57220088520684,-23.93848082304271,2.8607454863859627,0.0,0.0,9.325360749857973,-17.579285136196336,-12.06462540571501,128
-65.93305179297623,75.93042934675185,-30.315936433485238,42.04882286208969,66.57430440618086,75.26046827683817,24.288846684093812,-75.24445580906777,-26.68848082304271,2.5460348054541115,0.0,0.0,9.018915432658101,-17.59781591422805,-12.079235651511674,129
-65.83708659163636,74.66687173261272,-29.827079751450373,44.79882286208969,65.69722187127047,74.58367479886407,23.302528943583216,-75.6068537422997,-29.43848082304271,2.4921208575119267,0.0,0.0,8.64643176044348,-17.580852988182805,-12.105433935864369,130
-65.96148595003216,74.47713682099958,-28.327079751450373,47.54882286208969,64.9495660543511,73.92641434364758,22.3020533617262,-75.91685755242572,-32.18848082304271,2.7874990892727385,0.0,0.0,7.947877823152887,-17.386509684961023,-12.240773974489905,131
-65.06676730206026,73.40902172950487,-27.59240164849186,50.29882286208969,65.07819459686081,74.4521424338284,20.8020533617262,-76.49288366268823,-34.93848082304271,3.2698063237492425,0.0,0.0,6.992366308354791,-17.038779676897228,-12.436241732383921,132
-64.19123062783274,72.39697622282904,-27.58873849057996,53.04882286208969,64.7226259273716,73.70872810426414,19.3020533617262,-76.99994354689252,-37.68848082304271,3.8002362739049516,0.0,0.0,6.2024717924383825,-16.760831749437934,-12.539172321778343,133
-63.96863605896774,72.6904181688733,-26.08873849057996,55.79882286208969,64.31607093027169,72.92376695966793,17.8020533617262,-77.46892524124455,-40.43848082304271,4.371636262502056,0.0,0.0,5.5350122214356485,-16.586481327209857,-12.610393362616117,134
-63.1316923811417,71.90214317565567,-25.017584673478417,58.54882286208969,64.01924544695122,72.14310792506834,16.3020533617262,-77.97748422944694,-43.18848082304271,5.036428032781967,0.0,0.0,4.917367153112187,-16.46496789832485,-12.681604432654463,135
-62.32269608270694,71.1058858801898,-24.779226270992144,61.29882286208969,64.31254561866652,72.70944620909658,14.802053361726198,-78.40896731794113,-45.93848082304271,5.912106507114987,0.0,0.0,4.330669784450006,-16.316473274464744,-12.637827351066065,136
-61.98267925306489,71.70161295298564,-23.279226270992144,64.0488228620897,64.32406429846097,71.96371400548294,13.302053361726198,-78.82586208000218,-48.68848082304271,6.874770681916762,0.0,0.0,3.725263251285789,-16.139820007282697,-12.580936408008563,137
-61.17263644937219,70.95866917276767,-21.985045416605878,66.7988228620897,63.996613484456546,72.61872320671806,11.802053361726198,-79.05108631412277,-51.43848082304271,7.759063680669246,0.0,0.0,3.275509848962195,-16.089665333786012,-12.569357150389916,138
-61.084104476051365,71.63042105956528,-20.485045416605878,69.5488228620897,63.364711203245335,71.98528918089895,10.302053361726198,-79.22975231886933,-54.18848082304271,8.550115026407534,0.0,0.0,2.8852575830588694,-16.010251376167876,-12.61701904164971,139
-60.395717684198424,70.90107020685925,-18.985045416605878,72.2988228620897,63.17449395396246,72.67686302210703,8.802053361726198,-79.55680319063288,-56.93848082304271,9.223731222181165,0.0,0.0,2.4584927372208125,-15.942396728101683,-12.716648664371252,140
-60.2352826391904,71.69994217349281,-17.485045416605878,75.0488228620897,62.83937204237397,72.00911882619798,7.302053361726198,-79.84234211563145,-59.68848082304271,9.912198814562403,0.0,0.0,2.043757025281112,-15.894037077411953,-12.81582694087123,141
-59.63953414078073,70.99382063870013,-15.985045416605878,77.7988228620897,62.49697562796541,72.79739601598207,5.802053361726198,-80.12729461970255,-62.43848082304271,10.680964591743004,0.0,0.0,1.6478239543808655,-15.835307473947493,-12.914079148719667,142
-59.59031040318233,71.95453219046718,-14.485045416605878,80.5488228620897,62.06026890851374,72.27914894311435,4.302053361726198,-80.47897451346397,-65.18848082304271,11.501158914646506,0.0,0.0,1.3042349052513569,-15.779242215650758,-13.020701606713533,143
-59.231499688602355,71.28534322937494,-12.985045416605878,83.2988228620897,61.80436710313258,73.20242295932707,2.8020533617261982,-80.83369216483725,-67.93848082304271,12.438207121760513,0.0,0.0,1.0163193731279474,-15.679079680376027,-13.073936816610011,144
-59.37928310303249,72.37463028869729,-11.485045416605878,86.0488228620897,61.61369815238037,72.76163036372701,1.3020533617261982,-81.32376870229537,-70.68848082304271,13.35613687942909,0.0,0.0,0.8329235633610613,-15.630249962895475,-13.118221145419303,145
-59.479857849911625,71.79755397626337,-9.985045416605878,88.7988228620897,61.217386671553925,73.72376687017524,-0.19794663827380177,-81.79451577953203,-73.43848082304271,14.174850680149152,0.0,0.0,0.8091617325751939,-15.69412131290451,-13.177045423010536,146
-59.880688497823776,71.25412808443141,-8.485045416605878,91.5488228620897,60.6934305084613,73.37298679192591,-1.6979466382738018,-81.96475111626087,-76.18848082304271,14.807373347526095,0.0,0.0,0.8646839680589344,-15.822741338024931,-13.237880586003032,147
-60.17201513138884,72.56791139533571,-6.985045416605878,94.2988228620897,60.56066748352646,73.09324411094873,-3.1979466382738018,-82.37728653464477,-78.93848082304271,15.360809396065573,0.0,0.0,0.710656236773602,-15.789103986409163,-13.45892186102284,148
-60.662153708622974,72.21019664239637,-5.485045416605878,97.0488228620897,60.20806274966395,74.24177769839876,-4.697946638273802,-82.84968577540482,-81.68848082304271,15.967125911688651,0.0,0.0,0.7268124811543741,-15.888801112800595,-13.597971612031506,149
-61.19410053973626,71.9282197298897,-4.696742678610989,99.7988228620897,60.07445747103452,74.00077768873724,-6.197946638273802,-83.38803236341498,-84.43848082304271,16.547880748791783,0.0,0.0,0.7695039620057548,-15.959118887143172,-13.769391013582238,150
-61.957329052956645,71.7178976477781,-4.128992455810311,102.5488228620897,59.81274745075064,73.79935733653177,-6.507901271322484,-83.69049641766487,-87.18848082304271,16.945795384320217,0.0,0.0,0.9391427731993544,-16.090270254798067,-13.961136954898524,151
-62.95097028624052,73.3617989245033,-2.6289924558103106,105.2988228620897,59.47182632285547,75.06500894784485,-8.007901271322485,-83.9182223022395,-89.93848082304271,17.299050532602408,0.0,0.0,1.0624094072040864,-16.17465382960857,-14.133730740770966,152
-63.83431936858975,73.27376454066798,-2.005156656824244,108.0488228620897,59.48717077542022,74.93031571115402,-8.493282004038099,-84.35493356249741,-92.68848082304271,17.514080693293522,0.0,0.0,1.0361397518498494,-16.188450593533933,-14.378686552019307,153
-64.57263484845527,73.26976221902035,-2.2039394409827295,110.7988228620897,59.841979599127505,74.80936118604548,-8.81647175780443,-85.12114657707338,-95.43848082304271,17.59497087042154,0.0,0.0,0.9354582587052271,-16.129394155823576,-14.705435850128993,154
-65.71689789904984,73.27633333002817,-2.1550259496101356,113.5488228620897,59.980452048641915,74.74200048150482,-8.772691903083263,-85.57690177822262,-98.18848082304271,17.61586797406145,0.0,0.0,1.1177862660718128,-16.18520985141156,-14.98409372308415,155
-66.7575693886525,73.26769906201143,-2.3611730395672073,114.60384119257716,60.24825894721356,74.7579412134152,-8.865389931196079,-85.96144026383173,-100.93848082304271,17.609724871067925,0.0,0.0,1.213791050072859,-16.11309859672016,-15.255386602902846,156
-67.63993559219529,73.28485254026212,-2.8574882159546413,113.91920856759633,60.7694217607236,74.8147585718418,-9.150493773535208,-86.4416945489407,-103.68848082304271,17.523190763839594,0.0,0.0,1.1970302921254976,-15.931496999512719,-15.576139447628341,157
-68.66072426927558,73.38007229593681,-3.387466509851107,113.03784497174513,61.41190409603203,74.8782010504449,-9.340545775104154,-86.84010680801278,-106.43848082304271,17.48304560762941,0.0,0.0,1.2915352069752162,-15.784405231536441,-15.835488755958105,158
-69.76880686776308,73.54483688188942,-3.8803134277809956,112.00520020087177,62.07638508190665,74.9505549987465,-9.389646503101355,-87.13908892300782,-109.18848082304271,17.409395898050565,0.0,0.0,1.506965025551054,-15.69093106266976,-16.048929724103818,159
-70.94219325033905,73.784965538556,-4.399685754740213,110.86683356055666,62.80364818403268,75.03448856751817,-9.3651661363797,-87.38726462830651,-111.93848082304271,17.28266701345851,0.0,0.0,1.7775030501671687,-15.626895452367755,-16.26832488352077,160
-72.08796620825386,74.10464196429623,-5.001345914250896,109.39482000674987,63.52323092976205,75.10133702680736,-9.324514802478216,-87.62538635698941,-114.68848082304271,17.115924261979,0.0,0.0,2.0263278641698936,-15.593304670260128,-16.461439300323242,161
-73.08948965880347,74.39215282302887,-5.716364445889568,107.74961655105206,64.47508837523041,75.2549426295271,-9.376590748635474,-87.91947461737338,-117.43848082304271,16.962875566052638,0.0,0.0,2.265770150105774,-15.447711515542318,-16.6665635659463,162
-74.0054606310845,74.71160949062418,-6.465031026800804,106.02799050847085,65.55332736546237,75.4728588006264,-9.404120972603813,-88.1828959618083,-120.18848082304271,16.752977502075662,0.0,0.0,2.534166289459637,-15.268927106972829,-16.925684473758924,163
-74.64589378176925,75.15928986183378,-7.272630217319895,103.3801265574204,66.47395104271715,75.7099705140305,-9.273860909112798,-88.1295519512277,-122.93848082304271,16.493019409428296,0.0,0.0,2.8844949110556644,-15.120506113259735,-17.18644924539554,164
-75.44907680474006,77.2955272320125,-6.231724494207478,100.783789894472,67.32891420795526,75.96093539868183,-9.08448129367966,-87.9637370644726,-125.68848082304271,16.242249690800264,0.0,0.0,3.2572029733177943,-14.97720906279391,-17.442819127867896,165
-75.9130852562306,77.7325702286369,-7.0499406880922795,98.033789894472,68.69607655492182,76.22514852204776,-9.074169332384127,-87.92501128734354,-128.4384808230427,16.055069239315227,0.0,0.0,3.5567472726619056,-14.754981900495537,-17.61884354189993,166
-76.2576104554677,78.21968132746242,-7.795127171395682,95.283789894472,69.95262305349306,76.53048189970147,-8.92698948234921,-87.76708922063304,-131.1884808230427,15.802627622769746,0.0,0.0,3.9156231833456556,-14.561744343309426,-17.812394316658974,167
-76.34626504581682,78.74608887944231,-8.572013435548335,92.533789894472,70.73250273234582,76.90470180105913,-8.687596780924983,-87.3399493663807,-133.9384808230427,15.5132091599965,0.0,0.0,4.265747479868207,-14.328006832059316,-18.023925553660835,168
-76.23599143691659,79.30199234596502,-9.349801447541173,89.783789894472,71.85755153026504,75.77506849187667,-7.1875967809249826,-86.74903456771199,-136.6884808230427,15.28669073558564,0.0,0.0,4.620401740310291,-14.045374260863326,-18.1996856874656,169
-76.04614604903576,79.96944373886926,-9.954583522711868,87.033789894472,73.03438585273047,75.963651603558,-6.399217508199765,-86.20783951776941,-139.4384808230427,15.090954287465081,0.0,0.0,5.048600660445443,-13.904075670736407,-18.30411764117821,170
-75.72590417803576,80.70374991208203,-10.475367631901495,84.283789894472,74.06948861422458,76.1348529884965,-6.064835212742889,-85.65230275828164,-142.1884808230427,14.814434668905275,0.0,0.0,5.492698661373088,-13.82422193951054,-18.421189718138894,171
-75.26827975371815,81.4586820556412,-11.125272544141918,81.533789894472,75.12914788467094,76.42070918403763,-5.816610668155196,-85.0360526508944,-144.9384808230427,14.600056680005746,0.0,0.0,5.85353878606175,-13.620696958513813,-18.525284967538504,172
-74.42339594577719,81.00998791104445,-12.625272544141918,78.783789894472,76.37037425617346,76.76694068172642,-5.687860209280414,-84.28212492028558,-147.6884808230427,14.546153069850519,0.0,0.0,6.157154694822584,-13.284462157407049,-18.50431398948103,173
-73.52538823020578,81.849022405054,-14.125272544141918,76.033789894472,77.52180047342068,77.05264573587876,-5.558826118049151,-83.63586599889608,-150.4384808230427,14.264182555757047,0.0,0.0,6.430958318853103,-13.010301502598388,-18.506526150863703,174
-72.15593113082713,82.8471655928025,-15.30269885772272,73.283789894472,78.83684770869257,75.84143117748509,-4.058826118049151,-83.1058046727128,-153.1884808230427,13.870514265854576,0.0,0.0,6.617682832524207,-12.78086203398609,-18.48707158601159,175
-69.92741312035928,83.18739531817009,-16.80269885772272,70.533789894472,80.28882786153085,76.0418439398269,-3.6705970628943163,-82.72223266673959,-155.9384808230427,13.616947486263282,0.0,0.0,6.731247483244138,-12.538123152820008,-18.464438619604458,176
-67.56094270070062,84.58995983851469,-18.30269885772272,67.783789894472,81.7028486786882,76.24677488800815,-3.6045118005063093,-82.28591437579931,-158.6884808230427,13.497774494815255,0.0,0.0,6.983454349282045,-12.294909617608424,-18.35827604421836,177
-65.43956198191364,85.35377505234267,-19.80269885772272,65.033789894472,82.9664167598826,76.41346338996776,-3.394321160151658,-81.85994476455018,-161.4384808230427,13.268200520338741,0.0,0.0,7.357223411486182,-12.097519807656873,-18.235487090505156,178
-66.89285274458777,84.87578353956603,-21.30269885772272,62.283789894471994,84.21624484389918,76.54055504795726,-3.1916384037022896,-81.60819353557736,-164.1884808230427,12.834492555696608,0.0,0.0,7.71082185844392,-11.949846228402626,-18.173458885095506,179
-67.93086055030214,83.90449915268303,-22.80269885772272,59.533789894471994,85.51728358040074,76.69373800789346,-3.0480416459115807,-81.53593500139311,-166.9384808230427,12.394637359697155,0.0,0.0,8.017372397931723,-11.769817148384295,-18.143305637590046,180
-69.17764229188242,83.32132465068354,-24.30269885772272,56.783789894471994,86.80804761482985,76.85872015916802,-2.8548568047474103,-81.35159292041892,-167.16382687851308,11.999427851404352,0.0,0.0,8.39096758088974,-11.531721057026843,-18.071043612409234,181
-70.19263771173944,82.26817330100288,-25.80269885772272,54.033789894471994,88.04631349238448,76.91282545505284,-2.517201415607398,-81.16497745857056,-167.42965678307604,11.568096097205686,0.0,0.0,8.927720238243975,-11.352986706728785,-17.955902379140298,182
-70.43275605159583,81.91870174019641,-27.30269885772272,51.283789894471994,89.26778967108415,76.8824977156062,-2.0465539590415367,-81.15634072643722,-167.88745597617827,10.99620637802853,0.0,0.0,9.603140478870793,-11.24420679540056,-17.852203856827508,183
-70.72947080746819,82.18342361853924,-28.80269885772272,48.533789894471994,90.21803716464417,78.25704867197898,-3.417484151238526,-81.21792778831734,-168.23056829808348,10.38479874809242,0.0,0.0,10.358474184884322,-11.136121578216521,-17.798285146823236,184
-71.27716709513211,82.75283024827587,-30.30269885772272,45.783789894471994,90.6164771775212,78.26753649461138,-2.6902270567606412,-80.76060665258098,-168.1390123069491,9.79346623243971,0.0,0.0,11.201519127658806,-10.927043918590432,-17.750960116677682,185
-71.65143479729562,83.24125635852674,-30.716849435023807,43.033789894471994,90.965626095266,78.28725374306144,-1.893777333573043,-80.49152378735226,-167.51813182247804,9.042861097271908,0.0,0.0,12.121231064197822,-10.690332271159663,-17.728253191813394,186
-71.80426684544358,83.49109747991822,-29.216849435023807,40.283789894471994,91.6345355431851,79.84368869333646,-3.0165338605906653,-80.70174129550458,-165.32404989653037,8.288778418602162,0.0,0.0,13.121231064197822,-10.286059372638123,-17.8145133160088,187
-71.38248704583705,82.7050619274989,-29.348339357968353,37.533789894471994,92.4364132079704,80.11112504262763,-2.244113530463659,-80.56814001833355,-162.57404989653037,7.805084931309996,0.0,0.0,14.09327405041973,-9.649774587240131,-17.91644481250968,188
-71.23245580569271,82.65529898795702,-28.854070041909583,34.783789894471994,93.24847396645555,80.16566060820801,-1.6528804370192538,-80.45309936199246,-159.82404989653037,7.449622569980285,0.0,0.0,14.889231652851194,-9.195138593075384,-17.946526415996328,189
-70.99861541501147,82.83098957432273,-28.46074008504288,32.033789894471994,94.21154979895023,79.99951626793383,-1.2728009872791548,-80.61676619633212,-157.07404989653037,7.141498256422153,0.0,0.0,15.507286365992343,-8.954478724946817,-17.894575087300943,190
-70.73336268303943,83.05854929197115,-28.126288654655973,29.283789894471994,95.04326706999257,81.37073345991679,-2.7728009872791546,-80.76879840970449,-155.09723783673684,6.799729950745661,0.0,0.0,16.031947097305437,-8.789353881684985,-17.768804128002692,191
-70.47243004824166,83.33432750885576,-27.993613382420072,28.298822862089697,96.05064747274922,81.12357693416557,-3.3766952413746365,-80.84336413121852,-153.777967930645,6.499254012083975,0.0,0.0,16.35537513775198,-8.600619935052523,-17.54419056526384,192
-70.15873913524611,83.68342197063181,-27.893606215028708,28.298822862089697,97.02538120111599,80.77277021053358,-3.5091718289757763,-80.95020700049298,-153.45250498480172,6.169675873109597,0.0,0.0,16.613417240731607,-8.494220384039332,-17.27667437922,193
-69.73234797113686,84.01617649978566,-27.7618984873637,28.298822862089594,97.87963382815677,81.77875838229001,-5.009171828975776,-81.26678459836994,-152.9479984662657,5.7229957738176935,0.0,0.0,16.86820281431697,-8.456970068274854,-17.07844692173984,194
-69.25074978589964,84.26581967625077,-27.677938867327438,28.29882286208962,99.00901689349514,81.42080546310784,-5.839291522604306,-81.62815940767818,-151.6233161840725,5.321452731388056,0.0,0.0,17.08468923617851,-8.36813266031864,-16.846980735698867,195
-68.86481043863476,84.52404063095301,-27.534784143643673,28.298822862089697,99.95626858468889,81.03711726814598,-5.977628294869077,-81.79334526835339,-150.16713056870879,4.8908810769966475,0.0,0.0,17.362269552022084,-8.293835650788896,-16.5934261250222,196
-68.53606264013162,84.79741512356877,-27.399920229569705,28.298822862089825,100.63998500039446,82.0272924911484,-7.477628294869077,-81.97412630199398,-148.40188457328262,4.408360866924537,0.0,0.0,17.61444950289368,-8.251148192674956,-16.372070893948028,197
-67.9001457684589,84.58510199510127,-28.899920229569705,28.298822862089825,101.61766173933285,81.66524984385973,-8.364119977195466,-82.26005806019978,-145.99768018431388,3.971149808810548,0.0,0.0,17.75260436999298,-8.20467845006921,-16.118819267450792,198
-67.47833380462487,84.78308230090693,-29.707209775751195,28.29882286208985,102.51885304981772,81.34464774808741,-8.613765056991186,-82.5013269924258,-145.2030369161295,3.6428832894415217,0.0,0.0,17.89065288556703,-8.151187036131915,-15.845307199103603,199
-67.12788455192135,84.92783240058505,-29.637768377247085,28.298822862089594,103.15955826922732,82.41264452783342,-10.113765056991186,-82.65124624948218,-144.9494819083727,3.445062801046925,0.0,0.0,18.102842600227675,-8.016829351719098,-15.506314422884184,200
-66.7771076480375,85.00921653257898,-29.580057106363537,28.298822862089647,104.04863016471286,82.04205320258026,-10.954428137871703,-82.83094450903496,-142.9660046819962,3.280003379675419,0.0,0.0,18.334774401845902,-7.814366705797548,-15.207337360524082,201
-66.39318558697542,85.0800718536253,-29.482003500184007,28.298822862089825,104.42866763581824,83.01499416113899,-12.454428137871703,-82.8730300907795,-140.7519946576531,3.094186401303305,0.0,0.0,18.58200204107251,-7.669819757137164,-14.939722355039697,202
-65.96423895975309,85.18119310309473,-29.449678531273186,28.298822862089697,105.05266039972679,82.64538527797431,-13.268804105564914,-82.8014055618748,-138.6640643618645,2.955198781459424,0.0,0.0,18.734071507744066,-7.573675115721736,-14.629318401397772,203
-65.51531406122363,85.27717722416519,-29.48951690697111,28.298822862089697,105.57160240300088,82.2989271770485,-13.509529965401203,-82.66715323834154,-136.58703821000856,2.781548552165711,0.0,0.0,18.827452020769552,-7.442613323346623,-14.285850732541624,204
-65.05007041655527,85.31616889311,-29.54884778133251,28.29882286208972,105.5897591025057,83.33906694954943,-15.009529965401203,-82.43645622139269,-134.53563043673213,2.634914948497287,0.0,0.0,18.92763647938161,-7.258080515394545,-13.943234402334204,205
-64.60144143076097,85.36316589933152,-29.58495455302659,28.29882286208962,105.89982392588819,83.00799237590505,-15.742883019991199,-82.109682845604,-132.15838676683103,2.5566101734539397,0.0,0.0,19.06323320535397,-7.06921564466138,-13.58029729724006,206
-64.21084890790812,85.41881313958493,-29.537940070118044,28.298822862089825,106.15001821291862,82.62211927390325,-15.802551009534128,-81.82936013789475,-130.55079396431088,2.4426775052300944,0.0,0.0,19.251248578552584,-6.950490917268857,-13.200661573306949,207
-63.84513011851765,85.44689101972965,-29.500567349712444,28.29882286208985,105.93030617422963,83.53537623298013,-17.302551009534128,-81.52798051422648,-129.9583412878316,2.328236684535039,0.0,0.0,19.420631484575473,-6.836129186111805,-12.800797540925592,208
-63.458894567853854,85.46547171996157,-29.51396811701852,28.29882286208962,106.181500682185,83.16629492471033,-17.907963358434607,-81.40639094220234,-129.64692986150874,2.247003586043173,0.0,0.0,19.53828424623562,-6.713872264361338,-12.382484304930502,209
-63.03497722315167,85.44154534574223,-29.617558401513072,28.298822862089825,106.58525408102318,82.88988376714812,-18.086520767279165,-81.36692621448309,-128.0084728748283,2.2551890158741448,0.0,0.0,19.60118219494284,-6.51501674063787,-11.97913152330509,210
-62.967001950164985,85.90370671521607,-28.117558401513072,28.298822862089697,106.32962283053502,83.8587218616087,-19.586520767279165,-81.21485073308277,-126.9239829001231,2.2330912617884504,0.0,0.0,19.713220313899075,-6.360901304499676,-11.545242619417744,211
-62.65922844453909,85.95375943089566,-27.315026226912025,28.29882286208962,106.40277587422034,83.43576836732841,-20.171991290949943,-80.95507562784665,-125.52676639302213,2.172642034501417,0.0,0.0,19.80243496405589,-6.2373973101488955,-11.085495182988094,212
-62.345696199702125,86.00697609647094,-27.379724510054363,28.29882286208972,106.50331797730782,83.0014680465761,-20.27638884455271,-80.66250204218507,-125.11518186930464,2.1291762857534686,0.0,0.0,19.87954484974453,-6.096738652775928,-10.598069454120518,213
-62.125713222783745,86.08444344104946,-27.40697528036396,28.29882286208962,106.17194546096964,83.90332827093275,-21.77638884455271,-80.5786785425982,-126.1696148786787,2.0908157232514055,0.0,0.0,19.96444226373442,-5.997899229328153,-10.051302743171473,214
-62.01272789638352,86.15038999628035,-27.408622869937656,28.29882286208985,106.30231560417559,83.50337578193943,-22.279762461084484,-80.51539383015434,-128.1039267140295,2.0388664252952684,0.0,0.0,20.04903793817552,-5.918730053065065,-9.483576141395368,215
-61.8814516586269,86.24498392728592,-27.39591763947005,28.29882286208972,106.32488552870849,83.00255419633451,-22.328887789036784,-80.39457215235652,-128.99652013856186,1.9785945821358208,0.0,0.0,20.130624113903476,-5.8787061917413554,-8.94545262813043,216
-62.05869970244773,86.23211822846399,-27.409733184277485,29.17138258539349,106.3967742700062,82.66463085832699,-22.337962285494946,-80.44998480867419,-129.87085017213778,1.9266112271781062,0.0,0.0,20.153388478092044,-5.861426443990963,-8.381678546034676,217
-62.562212746312085,86.08737648767722,-27.401308749457463,30.678299117516193,106.73321873016475,82.23689309396325,-22.515048991414044,-80.84407198124791,-132.62085017213778,1.8452311682077915,0.0,0.0,20.147052527524984,-5.877175559913628,-7.783289691626092,218
-62.96223915068563,85.96118565735853,-27.427248637855186,32.10333377248542,106.90698188342726,81.78811431799201,-22.679453242114054,-81.12371739026345,-135.37085017213778,1.7453459395170583,0.0,0.0,20.10538581148603,-5.902897405855971,-7.204671319718863,219
-62.973350921524734,85.98411610264652,-27.679893111862263,33.04825173857674,106.43097231242524,82.79814872913042,-24.179453242114054,-81.23916891062213,-138.12085017213778,1.697758755201856,0.0,0.0,19.86648728363379,-5.8971105666914365,-6.666050876941622,220
-62.65745320054952,85.44142203983085,-29.179893111862263,33.84729714734309,106.51393918093882,82.63544763274487,-25.10083305370614,-81.25309976680549,-140.4289828170038,1.649348825380266,0.0,0.0,19.545848973552072,-5.863348423503653,-6.149639745014563,221
-62.82544741649409,85.38793600717678,-30.552871935286184,34.692815101928296,106.28256082361756,82.39946385867351,-25.187620409498436,-81.19493359797816,-142.84339755455616,1.4540989873756007,0.0,0.0,19.317725248019105,-5.881089586074675,-5.672414694406136,222
-63.00520039450311,85.27973139544744,-30.831069530252197,35.61668084634639,106.02803879475019,82.25886675589842,-25.315064362888084,-81.20207625781474,-141.3794334236096,1.3275891968396716,0.0,0.0,19.014379482158795,-5.842284847144687,-5.26287804062284,223
-63.05978373085703,85.18373007673414,-31.30151800591485,36.43057373362216,106.0386984879434,82.31179021130093,-25.619412880299638,-81.22810818861623,-138.79559023104144,1.3365782047995025,0.0,0.0,18.556623910089016,-5.710988879058447,-4.841536917222821,224
-63.06711693799279,85.12539876140816,-31.725413204071884,36.998843399370514,106.036351111939,82.38360749563441,-25.855707623760622,-81.36549727348881,-141.54559023104144,1.33286394903611,0.0,0.0,18.11209284028369,-5.63498355233621,-4.35154046581292,225
-62.70103130701725,84.3913928690629,-33.225413204071884,37.6297694087466,105.97693196818108,82.52615977402976,-26.018086629186364,-81.61514494643481,-144.29559023104144,1.2794934534829034,0.0,0.0,17.68442543236212,-5.525698937846532,-3.8838435691225346,226
-62.844276723539345,84.16170008661501,-34.725413204071884,38.54775690361378,105.92735430571253,82.65168114753,-26.247368549878125,-81.88227568174636,-146.28496871770628,1.198686686693635,0.0,0.0,17.236149962009804,-5.382776157965816,-3.4963219793705655,227
-62.97758297219718,83.92564546064081,-35.33461168976015,39.42001355678461,105.83234964115218,82.72278027646313,-26.504025629251924,-82.09760811818025,-147.49952153695202,1.0665924631227501,0.0,0.0,16.76725152642493,-5.302593304189497,-3.121879601543901,228
-62.87072280184515,83.59257546281053,-35.74402228622121,40.093675036328015,105.41894341071615,82.80894069471088,-26.67938468498002,-82.09352702516442,-145.07860208554038,0.8340502851476004,0.0,0.0,16.266131363400497,-5.253232385106266,-2.839164267431491,229
-62.67954880568655,83.13496462875507,-36.215067115688065,40.824473472189226,105.31348814684603,81.6576641290842,-25.17938468498002,-81.89232641014979,-142.32860208554038,0.6513907680297447,0.0,0.0,15.714380892488427,-5.141540259513956,-2.6263369424747056,230
-62.50488606427401,82.6138999283123,-36.78534312650703,41.68815193496681,104.64408564894939,81.80459762527515,-25.079972635250172,-81.60408487941844,-139.57860208554038,0.6175988606372125,0.0,0.0,15.103503781320049,-4.926377172533271,-2.3880257563551694,231
-61.72458240337837,81.52371823875073,-38.28534312650703,42.39336988837001,104.29239094436414,81.94517424239363,-25.434261696009756,-81.67751903675958,-136.82860208554038,0.4917632733922305,0.0,0.0,14.438554745553565,-4.747200236069211,-2.136888696256571,232
-61.232667102064504,81.09247097050229,-39.78534312650703,42.83274932190016,104.6064926207955,80.7529528369667,-23.988432912241578,-81.97023783119647,-134.07860208554038,0.39537632081251195,0.0,0.0,13.76578622919428,-4.6289802872187105,-1.9560036303927162,233
-60.78023833644431,80.58797818678748,-40.83343125879854,43.32746043363338,104.03561162353193,80.74944731089872,-24.296435201188604,-82.0626772213466,-131.32860208554038,0.4509968918065328,0.0,0.0,13.126590146783364,-4.517457815282924,-1.8038690031333033,234
-60.396052151510744,80.03746471879433,-41.29647146981687,43.81689868621467,103.73048152413476,79.34640964507953,-22.796435201188604,-81.84151533152497,-128.57860208554038,0.44794618146791404,0.0,0.0,12.527912721094953,-4.4083283265940585,-1.5540721395466193,235
-59.35533492666813,78.91662545951974,-42.79647146981687,44.1204886567138,102.59720001441275,79.10108865589106,-22.5719009757039,-81.48005240295922,-125.82860208554038,0.36625647403081846,0.0,0.0,11.954372111266103,-4.339534217242291,-1.2739338497581367,236
-58.724991585908526,78.41546559624342,-44.29647146981687,44.30920755831061,102.07539280164075,77.54902823458465,-21.0719009757039,-81.43580394173561,-123.07860208554038,0.36738789133849165,0.0,0.0,11.382549841719412,-4.295899658623099,-1.0710330748840242,237
-58.03380661667663,77.92757304561218,-44.82573796519832,44.323775619440944,101.25362047585635,77.30810565036779,-20.81954015457829,-81.90301166817244,-120.32860208554038,0.468363142529878,0.0,0.0,10.857475771683827,-4.313693566214134,-0.8883453975116077,238
-57.2781177530068,77.32206498761111,-45.10010780931823,44.33547971710292,100.75495384054591,75.70572726171328,-19.31954015457829,-82.21434144685763,-117.57860208554038,0.6491765001842671,0.0,0.0,10.384989654937316,-4.306515597946759,-0.7630618346365938,239
-56.477878005473,76.634219400977,-45.268972236819614,44.345613998031844,99.91600735104022,73.94263573712416,-17.81954015457829,-82.29738424829955,-114.82860208554038,0.8754800631298999,0.0,0.0,10.008760277736144,-4.3168214582395334,-0.7011865453483775,240
-55.10987550135108,75.28415752376236,-46.768972236819614,44.39022371014466,98.36804811498276,73.37764400078841,-16.407635182857288,-82.33169849364457,-112.07860208554038,1.0647904054691146,0.0,0.0,9.773318280424279,-4.369404846097166,-0.629265128895391,241
-54.33249855663549,74.49545704506428,-47.75221162760267,44.32288159166129,97.10035837707426,71.4416376331322,-14.907635182857288,-82.29893148056694,-109.32860208554038,1.1421196706840364,0.0,0.0,9.514184810870198,-4.382227921039524,-0.5155867679580634,242
-53.386383690930536,73.7955683681493,-47.9147690376639,43.98963344246529,95.78980139728618,69.8818266254937,-13.407635182857288,-82.16315544643852,-106.57860208554038,1.2496348526804277,0.0,0.0,9.196189854827718,-4.338352461388152,-0.3620121728845568,243
-52.47048449636897,72.97474560298986,-47.84849330825096,43.68156170288235,94.06545418070745,68.51925323450837,-11.907635182857288,-82.03603803830421,-103.82860208554038,1.4226683401739646,0.0,0.0,9.054824657220777,-4.390284396845782,-0.275938136952998,244
-50.77395239585937,71.54032355779185,-49.34849330825096,43.30889623520147,91.97145701355839,67.22552855665316,-10.407635182857288,-81.75654472976206,-101.07860208554038,1.5981933137554163,0.0,0.0,8.920816350897033,-4.4135982568426355,-0.270414273091758,245
-49.606751094873935,70.67776432954415,-50.32302019757988,42.66317759540303,89.83321178483165,66.01755221496337,-8.907635182857288,-81.33665486091245,-98.32860208554038,1.7994446951181948,0.0,0.0,8.747643262177933,-4.362176489450242,-0.24685238070361012,246
-48.55203892890405,69.74316375473066,-50.28871516306028,42.053941172421425,87.63246195685265,64.83202592113818,-7.4076351828572875,-80.83522124707046,-95.57860208554038,1.9895879041280087,0.0,0.0,8.664273044269551,-4.323518674713637,-0.22879007290030592,247
-47.301138374273066,68.87737645139073,-50.24208579634362,41.229625571101494,85.22713968450081,65.02391219275766,-5.9076351828572875,-80.31073589491008,-92.82860208554038,2.1614826332173953,0.0,0.0,8.608050413190998,-4.322445850058386,-0.2522335858359359,248
-45.92968631766127,68.04531615240207,-50.195009120675756,40.23243800774263,82.84045284967337,63.81792188870112,-4.4076351828572875,-79.65264442613653,-90.07860208554038,2.3417488632996344,0.0,0.0,8.58805259687902,-4.3268648007625545,-0.28919549136884665,249
-44.68372968230485,67.13024893385042,-50.07930065089682,39.32169310320475,80.26811295620166,62.66626454838814,-2.9076351828572875,-78.97802025245439,-87.32860208554038,2.5478522956834966,0.0,0.0,8.619836581405774,-4.349639719179131,-0.30078506351769674,250
-42.70523000011461,65.7685650889068,-51.57930065089682,38.36693879380162,77.6182169141268,62.97641325785046,-1.4076351828572875,-78.34085308086753,-84.57860208554038,2.8192721150220623,0.0,0.0,8.643218812213455,-4.36969405264138,-0.36466888651385193,251
-41.25561482605162,64.83938047404288,-52.44684413565466,37.37319802615069,74.8682169141268,61.95584107431441,0.0923648171427125,-77.66115718127762,-81.82860208554038,3.105508544827499,0.0,0.0,8.705773109862887,-4.408551210268316,-0.4875453179476463,252
-39.68161621120835,64.12975611447095,-52.49757769763493,35.897428506437954,72.22858281263551,62.310214101415724,1.5923648171427125,-76.87012482879045,-79.07860208554038,3.188183299122945,0.0,0.0,8.72451294644402,-4.399144419772195,-0.48425187075395304,253
-38.05915363622201,63.592632626605344,-52.64270609320506,34.0259650536759,69.50950416237889,61.3881668284289,3.0923648171427125,-75.83950094906949,-76.32860208554038,3.1761805220055757,0.0,0.0,8.737614975434973,-4.364846288007099,-0.3504992963560416,254
-36.51527273587891,62.99919979605552,-52.695297993737675,32.29024347743858,66.75950416237889,61.81900542440913,4.5923648171427125,-74.67178410696502,-73.57860208554038,3.2656932689713343,0.0,0.0,8.8117569286033,-4.388391978841904,-0.24487986786499608,255
-34.94684263955026,62.56386426435711,-52.74512436132636,30.200307388574213,64.00950416237889,60.90105844202304,6.0923648171427125,-73.5826550722581,-70.82860208554038,3.3192636072466737,0.0,0.0,8.884253985305916,-4.480059485521525,-0.10466740986652436,256
-33.92938947915877,62.389711181421184,-51.24512436132636,28.298822862089924,61.25950416237889,61.334235018849725,7.5923648171427125,-72.22169622176995,-68.07860208554038,3.376099022339848,0.0,0.0,8.9911901583848,-4.573495490703354,0.03514377373413639,257
-33.02949611241185,61.208893363716626,-49.96751022082074,28.298822862089697,58.50950416237889,61.82083179986785,8.623843350503163,-70.58901924627642,-65.32860208554038,3.4147504804833373,0.0,0.0,9.095057589331729,-4.635450247333318,0.18440245737946148,258
-32.10700028860388,60.011762047145744,-49.80350767739556,28.298822862089697,55.75950416237889,60.95392857589203,10.123843350503163,-68.86828396054854,-62.57860208554038,3.3221213724146965,0.0,0.0,9.15510085089852,-4.656347391099119,0.3996805446274814,259
-31.5174920450994,59.185989767278336,-48.30350767739556,28.29882286208972,53.00950416237889,60.95038128089461,11.623843350503163,-67.08075674531716,-59.82860208554038,3.2902576262591783,0.0,0.0,9.230505447722877,-4.660997069223094,0.5974962916344512,260
-31.113185128933235,58.37815030704899,-46.80350767739556,28.298822862089697,50.25950416237889,61.04016503560787,13.123843350503163,-64.99986091078077,-57.07860208554038,3.2703953641511045,0.0,0.0,9.383559280408152,-4.72865195263266,0.8115460053757063,261
-30.71236328594701,57.65272677569826,-45.30350767739556,28.29882286208972,47.50950416237889,62.40347558145284,13.566025311986891,-62.4376590864954,-54.32860208554038,3.13019928611034,0.0,0.0,9.460758647061683,-4.725584740020057,1.0596111783401159,262
-30.26349595639445,57.09864923864386,-43.80350767739556,28.29882286208972,44.75950416237889,62.674305641565915,15.021089949550436,-59.77708909078659,-51.57860208554038,3.0633083580316454,0.0,0.0,9.506539558482242,-4.7708659881368725,1.2825358455825218,263
-29.65642712885303,56.50631264389916,-42.30350767739556,28.298822862089825,42.00950416237889,62.99511857690263,16.402030703308533,-57.249213169777875,-48.82860208554038,2.9989646774134076,0.0,0.0,9.579732855189226,-4.822230188637318,1.5009344732940326,264
-29.05850031140053,55.79550903836337,-40.80350767739556,28.29882286208985,39.25950416237889,62.61491116293079,17.902030703308533,-54.499213169777875,-46.07860208554038,2.927828347280677,0.0,0.0,9.735434042125023,-4.7921927502112345,1.6779065388657652,265
-28.685388679917832,55.64866151526197,-39.30350767739556,28.29882286208962,36.50950416237889,63.195664504386706,19.402030703308533,-51.749213169777875,-43.32860208554038,2.816506508088398,0.0,0.0,9.767657312619738,-4.687065281678216,1.900076936663297,266
-28.21081293922282,55.6999898572011,-37.80350767739556,28.29882286208972,33.75950416237889,63.667119388755424,20.902030703308533,-48.999213169777875,-40.57860208554038,2.6831839015946617,0.0,0.0,9.727431527128378,-4.60071704668084,2.1635711270999463,267
-27.667013957701798,55.831237801370634,-36.30350767739556,28.298822862089697,31.00950416237889,63.27454502155776,22.402030703308533,-46.249213169777875,-37.82860208554038,2.5817763832724285,0.0,0.0,9.699140880200815,-4.591355887782805,2.3845590842791022,268
-26.91988964458722,55.430534876619745,-34.80350767739556,28.298822862089697,28.25950416237889,63.0332266527758,23.902030703308533,-43.499213169777875,-35.07860208554038,2.491469190211042,0.0,0.0,9.702402356689829,-4.620039822221724,2.5903576752146074,269
-26.153094330848322,55.68994106097309,-33.30350767739556,28.298822862089697,25.548942637645467,62.72120307768453,25.402030703308533,-40.749213169777875,-32.32860208554038,2.3677157229099306,0.0,0.0,9.568355125282627,-4.545113977019897,2.8151054404985087,270
-25.1858320718142,55.506075623687266,-31.803507677395558,28.298822862089594,23.32118070877003,62.40851750499168,26.902030703308533,-38.04484635582804,-29.578602085540382,2.29000623906205,0.0,0.0,9.375215961691794,-4.467891895612847,3.0426882064905434,271
-24.117865482841907,55.433133380778315,-30.303507677395558,28.29882286208985,21.826418537773478,62.4281640673456,28.402030703308533,-36.33462926841797,-26.828602085540382,2.3204080186808156,0.0,0.0,9.107898716982765,-4.377407241151726,3.254536215678954,272
-22.93267794523989,54.858078507701215,-28.803507677395558,28.298822862089697,19.932354745839717,61.67500375417439,29.902030703308533,-35.0546010127033,-24.078602085540382,2.3511062374569334,0.0,0.0,8.872424779701312,-4.3448000615664375,3.4271273243295615,273
-21.655411312437053,54.36419880926321,-27.303507677395558,28.29882286208962,18.168157748765626,60.725996856256856,31.402030703308533,-34.37988882909812,-21.328602085540382,2.351739458497987,0.0,0.0,8.555511289526702,-4.335510702620473,3.5584535586641333,274
-20.470003968725774,53.91721058799449,-25.803507677395558,28.298822862089697,16.450183997344958,59.7075896185467,32.90203070330853,-34.06770501740937,-18.578602085540382,2.356189043177582,0.0,0.0,8.17164669397407,-4.356818549419737,3.7328538498340516,275
-19.173126590584534,53.52459824759627,-24.303507677395558,28.298822862089697,15.33616905522988,59.020015086952064,34.40203070330853,-33.99015515886274,-15.828602085540382,2.359388109777688,0.0,0.0,7.709026619832679,-4.295499756293183,3.901321192940405,276
-17.609094732639136,52.69802239580586,-22.803507677395558,28.29882286208985,14.257679752081325,58.33043166209002,35.90203070330853,-33.91693554083464,-13.078602085540382,2.3533293414428647,0.0,0.0,7.183401887844882,-4.163367438606838,4.040370304801242,277
-16.021199074989692,52.48944846680296,-21.303507677395558,28.29882286208985,13.608392344260539,57.28760058054743,37.40203070330853,-34.7391431105686,-10.328602085540382,2.414731886444388,0.0,0.0,6.569337764490662,-3.983485262557749,4.145751478561462,278
-14.393347206984927,52.15764869992932,-19.803507677395558,28.298822862089697,12.759844686185273,56.51010584568074,38.90203070330853,-35.27950955169438,-7.578602085540382,2.4666626152190236,0.0,0.0,6.0952680743105425,-3.825561292763464,4.2137490187898585,279
-12.657465472438671,51.86531740645391,-18.55549505989304,28.298822862089924,12.074915999403416,55.820605501344104,40.40203070330853,-35.37718724020268,-4.828602085540382,2.477321128327357,0.0,0.0,5.611747072630183,-3.5847042276999614,4.374996475160185,280
-11.147806262817937,51.863247318616146,-19.532823785753894,28.298822862089697,12.045882018103224,55.107991718989936,41.90203070330853,-36.492792091351234,-2.078602085540382,2.403540341514991,0.0,0.0,4.949383759566838,-3.5654787627925963,4.525880794370621,281
-10.793865691722313,51.921392588872365,-18.032823785753894,30.011975949474184,11.544245022949164,54.12460523410206,42.22112741138353,-37.444001122313495,-1.5079974885623597,2.3033439826616013,0.0,0.0,4.489624105682031,-3.4767152806401227,4.749548581607815,282
-10.97723033616433,51.16578734634366,-17.359110488236446,32.761975949474184,11.404372732304154,53.73018604566639,40.72112741138353,-38.48824186929745,-0.06191292485881371,2.281778012262151,0.0,0.0,4.0895082943420205,-3.482071727341377,4.876613836661478,283
-11.358578575220978,50.23167471988948,-17.002124313233963,35.511975949474184,11.379655158021091,53.32261071802374,39.22112741138353,-40.04022881512056,1.1644534734463308,2.3778075316752707,0.0,0.0,3.7237658686550135,-3.5164292801569066,4.9309336171511715,284
-12.053639425578092,49.925608594306226,-15.502124313233963,38.261975949474184,10.925549921899641,52.31422823864417,37.72112741138353,-41.78230839378749,0.4711466320745309,2.467632333210022,0.0,0.0,3.3726674580684057,-3.4767952594056823,4.933019074903753,285
-12.307870528390174,49.04584113753477,-14.002124313233963,41.011975949474184,11.33320862049428,51.72905412221873,36.22112741138353,-43.88707420880389,0.10015211758621025,2.5716092638382,0.0,0.0,2.9702295228706634,-3.3849331436483863,4.940776596524546,286
-12.490000743518182,48.120956564546574,-13.690252067391112,43.761975949474184,11.233397966038307,50.483696310904996,34.72112741138353,-46.27852564101399,1.1431786731621354,2.7521123297683436,0.0,0.0,2.617963525949606,-3.342276600775814,4.958205144722121,287
-13.01196181195636,47.960852659537686,-12.190252067391112,46.511975949474184,11.56225646353504,50.179663457227534,33.22112741138353,-48.55219276735698,2.2878685906286758,3.1063349919667553,0.0,0.0,2.4002264898078858,-3.3539294224427962,4.954157793236163,288
-13.431333237985843,46.73667045149014,-10.690252067391112,49.261975949474184,11.169829412311463,49.11092445889617,31.721127411383527,-50.96277408779183,3.819917669815879,3.400404398929861,0.0,0.0,2.211801016801731,-3.3754146672969005,4.796715249367566,289
-13.481795525164303,45.704177523031476,-10.061924306978243,52.011975949474184,11.821210045452599,48.59091901177698,30.221127411383527,-53.709940592225315,4.114365679217102,3.6059848002438195,0.0,0.0,1.8611300447551105,-3.2798961206700112,4.6616124760878215,290
-13.884779083622481,45.64772699581602,-8.561924306978243,54.761975949474184,12.432403834098228,48.27890456964456,28.721127411383527,-56.306738845151415,4.49702728375886,3.811304476621114,0.0,0.0,1.5830776490375984,-3.1975156601551284,4.532447828643296,291
-14.362962294910687,45.594972199029506,-7.061924306978243,57.511975949474184,12.334452710169202,47.18181434310418,27.221127411383527,-58.739461037041494,5.758774265927357,4.076467312627101,0.0,0.0,1.3607440001314894,-3.1557244632415373,4.3985787929795475,292
-14.664465710969823,44.39745326962012,-5.561924306978243,60.261975949474184,12.836566918076116,47.04846516917427,25.721127411383527,-61.22028960605053,6.2269895498529415,4.255047596109606,0.0,0.0,1.1035569876067324,-3.099245984402681,4.280592363516245,293
-15.002380110640479,44.43267091859293,-4.061924306978243,63.011975949474184,12.904414118824999,45.793808591227226,24.221127411383527,-63.76070870451027,6.564688383344405,4.285797904604797,0.0,0.0,0.7995355762207965,-3.0110745348831944,4.223278358652171,294
-15.316980423706692,43.303394776423495,-2.561924306978243,65.76197594947419,13.575581916580367,45.612676799527385,22.721127411383527,-66.3170120758426,7.5715804037935035,4.267935815679142,0.0,0.0,0.5247491227550575,-2.9707539990794816,4.229992924385241,295
-15.702906792345573,43.35595902683137,-1.0619243069782431,68.51197594947419,13.449389419735796,44.67305488197192,21.221127411383527,-68.63553563325178,7.964925787734158,4.432173992398601,0.0,0.0,0.33627910592112314,-2.9784144246580877,4.173429462002862,296
-15.77176759052239,43.42069683585583,0.43807569302175686,71.26197594947419,13.967764356708582,45.05046580696858,19.721127411383527,-71.01597933884852,7.074667159818113,4.581684816048031,0.0,0.0,0.202580652529175,-2.8979400216863778,4.051175425281548,297
-16.009668425329536,41.95359336649709,1.9380756930217569,74.01197594947419,14.251536198271934,45.50676104230719,18.221127411383527,-73.31877883148681,7.206772885051571,4.713498472670401,0.0,0.0,0.16217216502878934,-2.869405318960489,3.9372336522296694,298
-15.86209415168564,41.838407237689545,3.438075693021757,76.76197594947419,14.180961479665804,44.65114027988907,16.721127411383527,-75.75236257400223,7.71732138879876,4.903343729911537,0.0,0.0,0.08677908611694808,-2.8771317330240946,3.8035698791828705,299
-15.81087484273183,41.73865259750195,4.938075693021757,79.51197594947419,14.097905679713058,43.94324060949524,15.221127411383527,-78.00836260504616,8.780101333694644,4.8956218609250985,0.0,0.0,0.10517183169405843,-2.9068371169066274,3.7135693525770064,300
-15.702811137418319,41.76591615841768,6.438075693021757,82.26197594947419,14.382858708889685,44.61174210973829,13.721127411383527,-80.19317104200823,10.48108748656055,4.792520812762604,0.0,0.0,0.1087114187153397,-2.9106618931284713,3.6468267646296093,301
-15.592946936408149,41.28063585501765,7.938075693021757,85.01197594947419,14.397142842827416,43.89392557489935,12.221127411383527,-82.46658409235462,10.815127590941394,4.742446220886279,0.0,0.0,0.06530617049644695,-2.8797542161313934,3.5611269570215307,302
-15.621147154318857,40.177637026307174,9.438075693021757,87.76197594947419,14.795591629862665,44.65097029127686,10.721127411383527,-84.72117107063468,10.774119280890451,4.678205406576173,0.0,0.0,0.05544043335317123,-2.843029377578385,3.504881318202487,303
-15.184301032205857,40.61773045945608,10.938075693021757,90.51197594947419,14.774867951670617,44.089241888860464,9.221127411383527,-86.81445323264711,11.9238257993422,4.596038995979403,0.0,0.0,0.07067774849976519,-2.841714685590569,3.4267264500420382,304
-15.141871254214067,39.62329930051966,12.438075693021757,93.26197594947419,14.810120707940442,43.536202765360166,7.721127411383527,-88.88679505095116,12.371846751686126,4.523533275952709,0.0,0.0,0.03903094705836513,-2.7931662861445985,3.3059148561809013,305
-14.33089637735213,40.16964265351133,13.938075693021757,96.01197594947419,15.245212811061638,44.59407524813841,6.221127411383527,-90.96073064586956,11.665980390248711,4.412693155151012,0.0,0.0,0.049396562464365946,-2.6993209174722366,3.2562527161943167,306
-13.520963645356268,40.79838485552503,15.438075693021757,98.76197594947419,15.457115357611947,44.18307471563357,4.721127411383527,-93.12611211436241,11.657335314190595,4.335693692658733,0.0,0.0,0.08918643843708929,-2.655645439401803,3.1601518782876106,307
-13.690915096441977,39.99634426237167,16.93807569302176,101.34739591854532,15.367981430759508,43.860596876804,3.2211274113835273,-95.30593339994584,12.441984042276388,4.455510325364392,0.0,0.0,0.14406776204947402,-2.700461977264713,2.910897004185421,308
-12.845593096091632,40.82235841147099,18.43807569302176,103.16813506708445,15.59395137117083,45.22418226545879,1.7211274113835273,-97.56134138512903,12.6928998544459,4.47056376746244,0.0,0.0,0.1795948256720442,-2.7016566074085735,2.671297086411019,309
-13.09168240261706,40.08390210816597,19.93807569302176,104.92798332961816,15.873965345481706,45.19955895606789,0.3530601335330663,-99.67210801377071,12.781283277225393,4.260505847272823,0.0,0.0,0.27506726381181346,-2.683730143376443,2.548706177102709,310
-12.360273362842891,40.9296890058206,21.43807569302176,106.70380332172044,16.250567276475554,45.281091078686764,-0.0018093132526720394,-101.67001996623482,13.786072784906416,4.024292554945831,0.0,0.0,0.3933916326083729,-2.6693906085902754,2.461361637445933,311
-12.986754276673066,40.35756052315696,22.93807569302176,108.64243580567137,16.71312907105195,45.45174310234874,-0.3561347017379481,-103.66530975571338,14.477834765501601,3.927542110255389,0.0,0.0,0.5014720178656151,-2.6888433551135007,2.3858064228327462,312
-12.36428061052075,41.579071767155675,24.43807569302176,110.49735554715141,17.381369663732176,45.58307704069221,-0.927851388330209,-105.8088102430692,14.054996596091417,3.9274541728404695,0.0,0.0,0.5360320309375608,-2.6552314845003044,2.2614493478772357,313
-12.907469481762659,41.294195533353,25.93807569302176,112.19305409124986,18.05834014628106,45.704368840057214,-1.530542603609987,-107.99521486828182,14.557141307699535,3.8745662244100427,0.0,0.0,0.5911167025099764,-2.624656201664625,2.096527782809474,314
-12.351772690795094,42.489644492465196,27.43807569302176,113.91433753093222,18.65756043708328,45.69494184777426,-1.5766051284591804,-110.06563846166475,16.910051310898446,3.7129591680709098,0.0,0.0,0.7447984203047581,-2.6958238517888735,1.9582143168696138,315
-13.35517367052898,42.304059531828855,28.93807569302176,115.72475976720133,19.20754740756065,47.77024665096279,-3.0766051284591804,-112.00730665438151,19.593732383602553,3.5424940378086505,0.0,0.0,0.9088880468722913,-2.804365062607437,1.8414782934781828,316
-14.38432719363714,42.308968205612324,30.43807569302176,117.50680490248361,20.015336319301387,48.03359432691369,-3.373393456044442,-113.97065822049733,21.018980717426984,3.4764387985519645,0.0,0.0,1.0370361450548156,-2.8757488456068776,1.6605031697140042,317
-15.360653992512686,42.39211864252717,31.93807569302176,119.19683989659089,20.857958007030952,48.264634970761676,-3.6120189753985468,-115.91695409994948,21.322700601992757,3.439145073243511,0.0,0.0,1.141249447913517,-2.904006885656059,1.4258467629755993,318
-14.722803116597833,44.20663344874291,33.43807569302176,120.7718318025372,21.967638545628944,48.488551605448485,-3.822291936069188,-117.81689775942603,21.319309276827553,3.337961792723382,0.0,0.0,1.2017232233768516,-2.883286624583693,1.2265785907629712,319
-15.828691589952596,44.79849333400504,34.93807569302176,122.27940373598427,23.134071249786825,48.77300075275719,-3.7177958679946514,-119.57609816116006,22.886350884233,3.202104849051951,0.0,0.0,1.2748493353558967,-2.9089002557993533,1.064254334424191,320
-17.020658856695114,45.43189744345409,36.43807569302176,123.76376268276904,24.248802941184337,48.78139896876749,-3.0819811196653255,-121.1625898235982,25.09306045045624,3.0359574242106864,0.0,0.0,1.3970659483890249,-2.9842543810538795,0.8846221785366402,321
-19.770658856695114,44.85837790306695,37.93807569302176,125.17472775116566,25.619185451684455,50.01750109128694,-3.564849787912538,-122.79517986214913,24.8292800023954,2.8971884934522434,0.0,0.0,1.4756026768347865,-2.9915820480089597,0.6778315690992259,322
-21.142657279214824,46.10510640836023,39.43807569302176,126.52713545879159,27.254147308618325,51.31378350185958,-4.065349327387678,-124.36134727361399,26.027018570211062,2.7229930751981715,0.0,0.0,1.5135178656634813,-3.011382197513181,0.5262938581161449,323
-22.431079222708956,47.66886469362669,40.93807569302176,127.7436401893258,29.137882456350226,50.75416023243787,-3.070880122997528,-125.8314820901822,28.777018570211062,2.5069794308519167,0.0,0.0,1.4787458598781058,-3.058004491281207,0.41116225730293676,324
-25.181079222708956,48.0054414584452,42.43807569302176,128.9200192474935,31.10647548177315,50.271435023013986,-2.060114952028632,-127.3011150796844,31.527018570211062,2.2479066856163232,0.0,0.0,1.4448278649911943,-3.0771415958673063,0.26382617189949387,325
-26.59288090242167,49.90394863189317,43.729913890222896,130.01232865931308,33.11154611925213,51.893260954906346,-2.3135669568381116,-128.61365148692363,34.27701857021106,2.0700859364411515,0.0,0.0,1.467150152031463,-3.1256374199883235,0.11898467593043496,326
-29.34288090242167,50.74106087991331,43.806073567037245,131.07006308299634,35.289956743223236,51.66575048381962,-1.0022575439682873,-129.68167143456782,37.02701857021106,2.0214510580860767,0.0,0.0,1.4395505352994422,-3.19521208822887,-0.039486999693269985,327
-32.09288090242167,51.89864415415698,43.69728382457343,131.99007861150784,37.48365146746723,53.1734346069717,-1.10001589506033,-130.61398266815436,39.77701857021106,2.0043056767801315,0.0,0.0,1.3705743825806473,-3.3063395958987765,-0.18533590694373822,328
-34.35607695559318,53.99909507653498,43.75059505455902,132.7203688558947,39.70134369880274,52.8445047475367,0.39998410493966996,-131.26830993795969,42.52701857021106,2.0169487763021987,0.0,0.0,1.3410373143189827,-3.4446786155064264,-0.3342910040769431,329
-37.10607695559318,54.381435255067316,42.73444550695668,133.3999009892287,41.957268051983895,54.52295755406253,0.7748290054429071,-131.7019129182004,45.27701857021106,2.0238454325405915,0.0,0.0,1.2669478456881875,-3.554185755150591,-0.5109326975683286,330
-39.85607695559318,56.29478562380157,41.46245042566021,133.86949269320678,44.390609186396134,54.251575385985326,2.274829005442907,-131.92522304582772,48.02701857021106,1.9408238790485512,0.0,0.0,1.1005643229150817,-3.569953132941625,-0.6497470055677276,331
-42.51485236163331,58.30608898187105,39.96245042566021,134.06873768226237,46.85762816427323,53.91490910710325,3.774829005442907,-131.85035205128753,50.77701857021106,1.8966539894537997,0.0,0.0,0.9085109304607877,-3.5727576383102315,-0.7432615883468157,332
-45.26485236163331,58.829524031112776,38.46245042566021,134.00650938986996,49.55810059629252,55.41006125299241,4.7222781512169,-131.60949889223974,53.52701857021106,1.9135309660450863,0.0,0.0,0.7132368414273715,-3.5502996114105776,-0.7818747426223728,333
-47.94656647778443,60.741285265294344,36.96245042566021,133.76180124925904,51.85347601664543,54.903222862551814,6.2222781512169,-131.22155261241656,56.27701857021106,1.996384910062701,0.0,0.0,0.5910491239864524,-3.5554096982227765,-0.8348636918317122,334
-49.947761181956224,62.64119995572803,35.46245042566021,133.3125734540554,54.262283208278575,56.09875646530407,7.369319883813819,-130.7339155166197,59.02701857021106,2.0851803213592217,0.0,0.0,0.4150591387081329,-3.585671907927666,-0.9711891954358929,335
-51.89479171939082,64.53237754414266,33.96245042566021,132.63340336159146,56.60923673652921,57.194240236617574,7.9202827036677075,-129.9243749288442,61.77701857021106,2.1591856937719007,0.0,0.0,0.10929247460286232,-3.6054314730636468,-1.0974684484625459,336
-54.54194596174755,64.38083704313144,32.46245042566021,131.74237784310222,58.65749220208346,56.38937567856638,9.420282703667707,-128.7706565348533,64.52701857021106,2.184831195436851,0.0,0.0,-0.29981943576699044,-3.5589534366822853,-1.1610665548605588,337
-56.04630423406345,65.57702671497393,30.962450425660208,130.62949819900675,61.084770644958624,57.36411861691562,10.68703043502034,-127.47138837259203,67.27701857021106,2.2379976211720556,0.0,0.0,-0.7332756886995155,-3.523838961076244,-1.2539537449079936,338
-57.7504240013031,66.59568250579444,29.462450425660208,129.38917436754966,63.14481082708154,58.70880979557696,10.87422536467386,-125.95135162650053,70.02701857021106,2.33573239328032,0.0,0.0,-1.1195116701519212,-3.5740209102653093,-1.400040725223985,339
-59.54290930923243,67.37502682748793,27.962450425660208,128.36221794776378,64.65660350274653,59.32769625694589,11.711708273821579,-124.27031273414066,72.77701857021106,2.534702668963025,0.0,0.0,-1.453906860492053,-3.6400382020792517,-1.602228476808603,340
-60.90487527082623,69.8652614809611,26.462450425660208,127.3289516280138,66.04544093542637,59.89783929836948,12.470340528092512,-122.31431246709647,75.52701857021106,2.7362108937456195,0.0,0.0,-1.7847556444078554,-3.731808066959043,-1.7151582843431077,341
-62.45090096966273,70.29034837892412,24.962450425660208,126.0973370210477,67.39139210719135,60.454059225379375,13.103416027341673,-120.24738467471754,78.27701857021106,2.8920410014690625,0.0,0.0,-2.167238677087543,-3.816409433797701,-1.8449695815687297,342
-63.86068650310568,70.48416147122008,23.462450425660208,124.8616701798357,68.68199103843287,62.76687876162248,12.076626422202791,-118.02020094281927,81.02701857021106,3.101091191314129,0.0,0.0,-2.4445201708979467,-3.9834047540371826,-2.0069173573047228,343
-65.00227960837609,72.32325809035639,21.962450425660208,123.88803919861982,69.12625035336518,63.167970750761285,12.816601790538732,-115.76439638895644,83.77701857021106,3.2167001904147026,0.0,0.0,-2.6121871043606437,-4.199573427833099,-2.259560169747998,344
-66.38694235760194,74.10462761593679,20.462450425660208,123.19274397660926,69.47938597468408,63.44911117902561,13.520098481931834,-113.69942617728721,86.52701857021106,3.362639473595988,0.0,0.0,-2.700896740289932,-4.47959137475514,-2.5595670598387983,345
-67.80777461256152,73.63655092596314,18.962450425660208,122.54872007542048,69.54183314125382,63.79762934528159,14.266104250569649,-111.40555922184971,89.27701857021106,3.4847254157530942,0.0,0.0,-2.747491617525647,-4.714143188178505,-2.7877984450513305,346
-68.91163234029284,74.9128676481501,17.462450425660208,122.01910302163449,68.91521930970801,64.29076565705839,15.088676134884036,-108.84377953829537,92.02701857021106,3.45397374971788,0.0,0.0,-2.715476781883782,-4.8176988220347505,-3.0485229268066107,347
-69.64403609011242,74.27377780979833,15.962450425660208,121.90534537039564,68.25665014219315,64.7713021655093,15.742865345791845,-106.394540424694,94.77701857021106,3.2597763401061575,0.0,0.0,-2.6247703861133336,-4.801066243985932,-3.3583768744355575,348
-70.62662658287566,75.45657419756806,14.462450425660208,121.75986251441469,67.43064580688576,65.11476117095603,16.368585465107184,-104.18413261345188,97.52701857021106,3.1961081374407336,0.0,0.0,-2.5450438254770753,-4.878558563303841,-3.693811214629379,349
-70.98721605401683,74.5817526540622,12.962450425660208,121.84035667329056,66.34387021616493,65.62193350050721,17.005883973648093,-101.74701439521972,100.27701857021106,3.0355567959925343,0.0,0.0,-2.3611105569676663,-4.787589696297441,-3.99348536378714,350
-71.5492828755414,75.44589482752718,11.462450425660208,122.16607268736924,65.05990270361664,66.12349788949467,17.628681060156406,-99.30606617240045,103.02701857021106,2.82368087104192,0.0,0.0,-2.1565485416892978,-4.686039488392886,-4.297006379045199,351
-71.9685004102326,76.3011967553584,9.962450425660208,122.40359678672296,63.777704074054896,66.56254465935186,18.060138283329056,-97.0347893259538,105.77701857021106,2.6550061910698743,0.0,0.0,-2.0922299750121978,-4.562809544247086,-4.610603766581758,352
-71.69056814430535,75.28786367196209,8.462450425660208,122.58099649267686,61.79089030059492,65.59937991218646,19.560138283329056,-94.6562986132737,108.52701857021106,2.573941373577219,0.0,0.0,-2.0584551418542434,-4.34737506366389,-4.815602970617854,353
-71.61488089801323,75.86468875181363,6.962450425660208,122.99695621279179,60.35991040319959,66.20163497220612,20.814859725023943,-92.2527661717175,111.27701857021106,2.4856729264474975,0.0,0.0,-2.010722236602197,-4.061223388263837,-4.962099278227069,354
-70.70181570998112,74.65277429140181,5.462450425660208,123.58275126719057,58.990969462280326,66.7002500019331,20.981584836757072,-90.02555805896075,114.02701857021106,2.3945144107704595,0.0,0.0,-2.0424237261824647,-3.7668201427424193,-5.145377071191563,355
-70.40875290305142,75.24081669054063,3.962450425660208,123.9992462806789,56.901631677861985,65.74439551572465,22.481584836757072,-87.78870664957236,116.77701857021106,2.3556572425511444,0.0,0.0,-2.176212800185234,-3.5310702292674256,-5.251476847214966,356
-69.98970120117959,75.81242215911921,2.462450425660208,124.30878501816395,55.27303905683484,66.18977321019258,23.421481691347743,-85.43341035350902,119.52701857021106,2.3736732262237195,0.0,0.0,-2.3279911118161993,-3.320473951401202,-5.3159202138581145,357
-68.79269708948111,74.63142584262069,0.962450425660208,124.74441680537373,53.43559825024511,66.59346369116331,23.656364945347374,-83.08830896687401,122.27701857021106,2.5104929450591866,0.0,0.0,-2.454965529218918,-3.1755137372887687,-5.369103246808437,358
-68.2471870298138,75.14126613286292,-0.537549574339792,125.1493145614101,51.259399185875544,65.55724576515135,25.156364945347374,-81.04817869480112,125.02701857021106,2.6454079985180634,0.0,0.0,-2.7492186900567535,-2.9939877956867376,-5.327803760344152,359
-67.88534257534083,75.60208257054258,-2.037549574339792,125.58004464642529,49.70981793804366,65.77492792327658,25.878784716976277,-79.18501162307012,127.77701857021106,2.827661319299742,0.0,0.0,-3.054913860229834,-2.8611007024957265,-5.244138789301396,360
-67.42978226868628,76.0130519077426,-3.537549574339792,125.8687986841638,48.17974288254283,66.00287203674704,25.825201740776006,-77.45188099326641,130.52701857021106,3.0006465643830174,0.0,0.0,-3.4396419871918176,-2.6810604075465485,-5.110370557748505,361
-65.87668857355304,74.7288765385628,-5.037549574339792,126.09626697362827,45.895776082063996,65.03971164753109,27.325201740776006,-75.74479053626744,133.27701857021106,3.0773298230745865,0.0,0.0,-3.829725391326532,-2.50532014206991,-5.016434535666134,362
-65.34523135668552,75.06796970338772,-6.537549574339792,126.49455667886504,43.35680787680564,64.14871322273653,28.825201740776006,-74.05377887550539,131.3388264907737,3.0710668941940726,0.0,0.0,-4.13303267968014,-2.3911596707235074,-5.010633898192419,363
-64.87304310528664,75.37262073189163,-8.037549574339792,126.92812193282465,41.552938538432386,64.44455530468134,30.325201740776006,-72.41356969721794,129.79462321926826,3.145785850379773,0.0,0.0,-4.481392503803125,-2.2760092044073725,-4.961996924977952,364
-64.27590267958058,75.61757470189204,-9.537549574339792,127.22819664050577,39.886793126195585,64.72813840483276,30.678619568702658,-70.82927536496041,130.46162745435936,3.263049878592757,0.0,0.0,-4.93038880849194,-2.100411600596652,-4.840896182185735,365
-63.66845046548147,75.8117003587033,-11.037549574339792,127.52677527998932,37.50732488774537,63.96371950051149,32.17861956870266,-69.21018776344954,130.6819069520503,3.387009833495089,0.0,0.0,-5.360639200951112,-1.9254221061775223,-4.636196695675389,366
-63.03640075636181,75.98120715309445,-12.537549574339792,127.83922181440266,35.824359459893444,64.20307437601919,33.14366647130398,-67.68328311135268,129.44300747876323,3.456705332885415,0.0,0.0,-5.826966981134296,-1.7578347320203873,-4.43594594779393,367
-62.211595908073065,76.16164832876505,-14.037549574339792,127.99810777460912,33.49188782669339,63.345292532600965,34.64366647130398,-66.46649874100214,128.6613359778033,3.4218028448852595,0.0,0.0,-6.384360120113807,-1.5426117389645018,-4.323350880926453,368
-60.21992641945642,74.7713943840637,-15.537549574339792,128.14153992783278,31.834946798998104,63.52594728243755,35.50164021890885,-65.24909323923038,128.33430297563345,3.4220498843018583,0.0,0.0,-6.900571035516585,-1.3582494131898553,-4.226519901156819,369
-59.59010475105415,74.82375445854545,-17.037549574339792,128.47880106365102,30.07094525371512,63.84995622850985,35.654859036082485,-63.86174881004645,128.06929096680102,3.4489405985980457,0.0,0.0,-7.387563325519043,-1.2019617738631336,-4.0826109880074855,370
-58.993906044001406,74.94999004530308,-18.537549574339792,128.74400309220178,28.21843667829346,64.31355951440909,35.87942869972972,-62.131544673066756,126.89823321957985,3.398562807414396,0.0,0.0,-7.8648680874284675,-1.0256815912966617,-3.899323147509561,371
-58.23232701058726,75.16422436311599,-20.037549574339792,128.8989280905978,26.368088503290807,64.67858094306625,36.03356756824504,-60.51338836378871,124.14823321957985,3.2441895363145457,0.0,0.0,-8.418632457534205,-0.8158296386905145,-3.7944781125707294,372
-57.45007026621599,75.06208324223374,-21.537549574339792,129.29817111875516,24.6403237287065,64.84427405073829,36.11528469985082,-59.46819151342925,121.39823321957985,3.139964942529664,0.0,0.0,-9.031114680318833,-0.6121969331197139,-3.748801464482231,373
-57.222506191831386,75.09228689249785,-23.037549574339792,129.6101881958153,22.4364383837447,64.12859016337512,37.61528469985082,-58.68658831958227,122.0056296902037,3.0741250867205587,0.0,0.0,-9.656858421844479,-0.3840128573160724,-3.557185277751669,374
-56.90489512286541,75.14493056640602,-24.537549574339792,129.94936226425497,21.398042223337846,64.07966574367,38.396315770868085,-58.103369251002455,124.7556296902037,2.9617692138392675,0.0,0.0,-10.424362711564292,-0.043658430959913876,-3.1822322802142353,375
-56.24006427144993,75.23887666707157,-26.037549574339792,129.85907429605095,20.225250447517286,64.10772355413673,38.343599640815164,-57.42635097972734,127.5056296902037,2.8744418097982565,0.0,0.0,-11.138925113065298,0.21635866281260896,-2.8006802215171307,376
-55.75291782148344,75.267367078501,-27.537549574339792,129.89620192000075,18.278351625705792,64.30549425383178,39.410384722584524,-56.09627430905053,130.2556296902037,2.839096216664336,0.0,0.0,-11.664303638368972,0.35745902614724473,-2.5249663693102344,377
-55.91471462263736,75.00978111950478,-29.037549574339792,130.6872941441196,15.965015309298721,65.17118615880439,40.02725501649473,-53.62752154062584,133.0056296902037,2.873610405164957,0.0,0.0,-12.193167924348309,0.43111426488828714,-2.2830161300965908,378
-56.31228166658501,74.56534436084597,-30.537549574339792,132.04993123777305,14.455421041447362,66.63931079216701,38.52725501649473,-50.87752154062584,135.7556296902037,2.959890800156356,0.0,0.0,-13.193167924348309,0.9879609767157247,-1.7642292271739433,379
-53.56228166658501,75.91960115668064,-32.03754957433979,129.29993123777305,17.205421041447362,63.88931079216701,37.02725501649473,-53.62752154062584,133.0056296902037,2.6161452263399894,0.0,0.0,-14.193167924348309,1.987960976715725,-0.764229227173943,380
-53.808960942650835,74.99713173060698,-33.53754957433979,130.59355532566113,14.455421041447362,66.30314812807947,37.872848387529366,-51.75427355171807,133.89662408298204,2.6586317269584367,0.0,0.0,-14.17108387812353,0.9879609767157247,-1.419614781216587,381
-53.219915119093166,74.98121851838965,-35.03754957433979,130.52839184813618,12.264510095145985,66.58673853221359,38.00390404704207,-51.00374964156528,136.3770481458882,2.6159890382619784,0.0,0.0,-14.76073120502665,0.83500320595501,-1.068393970981772,382
-52.735703370335685,74.96581734676703,-36.53754957433979,130.5392174723668,11.13590428161273,66.9536684997598,38.16600163876131,-50.30398734939055,136.20044854811493,2.5012142704395757,0.0,0.0,-15.224233355910416,0.920078751967141,-0.7648743363256092,383
-52.39114013309212,74.95478336513591,-38.03754957433979,130.6898682630182,9.925798543680067,67.38622779735859,38.42648463232667,-49.56044177763711,133.45044854811493,2.400481237173298,0.0,0.0,-15.618738187259284,0.9247825887305404,-0.4985383571995603,384
-52.17366628894145,74.89215083597297,-39.53754957433979,130.89982382882175,8.770175677056805,67.82477539591444,38.67646535424113,-48.68701062198105,130.70044854811493,2.334905721299868,0.0,0.0,-16.05084647715251,0.915402227247152,-0.19783192983012196,385
-51.85242925374887,74.87033482043259,-41.03754957433979,131.03490026143567,7.569267121690607,68.00403031408354,39.577277240580635,-47.83399323085873,132.48392497216471,2.2784774265936463,0.0,0.0,-16.535671122098353,0.9671763403080355,0.16927006855644477,386
-51.410661113981476,74.95618821376917,-41.65572843153884,130.9821185188788,6.5707893950187986,68.39426939821797,39.94191769982217,-46.769458730143306,133.8207682698452,2.2663078913927017,0.0,0.0,-17.02746913742131,1.0334243020890599,0.6485261924912542,387
-50.73344331154518,75.1144083398925,-41.660404141541626,130.81940234827275,5.607332023134176,68.82043103976666,40.349137686864466,-45.69614155912448,131.84660380211372,2.2517484732410957,0.0,0.0,-17.4693499361634,1.0530641669488054,1.0910013495687731,388
-50.19297195385858,75.19448383392111,-41.471026394964795,130.92761526119872,5.01668259700518,70.07005944577156,38.849137686864466,-44.4834932248706,129.09660380211372,2.2769588718912486,0.0,0.0,-17.776786174140526,0.9859873854030384,1.4070178966640527,389
-49.689681765730725,75.30115050912453,-41.4190097868794,130.97248203493754,4.064248234036364,70.48371447663177,38.89467340198642,-43.62842312251968,128.53415161875054,2.258153856538425,0.0,0.0,-18.149710542103062,0.9760836891078933,1.7348842767179766,390
