JMW9912/AVATAR/Dynamixel/dynamixel_control/data/csv/poppy/1104_2230_WMCA_Dance_poppy_humanoid_motor_degree.csv
theta1,theta2,theta3,theta4,theta5,theta6,theta7,theta8,theta9,theta10,theta11,theta12,frame
64.6832138592706,47.1128884752062,-78.9173747545535,51.9914434628027,-57.7762185668658,37.0519625710026,75.923220593862,-73.0132022732202,0,0,0,0,0
72.22551226151,40.1932160366356,-90.2665273017281,51.9914434628027,-67.1588475227062,34.3378119532795,88.5011811786436,-63.617919304209,0,0,0,0,0
73.1944563241386,40.1452486359429,-90.7549043184246,51.9914434628027,-67.266701780518,35.9598622026094,88.4141680335718,-58.80764906859,0,0,0,0,0
76.1079598394163,43.2687876482977,-90.4000219013248,51.9914434628026,-73.088194937202,40.5435330978317,92.1024357953172,-51.9914434628027,0,0,0,0,0
79.882569138585,47.3262790516759,-92.8235839519251,51.9914434628026,-76.319323333438,43.158343433267,91.7681013183622,-51.9914434628027,0,0,0,0,0
80.4232406643509,50.9424767938961,-91.0432145300986,51.9914434628027,-77.4075215944057,45.8532878540519,90.2581311446845,-51.9914434628027,0,0,0,0,0
78.2299344895544,52.801713559086,-85.5278342017654,51.9914434628026,-76.377961991444,47.0702313642643,87.5250891125658,-51.9914434628027,0,0,0,0,0
77.9186583768814,52.0091766653293,-85.2651169267826,51.9914434628026,-76.9019457987946,45.5103520441132,87.3619055538219,-51.9914434628027,0,0,0,0,0
77.2972603160832,50.363864917568,-84.7001032595186,51.9914434628026,-78.039563971123,43.5468584879416,90.0285878277256,-51.9914434628026,0,0,0,0,0
76.5571931623411,48.8474613781278,-84.0896044918172,51.9914434628026,-78.2548872184211,42.4800633311221,89.9069089370419,-51.9914434628026,0,0,0,0,0
74.8601776925532,47.8267570534742,-83.2103536973979,51.9914434628027,-77.3256518108986,42.0226024435683,89.3761776236759,-51.9914434628026,0,0,0,0,0
72.5005754698106,46.4520034000397,-81.8878207676892,51.9914434628026,-76.9662872142259,41.3074475908027,91.6479598648938,-51.9914434628026,0,0,0,0,0
71.135370099245,46.1571880173519,-81.2320914115549,51.9914434628027,-74.1447250993387,41.6477357381318,87.7592371910787,-51.9914434628028,0,0,0,0,0
68.9961486789111,46.3306336518619,-77.7633460668212,51.9914434628027,-73.1473958920175,42.3304925444736,87.4704237490336,-51.9914434628027,0,0,0,0,0
68.3569365375307,46.127549886271,-77.415468876837,51.9914434628026,-72.1047609790389,42.7247568250853,87.0927103931654,-51.9914434628026,0,0,0,0,0
69.7066264486467,44.5406303614281,-80.0522592197488,51.9914434628026,-71.89618138362,42.2446861610218,86.8434514556015,-51.9914434628027,0,0,0,0,0
69.7364821968818,42.8585718279734,-79.4681707185637,51.9914434628026,-71.8577449769555,41.2469836115231,86.5140614978722,-51.9914434628026,0,0,0,0,0
71.4045328175688,41.6591855843244,-82.5021442969222,51.9914434628026,-71.6725483026575,40.5073236689825,86.1905531593913,-51.9914434628026,0,0,0,0,0
72.1608178817603,38.5888965993795,-81.9479739784403,51.9914434628026,-75.0243711858307,37.7584368181526,89.8065469233593,-51.9914434628026,0,0,0,0,0
75.6173512097251,35.2751563861557,-85.6452561043163,51.9914434628027,-79.1067390080034,35.3225765354141,94.2014429267462,-51.9914434628027,0,0,0,0,0
78.6821399168367,33.2902977371041,-89.6909357290189,51.9914434628027,-80.6437742762043,33.8879188693049,94.8828494920542,-51.9914434628026,0,0,0,0,0
80.885861811176,33.0908744386341,-91.0108245708323,51.9914434628026,-82.2440472018796,34.0013313665705,95.8608020266759,-51.9914434628026,0,0,0,0,0
82.4186198103217,33.1950251305854,-91.9616518235607,51.9914434628026,-81.1651764403455,34.1451745331065,92.6328220480915,-51.9914434628026,0,0,0,0,0
80.476577729087,37.2635796709708,-88.7852857741907,51.9914434628026,-80.4546414104089,38.074493873222,92.8159868404983,-51.9914434628026,0,0,0,0,0
78.4467687371591,43.6584927032344,-86.3083643992903,51.9914434628026,-77.5483776672234,44.4510417459167,90.0069415103055,-51.9914434628026,0,0,0,0,0
76.9677982311582,52.7010659501163,-85.1557538800127,51.9914434628026,-74.7115695832254,52.9081942917111,85.8960737335376,-51.9914434628026,0,0,0,0,0
74.0442282848365,59.5660796176394,-82.3549474326251,51.9914434628027,-70.9595384385166,59.018878967105,79.5261968546535,-51.9914434628026,0,0,0,0,0
72.5989911262958,62.2657905840265,-79.7907513642481,51.9914434628027,-71.0081884815791,60.9797257569192,79.6879734444419,-51.9914434628026,0,0,0,0,0
71.0330014828117,68.7883344241884,-77.6804246927404,51.9914434628026,-69.1210275967355,63.6679369388263,77.1739819806461,-59.5745512826367,0,0,0,0,0
70.3575060480824,69.661512923957,-77.8057082743463,59.5746611017215,-67.7544243656174,62.9519461824886,74.3841867572012,-70.8468252509337,0,0,0,0,0
68.5327320901286,68.4873753300654,-75.1854225183258,68.6163678581046,-68.3570567850351,62.2243668219493,74.3284233482629,-78.4648352457429,0,0,0,0,0
68.5532351353413,65.535541951118,-74.8318666562849,74.6334793624609,-68.4390227204021,58.8048143063685,73.7425960672911,-83.7646725724015,0,0,0,0,0
69.1631626177159,63.895556045045,-74.5814110468507,75.7492947250593,-69.0367994404117,56.7974496818036,73.3449066109583,-85.494522964906,0,0,0,0,0
72.3701109107674,58.8578316704385,-76.5588286700273,74.3667279583771,-71.6973495626214,50.3889029755129,75.0612158476717,-85.0068303917648,0,0,0,0,0
76.5379472776276,54.7672187543504,-78.9082082507237,72.7370074144562,-73.092068200469,43.2047801273787,74.2222773163669,-87.1960246192315,0,0,0,0,0
78.7672052204488,55.4440475305475,-79.0134240521403,65.593198689503,-70.9369671478137,36.3146133115599,74.0530031022214,-87.9028427293634,0,0,0,0,0
82.8654293137714,58.3482441755879,-82.423088721735,56.9896925502521,-58.896455934505,28.6765613960735,64.7902358507879,-91.4883946386153,0,0,0,0,0
83.6511597708424,61.1186684439693,-82.7221298249495,51.9914434628027,-47.4554858531483,25.6737031527519,56.1961687530707,-95.9135976536461,0,0,0,0,0
80.9696421548418,60.225420958553,-79.6228341474098,51.9914434628026,-13.6626237831073,22.4488902314454,29.8961798325686,-100.433450633255,0,0,0,0,0
77.4542523463631,60.5140428861964,-76.8852492200458,51.9914434628026,21.215983383824,22.595618427928,3.92161797512613,-108.253168887411,0,0,0,0,0
73.2106483353651,61.3873727305028,-74.2251423588271,51.9914434628027,43.2779306226309,30.9919142764868,-13.367393641134,-114.088213707326,0,0,0,0,0
71.3614204733364,63.0312888124049,-74.4239238866814,51.9914434628027,56.9261640986843,37.3058123367558,-24.0804967774846,-120.318419881947,0,0,0,0,0
70.8572795528884,63.2478002251309,-74.449663083313,51.9914434628027,60.943614735802,37.7838154462236,-27.5260269939544,-122.671486197256,0,0,0,0,0
71.182010555782,66.7811779723825,-74.8567046488123,51.9914434628026,69.7047902869694,43.8452875084621,-31.3187233288981,-126.328663154066,0,0,0,0,0
72.5975873541147,65.6944240222909,-77.3903580895179,57.3254307272471,73.0905967531676,49.2249716968097,-33.4940783086702,-129.721509824617,0,0,0,0,0
75.2778721338044,65.4395846526556,-80.0311816907118,58.6285478078261,70.748692337103,45.6475055773818,-34.356946974658,-131.349372638104,0,0,0,0,0
76.5234013754574,66.1153555131731,-80.0839387890784,56.6076361242262,58.4466564153715,36.5421342427942,-32.0048279045735,-129.953123640227,0,0,0,0,0
77.6338825410406,66.5113358368005,-80.1160808855007,56.9259363488248,54.2288886496435,33.0203271954366,-30.1214652905144,-128.118804514486,0,0,0,0,0
77.7978936078149,67.0778552534195,-82.7832388408091,52.7029471498572,18.0609003705741,22.4658074263131,-3.5464260009559,-120.813676057374,0,0,0,0,0
76.3920081633713,68.1734594866063,-80.2346622480477,51.9914434628027,-25.4388478617337,23.2202224164261,36.4459983571996,-110.225003595879,0,0,0,0,0
74.3847443570273,69.5456468388663,-77.7482563106264,51.9914434628025,-45.7212865481382,35.792629782928,53.8499548181093,-96.8896471614342,0,0,0,0,0
72.1170968363596,72.6469017025751,-75.4879467839306,51.9914434628027,-53.3546337463766,49.6140570472379,58.6547645103572,-84.2181355288767,0,0,0,0,0
71.1254177316061,73.9112932147476,-73.1040215838261,51.9914434628026,-54.77292510664,54.3350333266603,60.6220501366536,-79.6431152450459,0,0,0,0,0
66.2896103650396,80.0848166272739,-66.5545473468795,51.9914434628027,-58.3850004605406,68.7878077120354,59.4461375765494,-66.9815822716597,0,0,0,0,0
61.9239018840029,85.1988018029709,-62.6492284387702,51.9914434628027,-57.4097891960433,79.289298461223,56.788515361307,-57.7659197869839,0,0,0,0,0
58.0482840625254,89.3335713483939,-58.6967958275563,51.9914434628027,-55.8251583673464,86.2251246908096,53.2977962000881,-51.9914434628027,0,0,0,0,0
54.6237176992223,89.5655377059513,-54.1306537672628,51.9914434628027,-52.222788626324,88.0567821799611,48.9475323154739,-51.9914434628026,0,0,0,0,0
53.5181322638848,89.2160270842078,-54.0436473569763,51.9914434628027,-50.8618322734114,88.3750867235429,46.6126005738356,-51.9914434628026,0,0,0,0,0
52.5918320425203,89.1024807515588,-54.0153784815304,51.9914434628027,-49.7992107070576,87.8362304868716,46.4561442222133,-51.9914434628026,0,0,0,0,0
52.6149837480127,87.7268906400811,-56.0840185433324,52.3327957214737,-48.5031029025933,86.9476097314162,46.331795848191,-53.7331493228651,0,0,0,0,0
51.6430599726605,87.3172906401263,-55.9961892970783,52.4547986283583,-47.5515264618161,86.3315325133234,48.4689414577581,-51.9914434628026,0,0,0,0,0
49.4497672881126,84.2992652283909,-58.0360684742864,57.7819562143886,-43.1083303223226,88.5420507185922,46.6610593982975,-51.9914434628027,0,0,0,0,0
47.7994136950255,82.9222986802757,-60.3100493655592,60.9328908851408,-39.8082695806117,89.7292533503103,47.0054618091647,-51.9914434628026,0,0,0,0,0
42.5928539775682,79.4126702813649,-62.171804714958,65.9197781219602,-33.0218562823167,91.4036321595482,47.4911441381522,-51.9914434628026,0,0,0,0,0
34.8903570649139,73.478807714462,-63.6658694629948,76.6874864078093,-24.2395899723018,92.6426158483243,48.1598484136956,-54.8038389512298,0,0,0,0,0
26.038804907904,68.402748871475,-62.5927646677174,86.4514412694318,-15.1798707490537,94.4195870868017,49.0587663623476,-57.6318141306628,0,0,0,0,0
9.96059100624223,65.3565957567748,-56.4642720518619,97.5671718987174,-2.78758655274758,98.2213525114944,47.552571897647,-63.3992046873618,0,0,0,0,0
4.44680357074576,63.8016719158508,-56.0259839923171,103.789619076822,0.306851425735714,100.45673276933,49.1505920440638,-64.1772624145364,0,0,0,0,0
-1.65931821929758,64.5944397434521,-53.675752096036,106.500005418833,2.05784031580456,103.956333758335,50.3589300088505,-63.4021188287644,0,0,0,0,0
-8.67629268352448,67.5320841492793,-49.7561397646846,110.103552958554,4.3007301707649,106.103603987188,51.539943993319,-67.6239558745769,0,0,0,0,0
-13.4032920481146,67.7586252922603,-47.2261242749533,113.922297735517,4.38150105402779,105.750000423721,53.7793384444387,-71.4834908722124,0,0,0,0,0
-17.6746806587613,68.7160529881576,-44.9335379890591,114.449900052296,5.72811209395388,104.662515576866,54.5544226930546,-72.8158564015049,0,0,0,0,0
-19.9177314615138,70.2489172727648,-43.730287121474,115.03097635333,6.77431467500443,103.898787995478,55.1340052423388,-74.0619417086646,0,0,0,0,0
-19.7416407375814,71.9257944170411,-44.4341442978771,114.31276175584,7.33049999712414,102.384560568048,55.3002223818059,-74.9268459907328,0,0,0,0,0
-18.7045774821294,72.6903625778733,-44.3823501239861,113.80151385464,8.40356911687582,99.2569550701568,55.4170960652586,-78.0180912642481,0,0,0,0,0
-18.4964656943642,73.9658853398415,-44.9103036018479,112.381103131557,7.91096114660009,93.8476563745893,56.8370359357774,-81.114286214,0,0,0,0,0
-17.3475660041594,77.4523532168995,-45.594908455665,113.465754571201,11.7452877963953,85.1141018189075,53.8424866005561,-93.0485879600515,0,0,0,0,0
-16.7973955108087,81.4294857379494,-46.7411195416909,112.582078699021,13.0136413545546,81.4274362233094,53.2021223470884,-98.8662433151669,0,0,0,0,0
-15.0692417684434,87.5179005859229,-48.0015117051991,107.327793134492,13.3919326754876,79.8442749964288,52.4721482981701,-105.095779750142,0,0,0,0,0
-16.7349086881814,93.3916258866828,-48.482750222154,100.39014959664,15.7447977218068,74.9415540390597,51.9534569087752,-108.69858155266,0,0,0,0,0
-13.6033626523764,97.4541084220362,-51.1905765652531,86.6856460525635,15.7847017622542,69.9005295017386,50.1450587989598,-110.414000538747,0,0,0,0,0
-12.4612809066793,103.151061808953,-52.1612009927825,77.93619280632,20.0908685292943,63.0542372827753,44.1240524695392,-116.721516636758,0,0,0,0,0
-11.1979864477706,105,-54.8335979052147,71.7633824891214,21.7764193304152,59.5202996051592,41.5736650472653,-121.827044541807,0,0,0,0,0
-12.8807250821104,105,-56.3524868628858,73.0294336641449,25.6878106962569,59.3835737409467,38.0744721061141,-125.441740098896,0,0,0,0,0
-15.030452194187,105,-58.2473375777847,74.8345509698123,29.1701407283532,61.1713119011394,36.230014766306,-127.408898772876,0,0,0,0,0
-17.3137000238586,105,-60.2264937778719,77.4907179357732,31.226563194717,64.0298799474004,35.4444753428157,-128.589991779648,0,0,0,0,0
-19.5989462708516,105,-59.2777364465884,79.0138450800487,33.0595934631398,67.8722105320884,34.3110087452779,-129.287286695712,0,0,0,0,0
-19.8443514365338,105,-59.1390506026298,80.4166763853154,32.8701378693717,69.064088195904,35.1714892330282,-129.387397591056,0,0,0,0,0
-19.5118844479723,104.140913496085,-60.4021333716939,84.9823845275014,31.9245177844308,72.8731094946979,37.7146320674115,-128.523361966325,0,0,0,0,0
-17.1925617136762,100.971733361123,-57.70215768106,82.6222764149189,28.883458383038,75.4299568346018,41.7215121145531,-122.667654270942,0,0,0,0,0
-16.9457299184861,95.7683970002685,-58.7329286178361,89.4051251469831,28.9248925976413,78.7570469073294,43.9896861048593,-118.692948073063,0,0,0,0,0
-17.1725463749021,92.3592235296862,-57.6354371162983,95.6856302439087,26.1382507453703,82.659965436879,48.1875529541577,-111.354943263599,0,0,0,0,0
-15.2028387258474,89.7432832716395,-58.3280455200607,98.212024791882,26.9598677755472,85.670812205207,47.2957433421328,-104.171365255915,0,0,0,0,0
-16.4151360736093,82.5800616945332,-53.9326945858739,98.8270483711105,24.5392099731882,87.6341036076695,47.2167308496214,-90.4191620913396,0,0,0,0,0
-20.05528873435,77.0560530333178,-50.5158773222805,103.198235129509,22.5711312075705,90.8741854059693,47.7659512240776,-80.8004871156638,0,0,0,0,0
-22.2894413396339,73.640246240725,-49.746190900308,109.106694461979,22.3433691812724,95.6474392269989,46.7651784398569,-76.6059977436226,0,0,0,0,0
-26.5588979894654,73.4383959512699,-48.1779824342844,112.423435075312,21.9509834039768,99.2621158331338,47.9576576126456,-72.9122869160008,0,0,0,0,0
-28.137347430055,73.0884998902283,-48.6713719806784,114.325736020317,21.6854007508477,101.00027698883,48.4357470428593,-71.9025788457803,0,0,0,0,0
-36.5579467650285,74.3400897646842,-46.5882641242019,111.574179632012,25.715283321458,100.315973183642,47.8726137705257,-69.2413569591949,0,0,0,0,0
-43.2805524433394,78.2501093335811,-42.3271602445929,109.198410045542,29.3907795333859,99.3985166462267,49.7418640678071,-68.8490997172248,0,0,0,0,0
-49.9602935115258,81.2722078425873,-37.4061645808426,108.709133030373,32.510380525794,98.3760199949244,48.3303909846359,-72.0148142650073,0,0,0,0,0
-58.1248945274181,80.2853158652505,-29.6440832239112,114.680161815608,37.4078138413835,94.5193413411061,46.5082606941337,-85.8317974015948,0,0,0,0,0
-61.7441772799191,82.2528594602077,-25.2115634209884,116.838778521151,38.8131121288713,92.9956857330381,46.5586806908544,-90.7211541263656,0,0,0,0,0
-59.2844296365441,77.0213203979842,-20.2401570776664,123.656608090781,45.4934854771717,77.4952280139716,40.4801163848332,-105.876324053597,0,0,0,0,0
-46.7116226917984,64.5666005479612,-16.4227229444767,124.325510461933,47.5434207366845,57.8052333322887,32.8666400697613,-115.847374399851,0,0,0,0,0
-29.411169744154,52.5560747521317,-18.9736225265731,116.600002378451,40.951014100469,41.0706673138523,28.2935972636411,-118.454933631655,0,0,0,0,0
-2.74776771243056,38.4007634015042,-34.132770481882,98.3963665509307,17.5141082078975,22.3886112268894,38.9560517463562,-109.169492915373,0,0,0,0,0
9.79470546278588,37.6246589698982,-42.9830249679746,91.8112821769418,5.5082065967953,22.2599999913786,39.2772827222312,-104.261510339488,0,0,0,0,0
32.5030703594111,33.8435498886397,-62.304530995341,81.6094520674307,-23.8293195537163,19.328130629834,59.2247722054886,-95.190064495366,0,0,0,0,0
51.4088014895654,36.0996036155616,-75.9649829589189,67.1399912318753,-49.8079105703075,22.8197596896356,77.7815958927173,-84.2850091408922,0,0,0,0,0
64.5937061189153,39.6073911082728,-85.9471625204654,51.9914434628026,-63.5781285113597,29.1441951809595,87.5127190289807,-67.7850275641651,0,0,0,0,0
74.7567345739523,40.4917700718678,-94.226494233836,51.9914434628027,-73.0505587020055,36.1833422731754,93.4325860369337,-51.9914434628026,0,0,0,0,0
79.7786227246195,41.6166414907068,-96.9509388641082,51.9914434628027,-76.6197419178103,37.5962013137056,93.2372607925807,-51.9914434628027,0,0,0,0,0
83.2960648360786,42.9774399256535,-101.369698875182,51.9914434628027,-79.0841067908107,38.5155617768112,94.7561597389583,-51.9914434628027,0,0,0,0,0
84.6528619007975,42.8570339410582,-101.973871762512,51.9914434628026,-81.6587724106519,38.9244812549239,98.7643975243511,-51.9914434628027,0,0,0,0,0
83.2983039194451,44.0524189967547,-98.9100936557288,51.9914434628027,-79.8177356592619,40.0881686275982,95.4131248398612,-51.9914434628026,0,0,0,0,0
84.5222934453166,44.3294485867755,-96.865943227779,51.9914434628027,-81.0663575617559,41.2639442773342,93.6215028688303,-51.9914434628026,0,0,0,0,0
85.9149901274734,44.1041086162428,-97.439573857509,51.9914434628026,-82.6379215366418,41.413203776356,94.393038363946,-51.9914434628026,0,0,0,0,0
87.1363446985812,43.685433355985,-97.9395712461465,51.9914434628026,-83.7808430656675,40.7815978113483,94.8687624992621,-51.9914434628026,0,0,0,0,0
89.1394688747826,42.3118455871973,-101.397255091309,51.9914434628027,-85.8436980854573,39.3957899167127,98.3774276258703,-51.9914434628027,0,0,0,0,0
90.2191276565918,40.1782815699037,-101.900592098688,51.9914434628027,-86.7805981543842,36.927035092941,101.323675871561,-51.9914434628026,0,0,0,0,0
89.2407988128769,39.0141009098978,-101.401466890419,51.9914434628027,-84.9531819341468,35.7963450013604,100.223399550338,-51.9914434628026,0,0,0,0,0
89.2219942725274,38.0169850842456,-101.378942318557,51.9914434628027,-83.3753990787941,34.8588285327735,99.222821213672,-51.9914434628026,0,0,0,0,0
90.3576074229242,37.2800059250783,-104.592658939236,51.9914434628026,-83.1750850622458,33.8625583382593,101.580586934668,-51.9914434628027,0,0,0,0,0
89.6791338961143,36.7745049416342,-104.219704757355,51.9914434628026,-81.0651822222429,33.7026905969309,100.27786885906,-51.9914434628027,0,0,0,0,0
87.053209067877,36.5358781483104,-100.155125603572,51.9914434628026,-79.3547864609358,34.0475724397848,99.2884121372329,-51.9914434628026,0,0,0,0,0
85.1552836952371,36.681562966884,-99.1103031861186,51.9914434628027,-76.5014993968499,34.6387408887871,95.1067913076882,-51.9914434628027,0,0,0,0,0
83.8744973768248,36.473093420646,-98.3782285846585,51.9914434628027,-75.1340249499358,34.8757147459692,94.3375903137634,-51.9914434628026,0,0,0,0,0
81.2778193311163,36.05633814992,-94.2685069945433,51.9914434628027,-73.0742361246141,35.0386041012974,90.5669705520845,-51.9914434628026,0,0,0,0,0
79.6260139283021,35.033687857035,-93.1589569199224,51.9914434628026,-73.0069595099891,34.3308387875122,90.3362334423349,-51.9914434628026,0,0,0,0,0
79.6787010051945,32.7932803832749,-92.8249788332553,51.9914434628027,-75.3205618512302,32.7488905349288,91.3841627509112,-51.9914434628027,0,0,0,0,0
82.9880832694955,30.3639257328305,-97.2113609629295,51.9914434628026,-80.5037224762559,30.5010424912114,96.8920888817497,-51.9914434628026,0,0,0,0,0
85.9126642733979,29.3848020310434,-101.661740689376,51.9914434628026,-82.6600169842862,29.3804204522619,98.1843325958891,-51.9914434628027,0,0,0,0,0
88.8640899620081,29.4579510962881,-105,51.9914434628026,-86.5430313591617,29.3856408343712,103.379302693775,-51.9914434628027,0,0,0,0,0
89.1204439568343,30.455658166173,-105,51.9914434628026,-84.7323501728024,30.1227494192159,99.632655077611,-51.9914434628028,0,0,0,0,0
84.0852642473366,32.2685007475006,-98.1021545917182,51.9914434628026,-81.6249320933536,31.966261810252,95.2235138982334,-51.9914434628027,0,0,0,0,0
78.2580261319451,38.7630446362373,-87.8612188634189,51.9914434628027,-77.069290989636,38.6166751429688,88.5092350332277,-51.9914434628026,0,0,0,0,0
76.5663655087823,44.1168790740413,-85.5840611162691,51.9914434628026,-74.9800106505207,43.510292848787,86.0385104169469,-51.9914434628027,0,0,0,0,0
73.2654297807757,51.1923408168087,-81.0049198411812,51.9914434628026,-71.3993040624324,49.6857737800754,81.2144789619968,-51.9914434628027,0,0,0,0,0
70.2448712364247,58.5664548178124,-79.4879332702006,51.9914434628026,-67.1087619954473,55.6536489170918,76.3563801304853,-51.9914434628027,0,0,0,0,0
67.2834953880312,65.1049709978841,-77.3398318037915,51.9914434628027,-64.4210872241673,60.8589897595058,74.1599305769387,-51.9914434628026,0,0,0,0,0
67.9403932008731,71.9687248926076,-77.9609628257487,51.9914434628026,-64.3475626433694,62.9276679156301,74.3574497925884,-61.9854553077136,0,0,0,0,0
65.3608998046756,72.144656708976,-75.527416323408,59.7696593002482,-64.0355533247393,62.7676257220675,74.3475407383162,-69.4553240252881,0,0,0,0,0
65.5651241925264,69.986590245261,-75.3869139726544,68.1890129673621,-64.9791213825001,60.9553674410518,74.0871420115609,-76.3021320120342,0,0,0,0,0
66.8336045388719,68.542944015162,-75.2195563909982,70.2919519938159,-66.35635660205,59.2954621521984,73.7986535486499,-78.0394070592859,0,0,0,0,0
68.5702621065992,66.8580400918938,-74.9447643330796,67.8848884381326,-67.5007350182901,56.7909697150833,73.3255098215781,-76.169991142145,0,0,0,0,0
72.0503666558854,64.1865840644557,-77.2316895114641,61.0007614154844,-67.9875894351967,52.2863554188317,72.4816179306784,-71.5514949983333,0,0,0,0,0
74.9577540232338,63.9438908496173,-79.9075037231347,56.3786533494106,-68.4018303661288,49.719190844779,72.0027224888353,-69.0579502678674,0,0,0,0,0
76.3612704641215,64.87842722667,-79.9923345493368,51.9914434628026,-66.6648206750635,47.7551356473257,72.2957501854424,-64.7918723761056,0,0,0,0,0
77.3570704651228,63.6454043320921,-79.898337958818,51.9914434628027,-61.814847079042,43.5949346809312,68.2929147641209,-63.8184076742623,0,0,0,0,0
76.119750806926,63.3395049447497,-77.1694201868431,51.9914434628026,-46.5002478088321,38.525177658929,57.530802118936,-66.537668310532,0,0,0,0,0
71.3735556607161,64.9847704173511,-74.6527025166128,51.9914434628026,-8.83302538411822,34.716455641527,28.7758604877605,-80.1298424016235,0,0,0,0,0
68.8759064736457,64.8276669604745,-74.6345817517028,51.9914434628026,7.38260475441573,38.1033561713172,16.4878084101799,-87.0983930494834,0,0,0,0,0
66.3568958574347,65.2707817646533,-74.6855726575087,51.9914434628027,22.1686416965361,41.8363065911391,5.44469676596657,-94.0590944423545,0,0,0,0,0
63.8428736115274,66.6346583166046,-72.1924097207354,51.9914434628027,35.8090357557789,45.280569815985,-4.54404887647856,-102.270744819783,0,0,0,0,0
63.6015559239305,69.8720512732523,-72.608419822323,51.9914434628026,46.4998356419532,51.3913377307569,-10.6507475390257,-107.272625785111,0,0,0,0,0
65.0332791822743,70.6629670442046,-72.7077101534921,52.051747279106,52.8321494469903,56.9846923425359,-13.5794919474993,-114.735945475544,0,0,0,0,0
67.4660086126805,70.8462239645438,-75.3046695805143,52.8291974584766,55.0697953627495,57.821782926828,-14.399518001298,-117.902709182593,0,0,0,0,0
68.4687372015107,69.8113565953711,-75.1887863764123,51.9914434628027,54.5098495488606,56.7874390926401,-15.0426037164175,-119.891944833168,0,0,0,0,0
70.0685608003792,68.7364407988905,-77.675751333412,51.9914434628026,48.6777681950714,52.8357156676482,-14.3673190625671,-120.833255747604,0,0,0,0,0
70.3131487813491,68.4045236166256,-77.6457813242173,51.9914434628026,40.7992530808246,45.0002122541902,-14.0976013140008,-119.229426032583,0,0,0,0,0
70.9931604025876,70.1964981509435,-80.3778742744183,51.9914434628027,5.97663518430545,30.6690437518153,11.5195052618783,-111.05042510819,0,0,0,0,0
70.5476736782511,71.7386441734762,-75.3932105606195,51.9914434628027,-10.7710734230326,30.7497868276243,26.5457282366421,-105.006688538047,0,0,0,0,0
71.5728955046071,73.0094724462615,-75.5254993409641,51.9914434628026,-30.3117350375891,36.9212135181754,41.7721217389025,-96.1404680060086,0,0,0,0,0
69.8253693548877,75.6663042671612,-70.8228127548936,51.9914434628027,-43.7798037578703,46.4785667553297,53.6701361461229,-85.5872472972961,0,0,0,0,0
67.5579946429069,79.8037951030006,-66.5085675450743,51.9914434628026,-49.2924907239294,58.456089114331,56.1602898680645,-74.0947762693269,0,0,0,0,0
64.313082262605,86.1524407704387,-62.9842198293702,51.9914434628027,-54.1573722107463,72.6341387441986,57.7673099438137,-62.4602059405216,0,0,0,0,0
63.0207010930161,88.5331511651461,-61.8717429888429,51.9914434628026,-54.7864294111334,79.41588041937,56.7557534934923,-56.3559974044118,0,0,0,0,0
60.6253825064728,91.1672529739824,-58.6490645179808,51.9914434628026,-54.3736931011391,84.4510043904244,55.2861269453281,-51.9914434628027,0,0,0,0,0
58.0223582337807,91.3080249153964,-57.0483471070273,51.9914434628026,-52.1800808467909,86.17712848308,53.2857952473838,-51.9914434628027,0,0,0,0,0
55.2828617167299,91.2860966357794,-55.3948218129321,51.9914434628026,-49.9151134519473,87.2449967404921,51.1451421431229,-51.9914434628026,0,0,0,0,0
53.3893655608141,89.7838445633096,-56.5409266024568,51.9914434628027,-46.9569347519308,88.0368118456412,48.9420000155297,-51.9914434628027,0,0,0,0,0
51.8234294151942,89.4776757437576,-56.4691237850498,51.9914434628027,-45.6232036010883,87.9307816976772,48.9126245850402,-51.9914434628026,0,0,0,0,0
52.7034843926236,88.9977352544662,-58.7089395857943,51.9914434628026,-45.1300561635938,87.5491468129441,48.8068581709138,-51.9914434628026,0,0,0,0,0
52.1745177946952,88.0381838831272,-58.6479392327571,53.9819122130352,-44.4904297722852,87.0555679294655,48.7108243716052,-52.526278582554,0,0,0,0,0
51.2145432025759,85.3343594807118,-60.7512401474638,58.9747557042535,-40.2095067617145,86.5021121001001,46.2735513026135,-54.7189634920032,0,0,0,0,0
47.9681804049691,82.5998206291326,-62.6826119098339,61.7536724250109,-35.2261213797727,90.4897124523316,44.813989326517,-51.9914434628027,0,0,0,0,0
43.4333269181169,80.4809635838248,-62.434648110545,65.9359940100347,-30.4728755752224,91.9791006194439,45.2653996439303,-51.9914434628026,0,0,0,0,0
38.4667889959833,75.1931029010362,-64.0530951982109,75.2088670379101,-25.7295655103558,93.8427400992744,45.831511686217,-51.9914434628027,0,0,0,0,0
32.7842893345923,70.5529775619239,-63.1355300479704,83.45961685146,-18.776422310313,96.1562218401576,44.6092404429827,-55.2083746769734,0,0,0,0,0
25.2363224445336,68.4618043210369,-60.0780323414137,89.3334825424749,-11.8162944150661,98.6071490242629,43.6326010050121,-58.5947408419574,0,0,0,0,0
8.53306611547505,68.4162677698209,-52.330897515835,98.0232610687337,-1.39854191442303,101.721376310199,45.3964708625564,-66.488855876194,0,0,0,0,0
2.01906819903034,67.5245519939568,-52.2446984853117,104.289318187267,2.81899590157036,103.680096286451,47.6531463152308,-69.9210977781778,0,0,0,0,0
-6.5929033695572,68.3830952627835,-50.2407594213283,109.795200647911,8.64415527568286,103.822119442299,48.5623239799808,-74.3605455560521,0,0,0,0,0
-15.6698491189848,71.8598780586285,-45.9729046208609,112.951793293452,11.9331071388704,104.740847719396,53.4558203419613,-77.3144570863508,0,0,0,0,0
-21.3664250250515,72.7229767284039,-42.2710256693121,115.105788784886,15.662635116428,103.039226891553,55.6882408581379,-81.3457735397858,0,0,0,0,0
-27.4528503341725,78.0276597971519,-38.085548202016,115.799224200794,18.2691062450309,100.254801876765,53.9958468788479,-83.4409928952801,0,0,0,0,0
-29.5848021729298,80.9210001714061,-37.6079486260464,115.549167711165,18.6918319756913,98.9523179553003,53.8737389946039,-84.5388670196039,0,0,0,0,0
-30.6230335834671,82.9715774351728,-36.2187722631146,115.066470143098,17.61526514576,95.2970603786684,52.0286676744812,-84.5724941467098,0,0,0,0,0
-29.9765935068412,85.1850782941591,-37.2908660516197,114.321601560538,17.5177450097759,90.7242502170987,53.3090908279123,-87.4536545331645,0,0,0,0,0
-27.883668648873,86.2642202603174,-39.8854348143021,114.476421485994,18.0220776221438,84.9326241421481,54.3273937190243,-95.1308981321015,0,0,0,0,0
-22.1706755334887,90.8203260782924,-42.0631295261723,106.768488341834,16.7610065715071,78.7981362212097,54.2608613304616,-101.252332776291,0,0,0,0,0
-18.6591396489135,94.90816359022,-44.5116567687356,101.2117775846,16.048327397127,77.2989386170938,53.1656961215324,-104.789516526444,0,0,0,0,0
-16.9050177944878,96.8575129765988,-47.2023092565053,94.3847580850883,16.9377390655983,74.3379452140793,52.4096396333165,-107.492054963584,0,0,0,0,0
-12.3450841513175,99.4160526304623,-48.341936932818,82.5789954827991,15.8071583591846,71.6837198166692,50.8990577010869,-108.656870175537,0,0,0,0,0
-9.68625853160361,101.860128011256,-47.8163607889166,72.5138712733426,16.3106999943466,69.7957854291169,45.3698108022875,-110.313483693385,0,0,0,0,0
-8.17354472247496,105,-48.1093686448892,62.3308201050381,23.9206405102821,68.5427880517757,38.5861778951015,-113.288130331364,0,0,0,0,0
-6.76276454072961,105,-50.3304590349768,56.1999020254867,28.4333074414075,68.0965255601712,35.1594313374478,-116.016372601269,0,0,0,0,0
-10.8980326958865,105,-50.7191907340572,58.4081987270082,34.1119032708676,69.6064238570591,32.7637175601476,-120.817423086797,0,0,0,0,0
-14.1938423296445,105,-55.5445614038265,64.7384635200664,37.9365507303918,73.3047384808127,29.8263936511541,-124.622661372035,0,0,0,0,0
-18.1549241173252,105,-55.8197469987667,68.0844720180691,42.0927404339706,77.2789482176289,27.6292079136012,-125.043965962379,0,0,0,0,0
-22.6911996519703,105,-55.3341460899486,74.4780108642475,43.7734954048525,81.7843370977551,29.1342642853484,-122.909999476947,0,0,0,0,0
-23.6559892042882,104.228917342229,-55.1898267944887,77.6580600192145,43.5386079494305,83.3438136315714,30.6205190957879,-120.617824393726,0,0,0,0,0
-23.940946592344,101.751806980527,-57.3996775796012,83.2179212807117,43.2630790815324,85.1493552036339,32.2842100937546,-119.8714661357,0,0,0,0,0
-23.6311330244731,99.7910703013916,-59.3987032742013,85.9927613304693,41.8066761746131,84.9501414443344,34.9835179203283,-119.466760535329,0,0,0,0,0
-22.8136821618179,97.0617981274057,-60.7413320174051,89.0023922647623,40.2850663308502,84.5663243099581,37.4141067429665,-117.78101309178,0,0,0,0,0
-22.938264842049,96.3057303989781,-60.5434335321569,91.25879326888,38.8847471448405,83.5575039589475,39.3331822153905,-116.823125777384,0,0,0,0,0
-21.4477404491742,91.4388884830571,-60.5942049779289,93.3660160428057,34.8521761359611,82.6957880619779,43.3754036840323,-109.178313342152,0,0,0,0,0
-18.6042955924651,85.7045751007403,-59.4519877656764,98.6728215355689,31.8689911478195,83.4517821283511,45.6034642224661,-105.784192257799,0,0,0,0,0
-17.8143709088478,82.2879404793913,-57.5003001125224,104.141065850686,29.9335465107439,84.6708542757867,48.5749161345589,-102.66983079709,0,0,0,0,0
-19.228676338102,78.5055798657471,-56.8888492817502,105.890646662339,28.6187198585327,85.6107953452615,51.6032708368723,-96.4871026983616,0,0,0,0,0
-20.3266444669331,76.3796057882902,-56.5387518735445,108.915050264573,28.7390352634003,86.2907105424472,52.0473106397252,-94.0397607140936,0,0,0,0,0
-29.51556882326,75.3552258717719,-50.8856405153604,106.208259173245,30.1429810853144,86.76191579672,53.0665357594179,-88.4133183854545,0,0,0,0,0
-39.6657852392858,73.9884101134177,-43.8820861032725,108.474003111045,35.011028437417,89.0624069402401,51.029023956773,-87.3886122466038,0,0,0,0,0
-52.3860084380201,73.6986680322516,-33.3370671568566,113.968519838328,42.6918245105854,88.3887947910628,48.9735440074564,-90.3225662172646,0,0,0,0,0
-65.566499012068,76.2626731313305,-19.3009316313688,121.037600175206,55.2449022334073,85.9076585501826,40.1244506167072,-98.5408373713018,0,0,0,0,0
-69.9854318244073,77.8362396508496,-13.8141224530404,124.512085816392,59.9417643166868,86.4676888146602,35.8539906554026,-103.365538393111,0,0,0,0,0
-63.8788180439858,80.413548161293,-1.29511920677054,133.8386399081,68.7952608313846,81.1554006702297,17.1356681864314,-114.608884515846,0,0,0,0,0
-53.4791972720508,76.4396381419267,0.978964488589778,136.694560584598,70.806035440518,75.1582262613892,-1.19830461634222,-123.698949594142,0,0,0,0,0
-42.9024924565928,75.41854054731,-6.79510287225059,134.549077079601,65.4938771928013,69.8756922095435,-4.89077116198997,-130.126486736571,0,0,0,0,0
-37.7526084363038,75.7174142582853,-19.0174934249017,130.627307452906,58.4572404768132,70.2863976664303,-0.779760717116768,-134.485076628285,0,0,0,0,0
-37.8783060967335,75.5069246315469,-22.4067703360335,128.531282233204,54.3202298215723,71.2769350175104,1.98730165658105,-136.771835279271,0,0,0,0,0
-41.9076230196595,80.2838538892619,-32.3809558999519,123.705689796442,56.9046839238988,74.6222039285236,9.80387974727033,-138.025913881994,0,0,0,0,0
-42.9017670477579,84.5462669563122,-37.0159011906044,109.99225268844,63.2206528240537,77.1303839736689,13.1097639296808,-135.093660978289,0,0,0,0,0
-42.6731106083964,86.6636474001545,-38.5064433509882,95.6840061438402,66.7808948720393,77.0269511617227,12.9279472853587,-130.812132664551,0,0,0,0,0
-45.1116223934643,89.6902593246391,-39.0417949694605,91.018547629147,74.5692643109725,74.5732064531229,9.77206780555678,-133.04037021245,0,0,0,0,0
-47.0234356947242,89.281378423069,-39.7435499191847,89.5422747420172,78.9250004154001,73.3459174038206,8.10721811890486,-134.263770533574,0,0,0,0,0
-52.2505623198163,90.4781836551129,-37.6285195659108,75.5019233192718,83.660999659898,72.0618342219832,10.6030457910704,-127.831162136597,0,0,0,0,0
-55.3510700764104,91.734045209907,-36.7719655441414,64.1573274335678,89.859555538127,71.3875647188961,5.96054544508522,-122.076084698364,0,0,0,0,0
-59.1162183582236,93.8417287181982,-36.7323695670796,56.7664558316252,90.5155120064575,70.0448498167434,4.98507948808075,-112.629456579056,0,0,0,0,0
-61.1792171592446,94.2934642508156,-37.2139501638002,59.1613797189045,89.2074568107022,71.1069940637402,3.07089156418525,-106.473804084324,0,0,0,0,0
-62.2383248972632,94.874237533927,-37.8336244629132,61.9639931798372,88.514592762963,70.8411120103973,3.12445830336463,-103.167288281449,0,0,0,0,0
-64.6177008922042,92.2590439853322,-35.0681906767354,68.7179018615818,92.47284640731,68.7860400946857,-5.27573173533585,-97.612702704102,0,0,0,0,0
-63.0609506852318,90.4290395637062,-32.4426619880547,75.7660271823033,89.8361342018452,67.4753852636564,-12.7070853672123,-94.1461754066157,0,0,0,0,0
-62.8559768467848,87.7819185142411,-29.179933965207,84.255976970448,88.5571249565827,65.6578337449033,-15.4535672443929,-96.8808722254996,0,0,0,0,0
-61.1601952980809,86.2293684164077,-25.9874907800208,90.8019611478863,84.6424036731118,66.9605720261373,-18.1476368710873,-99.7173892002512,0,0,0,0,0
-59.7001205514068,86.2525376278638,-26.0199987437013,90.9565137464394,81.8716705965205,67.0718984338954,-14.4960117138985,-99.3771928265803,0,0,0,0,0
-57.2912454382698,84.1327964218521,-22.089018947419,98.6092289379374,78.8594172948062,65.8375229039623,-17.2700291175066,-104.142728368868,0,0,0,0,0
-54.4533046044625,83.0066835781076,-21.4942818893515,103.221280928769,72.5702470745162,67.5739282273293,-16.404316681468,-108.014848008646,0,0,0,0,0
-55.1340000829773,83.4491367242418,-19.122281588847,109.616243585505,69.5556165530143,67.9818267796654,-12.2636975733035,-111.897699671716,0,0,0,0,0
-53.5346164981655,82.6111292705905,-15.1635567220113,114.53597905657,65.9106127926121,70.3280489884148,-9.78201378099558,-115.382303639803,0,0,0,0,0
-52.5682384651626,81.663738024966,-14.2309985731136,116.256464068642,64.2134718534804,73.0219951374498,-8.69087517943361,-116.197389256688,0,0,0,0,0
-51.1712733361963,79.269593444282,-7.92991482529326,121.935833261462,63.2579936357235,75.7319790815641,-8.10900691378764,-120.060059245274,0,0,0,0,0
-49.5921274806902,76.7533522818192,-0.315882503489778,127.232832824773,65.4238344959547,75.5967491911791,-9.53589269869567,-125.249863713058,0,0,0,0,0
-49.3928881876224,73.5656759433372,3.24564664271032,132.074426379611,69.106730143426,78.2570655572436,-11.9808374305446,-129.842520331361,0,0,0,0,0
-48.9773222299555,73.7691167078883,6.45090475050785,135.224894810046,71.7990395232615,80.0649119654249,-11.3319629090031,-132.188108406168,0,0,0,0,0
-49.5277468945585,73.0212906155836,7.47465999030689,136.476267914076,72.6418581126093,80.7883293826206,-10.3667721695538,-132.679725127579,0,0,0,0,0
-47.7365220716942,77.683222925102,-1.66533761647283,134.295785742954,65.6838122197969,83.9718730467952,2.03290103928874,-133.851276205277,0,0,0,0,0
-48.2741509440541,79.7852154494213,-11.3104119196513,127.873612667624,61.8292022437482,86.4835895206766,13.1288276046288,-130.727389086252,0,0,0,0,0
-51.0034507856282,80.8651369718593,-16.8767987945045,125.459554399682,63.9774705792299,85.4808261788835,15.7075956035233,-131.024548968331,0,0,0,0,0
-52.6472899491328,84.1945023211639,-21.7660445318016,122.181951611384,64.3530023562081,85.2219394597576,19.0710157523563,-130.108008240115,0,0,0,0,0
-53.0718948106934,85.4846529970323,-23.71188024952,121.480662052002,64.3883106395234,84.1177857113584,21.4668694058568,-130.738227238476,0,0,0,0,0
-56.3979283774692,82.510824511412,-25.0569539028967,113.802300348548,75.3048896078556,75.6754430628775,11.2169483645231,-133.445679067144,0,0,0,0,0
-56.9808114057235,81.1279465990132,-28.8010232564662,98.2114318380198,80.0237432492746,68.6261989709472,5.81009310455637,-131.783759220637,0,0,0,0,0
-59.6224182113064,85.1339861689347,-29.9988344951407,81.3804635460096,79.4749179783593,67.9921487828167,5.01664441368378,-129.721518373033,0,0,0,0,0
-60.6280129389284,87.2949469882336,-32.802008890446,70.1579774092873,82.9942984878661,66.0037388488966,2.42905157352539,-126.044628794417,0,0,0,0,0
-61.9085034589145,89.3358407041007,-33.827948513576,70.2926895402557,85.5151959420138,63.8158610457248,-0.716739695887348,-124.782232833378,0,0,0,0,0
-62.6701246957428,90.7301518560768,-33.5756773169428,62.106807027158,89.3609157146642,62.4522115700613,-4.52982471032667,-110.932470556633,0,0,0,0,0
-64.7083606778573,92.3260052069658,-31.6882135683744,61.678432233753,89.1656237198268,62.7845236387178,-9.44200980205072,-101.020616626608,0,0,0,0,0
-65.5381587460497,91.8626651826492,-31.8634650316259,65.0068452664708,88.4930232338514,62.893677869916,-14.4896051593795,-94.2495200687974,0,0,0,0,0
-67.2426598276193,88.9260259754409,-31.4026730143979,73.928458907578,87.0730913258845,63.798909796557,-14.3533633556991,-97.385896669332,0,0,0,0,0
-67.9431427118675,87.9961921686965,-31.2240372425009,76.9706859772989,85.6548929453713,64.1758740877677,-10.6557858087873,-98.4071211173086,0,0,0,0,0
-66.9313717929978,85.0078766633091,-25.0811428849511,90.5599143201101,82.0990254926335,65.2041135392193,-10.9404343688581,-104.435910931985,0,0,0,0,0
-63.767301538595,82.4563686839168,-17.8842972551318,104.930387912045,79.9425704993453,63.5438608159209,-11.2714219032989,-108.746540177261,0,0,0,0,0
-57.968552375669,81.7035600720052,-14.2424243353866,115.45376353186,78.059450673408,63.065647071543,-7.15592382335447,-108.609170156635,0,0,0,0,0
-51.7315365395295,80.5796134487516,-9.4786110499944,120.949127912764,74.0939708233855,61.9601203087575,-7.63295762411226,-110.545784869625,0,0,0,0,0
-48.5490168221674,79.2901369916225,-10.7678996611879,120.825422775839,71.3942519853805,62.9996176585973,-8.15936728252321,-110.608548729756,0,0,0,0,0
-44.1073019328153,78.5937402769675,-7.18027373466365,117.97201360334,58.758338689111,67.0923642105394,-5.8171504885283,-112.859204722376,0,0,0,0,0
-42.2661129854325,78.7436977099013,-7.35747845525045,117.731564144027,52.5711201797947,70.5177956854571,-2.32277990295336,-116.69735154598,0,0,0,0,0
-43.3520074859924,81.0384848570859,-9.97269726975062,117.789167446991,51.2093674539591,76.6976726113643,1.79850732062115,-118.895669077637,0,0,0,0,0
-44.9164139334017,83.7536179642101,-15.2470849732859,116.91240781956,50.289380099207,80.6952345841487,9.59321861131649,-118.737599122923,0,0,0,0,0
-45.4028012821998,85.7120150184533,-17.3735199471091,116.163894373171,51.3736816424534,82.0182554576863,11.0906047236264,-118.538799933432,0,0,0,0,0
-47.9601445654587,91.9244845183325,-32.640921009664,114.916772517254,52.5600387462913,90.2735096731463,27.6832978644692,-118.106524617103,0,0,0,0,0
-52.7055614263318,93.9571831476106,-38.6236460124627,109.601126953726,54.2582752720818,93.3679652689625,37.2166123093848,-112.190688415073,0,0,0,0,0
-54.7704124078947,93.9227430257534,-40.7959697923317,114.87493812501,54.6482428036992,94.3756387195403,39.1083500650247,-117.903819509447,0,0,0,0,0
-54.7250807376907,90.8998159122289,-36.779515064002,118.282294424111,55.7723165659905,90.702453851775,35.2837026052836,-123.216124329417,0,0,0,0,0
-54.2623254252312,90.3015338270844,-35.6188960473261,120.783024731697,57.1446534391825,91.0203365852129,32.3097130185724,-126.67620956479,0,0,0,0,0
-55.3730184666226,84.1222831952564,-27.3060865651291,119.350643909602,54.9997536643195,84.1288266892496,25.022408337069,-127.472420660122,0,0,0,0,0
-55.9645833332557,78.964006519987,-22.097842465035,119.560311262986,50.0916435861409,78.2902234327478,19.4578493778707,-127.685760895627,0,0,0,0,0
-57.2471132145749,77.1791227887714,-20.2289073693621,119.671278421791,49.2287369400568,74.0186319484664,14.0350274588048,-124.419594103393,0,0,0,0,0
-59.5196784890228,77.1446826786883,-20.4004997877608,124.186301756169,50.0971027895269,69.7583647067653,12.6679037947128,-124.3670330505,0,0,0,0,0
-58.8809384627587,77.2013111156582,-24.1810774754436,126.757621080328,51.5366242572757,68.0817765638646,10.3796142253926,-124.759645600286,0,0,0,0,0
-69.0069857378222,75.1781182450652,-18.3574970511866,129.901454789399,55.3190582202416,69.3950097231116,11.332867432053,-123.073501650608,0,0,0,0,0
-76.3397890913064,72.1810917083089,-14.7156480184856,131.998954472802,60.8685138045884,71.3743984491822,13.817883567003,-118.580201992415,0,0,0,0,0
-87.8159902889369,68.8889393254001,-6.2365543388689,130.710042910236,64.7517091865331,71.856283553983,14.4480787107957,-112.766402769858,0,0,0,0,0
-96.6245710928549,67.4836216522038,-0.576827358560532,123.508573128358,65.9702093405579,75.6073194801906,18.2172429876424,-106.692212421511,0,0,0,0,0
-101.119428714357,66.9781710132966,3.90949941032096,120.286038088922,67.7217099374308,77.7962043944151,20.2000318615382,-105.130195841498,0,0,0,0,0
-97.1239830317751,69.4022273824342,3.03054198935778,109.827600117253,69.5661666061852,82.3229712478629,23.1139198814952,-90.3597956131766,0,0,0,0,0
-94.8648683393443,73.238147074284,4.78685727029267,102.426719042478,70.7832884392536,84.6611779800785,24.1565791607529,-82.1485176116775,0,0,0,0,0
-91.1814436498162,75.8734304306188,5.42145399959377,102.058355136083,71.1513445773426,86.981620389765,25.6789681403446,-82.4269171075986,0,0,0,0,0
-88.1330983559346,76.4460669456557,5.13867118795791,104.590144176067,70.0410581963536,87.2287024045814,28.8907312462204,-84.8667573846021,0,0,0,0,0
-86.7991603899975,76.8432722408953,4.68497854971278,104.302079435047,68.6228748127069,87.4012557866137,31.7259610690488,-84.5132330124136,0,0,0,0,0
-85.3209475907186,75.9422711205998,6.13229960907524,108.136100380343,64.5739685286268,87.2481058953355,34.6863262124143,-87.1891293556933,0,0,0,0,0
-83.7430235079124,74.7460389679931,4.20452022741671,110.682195252872,62.4662053424252,88.9706858922716,38.734885275074,-89.3421472931962,0,0,0,0,0
-80.5691816577013,74.2265508053156,5.10640133636659,112.964094645017,59.4778046199906,90.1080309506787,41.9716391506935,-89.0333585376335,0,0,0,0,0
-75.2087517414187,69.5551505600318,3.88606178223324,116.887059060397,58.5647369355282,90.4094105755942,44.8298517170523,-91.9098784323792,0,0,0,0,0
-71.9276627497688,70.0990415462673,3.27759713193955,117.717559779247,57.7861630206558,91.2980262043194,45.376906349466,-91.892959409749,0,0,0,0,0
-66.9400255547283,70.0133690444063,3.22770426464335,120.835993612213,57.6437280340238,89.9700182060338,43.6966945831668,-96.1348378842026,0,0,0,0,0
-59.8703702065177,73.1924944877863,-0.909912861227495,123.731400169262,58.4152814339931,89.1494520484063,38.8545209703016,-101.105870511063,0,0,0,0,0
-55.6468390220674,77.29431616458,-5.39755073449847,126.918316326104,59.0924875552598,88.1492369377633,33.4551935401128,-108.402533350021,0,0,0,0,0
-56.4770477658,75.520080223372,-5.44135074278894,131.088084944072,58.8157493440428,84.455306282417,27.3275522153323,-116.446316720177,0,0,0,0,0
-55.6969499100343,75.4808647909934,-5.50300176024376,132.970374038559,58.5574013388829,82.4439535595182,23.8382700783016,-120.312991572611,0,0,0,0,0
-46.945524335142,77.6770634169298,-13.7576540019705,131.859789360868,53.3767412981736,78.9076198888298,16.7749363093008,-126.192517207432,0,0,0,0,0
-39.4322112196363,79.5333745567397,-23.6236413096103,127.328634400425,42.8015044423921,74.3917396883648,13.5499111975393,-131.903691278754,0,0,0,0,0
-34.0527779548634,78.2421799191818,-34.341096264568,119.387973416563,34.8782045996663,70.3705748264982,12.3914087682911,-131.056059099109,0,0,0,0,0
-28.7000775029575,74.9449564937043,-43.2912721001601,114.685982035114,28.5330747894237,65.7572486949783,14.6065129377989,-127.845014295994,0,0,0,0,0
-25.4077132947621,73.2051783990671,-50.8753369083538,112.529026708006,26.9663619624396,65.907187088999,14.8638542666237,-125.438941083671,0,0,0,0,0
-24.9095185165107,77.6991258215316,-56.5845577647104,106.700612922482,25.0996211223799,70.6263214762975,20.3648043279344,-115.902559617844,0,0,0,0,0
-30.0683937875342,73.8228446317339,-60.5822038466112,101.345051149539,28.1089411765507,72.2609654309477,28.2786479408297,-102.106702404391,0,0,0,0,0
-35.1149071403299,68.8304828098943,-62.3562821187363,96.0723818946236,31.7106504203724,75.7458357279902,37.0949247328235,-90.4906539762794,0,0,0,0,0
-40.8872119785122,66.7217402363227,-59.4191284761166,88.8668232497465,34.5053439734896,78.8068650858556,42.6169755306885,-75.2648428391904,0,0,0,0,0
-46.0096553225399,65.4977875004767,-56.1636563077032,88.6146535296758,36.3985424326237,81.5232821400918,45.0384832014415,-72.327280799585,0,0,0,0,0
-63.1390084791295,56.9431768617744,-36.5589025152157,82.8160326831993,40.3886511788708,85.0895267359548,43.9327803671739,-62.3604467364857,0,0,0,0,0
-74.9649644756537,56.9902565525624,-17.1132771349197,79.2833090973089,45.81423237888,88.2362504694204,41.93165075279,-55.0539618181099,0,0,0,0,0
-82.2819883267411,61.039267039842,-3.41822222816784,82.6498377487654,51.3336935292287,90.7728901829985,40.0307191528565,-51.9914434628026,0,0,0,0,0
-86.1131885734536,65.8307360905279,7.31074292522726,92.3321367694953,56.3161123538685,92.5282117413314,38.4537967392927,-54.6408356433785,0,0,0,0,0
-87.3615594470289,67.0716895288009,13.895512770923,97.0850809902642,58.1031612444449,93.441492637704,38.9189861244801,-55.8075169004081,0,0,0,0,0
-86.194140078772,69.7685024577405,17.4252494565559,109.765878358439,60.5971284907672,92.3508814475747,40.1271129882861,-68.6895600058043,0,0,0,0,0
-82.1862502090894,68.6460077618617,16.0513972438954,119.779857688294,59.557817578263,91.3355889077359,41.2896316714508,-80.1954745818107,0,0,0,0,0
-80.9880364567243,71.0224349959548,14.8593828670046,122.755770531995,57.9999103605542,92.4368687062823,42.2473021664369,-88.3197454002096,0,0,0,0,0
-78.9191056292161,74.4652324419256,9.91424462928652,122.245769170869,57.6856601984705,94.1231500423744,44.780259518341,-91.3094702199512,0,0,0,0,0
-78.2455751729692,76.403308813914,7.24281558608241,121.558344068031,57.7123842443226,95.1774846246344,46.3079859869121,-91.121147205982,0,0,0,0,0
-65.8567872089049,73.6765946872474,5.69868752308802,125.249105889378,55.7161829924791,92.8055177516745,45.8784299336012,-96.6245247574835,0,0,0,0,0
-81.8083524181935,71.1729512554539,2.72934576127028,125.345907750658,74.8708135645971,73.2305683939554,32.45576576753,-106.696000317867,0,0,0,0,0
-95.1127064660645,71.8140399796142,5.54864218767042,122.15206648986,94.2764078447133,63.8457918692129,13.5300513632293,-105.438697416725,0,0,0,0,0
-98.1088881043873,76.0007390392489,7.97766801207451,123.272436312732,101.536998732906,67.8905650180687,6.95282177105096,-104.991250020128,0,0,0,0,0
-100.117533138653,82.3718623046361,11.6226749659634,126.437095825952,103.908354696577,76.0141072596794,0.957190486561834,-109.912206705861,0,0,0,0,0
-80.0322795192885,72.928352806684,21.5522367889407,132.899581491255,92.1240765949505,74.5328829738128,-5.73520236356471,-121.13368923555,0,0,0,0,0
-58.7447916461932,50.9471066761407,26.0053876426236,137.872680731062,68.8190443150941,64.5927830910514,-11.88592577067,-134.036151780655,0,0,0,0,0
-44.5612026443097,33.2211325589657,17.9652810388754,133.459511091367,52.2360938976632,53.2897131352586,-10.336560642973,-136.690722813772,0,0,0,0,0
-39.1576719811999,30.9867189164991,12.3185526619437,131.645806313079,48.8896679749212,52.1185898800097,-9.25618166485654,-138.151266787029,0,0,0,0,0
-23.5003195598853,22.2870440621269,0.0508380233010006,123.793186653036,36.2643435433043,41.0643998287408,-6.11265239309176,-134.154111172545,0,0,0,0,0
32.0675982633675,18.1536085995592,-50.6992445684836,104.43238961573,-2.20294870738774,20.653417718984,23.7195043226426,-115.595754284414,0,0,0,0,0
63.0362469255669,26.7037646297082,-78.38263959557,80.3756080018085,-41.8210258470432,21.2611989390811,57.4256831034282,-92.3366022300451,0,0,0,0,0
76.4060626121583,36.7939688707749,-91.6476195697753,51.9914434628027,-67.8435379295028,31.5847050336817,82.2767102993794,-62.008735260204,0,0,0,0,0
80.7221840663343,36.6796208749864,-91.4432903860828,51.9914434628027,-73.2083014019617,35.6755889067274,83.2686754890106,-54.5155944022387,0,0,0,0,0
85.7605393067312,35.0904965762586,-96.7331641578595,51.9914434628026,-77.3035219505112,35.1918613574778,87.922288972746,-51.9914434628027,0,0,0,0,0
90.7245266200073,37.9079953845232,-104.785494574454,51.9914434628027,-83.6407719074852,35.2448253289813,96.8229988518679,-51.9914434628027,0,0,0,0,0
89.369444634635,42.7379277325778,-101.507396315543,51.9914434628027,-83.2466217867781,38.0157924437562,94.2964742186626,-51.9914434628027,0,0,0,0,0
84.8168855479216,46.520727467889,-91.9661935949507,51.9914434628026,-81.1962317102117,41.2128102605859,88.4519495776674,-51.9914434628026,0,0,0,0,0
82.8362766951675,46.7603319079564,-88.6180385857882,51.9914434628026,-81.6845391248853,40.8630274353223,88.635766341193,-51.9914434628026,0,0,0,0,0
83.8866343176652,46.3698627368586,-88.9729232955573,51.9914434628027,-83.1491080825866,40.2610003947498,89.2726884026681,-51.9914434628026,0,0,0,0,0
84.6958653092381,44.9555371049438,-89.1512802001908,51.9914434628027,-85.615011016339,38.2025903898185,92.9519908907401,-51.9914434628027,0,0,0,0,0
86.1844529285304,42.7179395498947,-92.2332584477521,51.9914434628027,-87.5310017412359,35.8932137069371,96.4809255792189,-51.9914434628026,0,0,0,0,0
86.4101594617321,40.4447490116221,-92.1944854600113,51.9914434628026,-88.0669513040958,33.9759488190784,99.3357886884406,-51.9914434628027,0,0,0,0,0
86.618945018177,39.6017598453821,-92.2478623746735,51.9914434628026,-86.9988882643097,33.7686487525637,98.6897002409974,-51.9914434628026,0,0,0,0,0
86.1877406474024,38.7975025680567,-91.9805132961318,51.9914434628026,-85.4519497249309,33.7705749404343,97.7622277736483,-51.9914434628026,0,0,0,0,0
84.4071345186741,37.3030477358326,-90.9248350909362,51.9914434628026,-83.2566335967801,33.5381758677851,96.4181349123949,-51.9914434628027,0,0,0,0,0
84.6890265011316,35.9009080775743,-93.5725180838225,51.9914434628027,-81.6794470287421,33.1817570709456,95.4149183766722,-51.9914434628026,0,0,0,0,0
83.4280140887414,34.1006835448617,-92.6704821908498,51.9914434628026,-79.7861594713091,32.4373127111996,94.1333291176609,-51.9914434628027,0,0,0,0,0
80.2293237225666,33.6938541934804,-88.0875047582962,51.9914434628026,-76.0541781231702,32.7120005858221,89.246297602356,-51.9914434628026,0,0,0,0,0
78.8379318825695,32.3219028154102,-87.0058843735274,51.9914434628026,-73.0547671111695,31.9967923152368,84.5630734691086,-51.9914434628026,0,0,0,0,0
80.2518436169327,27.698674785721,-89.8261990128421,51.9914434628026,-76.1345914225683,28.4451328159924,88.4040166212215,-51.9914434628026,0,0,0,0,0
82.9008712832462,23.817302463938,-93.8833216487605,51.9914434628026,-81.8146512060411,26.5383623971906,94.6834598232078,-51.9914434628026,0,0,0,0,0
86.5668788166233,23.2637766980184,-99.2026922738361,51.9914434628026,-84.7539304672095,25.9925701445277,96.7309639282924,-51.9914434628026,0,0,0,0,0
89.8749867184706,23.4754549620077,-104.303351661123,51.9914434628026,-86.5299101049061,25.998410540592,98.0037984952023,-51.9914434628027,0,0,0,0,0
90.1312049636173,24.8918642016194,-104.493707501625,51.9914434628026,-87.3105769645369,26.8706070596329,98.5961894518493,-51.9914434628027,0,0,0,0,0
84.130138884789,28.3414443072775,-95.1801289700431,51.9914434628026,-83.4254591202357,30.1095287076986,93.5679609915311,-51.9914434628027,0,0,0,0,0
78.2994815598245,35.1335518055763,-87.1873554991565,51.9914434628027,-78.5157940168887,36.3169467631781,86.2248468343504,-51.9914434628026,0,0,0,0,0
73.7171368868487,43.2538454861502,-81.4586241714592,51.9914434628027,-75.9145098442408,43.9126045993802,83.9366910132153,-51.9914434628027,0,0,0,0,0
72.1826720263901,46.7391582699141,-79.2136735493034,51.9914434628027,-74.787572144631,46.638108714011,81.5414123967716,-51.9914434628026,0,0,0,0,0
71.8719839517152,53.6295765531929,-78.7384900620851,51.9914434628026,-74.6827857417892,53.3683840390838,80.7473508568526,-51.9914434628025,0,0,0,0,0
70.008611080718,63.0216382637484,-77.1381837004006,51.9914434628026,-70.6437732647334,58.5624638775943,76.5791295732173,-59.868131955637,0,0,0,0,0
68.8973496388826,63.371359226394,-77.154343629911,68.0590389665354,-69.1689544731827,57.4532479730956,76.3479433891152,-77.2201706246586,0,0,0,0,0
68.6908257535915,63.6866256162226,-77.2649491448948,77.0026949356646,-68.5116366362746,57.4401973697128,76.3726707548509,-84.8912651566594,0,0,0,0,0
69.5557957512991,62.4246255396062,-77.1124577354795,79.5130279259483,-68.797457382291,55.9749670489606,76.1287336011983,-87.1084985796935,0,0,0,0,0
69.4490131359098,60.6186617231629,-74.061496402348,80.6155880021447,-69.9933539443704,53.9104639685118,75.7501768888583,-88.1788171913289,0,0,0,0,0
72.9342017987596,56.7896950510121,-76.2430682311338,76.675404284911,-73.0229637162472,48.5805974729614,77.9147138062608,-86.3440807230004,0,0,0,0,0
75.0582956225212,56.075778661399,-76.1637433614768,69.1765664423675,-71.1592868801189,42.5845971564631,76.5794833100388,-86.4347823527672,0,0,0,0,0
78.1916263081377,57.6265507206935,-76.4238864582865,60.2710268940125,-62.9016568863379,34.1634916193065,69.9983629721031,-90.2232662258908,0,0,0,0,0
81.2106637897071,61.4714623824616,-77.2402633206744,52.5707085580148,-53.3759984077418,30.5676272015159,63.5577701021914,-94.4853797194331,0,0,0,0,0
80.6990916173892,61.965851195337,-77.2514299538314,51.9914434628027,-29.0750604512169,28.7148940043721,46.9940864058243,-97.4974001019278,0,0,0,0,0
76.5472584205486,59.025611795717,-73.4013459991929,51.9914434628027,29.3992634601514,30.8954792894243,2.95591213674677,-104.713479486783,0,0,0,0,0
73.0410306929169,59.1233272079282,-71.1382535055405,51.9914434628026,61.8498684619426,43.7397421350783,-16.6799489355984,-112.230361624445,0,0,0,0,0
68.9774416536842,60.2254512097144,-68.5193817121726,51.9914434628027,71.3498643890127,50.597355152033,-22.193461063585,-116.25236153674,0,0,0,0,0
68.6029445272367,60.3090535542081,-71.3146737879766,51.9914434628026,71.7695983828641,50.3126148724949,-26.9445276722766,-118.020848567292,0,0,0,0,0
67.1576713329914,62.9289314561746,-71.6901779869315,51.9914434628026,75.7512054546024,53.8169057039954,-31.625495068694,-119.929687138298,0,0,0,0,0
68.1178868114766,66.0770450814905,-74.7774258811674,51.9914434628026,80.8146950790301,56.3319792689033,-35.286265513232,-121.466330807957,0,0,0,0,0
68.5070755092664,66.959352237594,-74.8759786096185,52.5728936788656,81.342149122409,54.8350149914135,-37.9404761858701,-122.835476997897,0,0,0,0,0
71.1754198944229,65.4092202195767,-80.028859412519,53.7414583357912,77.5298807868948,49.9019305058315,-42.1915053660829,-123.236947946855,0,0,0,0,0
71.4564543009736,65.3211694951441,-80.0210375025768,54.5206214257974,76.5383121841794,46.8529204818058,-43.621259486258,-122.49461449361,0,0,0,0,0
73.1809017514767,64.5312608725456,-82.6425766848244,52.6651183363887,69.3788836452966,39.0479187948364,-44.2268238333699,-120.176227555667,0,0,0,0,0
72.7921361019637,64.309128829055,-82.6317703806621,51.9914434628026,30.1538304335279,20.2250550039535,-15.4977643775362,-112.486632075712,0,0,0,0,0
71.9192143750822,64.5816181924553,-82.646968676865,51.9914434628026,-33.3496506361296,22.3319678779082,43.2695057700238,-99.1784244472137,0,0,0,0,0
68.4562681029969,66.1345205977987,-77.4369487477279,51.9914434628027,-56.7832826563029,35.3253812821794,64.1769244561844,-85.4979824086716,0,0,0,0,0
67.850848069222,66.2313871685112,-74.7948767968485,51.9914434628026,-61.9318662684794,40.919081187504,68.8364673522739,-77.8649178390708,0,0,0,0,0
67.9797804643784,67.0778398984292,-72.2505040433093,51.9914434628026,-65.4364693232662,49.1110271129445,71.8512638249536,-69.860767999016,0,0,0,0,0
66.1359043927865,71.8477685596901,-67.7335167900421,51.9914434628026,-65.7162146319771,62.7583063889418,68.8439156228736,-61.2773135172382,0,0,0,0,0
63.5141590296212,77.8311273253502,-63.7056238851126,51.9914434628026,-63.1300574133589,75.0569303355081,63.2201971695758,-53.2505420714746,0,0,0,0,0
60.4465091399292,84.4294840638033,-57.7008361578796,51.9914434628027,-58.4847563778326,81.8970216821088,59.5811953940339,-51.9914434628026,0,0,0,0,0
60.042867693788,85.7293341150641,-57.9887419417314,51.9914434628026,-56.3323287704126,83.6777425748318,57.5575291892517,-52.4145981605806,0,0,0,0,0
58.3133453359541,86.7574651174684,-55.8303760818311,51.9914434628026,-54.59821679461,84.7112109909968,55.4115364621063,-53.0105812163071,0,0,0,0,0
53.4577340334865,86.4575302266072,-55.9277479203982,54.3424889558601,-49.0532918274724,85.8980688595562,53.3644764850032,-54.1032771296713,0,0,0,0,0
49.7343357513307,85.6484503374625,-56.0813865173701,59.1377374610707,-44.8441193360478,85.2123070772754,51.073095664018,-58.486459700433,0,0,0,0,0
49.2549357946221,85.0705540079258,-58.4445066623422,60.7932971142326,-43.4493112938465,85.9075819550507,51.2429934260964,-58.027761173702,0,0,0,0,0
48.4971037371324,85.293952093573,-58.5211731558179,61.044876339803,-42.5227516318211,85.3230600606889,51.0811753764593,-58.1653077657426,0,0,0,0,0
49.9442417251858,85.7974858504472,-58.5283903867435,59.4517422335309,-43.3617045185388,86.6695054472565,48.7441155258873,-54.3779938977169,0,0,0,0,0
51.892223415733,84.564758258002,-60.4349675499006,56.9002030960116,-41.2529980115897,87.8437829339351,46.4583378006919,-51.9914434628027,0,0,0,0,0
49.9790587277859,83.6576487776643,-60.2523875908633,57.2639567194739,-37.8869275013982,90.7222472260196,44.8844369674706,-51.9914434628026,0,0,0,0,0
45.4081459247885,81.0861865134734,-59.8108846546493,60.0054365740798,-32.3931308874623,94.6734203755328,43.707522703302,-51.9914434628027,0,0,0,0,0
43.2503536841069,77.9042474592024,-61.7173979541713,64.2624000272724,-29.0595234106903,97.0278854424359,42.0903799471444,-51.9914434628027,0,0,0,0,0
38.4408578385598,73.0357536036102,-60.7726485353114,71.671365930923,-25.3058683634825,97.9414174126015,42.3948558216745,-51.9914434628026,0,0,0,0,0
25.6051692498598,68.4922136969328,-57.1805478811006,84.4469213043,-17.4462592094293,100.649996498638,43.306709512275,-51.9914434628027,0,0,0,0,0
9.57424842401182,65.6561355344825,-50.9947175075765,99.5293698368611,-5.93118339737994,102.126531489566,46.0195350539603,-59.6850980487673,0,0,0,0,0
-5.71406083094154,67.1052938020771,-46.5128470426875,109.416060027328,1.94088428617162,105.431154122006,50.1898409087613,-64.7645299670194,0,0,0,0,0
-10.9133181021859,67.8377859957539,-44.317002553599,114.400368614771,3.23172665857642,106.859812023947,53.3959538546518,-67.4902361775189,0,0,0,0,0
-15.5026278043089,69.4886311411574,-42.6257080496989,116.655947463418,6.91149634213572,106.909700461458,53.0035720381661,-72.9520569136218,0,0,0,0,0
-20.1574626042664,72.0393821641367,-41.3416157079064,117.536361302747,7.81401730648042,103.417350877861,55.5006023421599,-78.1577011210011,0,0,0,0,0
-21.1549216614144,72.719330246415,-42.0472718132003,117.111158745334,6.97951236304584,98.8177672924053,57.0393666771767,-78.5018376849975,0,0,0,0,0
-17.7254671855449,73.0142391834569,-44.0033773394055,115.180612740658,3.27641651372536,95.6578909224283,59.7266892296083,-77.80315316473,0,0,0,0,0
-16.3619347758296,73.5188552014575,-43.7303094589788,114.099313780541,1.42903372048052,94.4421488287505,61.2710377768657,-76.7705541715882,0,0,0,0,0
-14.8938795505237,76.3026175188253,-41.0808016235802,109.838492477591,-3.0887433998002,94.4189558545559,61.62526233326,-71.8930251974379,0,0,0,0,0
-7.43970068774422,77.5834768254103,-41.2674043131505,102.857491849271,-6.97802807423996,91.3200071996028,57.2819714358319,-69.9633328417918,0,0,0,0,0
-0.456268772729208,83.4261318080004,-41.1845397700744,93.3971667586879,-10.8920613607156,89.9829084460894,53.2614598211914,-65.7276650811125,0,0,0,0,0
4.97653967734258,88.2485931735032,-42.3797617843575,81.5538811550934,-11.6840082032207,84.0503183393982,51.4865197654583,-68.0471530460026,0,0,0,0,0
6.78288774219766,91.277515053709,-42.9997509581936,75.1132622264493,-9.69044654424597,81.4847649492162,48.3483972256389,-71.5379734536568,0,0,0,0,0
6.03430751349628,94.6510980531879,-41.026401940523,67.7255624888095,-6.30530017972404,78.4183215803173,44.9198476515696,-77.2258186019362,0,0,0,0,0
5.13679669389407,100.388417874322,-43.1976515006751,58.6158373035658,5.14198524864777,74.262274821489,37.9567182438939,-87.1767558097934,0,0,0,0,0
0.647661809189426,105,-46.0776024930845,52.9355964825023,18.7495552477184,71.5274722264031,30.7481540928936,-99.1561725269466,0,0,0,0,0
-5.5198047815698,105,-50.0596487628025,52.5593087632234,30.8356962621098,71.6438504640598,24.6771720749464,-108.157905793658,0,0,0,0,0
-8.10929082690286,105,-51.8303737325589,53.8288802216414,35.5495212114165,72.4826693978855,22.1835390817893,-112.689314291661,0,0,0,0,0
-12.9587335415025,105,-55.3322205664294,59.1976414465426,41.3697127717068,75.8548812727772,19.140093092964,-116.982450609903,0,0,0,0,0
-17.4942564624911,105,-52.9153887229009,64.2009687489858,41.2088514309319,80.415467937735,19.9238108641878,-117.875649797766,0,0,0,0,0
-17.7710647996598,105,-52.030053677943,71.5501974370166,37.5883855155839,81.9926709900071,23.7141745569761,-117.737375321212,0,0,0,0,0
-13.6828855089889,104.279344585796,-53.4299540468912,75.0945290233154,32.5821948902943,83.6628510023709,26.6160583476944,-114.515131868734,0,0,0,0,0
-10.3100912403157,101.4603888701,-55.815322393409,76.7339926969852,30.1204828450618,83.1471477476905,28.5748423813032,-111.597669673791,0,0,0,0,0
-7.55062029730159,98.6218660526831,-55.8186365557552,81.2879176652423,28.3407422347979,84.0797346436611,28.5393522927438,-110.799920315895,0,0,0,0,0
-6.86538432109534,90.5041332263864,-53.5226682648244,89.9875522772436,26.5053112578418,86.4222772022406,32.1380344685544,-107.526379626075,0,0,0,0,0
-5.90199342886282,83.8687905048479,-51.7156148549871,94.1079146270302,23.1541923790547,89.9463887038179,35.5428477548761,-99.3439692875704,0,0,0,0,0
-6.56913841346493,76.8744168525241,-50.6428851780225,98.6135152630995,21.2551619089633,91.5043796387865,38.4196162503066,-92.0517447602655,0,0,0,0,0
-7.64616874034538,73.4316947983653,-49.8848610489862,103.787890445555,21.4772008664233,92.4769595236778,39.0598452707856,-88.8954122133464,0,0,0,0,0
-9.81832632320905,71.2449786639357,-48.7072313887589,104.618377466312,19.3491830204774,93.0609943225731,41.2669993262885,-82.1925307634809,0,0,0,0,0
-16.8838667156195,71.8579051403929,-47.069290032403,105.387102704773,19.8418789702684,97.0067752461733,43.1271515004613,-75.3930302532369,0,0,0,0,0
-26.2210079000999,70.642497158583,-46.4442349154385,110.538739572723,22.9199591804986,99.1709183744066,48.4983342696435,-74.9548817668809,0,0,0,0,0
-38.0803384376523,73.8358733564185,-43.1774949199416,114.320472073287,26.8321351626876,99.9666920601005,51.4120775775601,-76.5221680758216,0,0,0,0,0
-43.8991727529388,76.249621605264,-40.76225168818,115.570875011837,29.4183368050433,101.035963135606,50.7929215578267,-77.20972174477,0,0,0,0,0
-49.0603342683408,79.5631509858742,-39.2103316974553,112.88337649101,32.6743236446391,100.935555159909,50.0834250014035,-76.9856486849784,0,0,0,0,0
-59.2348516238703,79.5448295750596,-29.4435164432512,119.827825312697,42.1243966381486,92.8734413480354,45.5545086158888,-94.0959323595568,0,0,0,0,0
-58.2981494101083,80.948968079261,-23.8035788811765,125.66877653906,45.4578939767496,83.6033699347526,39.5022669159932,-109.439735791381,0,0,0,0,0
-46.0893936926756,72.2341550539509,-21.2996716149295,127.057439726228,40.7583131181795,70.3687164321448,35.2501557811108,-120.980941296162,0,0,0,0,0
-41.8213476323614,70.5605864884973,-20.442137295103,126.047834880869,37.9868598908444,68.2474027566328,36.1057565440638,-124.779122650685,0,0,0,0,0
-35.5752823595064,59.0714250079916,-18.5195565629654,123.358404934177,31.0297203708532,56.5035410309987,35.3637776804279,-127.608549709757,0,0,0,0,0
-21.0014208113791,34.3200341379022,-20.1650441531121,112.172816221566,19.9910227177926,30.3498558443545,35.1187528247724,-121.27704524136,0,0,0,0,0
11.9251709900201,27.2189140810168,-44.885147732149,98.7532843379957,-8.62999263200949,21.2764359549426,53.310539208731,-110.164348165743,0,0,0,0,0
40.6827612266702,28.6622980303369,-68.2851212461693,81.8280143856798,-43.0112865371351,21.2316285384779,79.5341880213752,-98.1478297210223,0,0,0,0,0
51.9941007201282,29.9135513418678,-75.1250071592122,75.4426161142797,-53.2534592412307,22.0344997976691,82.0218024231914,-94.0904638811346,0,0,0,0,0
63.2315153465387,33.4020848399358,-81.5105392629299,61.8951902244911,-62.5686548605075,24.9585525648575,85.0128882994473,-83.7559736486025,0,0,0,0,0
71.2748625268239,36.3442840789998,-88.5818743072463,51.9914434628026,-71.4404359039084,35.1413641058183,92.1771529833231,-51.9914434628027,0,0,0,0,0
79.6402465277518,38.0447443103171,-101.404898588083,51.9914434628027,-79.8253646133573,34.2100021491383,102.159651434486,-51.9914434628026,0,0,0,0,0
86.4420549707828,40.1180426277539,-105,51.9914434628026,-87.3443972572848,34.8094191658853,105,-51.9914434628027,0,0,0,0,0
90.2304992130788,41.1771554355735,-105,51.9914434628027,-89.7936749491329,35.4290105364775,105,-51.9914434628027,0,0,0,0,0
90.1936674432638,41.2172480350724,-105,51.9914434628027,-89.6317763890759,35.481954194438,105,-51.9914434628027,0,0,0,0,0
87.6868385771704,41.3241156862621,-103.290094721263,51.9914434628026,-87.6800886965519,36.4644685964869,104.396206550991,-51.9914434628027,0,0,0,0,0
89.1686351170108,40.2701741087986,-103.98481503916,51.9914434628026,-89.5370919138623,35.5268379930029,105,-51.9914434628026,0,0,0,0,0
92.7452170924112,38.4835090116639,-105,51.9914434628027,-93.3053584152292,33.4455502202066,105,-51.9914434628027,0,0,0,0,0
95.9423122440432,37.3781013793094,-105,51.9914434628026,-96.1357221363863,32.0466155754298,105,-51.9914434628026,0,0,0,0,0
96.8653112489042,36.1162411093781,-105,51.9914434628026,-96.5879659123454,30.6671545179365,105,-51.9914434628026,0,0,0,0,0
96.4553425091784,34.8545457723883,-105,51.9914434628027,-97.1885104180761,30.0935499956532,105,-51.9914434628028,0,0,0,0,0
96.1825457809002,34.1828164686353,-105,51.9914434628026,-95.8674802967965,29.9685624295603,105,-51.9914434628026,0,0,0,0,0
95.6728170594194,33.8349801919044,-105,51.9914434628027,-94.1333089104329,30.0823078637172,105,-51.9914434628027,0,0,0,0,0
93.5818109565896,33.5824391469436,-105,51.9914434628027,-92.8468247856901,30.4734297056557,105,-51.9914434628026,0,0,0,0,0
93.1744969907746,32.9444725011724,-105,51.9914434628027,-91.7665877344858,30.6957500637138,105,-51.9914434628026,0,0,0,0,0
94.3879900640622,30.9969516664231,-105,51.9914434628027,-90.8375705412392,29.3712764190132,105,-51.9914434628027,0,0,0,0,0
96.7504691578479,28.737240363311,-105,51.9914434628026,-90.4143637028497,27.4057832658026,105,-51.9914434628027,0,0,0,0,0
99.6524732690206,25.8351238594049,-105,51.9914434628027,-91.131461650801,24.5957640747033,105,-51.9914434628026,0,0,0,0,0
102.18145139916,24.0920748833393,-105,51.9914434628027,-91.4328802220575,23.1965974734529,105,-51.9914434628026,0,0,0,0,0
103.142202915604,21.8900097173453,-105,51.9914434628026,-92.7917615354703,21.8286117521665,105,-51.9914434628027,0,0,0,0,0
109.349110032893,19.8432453758253,-105,51.9914434628026,-99.4763877788729,20.1341777934962,105,-51.9914434628026,0,0,0,0,0
115.539638839747,20.2320623843797,-105,51.9914434628026,-101.145643628531,19.9133495010723,105,-51.9914434628026,0,0,0,0,0
117.745041751719,21.7714339783909,-105,51.9914434628026,-100.873516955052,20.9461288694237,105,-51.9914434628026,0,0,0,0,0
118.193261018482,22.5166231870817,-105,51.9914434628026,-101.221192958084,21.8149814864506,105,-51.9914434628026,0,0,0,0,0
114.213191599864,23.9111673431147,-105,51.9914434628026,-100.896275993983,24.0103576337878,105,-51.9914434628026,0,0,0,0,0
95.8697273118463,27.3050192282647,-105,51.9914434628026,-89.2186466541158,29.7480409907803,105,-51.9914434628026,0,0,0,0,0
80.8831029975761,37.0686232916761,-94.1946454533201,51.9914434628027,-77.8491257890204,39.6331262266816,91.7326748428463,-51.9914434628026,0,0,0,0,0
71.8372383605828,47.3018340049613,-81.8960123940094,51.9914434628027,-70.8716016507989,48.917735207662,83.3929973072178,-51.9914434628027,0,0,0,0,0
69.7066473978748,50.6584177731455,-79.6632553008208,51.9914434628027,-69.2736028996749,51.0433541664368,81.7798588004075,-51.9914434628026,0,0,0,0,0
69.1148033402821,56.8282678111359,-79.3373731141416,51.9914434628027,-67.9117168981583,55.9415726079291,79.2582559076948,-51.9914434628027,0,0,0,0,0
69.2095980277141,63.5010205236907,-79.877388232378,54.2426658252743,-67.2170170508034,56.5468362528421,79.1534007575782,-66.7994616082223,0,0,0,0,0
68.1567394607878,63.468553939667,-79.878178451306,68.352061627544,-67.2438595588777,56.0596528899,79.0581632075804,-79.6268003555223,0,0,0,0,0
68.5250982786611,61.6042564981997,-79.7127762886839,74.786851608918,-68.8434364159983,54.5611654248567,78.8561747013646,-83.9823664760042,0,0,0,0,0
67.9856112471578,60.143297448605,-76.7520104997368,75.8486681343944,-70.0812208651288,52.5373828994244,78.5599703974589,-84.1942908579966,0,0,0,0,0
70.9946382275473,57.373631789762,-79.2241225601396,73.842931304815,-74.0792536165512,49.7071088346887,81.3115888515263,-80.9002647110357,0,0,0,0,0
72.7536635720553,54.7805650976953,-78.9594341652679,65.9795260499404,-74.0635501773661,44.4652175893989,79.8534385254523,-73.5780317908021,0,0,0,0,0
75.4297830740055,53.326982254749,-80.2521756656476,59.5043701318505,-73.76194283634,37.6071164827658,80.2926650856902,-72.036855051537,0,0,0,0,0
77.9253579902902,55.1347942124403,-80.8016460601334,53.5626466140802,-66.4161616597196,31.0099380832966,74.3975880167735,-74.692656512339,0,0,0,0,0
80.0589736230766,56.5275579332217,-81.4478352423578,51.9914434628026,-58.0228352869352,27.7661294871076,68.1994213106485,-78.7397742795071,0,0,0,0,0
79.2669226990066,57.1624303168286,-78.7714757975107,51.9914434628027,-39.5959064695106,24.8602492611937,53.4806977404999,-81.1670193791232,0,0,0,0,0
76.3976539085215,56.4856229753213,-75.3804231006806,51.9914434628027,13.6304691670604,23.1134181032348,11.6369631408738,-92.3918304780396,0,0,0,0,0
70.1095237133766,56.7324236332554,-68.7222291803652,51.9914434628026,49.8741730277647,35.026055477723,-13.1237467940272,-103.770172722308,0,0,0,0,0
67.26656355549,57.2087461595136,-67.9938182130231,51.9914434628026,61.2284209370124,44.9779109026991,-21.673727734121,-112.560173807843,0,0,0,0,0
65.5320525996777,56.956190949614,-67.948219088246,51.9914434628027,61.9799736448137,45.98816731062,-24.8434399587269,-115.583719564109,0,0,0,0,0
64.4516890841397,59.5367592934907,-68.4023456848279,51.9914434628026,69.4858349034911,49.3871849996328,-29.2555944279977,-117.517430528445,0,0,0,0,0
63.9289457808655,63.6972104716896,-71.7968931321771,51.9914434628027,76.4285887680855,55.6944789437741,-30.0785962034416,-120.658408652874,0,0,0,0,0
65.2163656074332,64.8497654635644,-74.6371334878932,51.9914434628027,76.2679539275322,55.8724169193154,-29.5814945291057,-122.332597901637,0,0,0,0,0
67.0367394493609,65.5180254049919,-77.3789861488898,51.9914434628027,71.9802932850701,50.3863589354771,-30.9775887930116,-124.309373251011,0,0,0,0,0
68.7780002866963,65.8381497175172,-80.0641865075428,51.9914434628027,69.5379839309632,47.8798153563724,-30.8393366445071,-124.036926311372,0,0,0,0,0
70.3938594086219,65.1700854102719,-82.6795582286098,51.9914434628027,59.6418165424162,39.2072306460477,-28.230029769266,-122.821805820526,0,0,0,0,0
70.4990253566909,65.1595125800201,-82.6789754578467,51.9914434628027,20.8782705189261,24.9092351268025,-1.63189198019264,-115.293805573371,0,0,0,0,0
69.4956132309712,67.2105816805651,-80.1650860353526,51.9914434628026,-30.0102693594109,27.0016293797119,42.9669858435868,-101.483481854976,0,0,0,0,0
67.3643987248657,68.8893158411593,-77.6895092907975,51.9914434628026,-54.5542359660661,38.4434102787306,64.2844080816251,-86.632195217322,0,0,0,0,0
66.1508722509077,69.6218505028644,-72.5769226042776,51.9914434628027,-58.9979448828809,44.6124763726641,67.0144513507578,-79.6722254025371,0,0,0,0,0
67.2429902623779,70.344791208421,-72.6676566878851,51.9914434628027,-62.1841156538813,52.2598291611846,69.3749480831511,-72.9030410606409,0,0,0,0,0
65.4401988460838,77.7062700952197,-66.1626094402098,51.9914434628027,-63.893577996196,68.104306519073,67.1547102580939,-60.0225439049904,0,0,0,0,0
62.7857371538856,84.1947973744826,-62.4571632391815,51.9914434628026,-61.4941824976188,78.2945699256992,63.7900198574048,-51.9914434628026,0,0,0,0,0
58.3864407443419,88.7039078009517,-58.1613578131938,51.9914434628027,-55.6963919615601,83.4907493017858,57.4921188221863,-51.9914434628027,0,0,0,0,0
55.8899726773194,89.9800414394052,-56.5869369326173,51.9914434628027,-53.2358836401744,84.7679012627714,55.3611226318743,-51.9914434628027,0,0,0,0,0
52.50175315594,90.3236645507564,-54.3193606268834,51.9914434628027,-50.1005344428732,85.4788390022254,53.1110295090619,-51.9914434628027,0,0,0,0,0
51.0857826364565,89.3105942443087,-56.4299370113316,51.9914434628026,-46.9807238316064,86.2743680413344,50.9424978453405,-52.7342421584198,0,0,0,0,0
50.2271675430781,87.6690169244309,-58.6283848500654,54.8333580930653,-44.4956564398097,84.5016878861873,50.7779505755866,-57.3379185178893,0,0,0,0,0
49.0292982600287,87.0735372425823,-58.7297741970391,57.9614975719175,-42.9377587659624,84.3441884001903,50.8377073326901,-58.8059093393106,0,0,0,0,0
49.4046448741247,85.8235992567782,-61.0007394599899,60.8208887689194,-42.0287849046852,83.5383376834173,50.7635870990271,-61.1625649571123,0,0,0,0,0
49.8994035870326,84.3575639099268,-63.0110101448843,60.7073450136371,-41.1770146431033,83.6334939038643,50.6113935866437,-58.6227419783003,0,0,0,0,0
47.8180343885293,83.2347035462299,-62.7266548856294,60.1456807373936,-38.0850974587159,87.2464481701444,48.7869434171899,-52.8158544583899,0,0,0,0,0
42.688638032038,80.1280693767818,-62.1604533753802,62.5675606814603,-31.6681501361051,90.3442043298507,47.1838093637549,-51.9914434628026,0,0,0,0,0
34.6559108829248,74.9487871351631,-61.2790152842291,71.1132594935986,-24.1531976246222,93.3424582734449,48.0544976293781,-51.9914434628026,0,0,0,0,0
30.3353588515383,71.5691516951498,-60.6029377518677,77.9096780980685,-19.6930503732775,95.9388265126473,46.4713973595595,-51.9914434628027,0,0,0,0,0
26.3648090618997,67.8743113692399,-59.6404351501848,83.9468501527074,-17.1672599533263,97.7927593502493,47.1572498999512,-52.8191671157594,0,0,0,0,0
13.4709977466344,65.4881657392208,-53.5667038879278,94.6888755126318,-6.70749789584601,100.048012874525,47.8541098603707,-61.8372942457562,0,0,0,0,0
-2.46060140284905,64.6917605581657,-47.8158499834478,106.182720665867,3.17264387153078,100.998847565086,50.268598101844,-70.0047603712733,0,0,0,0,0
-12.2300260427557,64.8295782768683,-48.3197856159486,114.146669935024,8.68771637347889,101.144268928967,53.5018713639006,-74.0127701521759,0,0,0,0,0
-15.6584895867134,64.8783824253843,-48.536954142948,117.414287797138,9.26685403926816,100.724716068672,56.375259846571,-75.9448138438597,0,0,0,0,0
-18.9272643671628,65.3062999354102,-47.1858905692284,120.080499625537,12.0373460514746,100.895745084644,58.0697740797095,-81.247961178966,0,0,0,0,0
-21.6767982743265,68.2357973597018,-46.463785868157,116.993399645516,13.4984363928241,98.7926582369915,58.6879519385339,-82.1280588356481,0,0,0,0,0
-23.4472670475753,70.6519711629277,-45.1655798332838,115.868215350483,12.2845476814631,95.9870370499029,59.9736192252215,-83.81185244719,0,0,0,0,0
-21.0294691841716,73.0100946582646,-45.4786904264051,113.499737412335,9.16266135447684,93.2736986406213,60.1092020715818,-84.4325014815269,0,0,0,0,0
-18.3078501229293,72.9952862682299,-47.5563510907238,111.815217465923,6.89508315469277,91.4954138435007,61.1421778537368,-84.7716616832635,0,0,0,0,0
-17.5081591362261,74.2166404234412,-47.5714914142432,113.038347016249,7.20691871684803,90.2835362005048,60.7433292583019,-90.1473002453646,0,0,0,0,0
-11.3960748384668,75.658517864422,-51.4355660453345,109.517679344272,5.67664102481719,85.3763737230489,59.214301899794,-89.9245616754471,0,0,0,0,0
-8.97959920364732,79.8306423427733,-51.0774877023663,108.67997818678,7.2259441098346,79.7814546023416,55.9832525104604,-95.1995387835646,0,0,0,0,0
-6.08852150574125,87.7486142302756,-51.7808349383693,97.872406668022,10.6348602558392,75.4442995455903,50.5830564575068,-99.7869224389154,0,0,0,0,0
-4.24516483818604,91.8098738832134,-54.5163799849747,91.3054628178342,13.4340832438436,72.3014464649656,46.5729304313456,-105.247022374925,0,0,0,0,0
-4.37925824436821,96.4081950226709,-53.5509270584117,80.2324129219914,16.2532941474005,69.9315807310365,42.3222502484069,-107.802817233768,0,0,0,0,0
-4.28480139393635,103.547863407092,-52.893371172782,64.8266244802915,22.3613343231279,69.1545934605552,35.6492838416742,-108.757082707034,0,0,0,0,0
-8.05495415398311,105,-58.4364723007705,62.7949501355815,30.1606082946282,68.2639469196407,28.5392611001574,-114.648565875895,0,0,0,0,0
-11.5187421468287,105,-59.12741012945,58.2346216909674,37.3911998646052,69.9847322161866,23.3262589091347,-118.347744138142,0,0,0,0,0
-13.3950158719915,105,-58.2779302575524,56.816403743363,40.0198451004762,71.7269391604292,21.6102060985938,-120.426747953103,0,0,0,0,0
-14.3717094027637,105,-56.4876302654254,56.1141496372381,39.0410765987194,72.8315621679086,22.7574668461636,-119.826936063776,0,0,0,0,0
-14.6009702624456,105,-55.7660334863071,62.7291066309861,36.3626484244321,75.98298699549,22.4620927925693,-118.949102128286,0,0,0,0,0
-12.2566639223118,105,-55.5663311965159,68.6371245245489,31.8496510386141,77.0310557662382,26.6855821232071,-115.357780145161,0,0,0,0,0
-10.3239735044188,100.463398412229,-55.6783679021064,76.5333175575662,30.5027354504371,81.0468289438351,27.297835599035,-114.235092777618,0,0,0,0,0
-8.54592726159624,97.816672849327,-56.5463192067159,79.6534619634674,29.86661103328,81.9565828351498,27.7477268622018,-112.138879574829,0,0,0,0,0
-8.29910207595442,94.8105077135596,-58.4442155886291,83.0928682307887,29.4002214004826,83.3396430075532,31.5583057632243,-108.260588093047,0,0,0,0,0
-8.92556055863084,86.3862450290637,-57.0661976771268,89.2213165826155,26.2520641783205,86.312998922111,35.3016034402106,-97.9467691965194,0,0,0,0,0
-14.290953578859,77.5436048718994,-54.3727092518377,97.6946380523201,26.8336532078419,87.3690617867794,39.3273396074178,-87.5250846057535,0,0,0,0,0
-20.1005803490956,70.8257906819402,-51.0266569896138,103.079995677297,25.1720768791162,89.0959257279803,42.4907777973275,-78.0173773017824,0,0,0,0,0
-23.0801177088274,66.6956319621221,-49.8352564255963,108.950223258316,25.0435313789061,90.3176785469891,43.0192376957568,-73.0009069278515,0,0,0,0,0
-26.0375631959734,65.4281485641399,-49.981871980639,112.304929755296,25.172593000846,93.3697839814091,44.4653981607731,-69.0371592562121,0,0,0,0,0
-38.4388793109605,68.5702308577863,-42.0575587673895,110.553408151185,27.4358419785127,95.0085640427496,46.2889780601279,-65.2686147967187,0,0,0,0,0
-49.9355553370282,73.4433537548216,-35.6661587258517,111.141896254196,33.115679369686,97.9775140178891,48.2123239462615,-66.3058319808554,0,0,0,0,0
-61.4734427001701,73.0241191628026,-29.6036679033076,115.58329012007,40.6814082379064,97.2792844314461,50.4570198559912,-76.4607357688012,0,0,0,0,0
-64.4768570404595,76.6581757599864,-26.406026262111,116.451307236484,42.0136334934526,96.925248650727,51.4210272366871,-78.7781325325883,0,0,0,0,0
-60.5080118588536,77.6578128829564,-24.1030947976885,117.91176406688,47.1002522740425,92.075473649635,47.9691668416804,-83.9951969136027,0,0,0,0,0
-61.7921183926452,74.6581904226749,-13.8204797943812,118.331769070832,59.3513035960527,80.8421821282248,33.7294367860265,-90.4391253235869,0,0,0,0,0
-66.346981541727,68.3507637615603,-6.21894952860158,119.556004087058,67.4299657787713,74.6796592226656,20.5958162731676,-101.20963738684,0,0,0,0,0
-70.1139379884152,61.6485216344259,-13.773478017704,119.71120358316,71.3633429383282,73.5356166026446,16.2244921411009,-107.469518904585,0,0,0,0,0
-73.1809053657678,56.8883140503872,-20.1093655576443,119.327726130536,71.6483839362438,75.4230132311164,14.6304920445707,-111.002682248136,0,0,0,0,0
-84.2891920988816,51.8110751868923,-21.916044027642,122.025202375529,77.1617794564731,76.7026116101185,8.68135943631752,-120.367122853567,0,0,0,0,0
-103.395829585962,47.6069213666847,-21.0315005760837,117.196086495657,82.2881006528225,71.3576037060581,1.49500664362978,-127.486376273767,0,0,0,0,0
-116.982350742534,49.0332984133651,-19.3698121762208,109.926298237828,80.1741987940596,70.3404580984853,-4.66723946528332,-132.26433266973,0,0,0,0,0
-125.064729561857,53.1852098060867,-19.3514889112785,99.8136536979064,75.5642831650406,68.9501351638612,-8.67602268437633,-135.254850248705,0,0,0,0,0
-129.440757957142,55.8356486212988,-20.0253546563736,93.7238814253763,72.2103598872104,67.0706155178056,-9.95455229564835,-136.366168620469,0,0,0,0,0
-130.971131070361,58.4148303057242,-21.6414897616351,88.2809302725605,69.3095974205226,66.2005915519484,-9.23203749844046,-137.537416612859,0,0,0,0,0
-130.064947377866,64.335997655455,-20.0988849031017,76.1780076390817,65.6231985261486,66.503845443062,-5.97049339265299,-138.794722347151,0,0,0,0,0
-126.870287964838,67.4895877255766,-19.850476573148,65.7576272521575,60.8137559066469,70.2076895249072,-1.83020876957077,-140.948317415623,0,0,0,0,0
-125.647492503659,70.8528316352402,-16.3899165259902,59.5162533209791,58.3888846224053,70.4209675566045,3.90047997623745,-141.739403723437,0,0,0,0,0
-122.983607009627,73.3275953738268,-12.6293287691358,51.9914434628026,56.3567741579946,74.9007193763777,6.75133969184758,-140.71452727672,0,0,0,0,0
-120.048639641302,74.0331014070493,-10.8909306371975,51.9914434628027,60.9101362876402,76.6399665510504,8.42808824847681,-137.065340748415,0,0,0,0,0
-112.826139127931,74.2345735501405,-1.87933810133712,66.4736440908156,73.4672303120748,73.7254330834874,4.68699457196468,-128.283326357431,0,0,0,0,0
-108.080184521673,72.9988733999443,6.40210531352777,89.6742850649449,85.2701296054073,72.0393824534003,6.90983291882014,-119.696403341034,0,0,0,0,0
-103.657414929779,73.3038923633905,14.6715071038802,100.740837322073,91.6680244308133,70.6971864721319,9.37909942502234,-114.951706334072,0,0,0,0,0
-98.6352620419302,71.1214437759127,12.4995479380548,111.859309395334,96.0376851096692,68.8419342560845,14.9534120293511,-109.529690051381,0,0,0,0,0
-89.6602271995529,68.2523567482275,10.6447522279524,121.942943476689,102.318932241206,62.9573526103319,19.8919832305373,-106.079014870468,0,0,0,0,0
-71.1816584950655,64.7385161968353,5.78810776401197,129.746405725988,110.390833484033,57.1609018368731,21.8309859991136,-99.5283991396252,0,0,0,0,0
-59.4444292416327,66.0754806607877,5.30332726908411,134.288868653463,121.239573582244,54.7929729394833,20.315011118287,-94.6704385772089,0,0,0,0,0
-54.8051133980264,68.3413745732883,4.02184610392653,134.999165102813,126.997291313206,53.3266245355622,20.4792668262419,-92.4009749981135,0,0,0,0,0
-54.2853264382228,69.7296427823515,5.93333823276111,135.676497458494,132.707029906348,55.3853997262468,16.8178092053694,-89.2399871815455,0,0,0,0,0
-52.312958717204,72.6136309863576,5.39542046267,137.221686137571,136.026608512308,57.249696515966,13.7174128980073,-84.633602525576,0,0,0,0,0
-48.9434181234146,76.8769498528899,3.06079077282706,138.83203546997,134.22944271065,61.8286930151343,8.64582620512117,-76.9850791874898,0,0,0,0,0
-45.7615599587927,80.4412693923039,-1.24181420723448,138.307625853564,127.853819839751,64.1549016314293,6.75708344252505,-67.2405230151625,0,0,0,0,0
-43.8401614336206,81.9127189051394,-3.2773186604676,138.63332660882,124.72440444257,66.8285861235799,3.91726565694884,-63.1716084810331,0,0,0,0,0
-45.5942827852678,81.3300995694839,-2.46617792450707,139.352748787579,121.567776648207,68.4542890517377,3.23363271028881,-64.4660921056845,0,0,0,0,0
-49.3945175120665,81.0697517172635,-2.12488016143135,137.618685271036,118.083152542641,70.9746765935354,2.92837559675014,-72.073728180291,0,0,0,0,0
-63.2332718615504,76.0455460115266,-3.73703593157528,127.93062092251,110.497023453683,70.9375919722495,4.45192948535606,-91.6508326908751,0,0,0,0,0
-80.9672643179068,69.5275237669279,-7.72510313571898,119.339739167498,99.4477626779428,70.5532005225888,5.81701101241491,-109.735374757818,0,0,0,0,0
-87.8803121325684,65.9255705341481,-11.3808601252577,115.435362334239,93.3386932465263,74.4447485694081,6.22582268687319,-114.66151263548,0,0,0,0,0
-101.103797795011,60.1457763932656,-12.2693857298793,114.528703200816,87.4810404651528,76.2113599093252,4.28178921261956,-120.080081491414,0,0,0,0,0
-112.444081853665,55.0678742975775,-14.2239551648643,112.196151571556,80.9265188554012,76.0292144852144,3.80964218047705,-125.608038673642,0,0,0,0,0
-127.786557078861,56.9847988612069,-11.8694686375712,106.093233766673,76.4824716521104,76.0015844500988,-0.529500436508878,-130.617763095362,0,0,0,0,0
-134.008120450261,59.7620967276329,-12.1748281891745,96.9494986087014,73.0601128400455,76.1277100279217,-4.66672128049365,-133.152962902537,0,0,0,0,0
-135.600311817423,60.5551367973686,-15.6114400212526,90.5117516013299,70.8432660751072,77.1328984707481,-7.47744364021022,-134.349350611264,0,0,0,0,0
-134.037781052058,61.6956291958011,-16.9058185483645,82.6382356674818,70.8021660162228,75.1980478250287,-8.15188752135922,-134.559713997237,0,0,0,0,0
-131.863252216655,65.807884651063,-14.4500252446706,73.9141417513482,71.4669255003357,74.0657854021976,-11.3784005358575,-135.165126556469,0,0,0,0,0
-124.80614320441,69.1858026746593,-12.5715882930397,60.3497786603853,72.1385237208421,74.4580895654987,-11.0697796268924,-132.98304999125,0,0,0,0,0
-118.717011967494,72.9582174339221,-7.90088852186925,55.9481643953904,73.2362288365806,74.5676005033404,-11.8985818503877,-129.946860543807,0,0,0,0,0
-116.159049756774,74.3619337163854,-3.81215369435077,56.4179857140367,73.9514422411654,73.7198794454186,-14.8588093066986,-128.091797451162,0,0,0,0,0
-114.13047841687,74.8774272727374,0.77291351158046,64.9899513160676,76.2435834441041,73.1665366613836,-19.1467899090036,-126.350593524777,0,0,0,0,0
-109.104004972511,75.4045844824106,9.74310459280795,84.6124976753026,78.2591273823949,73.5110188244699,-21.2319794215367,-124.911206962075,0,0,0,0,0
-94.9723037533265,70.6482817072122,19.6144346672427,108.736460730521,76.2372454168202,69.2481532172137,-22.0578131687292,-126.341987747086,0,0,0,0,0
-76.4300606026267,62.9151434493357,26.5454571990055,118.814832964592,71.6499671143258,63.8419639593953,-26.139955463043,-127.206684874256,0,0,0,0,0
-73.0794178754917,63.1029617896327,26.7668761608172,121.388291839124,73.118885179847,61.9196447283163,-26.0489754053823,-127.871519835322,0,0,0,0,0
-66.6820011006627,61.8902366639333,25.6354365056309,125.531475970695,72.5978362194657,61.2609578410774,-26.3968142172808,-129.154099214908,0,0,0,0,0
-60.8732547714271,62.0150615505326,19.917532632387,126.503575216534,70.7195102081385,59.4345006049884,-22.2765870232819,-129.692609054637,0,0,0,0,0
-55.3059943461607,70.2664286798951,9.65135927741939,129.164897300846,63.6291924701989,67.0180812610176,-13.198432942332,-132.778967700915,0,0,0,0,0
-50.5007233687996,81.5838652117369,-5.94965340985057,124.327746323207,56.5185907717577,77.1863570360735,1.41698699995077,-130.154306085365,0,0,0,0,0
-49.8704635429097,86.4191835885046,-11.7716414965891,120.745887993077,57.1277851354256,81.1285206607494,2.35501941383649,-129.529048293199,0,0,0,0,0
-46.4167068713652,95.9884860557495,-21.1435306488992,116.779430464494,53.0032359291448,88.1815500712967,12.7315116718555,-126.603911040426,0,0,0,0,0
-48.1652222806438,100.744719485923,-34.2168243188454,109.671719610963,54.4221723992937,93.1291523044539,24.1955359970116,-121.191141484596,0,0,0,0,0
-55.2703933703731,98.8799349987808,-38.4531924133186,105.273508353315,60.8643702755598,90.4424927886659,29.231074343253,-115.779688028097,0,0,0,0,0
-58.9003646585209,97.1870334340352,-35.6122678528672,110.856195638451,66.2157487284536,87.8386002953407,28.9839102915082,-118.502540666626,0,0,0,0,0
-58.8639390981386,96.9439509083434,-35.3500441169134,114.916191503722,67.3894991160599,87.2215497419127,30.4476345223398,-119.786220995836,0,0,0,0,0
-64.6896081772709,89.9849706375353,-29.2859619411052,119.654518092633,71.9081194077589,83.9232217533739,27.3929539467814,-121.871463213427,0,0,0,0,0
-63.7557569581733,86.8855728349721,-20.3443526864818,122.288138043843,75.9947670036212,80.1953462095256,23.3612781243878,-119.439682458154,0,0,0,0,0
-70.0300516800484,70.6128332001578,-4.59567467432224,127.862837586555,90.9961408322213,69.5819977094126,19.2645227543471,-117.255547422307,0,0,0,0,0
-71.0249212123679,63.8043330308819,2.02640929039459,130.145338097582,105.008334651088,65.5693792481524,18.769216075149,-110.246419624515,0,0,0,0,0
-66.7422544391633,63.7638447607602,4.27706329181686,133.584641910466,112.103559979193,63.2131346636322,23.7777569127027,-104.678524618005,0,0,0,0,0
-62.7564675739102,61.3160164648043,5.6552846389254,137.786518137925,120.751549224942,62.7571920165109,23.6439096777489,-97.2426081359848,0,0,0,0,0
-59.1758534981165,60.181486022601,5.05103681046486,140.535796315848,125.354363497931,63.9456004621096,22.57433585047,-85.0627089704715,0,0,0,0,0
-54.4362666209012,64.8967265059223,4.30594897825444,141.978461008782,125.332324949845,70.6553995412741,9.07978311594868,-60.4012959289454,0,0,0,0,0
-47.8632036746136,69.2238451566293,0.430221770525052,144.676639878066,127.946518261148,75.0082839145358,-0.441409287545113,-51.9914434628026,0,0,0,0,0
-44.9653813673573,72.7757227216476,-2.91330832468245,146.442683032394,131.268849968108,77.5432731126886,-6.71029504806634,-51.9914434628027,0,0,0,0,0
-43.3711199617286,77.6370120507473,-9.77305018961719,146.74185519494,132.883569667355,78.7047565164811,-11.4088907362637,-51.9914434628026,0,0,0,0,0
-41.8253176104916,82.8532680844033,-16.6338871886618,145.332201501099,132.162545031849,80.3293712539904,-15.8662079878584,-51.9914434628026,0,0,0,0,0
-47.6268512934939,83.4822175210502,-19.1572613261114,143.406467172275,125.332077783812,78.7223638677534,-11.486425176168,-51.9914434628026,0,0,0,0,0
-63.6448515887274,82.2290366776161,-15.7427431095816,137.696209051175,115.361786044621,76.5760981242548,-4.28667147268061,-57.5503860881805,0,0,0,0,0
-69.0027398491482,78.7904999517146,-15.2034876913555,134.333648860457,113.825574801559,75.7871908504757,-1.61268421228861,-64.7572011898381,0,0,0,0,0
-79.1265757355999,79.3058742749806,-11.8585828636635,129.370678694175,109.389982558679,73.9113896040214,1.78054557088156,-80.7645948877087,0,0,0,0,0
-91.1695703534717,77.6574572180085,-13.6011532320202,124.404345728383,105.020338102196,72.392241070084,5.01010224612915,-100.131475950802,0,0,0,0,0
-99.9901615923094,74.2295252215333,-16.9540492961137,113.83535086588,94.5204360534138,70.0733666129657,16.1051684446352,-117.504320049968,0,0,0,0,0
-107.822086580912,70.4508221709034,-20.1457749388639,108.53942041773,79.8516301634717,72.1314699697084,22.2811687509643,-128.305641351675,0,0,0,0,0
-112.263113206213,67.4410061168155,-24.2062636786869,107.113977160408,73.8239151133292,74.8573663856229,25.3994515875192,-130.516253805227,0,0,0,0,0
-118.720559065578,66.4179358337618,-23.2728486281048,104.927094923906,66.0889708498489,76.7222957905357,23.9482005927516,-132.273365302629,0,0,0,0,0
-123.220828408648,66.2656644717756,-23.1670291591752,102.741962583879,58.5319053065717,80.1302336951053,20.1637979605939,-133.416178104093,0,0,0,0,0
-127.152209427585,66.8863944593583,-23.0313315246295,98.4592138337619,55.3669032977587,79.69928187055,12.4330458361222,-133.962073293963,0,0,0,0,0
-128.993046779838,68.6694128463672,-21.121074575326,92.374946374943,56.2518567571823,80.9937349487273,6.13724722020632,-134.990348300123,0,0,0,0,0
-129.386285960246,70.5414231097724,-20.4856400877178,88.1223508214698,56.6588116528277,81.4159890976928,2.62801857890894,-135.577766917735,0,0,0,0,0
-125.990471598047,71.04265145135,-20.0388839985736,84.2713091684647,56.6907914018285,82.2437281578988,0.288823908652217,-136.551014623879,0,0,0,0,0
-122.091956612591,70.0736613959388,-19.7572509528429,79.3212798975623,55.8623010175184,81.1789940734608,-1.14917753441986,-136.728498921546,0,0,0,0,0
-110.641612842777,71.6316504230938,-11.9404659477146,86.4513008460818,58.597432336186,80.909427575199,-2.14279253814836,-133.73705526501,0,0,0,0,0
-99.9742860764859,74.4984426739676,-3.47930185535644,102.44783100592,68.8510810925547,78.8091086088277,-0.753991875594716,-130.193652745942,0,0,0,0,0
-92.6374275132415,77.1786812596208,1.37849106953619,110.138361315697,72.6541432498453,76.9057181198631,0.850078326683146,-127.852017288918,0,0,0,0,0
-88.0646074153557,78.9448433059937,3.51276878501867,115.950307183933,81.4738115189748,75.1991272306924,2.70542095862547,-126.039724977105,0,0,0,0,0
-83.7129963506732,78.6868540498724,4.41908737661687,122.88936727553,92.2406981199484,69.2260304298156,7.02551783350359,-124.603006785337,0,0,0,0,0
-70.4613849629042,76.5034477007242,-0.209583021853151,129.725580519913,107.24035027942,62.397095503797,14.7489183077449,-119.229029820651,0,0,0,0,0
-60.9507505282853,75.6849421557066,-0.22724604459462,135.200765077159,123.142250803956,57.9413504606376,17.8086933612585,-112.229822937814,0,0,0,0,0
-57.4580346863634,76.9788441365178,1.26392336683338,136.900368350105,130.51777732447,57.3413606152688,19.3007956063015,-106.334886499333,0,0,0,0,0
-54.4766236756084,79.1844621596405,1.58226557007563,137.788525990377,132.570947587377,58.7593285035841,20.0377986062452,-97.3398592384289,0,0,0,0,0
-52.3803177290712,79.4900821579882,0.744051767727778,138.657961075141,132.767900657042,61.0697895898186,18.4590377754199,-84.9026382740111,0,0,0,0,0
-52.923869616315,82.1160043415873,1.39632105364565,139.043336916215,128.88348551184,68.1982158169935,9.37078565780068,-67.1174627373769,0,0,0,0,0
-52.8843580957864,83.4343851855293,-0.336328295427642,139.653279175181,123.732395155738,74.4267642383427,3.27482497602992,-53.1489735530092,0,0,0,0,0
-52.4624759230928,84.4817073889252,-1.73907060726878,139.475622140339,124.040061332829,79.014195341599,-5.20122887929035,-51.9914434628026,0,0,0,0,0
-56.1327966128854,83.6826073975178,-0.338630786449198,137.27515045349,122.71580577925,79.855392909511,-9.9776568891543,-51.9914434628026,0,0,0,0,0
-58.7410377252911,82.2699558734711,0.271766228838741,134.263201446047,119.910704711398,79.1769215658584,-9.60904873279162,-51.9914434628027,0,0,0,0,0
-68.3619526747016,77.431233397601,6.89666301705412,132.310787525991,115.236439448679,78.3034948561153,-6.12202396123504,-62.8938611751262,0,0,0,0,0
-75.8018852861003,73.692695147761,13.3364643120041,134.208710141471,113.651854978262,76.5993812508988,-2.74584228210353,-85.3363185216195,0,0,0,0,0
-78.4320531358,73.3258705592347,17.7697453522499,134.552519729406,113.683935306268,75.4086715831624,-1.41673893865025,-92.6570229214866,0,0,0,0,0
-80.8650000996919,73.4448885968959,21.2309074681256,136.568078505253,112.728234637252,77.0442035008475,-0.762563636201014,-101.621350819584,0,0,0,0,0
-79.7545779105686,72.0537633412385,23.4080479937625,137.621365290994,109.443800990319,74.4048590755005,2.73263949589245,-110.71057240615,0,0,0,0,0
-73.9408225562061,72.3559831976842,14.6837423120096,137.991091893729,95.1814858842084,75.2658419943026,10.7764388598248,-119.808213592332,0,0,0,0,0
-73.918249078099,74.1329440343649,10.0843970024946,137.901939843391,83.8744610714817,77.2370641004756,16.8673231342734,-124.907376388705,0,0,0,0,0
-74.6990930612425,73.735920559353,8.51979695965137,137.187004082519,81.4196655197488,80.3627901230178,16.801788079884,-125.653689243362,0,0,0,0,0
-73.8291713389308,76.7859747826599,3.82470210196773,134.89844374979,77.0067590576623,82.2700326858771,22.4382309187543,-123.99083251858,0,0,0,0,0
-73.8275089509618,81.5397613617601,-2.84954665916356,131.978503421483,74.180386275521,87.3561558778867,27.5424020346409,-121.250150918196,0,0,0,0,0
-69.4093318335079,86.4478191395281,-19.5283731699667,118.671363654244,64.6959664169165,91.2898816369179,40.0444306655919,-108.630253819026,0,0,0,0,0
-67.405683214597,89.7740262471018,-25.2441045238529,110.270901481025,61.7587768326512,95.7015288347928,43.4011280391013,-100.580706870489,0,0,0,0,0
-68.4711246082334,90.4079647333019,-25.7807314575447,109.799712591165,61.5453722649618,96.5801524535301,44.4699851865673,-99.9441877115259,0,0,0,0,0
-63.9839246261189,91.029390106022,-28.7004024505165,104.990777148699,58.8047343933371,95.7558603325598,44.3438913010741,-96.6888561771733,0,0,0,0,0
-64.9085385733804,89.254731508789,-27.3730079158958,106.601760828909,60.3311575107998,92.8484776307012,41.9345357274595,-99.8412380859999,0,0,0,0,0
-68.6841249289959,83.2885378807531,-22.2753121015381,109.714199178169,67.3264319118676,87.2578304810168,33.8308794937767,-101.272033043948,0,0,0,0,0
-71.4669523649431,80.9614062169903,-20.4265741061003,115.302371423966,71.0699171575612,86.0950044403541,30.9036705688732,-108.097120363703,0,0,0,0,0
-71.7565623273817,80.3627821384811,-19.9764135927814,117.919971307247,69.9658868034705,85.5380544554604,33.8146121049413,-110.942994658877,0,0,0,0,0
-72.9573967181534,79.2654934567038,-18.9422514738913,120.286829747146,70.1061249330613,85.2850869242591,30.9756146635156,-114.045143248579,0,0,0,0,0
-72.7293990806538,79.0185252687138,-18.8329395240326,123.550292941956,68.5464746440252,86.2366857298886,29.2847049620847,-118.325760229576,0,0,0,0,0
-71.1973282046772,75.3037705415492,-18.4907637515245,129.348112448508,71.7221424547068,83.6883474030597,23.9710565354632,-123.978508209184,0,0,0,0,0
-71.4541921896096,73.9426293381013,-20.7949859703935,133.980824062369,77.7922178310673,81.0193415578992,17.7830624204286,-130.206156913664,0,0,0,0,0
-71.5574365273408,74.1384557328151,-21.063870177783,135.331901528164,79.6055562508102,81.4435271987062,14.6101368449475,-132.950010281677,0,0,0,0,0
-72.2509484404214,75.4006253190012,-22.5616506295196,135.583192072066,81.5461855211405,79.3493234368027,12.0096355633252,-135.740340930299,0,0,0,0,0
-74.2256350327862,77.1236075076135,-24.5401436936528,135.274695340607,84.0566935966243,79.0782880580057,7.62657011959146,-138.221958383952,0,0,0,0,0
-75.8523189640152,80.0545809127788,-23.9239851372133,129.381189793075,82.6891594337822,75.2587222226983,2.34406201544096,-136.76783662966,0,0,0,0,0
-73.4956247618467,81.2839202710438,-24.9241297804508,124.827881993007,82.5724431993299,71.6787419774249,-7.2741195273477,-135.851822046265,0,0,0,0,0
-74.4031197384241,83.1909875115075,-23.342470429751,122.919139219335,82.96369187893,68.148885208986,-12.9514355828799,-135.534228219999,0,0,0,0,0
