JMW9912/AVATAR/Dynamixel/dynamixel_control/data/csv/poppy/1104_2222_gymnast_2_poppy_humanoid_motor_degree.csv
theta1,theta2,theta3,theta4,theta5,theta6,theta7,theta8,theta9,theta10,theta11,theta12,theta13,
-108.38260700551,84.3318638560054,-4.15402041186566,51.9914434628026,106.806661692738,84.8074167851137,4.35722297970049,-51.9914434628027,0,0,0,0,0,
-113.396610517288,84.7460656115361,-3.65133263277996,51.9914434628027,111.706370370457,84.7655549789499,5.06746766206028,-51.9914434628026,0,0,0,0,0,
-114.409236261919,86.0877908170975,-1.5409631550999,51.9914434628026,112.913566319821,86.3020559434281,3.02779246184197,-51.9914434628026,0,0,0,0,0,
-114.622596250471,85.7909935661194,-1.39291578053653,51.9914434628026,113.135480408796,86.0655704474787,2.91748940360502,-51.9914434628026,0,0,0,0,0,
-115.430508655964,86.8241462723193,0.840902136079221,51.9914434628026,113.927095091446,86.1912486949964,2.9357670554603,-51.9914434628027,0,0,0,0,0,
-115.248125330326,86.7932355809652,0.844009378287997,51.9914434628026,113.707139645109,86.2228061771974,2.9594866097774,-51.9914434628026,0,0,0,0,0,
-115.017836417013,86.7778395026393,0.836631346747033,51.9914434628026,113.48950540372,86.2063749150438,2.96194419538293,-51.9914434628027,0,0,0,0,0,
-114.27616633933,86.7083612343656,0.821172905742793,51.9914434628026,112.904140288065,86.1602522839045,2.9683177344155,-51.9914434628026,0,0,0,0,0,
-113.080990449765,86.6365443442335,0.775812759085665,51.9914434628027,111.943845032431,86.0512877932916,2.96727948631801,-51.9914434628026,0,0,0,0,0,
-111.604486150928,86.6716324636909,0.667847652177007,51.9914434628027,110.572476796451,85.9540315979799,2.99398223041594,-51.9914434628027,0,0,0,0,0,
-108.557621000723,85.7574813381744,-2.13195027808098,51.9914434628027,108.019172230133,85.2532484198507,4.54742179586468,-51.9914434628027,0,0,0,0,0,s
-99.7295643282428,84.4848402397294,-6.85267686242122,51.9914434628026,99.0675340501978,83.8753291467867,9.22795178716092,-51.9914434628027,0,0,0,0,0,
-84.0926573481452,83.1385219703415,-14.184664416649,51.9914434628026,83.5940549574111,82.2173259423421,16.4297443310321,-53.0861763383169,0,0,0,0,0,
-69.2215234668984,79.8267294476568,-20.7365230661074,51.9914434628026,67.4098204023973,79.0563321241493,23.0681573628412,-51.9914434628026,0,0,0,0,0,
-56.455322170448,81.5471611875079,-26.6517249429713,51.9914434628026,54.2481491292887,80.9025236103146,29.0149155230475,-51.9914434628026,0,0,0,0,0,
-39.1488910157756,79.7532593577733,-33.7972313722763,51.9914434628026,37.5842616118869,79.5706058790215,36.3235657925133,-51.9914434628026,0,0,0,0,0,
-29.9259897403111,78.9267030716114,-41.2669361369096,51.9914434628026,28.5586470708319,79.6800969915652,44.0568459130056,-51.9914434628027,0,0,0,0,0,
-21.1589914821615,80.710978575147,-38.9689556401453,51.9914434628027,19.9471887109131,81.6352914419381,43.1862031827538,-51.9914434628026,0,0,0,0,0,
-15.3721473544522,83.4361035998014,-33.9935269225485,51.9914434628027,14.3455121933418,84.062004491395,37.8745067664746,-51.9914434628026,0,0,0,0,0,
-14.2946895517297,85.8734261359939,-29.4138882873948,51.9914434628027,13.5970731400196,85.9995620964002,33.1437948024841,-51.9914434628026,0,0,0,0,0,
-12.5604968981436,88.1033975671495,-27.1877225588145,51.9914434628026,11.8454307957715,87.6766933596511,30.7207063517746,-51.9914434628027,0,0,0,0,0,
-10.3164486565915,90.2017036477969,-24.7956134454535,51.9914434628027,9.86394807004928,89.0226265062845,29.4390151719766,-51.9914434628026,0,0,0,0,0,
-8.51778582375037,91.4127701090539,-22.7127042901344,51.9914434628026,7.92381071289527,90.0839588507786,27.2979934139009,-51.9914434628027,0,0,0,0,0,
-6.6999974553169,91.5423666516349,-22.7638625590115,51.9914434628026,6.23671791363506,90.0842235074008,27.2980936105194,-51.9914434628026,0,0,0,0,0,
-5.69545811956198,91.442365033548,-22.7243863318808,51.9914434628027,5.22739882236236,89.9122434909835,27.232983619914,-51.9914434628027,0,0,0,0,0,
-5.49896347870591,91.527476287954,-22.7579842532138,51.9914434628027,4.99275101890785,89.9048921944065,27.2302004839289,-51.9914434628026,0,0,0,0,0,
-5.90588440049059,91.4951423675549,-22.7452200125054,51.9914434628026,5.74472772552637,90.6982776019036,24.9877480761999,-51.9914434628027,0,0,0,0,0,
-8.25458917639035,92.0697558306166,-20.4113403914263,51.9914434628026,7.8455720727948,90.309649428561,24.8373777354493,-51.9914434628027,0,0,0,0,0,
-12.3552673081607,91.5630606992263,-20.2077889064189,51.9914434628027,11.7116786354909,89.749472172643,24.6206475953264,-51.9914434628027,0,0,0,0,0,
-16.2349994634351,91.9784601248724,-18.7488843691558,51.9914434628026,15.3348920590157,89.5703429206357,24.2314065260548,-51.9914434628026,0,0,0,0,0,
-18.1008859217598,91.6029760091795,-18.9400633955316,51.9914434628027,17.1746025657555,89.1946190390491,24.4169787955377,-51.9914434628026,0,0,0,0,0,
-23.8882663135103,86.8860441898079,-25.8387648761856,51.9914434628026,23.2334512412765,85.1812408466481,29.0226856312662,-51.9914434628026,0,0,0,0,0,
-29.5780694571108,86.6776677191764,-26.0068921539263,51.9914434628026,28.5787215927351,84.4271202435456,30.3064026603006,-51.9914434628026,0,0,0,0,0,
-38.0046810227458,85.3129058973366,-25.4874651148998,51.9914434628026,37.2608013617615,83.7514669735218,27.481036868555,-51.9914434628027,0,0,0,0,0,
-50.94497599667,83.5846996384356,-22.2243343752244,51.9914434628027,50.5726706908211,82.0035717518403,24.2175900496858,-51.9914434628027,0,0,0,0,0,
-66.5582570400817,82.2628285306136,-16.4550175434735,51.9914434628027,65.9794644654032,80.8512434852585,18.5129668135493,-51.9914434628027,0,0,0,0,0,
-84.527489705076,82.4199141068381,-5.97188527187593,51.9914434628027,84.2778491728405,80.8676259996051,7.94913387360015,-51.9914434628026,0,0,0,0,0,
-99.2753690904483,84.7535115396247,6.1743332053799,51.9914434628026,99.2911571083361,82.3876819104332,-1.94928853060184,-51.9914434628026,0,0,0,0,0,
-110.536970461714,86.6901063747819,18.6776724363556,51.9914434628026,110.691225912932,85.1199707737405,-15.4011116533123,-51.9914434628027,0,0,0,0,0,
-116.754175228761,87.3664903825225,30.4999810731413,51.9914434628026,117.466464846923,86.148679244698,-27.1984229988121,-51.9914434628026,0,0,0,0,0,
-120.784834155754,84.8791773426132,38.7631539912156,51.9914434628026,122.335568425125,83.8900282355707,-35.7041211864379,-51.9914434628026,0,0,0,0,0,
-126.466904000674,84.3146580620145,44.5362647006913,51.9914434628026,127.949002231093,83.3958550854828,-41.471191561469,-51.9914434628026,0,0,0,0,0,
-131.149851479116,83.6800459827295,47.5210999454724,51.9914434628027,132.07279983108,83.9647355159953,-46.5009465266255,-51.9914434628026,0,0,0,0,0,
-135.751191150408,84.7374218869844,50.9457976267396,51.9914434628026,136.763230345033,84.8333088986863,-48.5866540664935,-51.9914434628026,0,0,0,0,0,
-138.398228010266,85.6563071319675,50.6896794350089,51.9914434628026,138.415761414498,86.9970321427955,-50.3171062085551,-51.9914434628026,0,0,0,0,0,
-139.119997356113,87.6311768218741,52.4935449258247,51.9914434628027,139.420004258079,88.6184617862596,-49.867756042148,-51.9914434628026,0,0,0,0,0,
-139.321932904135,88.1519112802201,49.9969539965347,51.9914434628027,139.38271972841,89.3952314814205,-47.2593827140031,-51.9914434628027,0,0,0,0,0,
-136.152877022588,89.343790551485,47.2743032963569,51.9914434628027,136.081494357781,90.3438615415099,-44.5614784911666,-51.9914434628026,0,0,0,0,0,
-131.030639114725,87.9564805321245,40.4469159627559,51.9914434628027,131.216873844539,88.7296765245606,-37.7385901655353,-51.9914434628026,0,0,0,0,0,
-124.619842646821,86.794662657311,33.243278591078,51.9914434628026,124.780793029949,87.9207826836551,-33.0677634717722,-51.9914434628027,0,0,0,0,0,
-119.570133113434,87.9632577607324,28.1698533403065,51.9914434628027,118.987653273902,87.8301984055736,-26.7050792497886,-51.9914434628026,0,0,0,0,0,
-112.492967793076,87.8317579699394,21.2251054565909,51.9914434628026,112.198390869185,87.5700520580341,-19.9584497525019,-51.9914434628027,0,0,0,0,0,
-104.645790050236,85.8945035235948,10.9088302056851,51.9914434628026,103.927255973464,84.9584946979451,-8.70012138038582,-51.9914434628027,0,0,0,0,0,
-88.7127901170636,79.9398560141078,-4.90153593627733,51.9914434628027,86.1743803323488,78.9284060201126,7.11255192546629,-51.9914434628027,0,0,0,0,0,
-64.5707562696642,83.3670594625746,-16.9998901929542,62.561931888165,63.692102408571,81.8054536778839,18.9612757280372,-64.4588690917382,0,0,0,0,0,
-28.7401769604562,78.7054803703759,-30.8377296904188,54.3506745851271,28.1549055955147,77.4512056323009,30.3569246835079,-54.6556728732417,0,0,0,0,0,
-12.2039434468307,79.6011001976789,-36.3339033628294,51.9914434628026,10.9830169394263,77.8988223974251,38.3531678398414,-51.9914434628027,0,0,0,0,0,
-6.13343664504378,84.7155303829721,-30.4112102739178,51.9914434628026,4.31795878963463,82.4784219857505,34.7445161360915,-51.9914434628027,0,0,0,0,0,
3.94873740123433,85.2207753987654,-28.0295255808486,51.9914434628027,-5.51734000952175,82.7380728079445,32.268188254721,-51.9914434628027,0,0,0,0,0,
10.404252308422,86.4458084600328,-25.9187727339723,51.9914434628026,-11.5992266312298,84.2130238543012,30.2285298489446,-51.9914434628027,0,0,0,0,0,
17.0945264198995,86.4410133022363,-25.9169498166566,51.9914434628027,-18.1771938414008,84.2937996313139,30.2579175020348,-51.9914434628027,0,0,0,0,0,
22.155203117219,88.0804667816444,-23.974624262523,51.9914434628027,-22.8581991963774,85.885198032517,28.2766818606346,-51.9914434628027,0,0,0,0,0,
23.9371268172676,89.875138554262,-22.1060372450758,51.9914434628026,-24.5172252944777,87.7345928756532,26.4080673061198,-51.9914434628026,0,0,0,0,0,
25.2800542546777,90.6705261894208,-22.4198046694284,51.9914434628027,-25.933523046776,88.5805628997542,26.7287046591333,-51.9914434628026,0,0,0,0,0,
25.9571833999178,91.3474718810245,-22.6869301636969,51.9914434628026,-26.6688362260119,89.2461943528918,26.980806365538,-51.9914434628027,0,0,0,0,0,
26.4529477561321,91.5443178620759,-22.7646328497491,51.9914434628027,-27.1215626176881,89.3511884312306,27.0205624829234,-51.9914434628026,0,0,0,0,0,
27.6706745351902,90.4026599243844,-24.8733642757694,51.9914434628026,-28.3075428897181,88.132191589558,29.1096928443218,-51.9914434628027,0,0,0,0,0,
28.1731217113925,90.0180412125476,-24.7245555317737,51.9914434628026,-28.9018310205258,87.7260824991528,28.9593874755368,-51.9914434628026,0,0,0,0,0,
28.4042240554509,89.7719977040753,-24.6293627116776,51.9914434628027,-29.648136030361,86.5960813076741,31.0923110010644,-51.9914434628027,0,0,0,0,0,
28.4856985032728,89.5086442433349,-24.5274687976943,51.9914434628027,-29.6827444322723,86.3659255664068,31.0091364239685,-51.9914434628026,0,0,0,0,0,
29.160158629546,88.2738162256316,-26.6124792616056,51.9914434628026,-29.7662156326449,85.9784791142184,30.8690159034801,-51.9914434628027,0,0,0,0,0,
28.3989677536635,88.1076484347861,-26.5495024518335,51.9914434628027,-29.1067340958665,85.9251898692693,30.8497329827986,-51.9914434628027,0,0,0,0,0,
26.5633856065839,87.7940443556472,-26.4306118191017,51.9914434628027,-27.1615210961131,85.4498795382902,30.6776154523522,-51.9914434628026,0,0,0,0,0,
23.5589258490307,87.3671930601693,-26.2687001188588,51.9914434628027,-24.3634165804304,85.0929715027371,30.5482154529519,-51.9914434628027,0,0,0,0,0,
15.3376892821557,88.0005062760751,-26.5088892903757,51.9914434628026,-15.8694091831385,86.0908643251116,28.3530943412584,-51.9914434628025,0,0,0,0,0,
11.2040222494982,88.9161855396978,-21.7277068596827,51.9914434628026,-12.5364197274896,86.0963944372154,25.7858852332389,-51.9914434628027,0,0,0,0,0,
-9.3259506429283,89.282189833744,-16.7016317247612,51.9914434628027,7.72670425577336,85.4119777831709,22.9384157342351,-51.9914434628027,0,0,0,0,0,
-28.0002865043519,85.5543220066948,-20.3978135739424,51.9914434628027,26.8365098608657,82.5334170857562,24.4221537168681,-51.9914434628026,0,0,0,0,0,
-38.2852644411689,84.9238359479999,-20.1472443162283,51.9914434628026,36.8819557626694,82.2185107306028,24.3006406929896,-51.9914434628026,0,0,0,0,0,
-54.0133960231685,83.7079323451653,-14.4199396871494,51.9914434628026,52.805120484278,81.1093998683768,18.6175724598358,-51.9914434628027,0,0,0,0,0,
-75.0498920932207,81.1147513198735,-5.41056077705113,51.9914434628026,73.4525598130444,78.5720941434369,9.61394118351181,-51.9914434628026,0,0,0,0,0,
-96.6838559209106,83.8381896554788,11.781133750698,51.9914434628026,95.5027565170749,80.6756273958379,-5.32206682007989,-51.9914434628026,0,0,0,0,0,
-109.273455605333,87.7465094660321,28.4185085520295,51.9914434628026,109.586518723851,84.2788349822953,-20.6322062328406,-51.9914434628027,0,0,0,0,0,
-115.288132270573,86.8948302914963,43.9683414822298,51.9914434628027,116.317204096587,85.1677751397182,-38.2956286396393,-51.9914434628027,0,0,0,0,0,
-119.835984656653,78.675738167824,50.1826085354106,51.9914434628027,121.443762175646,78.8401241440719,-46.765736430659,-51.9914434628026,0,0,0,0,0,
-126.419023743095,76.3366920178535,58.7193416427694,51.9914434628026,127.848102105505,77.254029694211,-54.7143487483801,-51.9914434628026,0,0,0,0,0,
-134.495031649452,76.6201996954965,61.985156745558,51.9914434628026,134.970809958069,78.03676807708,-59.6583978621627,-51.9914434628026,0,0,0,0,0,
-139.524258799314,74.1030712630477,72.3172373957891,51.9914434628027,139.781128407263,76.0566597488293,-69.2608103732127,-51.9914434628027,0,0,0,0,0,
-142.335307726227,73.4640152936639,78.9033277507078,51.9914434628027,143.129602479944,76.5114685926122,-74.4400062093272,-51.9914434628026,0,0,0,0,0,
-143.535933169956,73.7703797803379,77.4731547158867,51.9914434628026,143.321654339639,77.2070566064195,-75.0431131906061,-51.9914434628026,0,0,0,0,0,
-143.796525651791,76.2113694947011,73.5352393626867,51.9914434628027,143.948268527098,80.0042238425348,-69.7443115143098,-51.9914434628026,0,0,0,0,0,
-142.418744751384,80.1171160059212,65.4551087098607,51.9914434628027,141.992210742877,83.3529439774585,-62.6203187062089,-51.9914434628026,0,0,0,0,0,
-137.923644554599,81.7514520029634,58.5398332890408,51.9914434628026,138.461266387312,85.6671272810331,-55.3194084109602,-51.9914434628026,0,0,0,0,0,
-131.158434892343,82.317307332572,48.6387214264996,51.9914434628026,131.339509309599,85.0786265173808,-46.1602683164894,-51.9914434628026,0,0,0,0,0,
-121.652735889017,82.4897547628311,37.6787153533141,51.9914434628027,122.036656662257,85.3534736378983,-37.5513424258505,-51.9914434628026,0,0,0,0,0,
-115.627581231258,85.9356375224738,30.8675806231202,51.9914434628026,115.909609796072,86.9867727489069,-29.089411529391,-51.9914434628027,0,0,0,0,0,
-108.633567181436,88.4594837412104,22.8611408827461,51.9914434628027,108.300531780746,87.9941907242776,-19.1051280750718,-51.9914434628027,0,0,0,0,0,
-101.037264896171,88.2778128329574,9.90375814796113,51.9914434628026,100.256127840431,88.134902281723,-7.35038775913022,-51.9914434628027,0,0,0,0,0,
-80.968604845499,82.8066427414087,-11.4128977751133,51.9914434628027,78.799885740361,81.4332376723303,13.476189067177,-51.9914434628026,0,0,0,0,0,
-49.5717035558215,84.6660564804044,-25.2405529747459,51.9914434628027,46.0419029659066,83.2296515213582,27.2854912232216,-51.9914434628027,0,0,0,0,0,
-26.0473294491335,82.7601808922855,-34.8416621143107,51.9914434628026,23.859090052747,81.3520030220841,38.1908648875324,-51.9914434628026,0,0,0,0,0,
-14.8720142719966,86.3193498487351,-27.0748929012686,51.9914434628026,13.6324070244308,84.6319694010028,30.2821931564667,-51.9914434628026,0,0,0,0,0,
5.26052181325699,85.8121955520273,-28.2495487592751,51.9914434628026,-6.56938849825864,83.9043014180452,32.6819103528945,-51.9914434628026,0,0,0,0,0,
10.918568576911,87.2642675492788,-23.6582764945114,51.9914434628026,-12.7623265902924,84.4905600907275,30.3294657739875,-51.9914434628027,0,0,0,0,0,
18.8665516798713,84.5295601167535,-25.1883811931739,51.9914434628027,-20.206034389464,82.3928840896779,29.5637113318707,-51.9914434628027,0,0,0,0,0,
24.5381076407504,85.0841415072054,-22.810635470859,51.9914434628026,-26.294755305417,81.8136811415209,29.3509585906199,-51.9914434628028,0,0,0,0,0,
27.7225916572298,85.4522719669393,-20.357289691726,51.9914434628027,-28.9597835486895,82.1235461028384,26.8694461356926,-51.9914434628026,0,0,0,0,0,
30.0905378343326,83.7813821737173,-19.6918136191821,51.9914434628027,-31.0247812204138,80.3101712271432,26.182048373191,-51.9914434628027,0,0,0,0,0,
31.1380700088803,80.8519159778616,-18.5132395203466,51.9914434628026,-32.0847989256087,77.2819221185969,25.0154590635763,-51.9914434628026,0,0,0,0,0,
32.2552145358557,75.3891989518323,-18.9291243548051,51.9914434628026,-33.5870398344626,71.1170981720235,27.9531391285899,-51.9914434628027,0,0,0,0,0,
34.0719194888243,65.1379993302076,-22.7180543846456,51.9914434628026,-35.3423537772216,61.4619437723928,29.5240287273461,-51.9914434628027,0,0,0,0,0,
35.7753037022417,50.6704379492361,-24.1871122462902,51.9914434628027,-37.4128261435648,46.5365847981621,31.8897386715854,-51.9914434628026,0,0,0,0,0,
35.9869976436095,37.500125102345,-19.0620651157456,51.9914434628026,-36.9954938385963,33.137678648882,26.6933082536166,-51.9914434628027,0,0,0,0,0,
29.4101645342735,20.5982250774869,-10.791675691695,51.9914434628026,-29.34060146136,16.2108002088719,17.8788701267785,-51.9914434628026,0,0,0,0,0,
-14.0715377133553,6.80012422481643,33.7084899966669,51.9914434628026,63.2419069902862,5.1762286742489,-72.8469753498259,-51.9914434628026,0,0,0,0,0,
-105.394716498739,15.549779479339,105,51.9914434628026,114.834105601048,19.2626034123868,-105,-51.9914434628026,0,0,0,0,0,
-110.419308637769,32.3058912982046,105,51.9914434628026,113.564306488567,35.1488411874043,-105,-51.9914434628026,0,0,0,0,0,
-109.56068480147,48.3305154204701,92.3362739988171,51.9914434628027,112.762093370682,50.630695160685,-91.2004946360937,-51.9914434628027,0,0,0,0,0,
-110.637261394116,65.2857527995229,81.7439200435537,51.9914434628026,113.379798579332,66.1175534771496,-79.7705121369412,-51.9914434628027,0,0,0,0,0,
-107.362354921332,76.7145724064374,65.3795691423522,51.9914434628027,110.104936246798,76.7139363252943,-63.0548181128198,-51.9914434628027,0,0,0,0,0,
-107.237258498289,86.6092255801846,54.4255039111046,51.9914434628027,108.785614960746,85.8061969412009,-51.3194382080105,-51.9914434628027,0,0,0,0,0,
-103.897301512026,93.2035027920971,43.6414647964133,51.9914434628026,104.930488310166,91.3407665397474,-37.9202555918476,-51.9914434628026,0,0,0,0,0,
-96.3792286352179,94.1084661598698,23.1251069461525,51.9914434628027,97.4647091429169,91.9823890638865,-18.7845423109755,-51.9914434628027,0,0,0,0,0,
-85.8716331514804,93.2511274640132,5.18366922964079,51.9914434628026,86.0841740271053,90.8127727053278,-0.966920798310662,-51.9914434628027,0,0,0,0,0,
-65.7958599294365,90.7131081118138,-6.86266506887668,51.9914434628026,65.1988882976336,88.7486619235753,8.65318084776159,-51.9914434628026,0,0,0,0,0,
-46.1595906390375,92.6315272169512,-12.8901029062685,51.9914434628026,45.4091599764081,89.1935329726475,16.6655133431675,-51.9914434628026,0,0,0,0,0,
-36.5991285681355,93.3293808547587,-13.1819175597472,51.9914434628027,35.7591730624274,89.1712670588362,19.2478051363804,-51.9914434628026,0,0,0,0,0,
-25.6387475058151,91.8631746775497,-23.0519338970945,51.9914434628026,24.4597676554861,88.5247953498575,28.0136595151391,-51.9914434628026,0,0,0,0,0,
-16.870371814914,94.4289620440838,-19.5911830165198,51.9914434628026,15.6635593497172,90.9599068815839,24.6742387617844,-51.9914434628026,0,0,0,0,0,
-14.2022257062115,96.0209448356293,-14.4649697485243,51.9914434628027,13.2484077044179,92.5624531443691,19.632477289261,-51.9914434628026,0,0,0,0,0,
-10.7556675509452,97.2758037499131,-14.0095741940511,51.9914434628026,9.78538816630096,94.3133167250252,18.7545156692954,-51.9914434628027,0,0,0,0,0,
-10.466663302043,98.9366566272032,-10.3760224659098,51.9914434628026,9.36393141442025,95.3161613288982,16.5974494059081,-51.9914434628026,0,0,0,0,0,
-10.2005472935662,98.8957436578008,-10.3582458622879,51.9914434628027,9.14079992979676,95.3266459319679,16.6018154562866,-51.9914434628026,0,0,0,0,0,
-10.4883501580495,99.6456125449658,-8.07950793057485,51.9914434628026,9.48012046621506,96.0640051895797,14.3306652450721,-51.9914434628026,0,0,0,0,0,
-12.0316929148627,99.901602922352,-7.54934366065318,51.9914434628026,10.8012799433541,96.1937577933879,14.385441158773,-51.9914434628027,0,0,0,0,0,
-13.668077558541,99.7617403628265,-7.87457550757161,51.9914434628026,12.3738635650463,95.7873605433182,15.2687611796488,-51.9914434628026,0,0,0,0,0,
-16.8528421098193,100.036644629846,-6.15344905982847,51.9914434628027,15.8324187785146,95.7820025950764,13.4805263444493,-51.9914434628026,0,0,0,0,0,
-23.8796555578203,94.8690017315141,-13.3835148816413,51.9914434628027,22.5639984739087,91.8778195788644,18.4812533027645,-51.9914434628027,0,0,0,0,0,
-31.7726991167895,93.4202367546637,-13.2199409594413,51.9914434628026,30.2685674921715,89.980807233734,19.5726863949532,-51.9914434628026,0,0,0,0,0,
-41.9389007268342,92.8622640216267,-10.3839684108846,51.9914434628026,40.6849647922196,89.3664011402787,16.7359376013517,-51.9914434628026,0,0,0,0,0,
-56.4910104827107,90.2862234736948,-6.68202354672074,51.9914434628026,55.7005126190927,86.6758512264959,13.0244625507315,-51.9914434628027,0,0,0,0,0,
-72.6571341472376,87.8689292862819,2.22089924504625,51.9914434628026,72.7323458951598,85.1994361537176,1.89321219499725,-51.9914434628026,0,0,0,0,0,
-89.3919539915204,86.6151831974015,20.9403738586687,51.9914434628027,90.8263574957181,84.2526758919649,-16.7771333479852,-51.9914434628026,0,0,0,0,0,
-98.3852913384689,81.1473716386092,44.1231351135643,51.9914434628027,101.080401901721,79.1708290831951,-39.3534736109577,-51.9914434628027,0,0,0,0,0,
-105.134474204669,69.805473342453,62.9375984344262,51.9914434628027,107.505826623673,69.4163317983623,-60.7341575400656,-51.9914434628026,0,0,0,0,0,
-116.159016917682,60.5377037738812,79.8675375328946,51.9914434628027,117.452136066272,61.0932168702233,-79.529567597009,-51.9914434628026,0,0,0,0,0,
-119.971753284754,49.0674379496616,92.3080664367768,51.9914434628026,122.361732057264,49.7489412357616,-90.6030745614288,-51.9914434628026,0,0,0,0,0,
-128.011759081872,38.4349636303026,105,51.9914434628027,130.488963363957,39.5254003948412,-105,-51.9914434628026,0,0,0,0,0,
-136.80385536017,29.8909113885917,105,51.9914434628026,140.28202187842,31.7649994860039,-105,-51.9914434628026,0,0,0,0,0,
-154.936999462638,20.2247199310912,105,51.9914434628027,155,23.2259227528137,-105,-51.9914434628027,0,0,0,0,0,
120,13.8149203806664,-105,51.9914434628026,155,16.4618169397894,-105,-51.9914434628027,0,0,0,0,0,
101.031246617757,14.5051033418661,-92.9636606189147,51.9914434628027,-118.295766660508,13.5981362278848,105,-51.9914434628027,0,0,0,0,0,
76.4762554590166,26.7690451454228,-60.7358156442939,51.9914434628026,-86.2822982583289,23.0488947666607,79.3214310243318,-51.9914434628027,0,0,0,0,0,
67.2318977636256,40.2429396595244,-47.9123113641253,51.9914434628026,-71.6218249725482,36.0158320882129,61.0454623624594,-51.9914434628026,0,0,0,0,0,
60.4191301540634,52.4040494514839,-39.1173565814488,51.9914434628027,-61.344186993028,48.8809259510931,47.2969676864787,-51.9914434628027,0,0,0,0,0,
56.3256641005576,61.5582632035157,-34.6307112725293,51.9914434628027,-56.5722468533108,58.0093469692583,42.4155331498385,-51.9914434628027,0,0,0,0,0,
52.485403508322,67.9052216932399,-32.1416749158532,51.9914434628026,-52.6874007139222,64.5041421242774,39.1342159041521,-51.9914434628026,0,0,0,0,0,
49.6565285278859,72.2913626516019,-28.4116991795251,51.9914434628027,-50.2163949045021,68.0684493615001,37.6600260820402,-51.9914434628027,0,0,0,0,0,
45.0993760020733,76.733420433647,-27.4508825025895,51.9914434628027,-45.4338955328378,72.6216352529048,36.5659333888484,-51.9914434628026,0,0,0,0,0,
35.9879642725224,82.8158181761876,-24.5309640366985,51.9914434628026,-35.6319389347577,79.2997808414892,31.0336602277559,-51.9914434628027,0,0,0,0,0,
18.3040333336423,89.8247822914119,-22.0861732034071,51.9914434628027,-18.3614071769307,86.339379856585,28.44537363,-51.9914434628027,0,0,0,0,0,
7.84369911656377,95.1018900065692,-13.9253542903201,51.9914434628027,-8.85903077623522,90.5430107044719,22.3694978914376,-51.9914434628026,0,0,0,0,0,
-3.32426861478411,97.7176091005286,-12.4458940740597,51.9914434628027,3.06184858211284,93.8713657233025,18.5735021352079,-51.9914434628027,0,0,0,0,0,
-16.4267290072123,94.60577372271,-17.0258790904445,51.9914434628027,15.8480437870845,91.070930434242,22.2099375231395,-51.9914434628027,0,0,0,0,0,
-28.2862262901318,92.4063599402131,-15.6544142045159,51.9914434628026,27.5229303254647,88.0066782872414,22.8082274539356,-51.9914434628027,0,0,0,0,0,
-43.6979797122039,93.9074552989036,-8.21705545392488,51.9914434628027,43.5512501748822,90.1313378903392,14.4516554157848,-51.9914434628026,0,0,0,0,0,
-64.1066902091775,93.6006155778232,2.4061017832908,51.9914434628027,64.4532710208559,90.0526400560002,3.96060204953813,-51.9914434628026,0,0,0,0,0,
-86.1624899143158,92.8399733284682,15.8362279278585,51.9914434628026,87.5286314501812,89.3654581286303,-9.44622110119181,-51.9914434628026,0,0,0,0,0,
-100.375112903885,96.0582625461104,35.2477062455969,51.9914434628027,102.605590954677,93.4676289580161,-28.5169975716267,-51.9914434628027,0,0,0,0,0,
-107.721402728034,94.2470457084941,49.5166930989004,51.9914434628026,110.211287247919,92.9987785934378,-43.9100373525981,-51.9914434628027,0,0,0,0,0,
-114.358381309219,87.1910221554196,57.237659453581,51.9914434628027,116.368452055589,86.7234151671872,-54.1813000039817,-51.9914434628026,0,0,0,0,0,
-118.800693028027,79.1981430591669,63.4060253148332,51.9914434628026,120.469511189605,79.9651030487787,-62.6678532712976,-51.9914434628026,0,0,0,0,0,
-127.932254471487,78.3334149438817,70.4816882331326,51.9914434628026,129.057324269093,78.3872298191951,-69.8637983762818,-51.9914434628027,0,0,0,0,0,
-133.719473246211,75.9025950044851,77.4323994439928,51.9914434628026,134.284519924623,76.2744436193498,-76.1638226266543,-51.9914434628026,0,0,0,0,0,
-137.886688982742,75.5434424895704,87.1846696736428,51.9914434628026,138.306486285459,76.541705136774,-86.8216822727988,-51.9914434628026,0,0,0,0,0,
-139.096242000134,76.2889337048255,91.9520772841443,51.9914434628026,139.728681644584,76.8278713770658,-91.4545166791629,-51.9914434628026,0,0,0,0,0,
-140.24049704742,77.3925781571265,90.8505655738769,51.9914434628027,140.76447384987,78.3347115319842,-90.5090269268366,-51.9914434628027,0,0,0,0,0,
-138.591329494779,80.7031597768111,88.4489780247079,51.9914434628027,138.957782979447,81.763216147737,-88.4355290296533,-51.9914434628027,0,0,0,0,0,
-137.077543196415,82.5858398985144,77.8848151588867,51.9914434628026,137.431340188835,83.2268457637708,-77.8232942776921,-51.9914434628027,0,0,0,0,0,
-132.072916627771,83.3468334047995,69.2026301536929,51.9914434628027,132.796923941814,84.4714824038094,-69.0222372913747,-51.9914434628027,0,0,0,0,0,
-126.439006666141,84.743384474719,59.0684891367473,51.9914434628026,126.990417614907,84.7762825030866,-57.8821217561965,-51.9914434628027,0,0,0,0,0,
-119.367607911537,85.9475911003378,48.8890567627168,51.9914434628026,119.593020962171,85.5538245749994,-47.7901634999842,-51.9914434628026,0,0,0,0,0,
-111.278888970699,87.7370987269307,39.524914610857,51.9914434628027,111.715269745043,86.3377081610065,-36.2046425940095,-51.9914434628027,0,0,0,0,0,
-115.02409948907,79.6104333266189,17.4430556863418,51.9914434628027,116.294286493073,82.5925980615936,-20.4633238744659,-51.9914434628027,0,0,0,0,0,
-116.288286774299,74.5610881224542,17.5104988735991,51.9914434628026,117.325293839731,81.4603998667544,-18.6086001724882,-51.9914434628026,0,0,0,0,0,
-115.1930122622,69.2506487173515,29.9364250783958,51.9914434628027,116.030029584345,80.7533266868568,-21.255868825479,-51.9914434628027,0,0,0,0,0,
-112.438857115236,61.3479356475878,44.1239401301305,51.9914434628027,117.820967696394,81.0475657743041,-24.4244618303136,-51.9914434628027,0,0,0,0,0,
-114.109789168644,58.2327464197429,59.6537010325235,51.9914434628026,118.591741834582,82.9306287967728,-31.9877944069163,-51.9914434628027,0,0,0,0,0,
-113.041672830093,51.6338873457589,71.0693583476024,51.9914434628026,118.102074044485,82.8146521567589,-34.6286714209157,-51.9914434628027,0,0,0,0,0,
-115.516214049136,44.252650113765,85.7642451856763,51.9914434628026,118.943482804021,82.3421281837142,-37.9959939731688,-51.9914434628027,0,0,0,0,0,
-114.243736646863,29.7909505404242,88.6054941526205,51.9914434628026,118.54516470193,81.2942705505659,-38.3664046929717,-51.9914434628026,0,0,0,0,0,
-115.289389268383,20.4687603243313,95.1375312981825,51.9914434628026,116.685224803801,80.6003859783558,-40.62454556523,-51.9914434628027,0,0,0,0,0,
-125.239103758832,11.8040496876381,105,51.9914434628027,117.29422190885,79.3861606236301,-41.491879232565,-51.9914434628026,0,0,0,0,0,
-141.766102587274,3.93787899052985,105,51.9914434628027,115.698958122674,76.6787154914462,-44.6352790461773,-51.9914434628027,0,0,0,0,0,
120,3.20909833607187,-105,51.9914434628027,113.599695817676,72.3347618685516,-45.1694268471345,-51.9914434628026,0,0,0,0,0,
93.3574450365518,6.8275417116002,-102.345369601458,51.9914434628027,113.672305681043,69.2513208509974,-49.0310482903936,-51.9914434628026,0,0,0,0,0,
82.1206174236048,9.6409544332663,-86.7278623055393,51.9914434628027,114.152757109186,66.0016860891119,-53.201014500803,-51.9914434628026,0,0,0,0,0,
83.2810908302149,12.5131453999194,-87.9948679891601,51.9914434628026,113.930250017713,61.7290233106452,-54.4324061553938,-51.9914434628027,0,0,0,0,0,
79.7641521276759,17.1966007073778,-82.8093321083489,51.9914434628026,113.070928017515,58.5255179629499,-54.6895832937511,-51.9914434628026,0,0,0,0,0,
77.1272096133113,21.180767932748,-78.6282078695749,51.9914434628027,112.547820496528,55.9149868467901,-54.960402653587,-51.9914434628026,0,0,0,0,0,
76.9194102108424,23.9350249073283,-78.9473808304006,51.9914434628026,111.361583665912,54.0263343101406,-54.4120364943263,-51.9914434628027,0,0,0,0,0,
77.7733097645689,24.7003522176276,-79.71770159394,51.9914434628027,111.791735383377,52.500667082594,-52.534426510288,-51.9914434628026,0,0,0,0,0,
77.8816187287609,24.3823373005767,-79.7443032209532,51.9914434628026,111.159101465331,52.0979297471395,-52.0769162358876,-51.9914434628027,0,0,0,0,0,
77.5766415957079,22.7889423073576,-79.2471043980412,51.9914434628026,111.111779380101,52.0165501963906,-52.0542057295841,-51.9914434628027,0,0,0,0,0,
76.7110021134514,20.019475420803,-78.1010281745644,51.9914434628026,111.220418582462,52.6932255274633,-51.9931961344738,-51.9914434628026,0,0,0,0,0,
77.3062174650523,17.0702174391904,-80.7386285812003,51.9914434628027,111.164302928628,53.6051039369922,-51.7311335796425,-51.9914434628026,0,0,0,0,0,
74.3386035916661,12.0202657415141,-77.3525654041795,51.9914434628026,111.880575948047,54.975547316413,-52.0057039610717,-51.9914434628026,0,0,0,0,0,
75.7511849833121,6.72936621922633,-80.4861036624742,51.9914434628026,112.303805528132,57.835776746737,-51.6057042688158,-51.9914434628026,0,0,0,0,0,
52.8490828597351,3.22320164261888,-57.6581447701707,51.9914434628027,112.714555139087,61.2681632501283,-50.9512006895867,-51.9914434628027,0,0,0,0,0,
-69.7406449694327,2.25950031125815,60.2467933345305,51.9914434628025,112.309956297025,64.9868728093909,-49.5070247608456,-51.9914434628027,0,0,0,0,0,
-90.8029973108006,7.46548377280727,79.047577108098,51.9914434628026,112.354834587411,68.3313593309784,-48.4582230416893,-51.9914434628026,0,0,0,0,0,
-93.8323390908414,12.3688958049182,77.0837729937071,51.9914434628027,112.857196903108,72.8709802341164,-49.894374077666,-51.9914434628027,0,0,0,0,0,
-97.4143031533623,22.2948304984898,79.0495095789137,51.9914434628026,113.494162062129,75.4769608247987,-46.6081270610794,-51.9914434628027,0,0,0,0,0,
-101.793116753161,32.9536609054134,77.7000338491353,51.9914434628026,113.530726647254,78.9077018888837,-45.280313894496,-51.9914434628026,0,0,0,0,0,
-106.298695096717,44.6274267295816,73.5869861591794,51.9914434628026,114.500309334877,82.3122590028364,-44.3281077411814,-51.9914434628027,0,0,0,0,0,
-100.461105328973,53.8825535714474,59.2154527002832,51.9914434628026,113.762091341785,85.7540919752049,-39.8264656263773,-51.9914434628026,0,0,0,0,0,
-99.7899941495794,65.0638571946665,49.6708299198463,51.9914434628026,111.702973336364,86.6580388835684,-30.7618936867036,-51.9914434628026,0,0,0,0,0,
-101.486145837487,74.0175792253314,41.7461940421266,51.9914434628027,110.807049838373,88.6744957230819,-27.1259652806851,-51.9914434628026,0,0,0,0,0,
-102.525636678756,81.6232892045861,35.6922500492743,51.9914434628026,109.732409963597,89.5960559808783,-21.3670992006269,-51.9914434628026,0,0,0,0,0,
-106.67340198285,87.2081859619992,33.0962441333529,51.9914434628027,110.222194424429,91.0351675711943,-18.318044991982,-51.9914434628027,0,0,0,0,0,
-110.094034907958,92.1669498726236,32.2492468635114,51.9914434628026,110.684295642128,92.1020648714537,-15.3673981987098,-51.9914434628026,0,0,0,0,0,
-110.639170481595,93.8156919491958,31.7256036395154,51.9914434628026,110.440148562144,92.0458691655423,-12.780190197951,-51.9914434628026,0,0,0,0,0,
-109.165828934695,92.0642129137755,29.4972061066802,51.9914434628026,109.375092954459,90.6533111637182,-10.6439354311544,-51.9914434628026,0,0,0,0,0,
-108.953601970314,88.9836949774751,30.5204162767425,51.9914434628026,108.991808355497,89.4346190198294,-11.0381905993421,-51.9914434628027,0,0,0,0,0,
-106.887899733236,85.5590474499956,36.2312005609232,51.9914434628027,108.140830382556,87.6942786031429,-11.5313720038237,-51.9914434628026,0,0,0,0,0,
-103.806201681947,79.0201793888136,39.3276879146652,51.9914434628027,107.701213427391,86.5629845434362,-14.3718513012643,-51.9914434628026,0,0,0,0,0,
-100.027857674681,71.7137779412635,46.3488422149611,51.9914434628026,107.419466619239,84.7891605034359,-14.8772033896086,-51.9914434628027,0,0,0,0,0,
-97.4226974619822,63.1920623934775,50.7120558650231,51.9914434628026,108.721980163858,83.2865167861138,-15.6326053723942,-51.9914434628026,0,0,0,0,0,
-96.4260167263608,56.0443041951574,58.1014962302687,51.9914434628026,110.616814660406,82.2088301624355,-16.4611873149139,-51.9914434628026,0,0,0,0,0,
-96.9966474673569,47.3953971920481,61.7309382843813,51.9914434628026,111.823552414054,81.497442824046,-19.6556573561018,-51.9914434628027,0,0,0,0,0,
-96.8484490602816,41.0177418287142,69.6146295658429,51.9914434628025,112.594280727974,80.2409534529503,-23.0121795471939,-51.9914434628027,0,0,0,0,0,
-99.1597157497023,34.9394448988415,77.4440215870419,51.9914434628027,113.392962819319,79.3642303230558,-28.9455115188047,-51.9914434628027,0,0,0,0,0,
-99.5640410447355,26.4033667630665,80.7053451323768,51.9914434628026,113.683758598721,76.8172205006754,-30.1029612627688,-51.9914434628027,0,0,0,0,0,
-99.6680348095915,19.9389002371603,84.2304998055531,51.9914434628026,113.400645002218,74.8244370937132,-33.4210673225746,-51.9914434628026,0,0,0,0,0,
-97.5178706855992,13.0326546163222,86.2393666111223,51.9914434628027,113.6979500305,73.3977171634245,-39.462058415431,-51.9914434628026,0,0,0,0,0,
-100.532382576394,6.57296803945033,91.7894608814119,51.9914434628026,113.040869332229,69.4966357655197,-40.5223502598241,-51.9914434628027,0,0,0,0,0,
-114.357613729331,1.11798094763298,105,51.9914434628027,112.690165868604,66.1525260507673,-44.0948510974806,-51.9914434628027,0,0,0,0,0,
97.6058859101682,3.16325057693336,-101.354851055568,51.9914434628027,113.138538150075,63.2239761288109,-48.0172933908146,-51.9914434628026,0,0,0,0,0,
93.1464797453243,6.94704321965836,-94.2744810403903,51.9914434628026,114.094248389979,60.5050445839058,-52.272798447307,-51.9914434628026,0,0,0,0,0,
87.4813587464284,10.7679449066048,-89.0389877168963,51.9914434628026,114.136895946376,56.7431281872082,-53.4354130474142,-51.9914434628027,0,0,0,0,0,
79.0322497003744,15.1997957614692,-79.3126455356372,51.9914434628026,112.430727931292,53.1394879676089,-52.9360118348975,-51.9914434628026,0,0,0,0,0,
77.5996816724238,19.6902129308759,-78.7612663679536,51.9914434628026,110.855762436514,50.1177255330315,-52.2474609049116,-51.9914434628027,0,0,0,0,0,
78.5177489668057,24.7351776853726,-80.2734549704347,51.9914434628026,110.570872709317,47.0248303637423,-50.0529546935745,-51.9914434628026,0,0,0,0,0,
76.4384176309981,28.6831971638349,-76.8719715651511,51.9914434628027,108.455433500214,44.8072312745841,-48.5391459061845,-51.9914434628026,0,0,0,0,0,
76.5164454340998,30.6002873647167,-77.3120066644737,51.9914434628027,105.933154515569,42.9052079908504,-46.5258736706767,-51.9914434628027,0,0,0,0,0,
77.549748833909,30.9624777137132,-78.0593434976571,51.9914434628027,105.655932779747,41.1998471731773,-44.0132496120692,-51.9914434628027,0,0,0,0,0,
77.8810659974601,30.1235375462222,-78.1205988463442,51.9914434628027,104.892054718992,40.8270757495226,-43.3591539528191,-51.9914434628026,0,0,0,0,0,
80.1171613015738,28.0861426869639,-81.927039400574,51.9914434628026,104.847370642619,40.8039528686969,-43.3209574217897,-51.9914434628027,0,0,0,0,0,
80.4994580669615,25.9516690006219,-81.8965682575121,51.9914434628027,105.311387048729,41.0831435031799,-43.7120142607732,-51.9914434628026,0,0,0,0,0,
80.6348320759503,22.5367149032099,-81.5504460673111,51.9914434628027,106.871935520686,41.7238045758487,-45.0581460958046,-51.9914434628026,0,0,0,0,0,
82.6613132347891,18.4359687512017,-85.3335453708075,51.9914434628026,108.071538673751,43.1783366011375,-45.9357174265817,-51.9914434628026,0,0,0,0,0,
84.5565890568297,13.818424533553,-89.2032222675189,51.9914434628026,109.262327983946,45.4226070925715,-46.6312969332739,-51.9914434628026,0,0,0,0,0,
87.403636123725,8.78047882416717,-94.1625827254025,51.9914434628026,110.453705001218,48.6913420246576,-47.0502636190875,-51.9914434628026,0,0,0,0,0,
81.6765461010665,4.73355513115772,-88.5550863737093,51.9914434628026,110.769151956316,53.2286427948315,-48.8879126819471,-51.9914434628026,0,0,0,0,0,
73.662899087277,1.44689707409352,-83.018351632505,51.9914434628026,111.367788341416,57.2645683747421,-48.3787727224662,-51.9914434628026,0,0,0,0,0,
-67.2633458210941,1.7516201286412,55.1985447099785,51.9914434628027,111.917604367662,61.3681810064277,-47.6691159929355,-51.9914434628027,0,0,0,0,0,
-102.343060339615,6.20136847511083,88.421516583733,51.9914434628027,112.420891573976,65.0963070031303,-46.8992716719051,-51.9914434628026,0,0,0,0,0,
-103.836052861212,10.2956628392042,85.0249109827158,51.9914434628027,113.978877691872,70.0004338492528,-46.2742541234146,-51.9914434628026,0,0,0,0,0,
-106.022711169779,18.5590823901299,85.0675222392934,51.9914434628026,113.600103089398,72.6857404565997,-42.35473652977,-51.9914434628026,0,0,0,0,0,
-104.417475131727,27.1750790728705,78.0995193188849,51.9914434628026,112.863739003935,76.471331123221,-40.5113469349925,-51.9914434628026,0,0,0,0,0,
-107.502431260989,38.1232978692274,75.5132017842035,51.9914434628025,113.232877125339,79.2150302288621,-36.940209611929,-51.9914434628026,0,0,0,0,0,
-105.154370027601,47.5500711753826,66.86974442136,51.9914434628026,113.281068187221,82.3957511703461,-32.9903176336809,-51.9914434628026,0,0,0,0,0,
-103.004316561624,56.9382446085542,55.8501594439181,51.9914434628026,111.910127171145,84.7118476575587,-28.9394580252903,-51.9914434628026,0,0,0,0,0,
-100.937174067132,66.5920142825625,45.1849761707547,51.9914434628026,110.709748570206,86.2311935808464,-22.7883990352866,-51.9914434628027,0,0,0,0,0,
-104.118208355875,74.3025398789929,38.0077352315681,51.9914434628026,110.573970532955,87.6879933251993,-19.6125629758219,-51.9914434628026,0,0,0,0,0,
-105.582281582385,80.4888079571003,32.0629944957192,51.9914434628027,109.515349670637,88.6305149596484,-16.5110436898784,-51.9914434628027,0,0,0,0,0,
-108.109784510897,85.4556398541335,28.8804167154434,51.9914434628026,109.895093596537,89.8730336336196,-16.1163399133646,-51.9914434628026,0,0,0,0,0,
-110.489287436219,89.5262459733748,28.0506665703245,51.9914434628026,111.297888664325,90.7910062766073,-15.9262107770183,-51.9914434628026,0,0,0,0,0,
-111.160941423061,91.6751666006462,27.3577870196146,51.9914434628027,110.953549156109,90.0760013802086,-13.565397475695,-51.9914434628027,0,0,0,0,0,
-112.105004734539,91.4769153600414,27.5974436838371,51.9914434628027,110.554819106071,90.015200388313,-16.1416438556832,-51.9914434628026,0,0,0,0,0,
-112.248057191425,90.2446397229598,30.7870599327784,51.9914434628027,108.939029608998,87.3827407282107,-16.855360872294,-51.9914434628027,0,0,0,0,0,
-111.661033872654,88.1041241283428,34.163905285406,51.9914434628026,106.967660140214,83.8569181307056,-22.6633721272245,-51.9914434628027,0,0,0,0,0,
-110.908581168654,85.0029075601834,37.7727975836355,51.9914434628026,103.759816507834,77.4028088265026,-33.3465799378851,-51.9914434628026,0,0,0,0,0,
-111.098129535308,80.8426559240218,39.378394339425,51.9914434628027,102.343768713868,68.8965769107319,-44.4351274289349,-51.9914434628027,0,0,0,0,0,
-110.637977751892,78.0784467306571,42.7997758153215,51.9914434628027,101.065044539405,58.9046921568504,-52.7221033456143,-51.9914434628027,0,0,0,0,0,
-111.05663563762,75.7483543517624,46.4809548704076,51.9914434628027,104.792295667852,52.0112740548689,-64.6106137509899,-51.9914434628026,0,0,0,0,0,
-110.714122674912,72.3442147427048,47.4162135242169,51.9914434628027,105.252529457373,41.0118354465172,-71.6200836115824,-51.9914434628026,0,0,0,0,0,
-111.963418359413,70.1229454830029,51.6081210449599,51.9914434628026,106.460937670633,32.9148349831946,-81.3571825825411,-51.9914434628027,0,0,0,0,0,
-112.174001443005,67.6511065839769,55.2397565216318,51.9914434628026,111.969775452756,22.6835732804609,-93.5126997502603,-51.9914434628026,0,0,0,0,0,
-112.596799776322,64.7893489723622,59.1417003938008,51.9914434628026,121.279560477738,15.430063360049,-105,-51.9914434628026,0,0,0,0,0,
-113.690157328412,61.7577856728643,60.9467727931249,51.9914434628027,136.209015860221,10.1414845359347,-105,-51.9914434628026,0,0,0,0,0,
-113.802667676715,59.4680450976037,64.4135469791257,51.9914434628026,155,8.60622065003875,-105,-51.9914434628027,0,0,0,0,0,
-115.074310144761,56.5715205304371,63.6656992055968,51.9914434628027,-120,8.5365821720674,105,-51.9914434628026,0,0,0,0,0,
-115.02962833,53.8848363822076,64.3583758208507,51.9914434628026,-115.745373599833,11.5501903385753,105,-51.9914434628026,0,0,0,0,0,
-114.490769099037,51.1549618640538,64.5394185948989,51.9914434628026,-103.105205664589,15.590530286346,105,-51.9914434628026,0,0,0,0,0,
-114.979084467699,48.4399458740013,62.9759996215402,51.9914434628026,-95.8584761000109,20.3166729149684,99.8845129481448,-51.9914434628026,0,0,0,0,0,
-113.837642311424,46.6157074246198,62.2744104875072,51.9914434628027,-89.2255145541342,24.2875610527141,92.0554315770714,-51.9914434628027,0,0,0,0,0,
-112.780941328944,44.5068474862143,59.0564254848701,51.9914434628026,-86.562226165948,27.2615224210463,90.2389913556212,-51.9914434628026,0,0,0,0,0,
-112.176833742125,42.7986378585476,56.1993922186292,51.9914434628026,-83.1266955566187,29.5251260990493,85.454164935953,-51.9914434628027,0,0,0,0,0,
-111.022928128369,42.4065097363501,55.1620575956796,51.9914434628026,-82.480650536863,30.1525614561883,85.0964293226884,-51.9914434628027,0,0,0,0,0,
-111.119436221779,42.7527887415729,55.1957468616569,51.9914434628026,-84.1897154284362,29.2311290421122,88.7580149039054,-51.9914434628027,0,0,0,0,0,
-112.420160316716,42.8880791456087,53.8418622198526,51.9914434628026,-83.7258880803651,28.313991016506,88.3627864532659,-51.9914434628026,0,0,0,0,0,
-112.679633035661,43.8758793556449,53.9014345157466,51.9914434628027,-83.9655173092173,26.1033101329181,88.3318483482212,-51.9914434628027,0,0,0,0,0,
-112.314047219077,45.9601468536014,55.7343443376441,51.9914434628026,-85.9667886272942,22.2814842019578,92.1653423892866,-51.9914434628026,0,0,0,0,0,
-112.76253047332,48.226354214249,55.6803752949838,51.9914434628026,-88.7463639391289,17.783698382124,96.8385697031171,-51.9914434628026,0,0,0,0,0,
-113.112859000653,51.4698308004954,55.2564497392399,51.9914434628026,-87.811429005117,13.5497837716055,95.9593654433911,-51.9914434628026,0,0,0,0,0,
-113.24939983338,56.1962498823736,54.1617446885116,51.9914434628027,-87.3139095970889,9.86563531427294,98.0328378300685,-51.9914434628026,0,0,0,0,0,
-112.753464683728,60.227353777631,52.6148917817365,51.9914434628027,-90.7866665297034,7.1796534194735,103.835518347792,-51.9914434628026,0,0,0,0,0,
-112.922575933439,64.0387925018035,48.9260747106956,51.9914434628026,-78.2033783821896,3.51721351839663,94.2165892601042,-51.9914434628027,0,0,0,0,0,
-112.474718431632,68.0041423392552,49.9828849117439,51.9914434628026,155,1.05073491739875,-105,-51.9914434628026,0,0,0,0,0,
-113.938808861692,72.6437958839015,49.3069997359361,51.9914434628026,99.490410317583,6.5530745715162,-76.4128275571199,-51.9914434628026,0,0,0,0,0,
-113.672264560369,76.3327736300623,47.7290271459159,51.9914434628027,101.702299733763,16.43646465586,-75.165400054879,-51.9914434628026,0,0,0,0,0,
-113.78175980548,79.4583014004646,43.8299434404832,51.9914434628026,101.496271109674,27.1298243808923,-68.5433019251901,-51.9914434628026,0,0,0,0,0,
-114.40192869793,83.0594344993508,42.5992981254093,51.9914434628026,104.013414696465,40.1946028742459,-65.2696177617091,-51.9914434628026,0,0,0,0,0,
-114.085709346422,86.3196001049865,41.0545213001598,51.9914434628027,104.430783014901,48.6435820055681,-57.0095535890557,-51.9914434628027,0,0,0,0,0,
-113.483520640691,87.7925736229125,34.8077925447605,51.9914434628027,103.488938327946,57.121442118104,-49.8298276506699,-51.9914434628026,0,0,0,0,0,
-112.258606158119,89.037195311446,28.6234380865891,51.9914434628027,106.270204890218,64.8771800396112,-42.7169624081265,-51.9914434628027,0,0,0,0,0,
-112.223977636011,90.2015294130502,22.8452972428237,51.9914434628026,108.085244395898,71.5652613358903,-36.9723365222407,-51.9914434628026,0,0,0,0,0,
-111.958479161627,91.6275124296646,19.5934739647547,51.9914434628027,107.936947349644,77.3447144921689,-30.0596181800412,-51.9914434628026,0,0,0,0,0,
-111.702444999828,92.3211450187248,16.6656688179243,51.9914434628026,108.343868163869,81.7268103209795,-23.7145583361125,-51.9914434628027,0,0,0,0,0,
-112.729606525434,93.3379703111985,16.3218096009309,51.9914434628026,111.270369601676,86.0480240919688,-22.9875376172014,-51.9914434628026,0,0,0,0,0,
-112.516587449543,93.2394302568814,16.3497851351152,51.9914434628027,111.146509043742,85.9778610568596,-20.3720186883497,-51.9914434628026,0,0,0,0,0,
-112.136997439158,92.0197345276646,16.8242107967809,51.9914434628027,107.704818661367,83.7302533312472,-20.3475572907003,-51.9914434628027,0,0,0,0,0,
-112.347282487393,90.6678617220721,20.0336851530937,51.9914434628026,108.507946356885,81.0037792220949,-26.5673099785802,-51.9914434628027,0,0,0,0,0,
-111.862292857611,88.5985908302815,23.4285381855906,51.9914434628026,104.098148587752,74.3369234144015,-36.7232682914146,-51.9914434628026,0,0,0,0,0,
-112.138636861034,85.715513338536,24.643535746731,51.9914434628026,98.83685235024,63.7527179523219,-42.9173760083564,-51.9914434628026,0,0,0,0,0,
-112.601973572916,84.2375273885021,28.0130919724716,51.9914434628027,98.1639137622226,55.7866694692166,-50.7441788799634,-51.9914434628027,0,0,0,0,0,
-112.676206514689,82.3241493656969,31.4658156747846,51.9914434628027,97.6645226258833,47.6147729579752,-58.5282996331539,-51.9914434628026,0,0,0,0,0,
-112.478432510179,80.1357836356188,34.9152637892777,51.9914434628027,97.8974469187063,39.3440515681992,-64.3287781426658,-51.9914434628026,0,0,0,0,0,
-112.555139648558,77.0168003940979,36.1517232685965,51.9914434628026,96.6010614847696,29.3029368858769,-68.4355942612144,-51.9914434628027,0,0,0,0,0,
-111.573734928731,74.2619981659467,39.3146737405667,51.9914434628027,101.043775079639,21.842231141947,-76.4513926226231,-51.9914434628026,0,0,0,0,0,
-111.732558853372,71.8032877568321,42.9042437671214,51.9914434628026,107.776880296671,13.5186824155723,-88.076599076023,-51.9914434628025,0,0,0,0,0,
-112.620214286011,69.0365441944381,47.0652056555073,51.9914434628026,123.123997561983,8.01138058090564,-105,-51.9914434628027,0,0,0,0,0,
-112.844510706947,66.3641443131869,50.7831788632481,51.9914434628026,154.825138761403,3.91672689412961,-105,-51.9914434628026,0,0,0,0,0,
-113.572991851004,63.5296179341398,54.9224123858832,51.9914434628026,-120,5.01874523729408,105,-51.9914434628026,0,0,0,0,0,
-114.241112868772,60.5347032591436,56.395746165557,51.9914434628026,-120,6.93376104404751,105,-51.9914434628026,0,0,0,0,0,
-114.748784799119,57.6155929086675,57.7027243164383,51.9914434628027,-113.604455318014,10.6066724931907,105,-51.9914434628026,0,0,0,0,0,
-114.557606919225,54.3717853063279,58.4510686020873,51.9914434628027,-106.193308298482,14.3078776140785,105,-51.9914434628027,0,0,0,0,0,
-113.408439873532,51.1427059190445,58.2328025077485,51.9914434628026,-96.2443881286877,18.3546265830885,97.7193953237183,-51.9914434628026,0,0,0,0,0,
-112.287325895227,48.4477093594266,57.8033927050554,51.9914434628027,-92.4246245338647,21.2803230924087,94.5109891895871,-51.9914434628027,0,0,0,0,0,
-112.477689235678,45.8076763568904,55.9182680149169,51.9914434628027,-90.0028345891812,24.5886412952881,92.6279179361291,-51.9914434628027,0,0,0,0,0,
-111.344721750493,44.3720870239528,55.1245729242774,51.9914434628026,-86.2094197829214,26.5213111796044,87.3280371643966,-51.9914434628026,0,0,0,0,0,
-110.782848819379,42.4805425483678,52.3635447704727,51.9914434628026,-85.1285611749248,28.5135671886586,86.7072162425492,-51.9914434628026,0,0,0,0,0,
-109.679594833247,41.680226540894,51.4527046096474,51.9914434628027,-84.5648197469917,29.742589823288,86.4254178759313,-51.9914434628027,0,0,0,0,0,
-109.252603692462,41.4970300668945,51.0778647371206,51.9914434628026,-84.2069774759047,29.6409419099519,86.18063435612,-51.9914434628026,0,0,0,0,0,
-109.883611487191,41.326584508933,49.1697016423562,51.9914434628027,-83.5898077703367,29.4910110050943,85.7581099974306,-51.9914434628027,0,0,0,0,0,
-110.345419914939,42.1650935534461,49.4632919533114,51.9914434628026,-84.7582922866576,28.0232889109036,89.0432084586684,-51.9914434628027,0,0,0,0,0,
-110.776331430802,43.0875760502486,49.7045095712164,51.9914434628026,-83.6989762823561,25.8605058808702,88.1198824615026,-51.9914434628026,0,0,0,0,0,
-111.89368043809,45.4058391164111,50.2976790918552,51.9914434628026,-83.6231461409882,22.2713411628317,90.3692359969975,-51.9914434628026,0,0,0,0,0,
-112.116298223195,49.1144109377659,52.2969362282983,51.9914434628026,-85.6967875307427,17.1284817941043,94.2921042829657,-51.9914434628027,0,0,0,0,0,
-113.807404568809,53.8197328932776,52.6427354022134,51.9914434628026,-77.7461052357028,11.8667688726014,86.9272168940767,-51.9914434628028,0,0,0,0,0,
-114.136934905162,57.9158868352082,51.7652032411003,51.9914434628027,-70.273796905125,8.74763250730671,82.2058657902438,-51.9914434628027,0,0,0,0,0,
-114.578081600924,61.6655901292755,48.2792867473223,51.9914434628026,-44.0802238232014,5.91548055211847,59.0937556289159,-51.9914434628026,0,0,0,0,0,
-114.333486153622,65.7594570162681,49.3822181920198,51.9914434628026,12.1581288826938,2.67779863264653,7.17693344172065,-51.9914434628026,0,0,0,0,0,
-115.251549400235,70.4582957621213,48.2838588443771,51.9914434628027,68.2860932751459,7.8197273219852,-46.4507793247857,-51.9914434628026,0,0,0,0,0,
-115.995543076955,73.8774331267192,47.369931191776,51.9914434628027,94.62851815748,16.3395785240504,-67.7638358432275,-51.9914434628026,0,0,0,0,0,
-115.901531800582,77.0895043099249,43.2001402605471,51.9914434628027,96.5803075860027,27.0262872023356,-62.6829654694837,-51.9914434628026,0,0,0,0,0,
-115.768907845943,80.6263975810562,41.5576061019477,51.9914434628026,101.934949664405,40.1766779078089,-60.6477893799728,-51.9914434628026,0,0,0,0,0,
-115.652091448979,83.9843127302009,39.9703858836146,51.9914434628026,105.521626539925,52.0830659401829,-57.4803568714145,-51.9914434628026,0,0,0,0,0,
-114.738233158694,85.185955276502,33.6436021882612,51.9914434628026,105.94092982037,59.8767720803885,-48.6902942537572,-51.9914434628027,0,0,0,0,0,
-113.916750210408,87.0760800161781,29.861416415452,51.9914434628026,107.049955439601,67.7496090509924,-42.5344646823001,-51.9914434628026,0,0,0,0,0,
-112.97230564399,88.0462210780147,23.8788411984064,51.9914434628026,108.160928432442,73.4939440709495,-36.4573400607653,-51.9914434628027,0,0,0,0,0,
-112.11548799146,88.3404195866796,18.3177473846384,51.9914434628026,108.482777413543,77.5467431378825,-30.2261798512706,-51.9914434628026,0,0,0,0,0,
-112.627430397986,90.105202221318,17.6672175417722,51.9914434628026,110.224134323451,81.7523946045637,-26.8892508298487,-51.9914434628026,0,0,0,0,0,
-113.933493375613,91.5727737277727,17.1834354232468,51.9914434628026,112.82972822325,85.7723216197828,-26.1219350876216,-51.9914434628027,0,0,0,0,0,
-114.02878308616,92.0212950005194,16.9922882923523,51.9914434628027,113.406705105297,87.1736266928563,-23.0140419000474,-51.9914434628027,0,0,0,0,0,
-112.004927641422,91.4664071467402,17.0369553950442,51.9914434628027,112.282845251089,87.4259360413831,-22.66799902826,-51.9914434628026,0,0,0,0,0,
-109.846551557049,90.4277484714544,12.043347501918,51.9914434628027,108.135947475466,87.1928764628965,-11.694240926119,-51.9914434628026,0,0,0,0,0,
-109.704135213471,91.6177364803268,11.1174409108473,51.9914434628026,108.36052607807,89.5272069468146,-9.37820521163773,-51.9914434628026,0,0,0,0,0,
-107.858229487637,90.6977096463188,8.88603480918087,51.9914434628026,106.980943717296,89.4833305921951,-6.77953638528746,-51.9914434628026,0,0,0,0,0,
-107.932681163341,89.5617501233358,12.1722901677587,51.9914434628027,108.082039552842,87.8648139764904,-8.93047754035929,-51.9914434628026,0,0,0,0,0,
-109.081545844662,87.2750976065916,20.7733956939318,51.9914434628027,110.659824266767,86.8098680343015,-19.9566153809537,-51.9914434628027,0,0,0,0,0,
-109.162367502584,81.4191073782549,30.5366334024962,51.9914434628026,112.017944309267,81.5385793425185,-30.2128997068878,-51.9914434628026,0,0,0,0,0,
-108.423825466058,76.3855476818274,39.6226633937379,51.9914434628027,112.509772394906,77.1494308782302,-40.0746684947263,-51.9914434628026,0,0,0,0,0,
-108.586484454967,72.0578887952379,46.2184440866419,51.9914434628027,114.218591733831,73.8479163579376,-47.6640653796566,-51.9914434628026,0,0,0,0,0,
-107.770693126739,68.1250477360154,52.0113023211579,51.9914434628026,115.53746359742,71.044252129441,-52.3288952977412,-51.9914434628026,0,0,0,0,0,
-109.172972860439,64.8799562490283,56.4949708458878,51.9914434628026,117.794539064545,69.764947946353,-57.1981473649007,-51.9914434628026,0,0,0,0,0,
-111.960812660065,62.4782349463232,62.0021581182563,51.9914434628026,120.007682239569,70.2554103941674,-64.2654786347807,-51.9914434628026,0,0,0,0,0,
-116.908135770934,62.0834392141778,71.7990687527291,51.9914434628026,124.735048716134,71.7590703139532,-73.1754590200748,-51.9914434628027,0,0,0,0,0,
-121.416079366923,62.76504879455,81.3322049417141,51.9914434628026,129.067324419367,74.867045063139,-84.1770094123431,-51.9914434628027,0,0,0,0,0,
-126.792370120623,67.566554305128,90.3509082960764,51.9914434628026,133.253316982721,79.4430964811835,-92.5585016385765,-51.9914434628026,0,0,0,0,0,
-128.641908751027,71.1523310858657,96.2291358468674,51.9914434628026,134.125093448371,83.7283115739054,-103.295858925782,-51.9914434628027,0,0,0,0,0,
-129.159552390326,76.4872136033495,99.3833840469214,51.9914434628026,133.425795250949,89.6072789440408,-105,-51.9914434628026,0,0,0,0,0,
-126.687906125688,80.4987054899388,96.7171971840324,51.9914434628027,130.751857175566,96.4297771256052,-102.256928459218,-51.9914434628026,0,0,0,0,0,
-125.487041768347,84.1280142750567,90.5313823099435,51.9914434628026,129.193705998351,101.353155794448,-97.8480822972531,-51.9914434628026,0,0,0,0,0,
-123.426806138606,87.7578044863513,81.7922329104764,51.9914434628026,128.506782324343,103.435593081389,-88.1631366330919,-51.9914434628026,0,0,0,0,0,
-120.898368516036,90.3473270030109,69.9119054565542,51.9914434628026,126.245718490474,103.462830654055,-80.8055012263492,-51.9914434628026,0,0,0,0,0,
-117.548687842184,92.1814021758993,58.9070917755551,51.9914434628026,124.78916208598,102.668754855115,-71.0462222705149,-51.9914434628026,0,0,0,0,0,
-110.074566355736,92.7760497307585,47.9778170526672,51.9914434628026,119.993768783562,100.071838163018,-61.6316457319472,-51.9914434628026,0,0,0,0,0,
-97.8520445731889,91.2618265186966,26.7884095352141,51.9914434628026,110.62545086609,94.5372477502056,-48.8024946587351,-51.9914434628026,0,0,0,0,0,
-80.2342103797042,92.7890500889756,10.6282855275463,51.9914434628027,94.4753498831762,86.3414231512869,-31.1544336459999,-51.9914434628026,0,0,0,0,0,
-68.1356522666709,94.56514432607,-5.88249320626778,51.9914434628027,79.4112795197525,80.877132708727,-20.7443255754159,-51.9914434628026,0,0,0,0,0,
-56.171033686806,96.8931029646837,-17.256127842078,51.9914434628027,66.5045732450266,74.5104313606682,-10.700751365946,-51.9914434628026,0,0,0,0,0,
-41.8111035988443,96.2962021091721,-22.1180075434619,51.9914434628027,50.9197790360812,69.0111789154685,-2.78112361338764,-51.9914434628026,0,0,0,0,0,
-28.1642870887169,96.8101825588492,-26.1846982110777,51.9914434628027,34.0922520425941,65.0979442522874,8.51118520281413,-51.9914434628027,0,0,0,0,0,
-17.174831375661,97.1499676224697,-28.1239257279621,51.9914434628027,19.4698388765952,62.6322913753081,15.4429347842561,-51.9914434628027,0,0,0,0,0,
-7.89458057266727,91.8900234508486,-31.8559074309166,51.9914434628026,7.60456725679191,55.3125881429925,23.2825763970761,-51.9914434628026,0,0,0,0,0,
-1.53049936747849,91.1345859504074,-32.727465682404,51.9914434628027,-2.83616077260407,53.9038753679401,31.9060183640916,-51.9914434628026,0,0,0,0,0,
4.47673626870907,89.4348624427111,-37.1167155843969,51.9914434628026,-11.1479776342793,51.9025082797719,36.956373736133,-51.9914434628026,0,0,0,0,0,
7.35881728044635,87.7483002136515,-36.5449551779927,51.9914434628027,-15.9168492156601,51.7618125300986,39.9102857225397,-51.9914434628027,0,0,0,0,0,
9.6535730255439,85.6318975572102,-38.3449804324579,51.9914434628027,-19.2111435577616,52.5952204472497,43.2663195087263,-51.9914434628027,0,0,0,0,0,
11.1042107624126,84.2305334085247,-40.4042409065928,51.9914434628027,-20.0921279604284,53.6672258790018,43.6907263064535,-51.9914434628027,0,0,0,0,0,
10.4446436085935,84.0030958477603,-40.3317142813747,51.9914434628027,-19.4888751602558,54.5634845107544,44.0362455641926,-51.9914434628027,0,0,0,0,0,
7.79940496523998,84.6991800331595,-38.037365590167,51.9914434628027,-16.0780563441741,53.560993780366,43.2351083079162,-55.6977672364392,0,0,0,0,0,
3.55188433254782,84.7310552801747,-35.5178880155962,51.9914434628026,-5.66541450145097,51.5171904694144,34.6130194378692,-67.0106159790338,0,0,0,0,0,
-2.36299881595707,83.979936283655,-32.8162080851996,54.2993675945976,5.73487585926149,48.7550511621722,27.9042163236155,-76.5117847397244,0,0,0,0,0,
-12.9735993278864,80.0740201848474,-29.0647845017635,67.2954132862188,20.5890747964493,48.7845717948007,16.4010347154861,-88.7801901626598,0,0,0,0,0,
-25.9373904355923,79.1208671007832,-23.5018891714862,83.8021476033992,38.2143966348443,50.9603910965074,5.8755557263108,-104.219780480108,0,0,0,0,0,
-37.551429309383,75.1186602161854,-20.0541948609593,94.4371266992342,55.9535768348949,53.3333663145509,-5.58593411773545,-113.329243616499,0,0,0,0,0,
-46.3331306947075,73.8604932773253,-16.5578770324032,101.988430348992,68.910824990053,56.4203647419392,-11.6310864326094,-120.69703644153,0,0,0,0,0,
-53.098244626683,70.657616787452,-13.3095258730348,107.990225734521,79.9910012266165,58.9141354656554,-19.323221782796,-126.517992772712,0,0,0,0,0,
-56.2705872571694,69.6102612748285,-8.4045839158014,110.449715035647,85.1268337415223,59.6320052732041,-25.4925754928912,-128.684850036747,0,0,0,0,0,
-56.2678854293317,65.528658004487,-7.55614016360462,112.011176079387,88.7364368702071,57.4442185076486,-29.918829662267,-129.774507440538,0,0,0,0,0,
-55.5614712678049,62.1363089407614,-7.22084319643794,111.875804237755,92.5035763040713,54.8151796555252,-35.555491958209,-128.94511740775,0,0,0,0,0,
-56.4346412524503,59.1300553305943,-6.82370325762869,111.743171648908,96.4434801637245,52.9026653949124,-40.2634760194199,-127.377989724606,0,0,0,0,0,
-58.5561172184788,56.8459981135321,-6.75516709872089,112.690271779832,102.63768729881,50.7523580545771,-44.2077027517699,-125.172963321581,0,0,0,0,0,
-61.5280954645287,52.9215676040379,-7.72759500663617,111.422536344403,107.797880258436,49.4461446421616,-45.5112992387214,-121.994183782721,0,0,0,0,0,
-70.9899742054239,49.3747471584864,-4.26406867484301,112.483631724929,116.417963600695,51.2699526535471,-51.6092653890439,-117.339485896428,0,0,0,0,0,
-82.4073223225127,47.9773864053541,0.734131728274153,108.767945573323,123.448302729029,52.8395165634463,-53.9700880382126,-109.125667048052,0,0,0,0,0,
-96.2542758463328,47.4989703727448,8.43856541502158,101.91020964702,128.682193583785,55.3051205713396,-56.4748758088742,-97.6693587168311,0,0,0,0,0,
-109.326004843364,48.0777047438887,14.874929239126,91.8825072729207,132.26233156191,57.0989769898176,-56.7727523487672,-88.6096113784448,0,0,0,0,0,
-120.20184702834,50.3648230637108,22.2903817206324,80.2307711539778,137.062452449119,58.7160522437705,-58.0796810099376,-79.1826835914,0,0,0,0,0,
-127.24632067474,55.8763628784715,33.5729572845199,63.1813571251524,139.249567847773,61.9992720143156,-64.326233240754,-62.9120162074518,0,0,0,0,0,
-133.072777279446,64.6513919975592,50.8156827117076,51.9914434628026,141.781309170674,67.7817024600966,-75.0779071842887,-51.9914434628026,0,0,0,0,0,
-137.295473352471,74.1818376766641,66.6255920259788,51.9914434628027,142.888805929738,74.4354142768872,-84.3139889267573,-51.9914434628027,0,0,0,0,0,
-138.138341045002,81.4025681739229,82.1891088189412,51.9914434628026,141.225329604713,83.4978647436425,-94.7612045811058,-51.9914434628026,0,0,0,0,0,
-135.94396458199,87.2817619327898,94.9027397328441,51.9914434628027,137.217800955421,92.5279427652071,-97.3669266445939,-51.9914434628026,0,0,0,0,0,
-133.850242885545,89.1663362761832,105,51.9914434628026,134.154461358361,98.4891302462925,-100.061575263079,-51.9914434628027,0,0,0,0,0,
-134.281137410536,90.1469489551473,105,51.9914434628027,133.660212506437,101.223788256021,-95.4261683187584,-51.9914434628027,0,0,0,0,0,
-133.942888349793,89.732189320713,105,51.9914434628026,133.711169872381,101.614879969276,-88.1868146974821,-51.9914434628027,0,0,0,0,0,
-133.833756380645,89.3471452878689,101.642884614414,51.9914434628027,132.536168612356,100.265718717856,-81.0119650536041,-51.9914434628027,0,0,0,0,0,
-131.964344518293,88.7591416993523,94.9576915871525,51.9914434628027,131.055648531978,98.9951302698066,-76.3230257946642,-51.9914434628027,0,0,0,0,0,
-128.820590798212,89.195485859926,86.1321204521746,51.9914434628027,129.267473436429,97.0435437477089,-69.4055548000107,-51.9914434628026,0,0,0,0,0,
-124.074436420016,88.841069474541,75.0621710303064,51.9914434628026,126.352622276345,95.7750637245963,-64.8488945798259,-51.9914434628026,0,0,0,0,0,
-117.887981548709,89.6997217084075,63.1781940571678,51.9914434628027,122.988430048809,95.1121160936445,-57.8025010886779,-51.9914434628026,0,0,0,0,0,
-104.66591493343,87.0163283586404,45.4415939616795,51.9914434628027,111.060612727385,88.9688320712826,-45.6813312162709,-51.9914434628026,0,0,0,0,0,
-86.2583244496463,86.7417777266709,25.9796190195513,51.9914434628027,91.9954673247299,81.2395103438611,-28.2844251116932,-51.9914434628026,0,0,0,0,0,
-72.7246193366452,88.9997537114639,12.2091864852244,51.9914434628027,77.4288740880664,77.8872365743286,-16.9257068513436,-51.9914434628026,0,0,0,0,0,
-61.9325690617329,90.2881022125416,-1.43570275371275,51.9914434628026,66.0940067610623,74.6905792239452,-8.00673612029403,-51.9914434628026,0,0,0,0,0,
-52.7839915715287,92.3370830849872,-10.1626535177934,51.9914434628026,55.5400975268088,72.3187318885787,-1.19100197568094,-51.9914434628027,0,0,0,0,0,
-42.7438164093102,94.4507253850855,-16.237586477255,51.9914434628027,44.2339310705849,70.5169988593101,6.00519243475012,-51.9914434628026,0,0,0,0,0,
-31.0020019059689,94.7357782030984,-23.1061221124645,51.9914434628027,31.5743699743699,67.5277887158126,13.6664470979778,-51.9914434628026,0,0,0,0,0,
-19.9527009808063,93.8732457253591,-25.2516358406081,51.9914434628026,19.9329132031215,66.1306910281005,19.0699589527783,-51.9914434628026,0,0,0,0,0,
-12.060343971014,94.4596660451789,-28.4608724296763,51.9914434628026,10.6102375032592,64.6737362461725,26.1473471787528,-51.9914434628026,0,0,0,0,0,
-6.54506458302447,94.6519160826981,-29.4168583623386,51.9914434628027,3.92224065679086,63.2373402238058,30.2759375389557,-51.9914434628026,0,0,0,0,0,
-2.55208488355735,94.0924291480832,-33.7947094189291,51.9914434628026,-1.01356068308159,63.046748828718,33.0021926527631,-51.9914434628026,0,0,0,0,0,
0.0104957383468544,91.4650119306463,-35.3341821997485,51.9914434628027,-5.67901118356221,60.1481979668811,37.5029590708052,-51.9914434628026,0,0,0,0,0,
3.38569635737308,92.2921410815107,-38.0851118908207,51.9914434628026,-9.85981745468544,62.7488599333208,41.2921534911984,-51.9914434628026,0,0,0,0,0,
6.22403757085299,91.8581825314874,-40.3861755659772,51.9914434628026,-12.4519838751665,62.5545774471045,44.0202452764695,-51.9914434628027,0,0,0,0,0,
8.34663227766276,89.4890432550582,-42.0690883521121,51.9914434628027,-13.7120124560477,61.823965516573,43.7722470603575,-51.9914434628026,0,0,0,0,0,
7.17681780400669,86.6615767033902,-41.1761465986356,51.9914434628027,-13.065191756406,61.1445728168096,43.5384370685267,-51.9914434628027,0,0,0,0,0,
4.94180080850843,84.6208471757526,-40.5285654815575,51.9914434628027,-9.6167476099626,59.3588139437514,42.520259573174,-56.9734896076321,0,0,0,0,0,
2.84293167886921,84.0201540750654,-40.3371560829526,51.9914434628027,-4.05610813470584,56.8252816143084,40.833445844281,-64.7106041613505,0,0,0,0,0,
-0.862959546657503,82.6754912921615,-37.4321143347632,53.4586773328883,3.02566391131666,54.5709529765463,35.8233216781454,-72.6735441148645,0,0,0,0,0,
-9.3965741034399,77.0289903861174,-35.749867159423,67.405584341754,13.277643064312,49.6673909259135,27.4784261532587,-84.4070099074012,0,0,0,0,0,
-17.8059258923008,74.3231730659161,-31.9163549861403,77.9502787390768,23.7036190897956,46.2091722190494,21.4683459422,-93.8670077606005,0,0,0,0,0,
-24.2758480854881,70.3768997349764,-26.6079535932364,84.2352413003124,32.8125700216471,45.5279358621514,13.7969516889832,-100.765211836533,0,0,0,0,0,
-31.8156540668703,67.3877275024831,-21.0627699774124,92.6957663252839,43.856694722021,46.2778788623054,2.15423553281062,-108.797034201139,0,0,0,0,0,
-42.5264512014308,64.8205978925513,-13.9539059686551,102.08973764206,60.5494940041957,47.0474800937605,-8.70671483611266,-116.991837193597,0,0,0,0,0,
-54.3647756026569,61.4961238903203,-6.89187895900896,113.132733727971,78.776603421217,49.5355228639717,-23.2796387182452,-126.046614195632,0,0,0,0,0,
-63.9762378444926,59.6730691235709,0.325222484336971,122.094842560664,91.8282719405414,54.2688699877715,-34.9214304390464,-133.251347366705,0,0,0,0,0,
-72.3618218591784,56.6036469595628,7.03956331381828,127.890366863529,102.186864832819,57.6605115684085,-44.7695547299181,-136.362339348976,0,0,0,0,0,
-78.0595439411138,55.7363268112353,14.539413349874,130.355596873303,107.150173388603,60.4449952821285,-53.4906609103249,-137.443923099004,0,0,0,0,0,
-79.3478240190834,55.1029819515397,17.225718528713,131.723611844964,108.626579417902,60.7173950820189,-57.1321640370764,-137.382547417224,0,0,0,0,0,
-79.7104176474222,55.2605139173657,17.3811761379413,131.872315861915,108.543087424939,60.7007889871005,-56.9919494414932,-136.436252756754,0,0,0,0,0,
-80.7811165251981,54.1483621998919,15.4504802807203,131.369685833693,110.083770111509,59.6386308362632,-55.7186732567748,-135.180506328604,0,0,0,0,0,
-81.6705398140117,53.8891957186851,11.5434778703668,130.386177442514,110.918320155476,59.1937463217064,-52.0871841666489,-132.858444563433,0,0,0,0,0,
-85.4699161490813,54.5832920794106,9.49301625672861,126.12646820415,113.57199519689,58.891389564571,-48.8319741182521,-127.151152180695,0,0,0,0,0,
-92.4178263405183,54.3641658863875,9.99089927660257,117.785100400649,116.824083750888,58.8084384054999,-47.6345937322172,-115.648982541273,0,0,0,0,0,
-102.005621991516,54.6233917962544,12.1350239188337,108.981671164186,121.333541097163,58.8666613465432,-47.2914635858403,-103.68811169734,0,0,0,0,0,
-109.025258317614,56.6341761192159,14.6624831199882,99.3241032379385,123.947134191186,59.220198746109,-47.2100908021146,-94.5755228330082,0,0,0,0,0,
-115.931408792254,57.8268566575183,16.3837579948694,88.7621455058757,125.380697337935,60.7685737284137,-48.1298492229916,-84.5397760022761,0,0,0,0,0,
-119.438139483046,58.3854636322935,18.4554288456461,74.8554148187964,126.894665551321,60.442208921359,-46.7891363682986,-74.5631452797057,0,0,0,0,0,
-121.658776004644,60.6997602459822,26.9897612124257,58.6801359705561,127.54806492309,61.7869227358329,-52.3414928615449,-61.8587032677469,0,0,0,0,0,
-127.348052450431,65.324113436671,36.932399177668,51.9914434628026,129.443305486998,63.9545621256098,-58.2576745319483,-51.9914434628026,0,0,0,0,0,
-131.172300987192,71.3336302809897,50.7785965915665,51.9914434628027,131.897604630689,68.5664362881046,-66.8158219281391,-51.9914434628027,0,0,0,0,0,
-133.879110109423,77.3730174431377,63.9757888948782,51.9914434628027,134.561070265119,72.8869115934883,-72.7185603113398,-51.9914434628027,0,0,0,0,0,
-134.444944910831,81.669261397036,75.8627376613008,51.9914434628027,136.461394080286,78.6024448085161,-79.6846788293391,-51.9914434628026,0,0,0,0,0,
-133.722786055569,84.0023754248502,86.282851326991,51.9914434628027,136.42199384453,82.7462517200766,-86.3196486071118,-51.9914434628026,0,0,0,0,0,
-130.298214025208,86.5141146270916,92.7069301230564,51.9914434628027,132.984417884299,89.1813883839948,-83.9200185657132,-51.9914434628026,0,0,0,0,0,
-130.098260380157,89.2377262941235,97.1904405172408,51.9914434628026,132.092741194327,95.0823991877211,-83.6515847238924,-51.9914434628026,0,0,0,0,0,
-129.302376686066,91.7045349367499,97.322720851996,51.9914434628026,131.05968499785,98.5747799927986,-81.1193994226715,-51.9914434628026,0,0,0,0,0,
-128.182395645891,89.9166104492619,90.5553801458642,51.9914434628027,130.599469494227,98.0461396826803,-74.0371238873215,-51.9914434628026,0,0,0,0,0,
-126.167792823346,90.1193738555688,83.8774445410657,51.9914434628026,128.681951925404,97.2050229093728,-66.9942357387167,-51.9914434628026,0,0,0,0,0,
-123.386569642826,89.7767355434108,74.9585662320343,51.9914434628027,126.353601476272,95.7729999149022,-62.4633337644845,-51.9914434628026,0,0,0,0,0,
-118.529866226935,89.7986031984424,66.244949464951,51.9914434628027,123.489804120505,94.6740129779147,-57.8995251559307,-51.9914434628026,0,0,0,0,0,
-111.906646987243,89.8126414764363,55.1309238381606,51.9914434628027,119.326977028574,93.3218441299476,-51.8264764551794,-51.9914434628026,0,0,0,0,0,
-100.821535372658,88.7479106943365,38.7269323708034,51.9914434628026,108.301655145345,88.7527485357983,-39.5803060612418,-51.9914434628026,0,0,0,0,0,
-86.1931440902417,89.7342042708408,24.8204106195264,51.9914434628026,94.2662217820501,83.1336433372346,-26.5713510458499,-51.9914434628026,0,0,0,0,0,
-73.7402119835335,91.6778890572558,11.0923391846511,51.9914434628027,80.4609338833807,80.376581660874,-18.4085361712532,-51.9914434628026,0,0,0,0,0,
-64.2236510907426,92.9020710161771,0.0761633834642251,51.9914434628026,69.4730918152534,77.3448334921204,-9.41303926324646,-51.9914434628026,0,0,0,0,0,
-55.3242070619056,93.932446870142,-8.22768413766728,51.9914434628026,60.2816546417265,74.1486335245121,-2.99130269514311,-51.9914434628026,0,0,0,0,0,
-45.8883787418666,95.0174429314317,-16.4731221878014,51.9914434628026,50.2332847840596,71.0918832307995,3.58153722297752,-51.9914434628026,0,0,0,0,0,
-35.2464254314822,94.7438103594763,-24.326406184645,51.9914434628026,40.2902301447029,67.9866693515193,8.09412145752457,-51.9914434628026,0,0,0,0,0,
-24.4814267563808,94.2168482485674,-26.5581248948167,51.9914434628026,28.4121935099987,65.5529972942539,13.6080592724408,-51.9914434628027,0,0,0,0,0,
-16.6207285926715,94.1584163004356,-29.6327070606601,51.9914434628027,19.1362430924128,63.9818272348909,21.1349372055135,-51.9914434628027,0,0,0,0,0,
-9.23818234679703,92.9539491393202,-34.8327889401995,51.9914434628027,11.1623098788286,62.1828939561684,25.5266718599974,-51.9914434628027,0,0,0,0,0,
-4.20357105966155,93.3297821821828,-38.2643037956334,51.9914434628027,4.63223183789277,60.5743456674133,29.6793081461236,-51.9914434628027,0,0,0,0,0,
-0.939515766327722,93.1174186936501,-39.6244243490354,51.9914434628026,-1.00957035016428,61.5127962053114,35.2041766367674,-51.9914434628026,0,0,0,0,0,
1.79725410502395,92.7528819797907,-38.2415169000633,51.9914434628026,-4.91019004712466,63.9765782706745,36.1605685479768,-51.9914434628027,0,0,0,0,0,
4.07621416159302,92.55799427116,-40.6156061842296,51.9914434628026,-6.90754552819748,64.8398420249664,36.4855015178733,-51.9914434628027,0,0,0,0,0,
4.73919312660296,91.8467658607371,-40.3824344381355,51.9914434628026,-5.59258286090754,61.5933790633823,37.5821946813897,-58.0932431085291,0,0,0,0,0,
2.97881217499606,90.8404898039552,-37.5929237672502,51.9914434628027,-1.583797008042,58.809381085719,35.6775223474988,-65.8561382689,0,0,0,0,0,
0.266901569620948,88.2137945435131,-36.9698372769137,55.3125573593807,3.7150072791023,56.6721653617701,30.6388686313576,-73.6863218197009,0,0,0,0,0,
-6.89121651905949,85.9215779710055,-34.3983247480387,66.1509284985239,11.1039293476606,55.481444817211,25.4840603050458,-83.2132177278234,0,0,0,0,0,
-13.9502624734946,82.5808756812565,-30.6352273206475,73.1312975440653,19.992606062886,54.2080663552056,19.8819249763854,-90.901255054185,0,0,0,0,0,
-23.5402848149254,79.2326285811521,-26.4527130451235,83.044432849191,32.2878076833894,51.5970209143699,12.025038639194,-100.275370645056,0,0,0,0,0,
-33.6074266647828,75.7740654795169,-23.453298120446,93.0964377916027,46.2732323347595,50.4735984812929,4.2681410493255,-109.588659832756,0,0,0,0,0,
-44.0301824796219,73.3289425186404,-19.4245845789346,103.662796774609,60.4630368486991,53.2820063528934,-5.02116012094148,-119.833199718082,0,0,0,0,0,
-56.2978561623278,69.2937175967035,-15.3059853952503,113.961624667172,77.1057419273067,55.9481727362041,-15.7385672824602,-128.838839064829,0,0,0,0,0,
-71.6222279559266,66.445046867548,-7.42598623561941,124.340223486119,95.7677748926456,60.4251286832524,-30.7528192094967,-136.700047358386,0,0,0,0,0,
-81.4574669491027,65.6223647563121,-1.45332159131157,130.307455187151,108.126428277864,65.4180542372796,-40.9598144132537,-140.25407113403,0,0,0,0,0,
-85.2278878927778,64.9476770000226,4.64760206425527,134.832204240464,112.133858472792,69.5099540461368,-49.6232855657429,-142.782047408079,0,0,0,0,0,
-83.5737708808894,63.2686211852218,7.8202166372431,136.576353843308,114.717631195332,68.5838682427535,-52.7768845512742,-143.485549843628,0,0,0,0,0,
-80.459519352001,62.3965952814972,7.77734020653849,137.526892313051,113.47341233365,69.1139542863593,-54.2786800876465,-143.020944548098,0,0,0,0,0,
-77.5664218831002,61.6386463414827,6.56305331022063,136.250726191786,113.160326417043,67.1938979366131,-54.4306055572662,-141.347651927369,0,0,0,0,0,
-75.6329489694723,59.4797581246248,3.68973239257664,135.259528003369,114.597587997534,64.2107874906841,-53.8582536035444,-139.882740500402,0,0,0,0,0,
-74.7770875327684,57.7232432077496,1.12184445438416,133.507419734925,115.645888507229,61.413228996502,-52.874143418947,-137.41335430908,0,0,0,0,0,
-76.8274743374948,54.4313737515041,-0.944216559740395,130.227486741805,117.77178305239,59.9629818080458,-52.9827173059791,-132.732360962291,0,0,0,0,0,
-81.0298854375089,54.3018800597561,-1.85781934619909,126.078956316017,120.37312829688,58.0927661463637,-51.0295307930093,-125.779385053217,0,0,0,0,0,
-89.9071377100997,51.5425736018741,1.72450569383889,118.385359129147,124.38854515374,59.1594015472056,-52.8584460733476,-112.794677579247,0,0,0,0,0,
-99.5221839016168,51.326714988653,4.45390016053415,109.545569654651,126.838417647839,60.6510917834154,-52.3156577921381,-101.316848731571,0,0,0,0,0,
-110.483146801618,52.6983721146546,9.93046920573376,98.3532886905987,130.002498762775,61.4038801935221,-52.3740550144787,-90.7395223751784,0,0,0,0,0,
-121.104501857734,54.8135517799798,15.9082682499409,84.2553050874948,133.515659491405,62.2649317086244,-52.3087380829313,-78.445823134295,0,0,0,0,0,
-126.751295222216,57.0121695757914,24.2211832236729,67.8605129613586,135.417605826634,63.2734979048149,-56.3341117816682,-65.4987958408869,0,0,0,0,0,
-131.266983201479,64.0100544399977,37.8427518645584,51.9914434628026,135.481361494344,65.4217636050122,-63.3306201195011,-52.6380637476229,0,0,0,0,0,
-137.227982369525,72.6659580870592,51.8448760498717,51.9914434628026,137.69711871003,71.4167787671534,-70.818247397017,-51.9914434628027,0,0,0,0,0,
-138.832716964718,80.1880288143396,67.5847405517211,51.9914434628027,138.923736228762,78.5749919128079,-78.2745109878797,-51.9914434628026,0,0,0,0,0,
-134.435197685363,84.7704369556865,79.8298174570566,51.9914434628026,133.298819112815,86.0903577390097,-79.7259288327537,-51.9914434628026,0,0,0,0,0,
-134.114791157542,88.9517453639013,88.3457416165228,51.9914434628027,132.906671842039,93.5449909630276,-79.1421175868567,-51.9914434628026,0,0,0,0,0,
-132.316524908197,90.4412217003534,92.7881137299903,51.9914434628026,132.087150147252,96.9990628691296,-76.5154236201636,-51.9914434628027,0,0,0,0,0,
-131.336087643785,89.0366275599666,86.1367130214057,51.9914434628026,130.562169304315,97.7721303925166,-71.6879046200692,-51.9914434628027,0,0,0,0,0,
-128.334207633926,89.0300387764858,81.7135116352387,51.9914434628026,128.89550720563,97.1574341980559,-67.0019029847642,-51.9914434628026,0,0,0,0,0,
-125.079266252586,88.5618802879335,70.6215889926344,51.9914434628026,127.450232555769,95.4986064401719,-60.1225342438403,-51.9914434628026,0,0,0,0,0,
-120.081903977072,88.7800912648045,61.8553966648925,51.9914434628027,124.542555116253,94.0157202938188,-55.6483041362071,-51.9914434628026,0,0,0,0,0,
-111.097789217471,88.4910001699572,49.920135145876,51.9914434628027,117.760132629396,91.4682123142016,-46.7106510950815,-51.9914434628026,0,0,0,0,0,
-96.1464929561558,87.9400528754585,32.6480374243852,51.9914434628026,103.617907201211,85.8726972600475,-33.8471014090704,-51.9914434628026,0,0,0,0,0,
-80.3219635012511,88.0640418552811,15.1964602784956,51.9914434628026,86.84758600859,80.8624335947652,-20.7504806230037,-51.9914434628027,0,0,0,0,0,
-68.7234890351206,89.8427431126452,4.0050548383152,51.9914434628026,74.177404576329,77.0224522515531,-12.1568045753487,-51.9914434628026,0,0,0,0,0,
-59.0741522128402,90.3299108589241,-9.31812570431274,51.9914434628026,63.6293530689403,72.9971593573614,-3.52735259208479,-51.9914434628026,0,0,0,0,0,
-49.2616244889849,91.8172780994624,-20.3098986576496,51.9914434628027,52.4835538324404,70.3996399991822,3.25421369807661,-51.9914434628026,0,0,0,0,0,
-37.866012325589,91.9224829210434,-27.9943333355376,51.9914434628027,40.9996838382689,65.9174899840294,9.1383440087932,-51.9914434628026,0,0,0,0,0,
-27.8495589709105,92.5547750317575,-32.1465963337772,51.9914434628026,28.1871106338866,63.3362278356015,17.9816529638133,-51.9914434628026,0,0,0,0,0,
-18.7605158114028,92.2527304826074,-37.4246779794283,51.9914434628026,17.5157764781022,62.6321963262071,26.3112258188224,-51.9914434628026,0,0,0,0,0,
-12.6264335877786,92.1571274410798,-40.7114866004039,51.9914434628027,10.5731676566428,61.8301514354535,30.5754750870124,-51.9914434628027,0,0,0,0,0,
-7.89464102338409,89.3209014147215,-41.3705087397085,51.9914434628027,5.20481462736025,61.0501558105713,34.372263278974,-51.9914434628027,0,0,0,0,0,
-4.77681824605483,88.3730006145941,-42.9337520888635,51.9914434628027,2.05395068211702,59.7521460638433,37.1374825878771,-54.1831554519959,0,0,0,0,0,
-4.30077029450318,87.0025169150809,-41.2840145291459,51.9914434628027,1.01693574675834,61.2692540769846,37.6248253901268,-55.7554558466357,0,0,0,0,0,
-4.11319322264493,85.9993527763634,-40.9663976933238,51.9914434628026,4.5021235790314,59.1837591749037,35.9368358045374,-65.0067161037476,0,0,0,0,0,
-7.4024865389926,81.5928174760417,-40.0422407214221,61.8897061475499,8.49804475508666,55.2851053991687,32.8567202364257,-74.6962150892098,0,0,0,0,0,
-12.2292526531287,79.8991242459682,-36.9869548053385,66.4944168131756,14.7897322278121,54.9274156427483,28.7046201361881,-80.7469035766086,0,0,0,0,0,
-17.7645103908902,80.4803562838493,-32.0782832628564,69.7722797977276,20.9040441327073,56.4885870774442,24.5845781999268,-84.9914960441381,0,0,0,0,0,
-23.3216151417286,79.2155932657437,-30.3097165692707,77.8514469913117,28.8803534689396,56.1879435684302,19.0325652982808,-93.3172664694537,0,0,0,0,0,
-30.4980630465176,77.4915864847641,-27.3264102393963,88.0333146995752,38.2090545304068,57.5472275549572,13.8229234854508,-101.354944024318,0,0,0,0,0,
-43.7031748656822,76.157032998964,-21.4205603752152,101.045524847999,53.0660378193406,62.1064849070479,6.21875863785535,-112.154282161357,0,0,0,0,0,
-58.6056885100796,72.5189458759498,-15.1986494933275,108.775467274174,68.9172881099529,66.4513348931595,0.169177354409457,-115.371461325187,0,0,0,0,0,
-71.9158361167972,72.8476546878132,-8.19968835640287,112.991584169731,81.6796632074269,72.1624196248019,-4.72430008949228,-119.449096735011,0,0,0,0,0,
-83.3981413266338,75.1304157450127,-3.04707064085289,118.479819797547,92.4991088247847,77.9683633898373,-9.34747417565966,-123.80890514727,0,0,0,0,0,
-100.027252376305,77.2791388437585,9.6966942673537,74.026782214235,102.623751897196,81.4181700171294,-12.9164685075761,-76.4182350607397,0,0,0,0,0,
-107.507797369846,85.1543117128178,21.1302145045424,51.9914434628027,106.972039066922,86.3710068595979,-19.3717034677118,-51.9914434628027,0,0,0,0,0,
-111.589862842362,90.803537593074,19.8783573640966,51.9914434628026,110.476687611047,90.2369266068012,-16.0497019648813,-51.9914434628026,0,0,0,0,0,
-112.917281437792,91.1746476447422,14.612474110936,51.9914434628026,110.500074408068,90.7103178385141,-10.6972519463794,-51.9914434628027,0,0,0,0,0,
-112.497354694748,90.5520169561565,9.58500973924559,51.9914434628026,109.512839815408,88.6612075083669,-1.88320156054619,-51.9914434628027,0,0,0,0,0,
-110.947282695137,88.3942491608893,2.55351619135823,51.9914434628026,107.891901252857,87.4926421276869,2.87209423121839,-51.9914434628027,0,0,0,0,0,
-110.408596706924,87.4216236516384,-0.214338289981949,51.9914434628026,107.684218118013,86.5338471769073,5.09234495058584,-51.9914434628027,0,0,0,0,0,
-109.82657537456,86.4429240646784,-2.42468109264453,51.9914434628027,107.281074982833,86.3945988711688,5.03318027784958,-51.9914434628027,0,0,0,0,0,
-109.537227178961,86.3005460283248,-2.36391806707676,51.9914434628026,107.061765646326,85.2324193025139,7.16978073874295,-51.9914434628026,0,0,0,0,0,
-109.064493737583,85.1160734221347,-4.48893048902679,51.9914434628027,106.745843328236,84.9141753059629,7.0348885631681,-51.9914434628027,0,0,0,0,0,
-109.409153837035,85.6402219165632,-2.0818182530097,51.9914434628026,106.938943708349,84.3946597882698,6.81436811827891,-51.9914434628026,0,0,0,0,0,
-110.389117622153,85.0345755173409,-1.37427821407386,51.9914434628027,107.904265086648,84.460259754993,4.20891835337072,-51.9914434628026,0,0,0,0,0,
-111.511025990521,84.8020598564213,1.39643260053183,51.9914434628027,109.157093894224,83.7441894688131,2.29470253810545,-51.9914434628027,0,0,0,0,0,
-112.605158283992,84.9824704942514,6.66309656053759,51.9914434628026,110.321869565097,83.6756793560344,-2.97890814302789,-51.9914434628027,0,0,0,0,0,
-113.1909863845,84.9054050058662,14.6699677783697,51.9914434628027,110.901805632218,82.5647692763204,-8.63811180854913,-51.9914434628027,0,0,0,0,0,
-112.251920973432,81.3795507719743,21.137562754024,51.9914434628027,109.69519827702,79.618439648922,-17.1289613770777,-51.9914434628026,0,0,0,0,0,
-111.583574929391,77.5459770457646,32.8622515736271,51.9914434628026,109.282224127206,75.5308810899498,-28.629533543906,-51.9914434628026,0,0,0,0,0,
-111.098323556365,72.6824125409404,44.8830844225205,51.9914434628026,108.743835232789,69.4942691366558,-40.5293104854077,-51.9914434628026,0,0,0,0,0,
-110.093659273188,65.3465967125203,54.408435575488,51.9914434628027,108.825084877357,61.9113607948173,-50.4223148087793,-51.9914434628026,0,0,0,0,0,
-112.280281953658,59.7359708467375,65.712073713105,51.9914434628026,112.67788432277,55.8542895982791,-60.3882864744162,-51.9914434628026,0,0,0,0,0,
-114.246920864135,50.4471525657478,72.4989453242438,51.9914434628026,114.355531940664,46.9683318571527,-69.3265911161278,-51.9914434628026,0,0,0,0,0,
-120.00468789286,42.6818832772478,82.7052648819296,51.9914434628026,120.492836337046,38.9683160653885,-79.8075955900056,-51.9914434628026,0,0,0,0,0,
-122.658913592478,34.782046519304,92.1332832295371,51.9914434628026,125.979231014132,31.9494389201682,-89.3438638747987,-51.9914434628026,0,0,0,0,0,
-129.420805419287,28.9324534133023,103.713295496582,51.9914434628026,133.94272485092,26.6883242852856,-101.788604133879,-51.9914434628026,0,0,0,0,0,
-135.824883522198,25.3785601154812,105,51.9914434628026,141.282131825366,24.1001971200027,-105,-51.9914434628026,0,0,0,0,0,
-141.040476461103,22.4496270020581,105,51.9914434628027,148.868432230071,22.4264512570145,-105,-51.9914434628026,0,0,0,0,0,
-145.937153724685,20.3438509475033,105,51.9914434628026,154.120440360658,21.1180773039132,-105,-51.9914434628026,0,0,0,0,0,
-149.049248142797,18.909611264098,105,51.9914434628027,155,20.7389720287308,-105,-51.9914434628026,0,0,0,0,0,
-150.830032349428,18.5820133875195,105,51.9914434628026,155,20.6180544108794,-105,-51.9914434628026,0,0,0,0,0,
-149.075945928396,17.7089487635494,105,51.9914434628026,155,20.7175188366779,-105,-51.9914434628026,0,0,0,0,0,
-147.539108184171,18.4233487048993,105,51.9914434628027,154.028566706164,21.0398725354665,-105,-51.9914434628026,0,0,0,0,0,
-142.231008660748,19.6177054061274,105,51.9914434628026,149.730749588223,22.7697178486841,-105,-51.9914434628026,0,0,0,0,0,
-138.211996480026,23.1186436648374,105,51.9914434628027,143.538850084421,25.3181208155642,-105,-51.9914434628026,0,0,0,0,0,
-134.010422408759,27.7399309105481,105,51.9914434628026,137.192709661255,29.0573386572624,-105,-51.9914434628026,0,0,0,0,0,
-128.719897145085,32.3565063058193,105,51.9914434628027,131.621557201296,33.7833046825947,-105,-51.9914434628026,0,0,0,0,0,
-125.763858408176,37.3823196850913,105,51.9914434628026,127.050757885437,38.4896485655304,-105,-51.9914434628027,0,0,0,0,0,
-121.411042060657,43.0383718479326,100.531923015561,51.9914434628026,121.376951141338,44.5249196204773,-96.1400824755186,-51.9914434628026,0,0,0,0,0,
-117.060311344071,50.1358272599689,88.9746626463557,51.9914434628027,116.484174118947,51.7372517027675,-83.9242877954549,-51.9914434628027,0,0,0,0,0,
-111.991787385153,56.4545575548857,77.0523549538791,51.9914434628026,111.308010483069,58.0501566480602,-69.3155442072569,-51.9914434628027,0,0,0,0,0,
-106.695222198508,63.0193666018955,62.9442416450661,51.9914434628026,105.902252306594,64.9695481643655,-55.354798440617,-51.9914434628027,0,0,0,0,0,
-101.275758651911,68.2993737159406,47.6610540849499,51.9914434628026,98.4924477006279,70.2325316405669,-39.4180228949123,-51.9914434628027,0,0,0,0,0,
-97.2860163809682,74.5855319009748,37.010151097202,51.9914434628026,95.6194890987488,75.8289830991836,-27.6624838443888,-51.9914434628027,0,0,0,0,0,
-93.4488583911242,80.5478723533868,23.4110247718773,51.9914434628026,90.6000652262638,81.4863773870166,-15.3703431797623,-51.9914434628027,0,0,0,0,0,
-85.0692475653851,86.66592522229,10.582979969984,51.9914434628026,81.3569036983423,86.3859832820127,-0.228061050850855,-51.9914434628027,0,0,0,0,0,
-71.8307703912799,91.0085759162639,-6.98771599525751,51.9914434628026,69.8217219509099,90.8111925301652,14.7321456629892,-51.9914434628026,0,0,0,0,0,
-63.5354439279908,96.0551766314253,-19.470395786514,51.9914434628027,62.7210313912684,96.3820980288457,22.1529364052971,-51.9914434628026,0,0,0,0,0,
-56.3192364283677,101.340233744532,-31.6206533124683,51.9914434628026,56.3562051970369,101.164763080971,33.9834490025475,-51.9914434628026,0,0,0,0,0,
-46.2273603036539,105,-43.2382033735638,51.9914434628026,48.739080115095,106.743858395896,43.0557865284702,-51.9914434628026,0,0,0,0,0,
-37.1227977653518,105,-52.94836352136,51.9914434628026,42.841679879898,110,51.7722777393168,-51.9914434628026,0,0,0,0,0,
-30.7530343161718,105,-55.8514387181701,51.9914434628026,39.8504181755243,110,57.05341566133,-51.9914434628027,0,0,0,0,0,
-26.4286755695844,105,-53.0146139016967,51.9914434628027,38.9413363564458,110,56.5214575572189,-51.9914434628027,0,0,0,0,0,
-25.4940645640642,105,-49.6907301279577,51.9914434628027,39.8869603351482,110,54.2308137228454,-51.9914434628026,0,0,0,0,0,
-25.6375065419522,105,-48.9491231408849,51.9914434628027,41.2768898690479,110,54.0000427948329,-51.9914434628027,0,0,0,0,0,
-28.423353982312,105,-47.4204823879066,51.9914434628027,42.5454855334991,110,53.4641376629272,-51.9914434628027,0,0,0,0,0,
-32.3167388897825,105,-48.2254756147328,51.9914434628026,44.8402037808386,107.851774578448,50.1701375337505,-51.9914434628026,0,0,0,0,0,
-35.9562068187452,105,-45.3332691859414,51.9914434628026,44.532392736984,103.933981462564,46.7840514135526,-51.9914434628026,0,0,0,0,0,
-41.520237510101,101.346705986666,-44.1205229888199,51.9914434628027,47.4774373150614,98.9727306195428,42.7403175458466,-51.9914434628026,0,0,0,0,0,
-47.5621167975096,94.1427817365562,-33.8129330570545,51.9914434628026,50.2908263188678,93.1845151482029,33.4665058297242,-51.9914434628027,0,0,0,0,0,
-53.9374545944962,85.0374488876273,-20.1924337516877,51.9914434628027,54.6254444776817,84.2588929400879,22.4883597222632,-51.9914434628026,0,0,0,0,0,
-66.6160567524265,77.5242673530058,-6.49933939124727,51.9914434628027,64.9565635017217,77.5634483673417,9.17757899873187,-51.9914434628026,0,0,0,0,0,
-80.6373649578181,70.896986070496,12.4007827640433,51.9914434628026,77.2290932580227,69.6930440948599,-7.75273364705602,-51.9914434628027,0,0,0,0,0,
-89.408548628466,67.1820998808402,30.7215153059305,51.9914434628026,86.4536126071566,64.4500401465551,-23.1745108067302,-51.9914434628026,0,0,0,0,0,
-95.5603859417615,62.7158306087284,44.4402409979871,51.9914434628026,92.9211653740951,59.6586599321131,-36.6692375544571,-51.9914434628027,0,0,0,0,0,
-102.635522882807,56.8336311612237,55.5607199644222,51.9914434628026,100.911933053427,53.6558384641375,-48.2243105239054,-51.9914434628026,0,0,0,0,0,
-110.056466022706,51.9629932616084,65.5234553961381,51.9914434628026,109.468632214883,48.6707546951025,-59.0547673264169,-51.9914434628027,0,0,0,0,0,
-120.129542762313,45.9684849115675,76.7479222960081,51.9914434628026,119.688362525071,44.0208887608606,-72.6553424107586,-51.9914434628026,0,0,0,0,0,
-127.787563323723,41.2152813350468,88.7797403242789,51.9914434628026,128.624165777691,40.3122706566503,-85.7464931311938,-51.9914434628026,0,0,0,0,0,
-135.335171016459,36.8897838021714,100.630648334216,51.9914434628026,136.483847036521,36.0959036827141,-97.6713770159613,-51.9914434628026,0,0,0,0,0,
-139.948282507258,33.7940061222078,105,51.9914434628026,142.438932335867,33.9843349318786,-105,-51.9914434628026,0,0,0,0,0,
-146.964088643788,32.0409989059668,105,51.9914434628026,148.904472969638,32.2535365967791,-105,-51.9914434628026,0,0,0,0,0,
-151.375759587229,28.0405304650416,105,51.9914434628027,155,29.2719447660653,-105,-51.9914434628026,0,0,0,0,0,
-155,26.2359542933466,105,51.9914434628026,155,27.9530829406982,-105,-51.9914434628026,0,0,0,0,0,
-155,24.8751992228561,105,51.9914434628027,155,26.8367584560607,-105,-51.9914434628026,0,0,0,0,0,
-155,24.3599064240087,105,51.9914434628026,155,26.4985479872222,-105,-51.9914434628027,0,0,0,0,0,
-153.620972596042,24.0435433654801,105,51.9914434628027,155,26.902457509987,-105,-51.9914434628026,0,0,0,0,0,
-148.648266721856,25.7636125499053,105,51.9914434628026,153.189055559141,27.8905435077488,-105,-51.9914434628026,0,0,0,0,0,
-140.671757374353,29.40369184757,105,51.9914434628026,145.297803358245,30.5365362227277,-105,-51.9914434628027,0,0,0,0,0,
-133.350338502509,34.6373165166576,105,51.9914434628026,136.552254150852,35.1689594672224,-105,-51.9914434628027,0,0,0,0,0,
-127.88199810021,41.1288881519171,105,51.9914434628026,130.03084126423,41.1308730023061,-105,-51.9914434628027,0,0,0,0,0,
-124.062921208408,49.4471076060059,99.4945863607686,51.9914434628026,125.63205637716,49.440153670804,-97.0968407761182,-51.9914434628026,0,0,0,0,0,
-117.142520132548,56.4073046547292,84.769334833295,51.9914434628026,118.408851347194,56.4353362098798,-81.8913793609739,-51.9914434628026,0,0,0,0,0,
-111.647210015084,65.1970623948845,69.0590319491884,51.9914434628027,112.139827481737,65.1280572232541,-65.4202998232908,-51.9914434628026,0,0,0,0,0,
-109.064419676532,75.2200717821245,56.1595627641812,51.9914434628027,108.886352257316,75.1622272672695,-52.0772496242793,-51.9914434628026,0,0,0,0,0,
-106.217712035591,84.2303776981203,44.1673599915107,51.9914434628027,106.588880950565,83.4299662533126,-38.0429921835448,-51.9914434628026,0,0,0,0,0,
-102.839287338178,88.8435294270854,21.7114936922492,51.9914434628026,102.138855213066,88.5925844233503,-17.5674139239388,-51.9914434628027,0,0,0,0,0,
-90.3236030571192,91.8584641902794,-9.96111816734449,51.9914434628026,89.7651947174561,91.7466373210864,12.5205754216577,-51.9914434628026,0,0,0,0,0,
-75.1347707904914,97.4439239988368,-37.4402260731574,51.9914434628026,75.6765694822333,97.2082256553069,37.3563678278968,-51.9914434628027,0,0,0,0,0,
-62.6501238266777,102.890661438659,-50.8896629412785,51.9914434628027,66.3945508982094,99.9266865681972,49.9932875502464,-51.9914434628026,0,0,0,0,0,
-55.58379077845,105,-59.7993007680792,51.9914434628027,61.5928060622614,103.841122444455,57.7547889324252,-51.9914434628027,0,0,0,0,0,
-49.0593391121029,105,-62.4392991020294,51.9914434628026,56.1695497576794,107.580828397747,61.4570816990112,-51.9914434628027,0,0,0,0,0,
-43.6551581490863,105,-61.6504095336774,51.9914434628027,53.0926373288695,109.741287205436,63.1719450978856,-51.9914434628027,0,0,0,0,0,
-38.4814579282247,105,-63.6355196472409,51.9914434628027,50.4716665178912,110,67.847578435827,-51.9914434628027,0,0,0,0,0,
-36.2056523663689,105,-61.2563014369212,51.9914434628026,49.7773263356324,110,66.721368214059,-51.9914434628026,0,0,0,0,0,
-37.0610158321548,105,-58.4840661886621,51.9914434628026,50.3964243102184,109.572492780071,66.5297671424214,-51.9914434628026,0,0,0,0,0,
-38.6844760295061,105,-57.7385085330894,51.9914434628026,51.6913564475308,106.253954788955,65.163220260794,-51.9914434628026,0,0,0,0,0,
-41.6619173898752,105,-58.074580560759,51.9914434628027,54.7411070396313,102.272677036116,61.6700375578472,-51.9914434628026,0,0,0,0,0,
-47.356048807302,100.949277640302,-54.3708423686566,51.9914434628026,57.4150161996843,96.58111944448,55.8843587531108,-51.9914434628027,0,0,0,0,0,
-54.5357038270496,94.1592721626405,-45.9278863742254,51.9914434628027,63.1072879926069,91.0452363290682,47.3871537364272,-51.9914434628026,0,0,0,0,0,
-64.603648717459,87.3657030379656,-36.4150939190594,51.9914434628026,71.1895742608742,84.9310057045321,38.1139075963778,-51.9914434628026,0,0,0,0,0,
-79.9582599623468,81.1307815598017,-18.6262291736781,51.9914434628026,84.5460197891812,79.5895080080656,20.6414827210505,-51.9914434628027,0,0,0,0,0,
-92.4241409271611,78.3728065531753,3.7134088508135,51.9914434628027,96.3131500870602,75.4278887326171,-2.40357671102731,-51.9914434628026,0,0,0,0,0,
-98.740767813415,73.9989118692378,28.0424133573077,51.9914434628026,101.713522278237,70.3689062886628,-26.3859251905326,-51.9914434628026,0,0,0,0,0,
-102.304282927278,67.9239803954817,45.8528560968301,51.9914434628026,104.831135653527,63.0414842071713,-42.1347800827857,-51.9914434628026,0,0,0,0,0,
-107.152933455344,61.0247187435356,58.4782433290886,51.9914434628027,110.363509526046,55.1217286423942,-53.2995948151637,-51.9914434628026,0,0,0,0,0,
-111.511603951098,51.8547458703209,64.2511589893978,51.9914434628026,114.643119753227,44.2062932380249,-59.6077402851749,-51.9914434628026,0,0,0,0,0,
-118.840117999503,43.3576859913421,70.5783435606865,51.9914434628026,124.367679424742,33.5368241692746,-68.8190615030624,-51.9914434628025,0,0,0,0,0,
-126.242296279119,35.7918937658352,77.101749966182,51.9914434628026,133.671565586853,26.3260503610219,-79.5953093000379,-51.9914434628026,0,0,0,0,0,
-134.630875245442,34.3870503103357,86.5526605400726,51.9914434628026,142.500917182105,22.1461041628512,-89.9503197372601,-51.9914434628026,0,0,0,0,0,
-146.543313854196,33.4638319142731,98.921483604498,51.9914434628026,153.720062850337,21.057400753636,-104.056468198897,-51.9914434628026,0,0,0,0,0,
-154.356973079227,33.3993854038166,105,51.9914434628026,155,20.9108801677709,-105,-51.9914434628026,0,0,0,0,0,
-155,33.6194640020997,105,51.9914434628026,155,21.0462993559899,-105,-51.9914434628027,0,0,0,0,0,
-155,34.2877158612109,105,51.9914434628026,155,22.2296119462749,-105,-51.9914434628027,0,0,0,0,0,
-155,33.9600557586942,105,51.9914434628026,155,22.4979609155266,-105,-51.9914434628027,0,0,0,0,0,
-155,32.8481900123002,105,51.9914434628026,155,22.0041244294311,-105,-51.9914434628026,0,0,0,0,0,
-155,32.7276412680678,105,51.9914434628026,155,22.3369602341131,-105,-51.9914434628026,0,0,0,0,0,
-155,31.4073304845805,105,51.9914434628026,155,21.8762272630172,-105,-51.9914434628025,0,0,0,0,0,
-155,32.1549462799231,105,51.9914434628026,155,23.2854362245975,-105,-51.9914434628026,0,0,0,0,0,
-148.889549417141,33.8192392437338,105,51.9914434628026,147.949494425083,26.3496869030502,-105,-51.9914434628026,0,0,0,0,0,
-139.658957049179,35.6352378909823,105,51.9914434628026,137.405564406394,29.6937685537233,-97.8881026385036,-51.9914434628026,0,0,0,0,0,
-130.937614642822,39.8913322037468,93.4110516202954,51.9914434628026,128.294911818681,34.4889236995388,-86.2607524547939,-51.9914434628027,0,0,0,0,0,
-124.772580124637,47.7563695742436,84.0133503359381,51.9914434628026,123.003578999359,42.6203349820411,-76.4250933090843,-51.9914434628026,0,0,0,0,0,
-117.994319270526,54.3998317497743,72.446576201937,51.9914434628027,115.971660878836,50.7133871868197,-64.7156467558068,-51.9914434628026,0,0,0,0,0,
-113.575961699827,62.2072731632462,60.7161042500089,51.9914434628027,112.084416944652,60.3676374287179,-56.0184804007989,-51.9914434628027,0,0,0,0,0,
-108.522396362171,71.3815781388469,48.9973373284038,51.9914434628027,109.061785353363,70.4240943949988,-45.6708278241737,-51.9914434628026,0,0,0,0,0,
-106.360656786736,80.6720380127743,37.441769063704,51.9914434628026,107.080419423719,79.760441709532,-34.132134533066,-51.9914434628026,0,0,0,0,0,
-103.514126499054,87.4886911785118,22.1513673383228,51.9914434628026,105.185588216911,86.9360468561045,-21.3756407343033,-51.9914434628026,0,0,0,0,0,
-90.7051962158026,91.2167274541353,-4.45531777583969,51.9914434628026,97.2342082767607,90.7054619162576,-1.0126227853128,-51.9914434628027,0,0,0,0,0,
-76.1486067407468,97.1584979419623,-27.5027408244948,51.9914434628026,82.7703487349767,94.1195209350877,23.7833319601198,-51.9914434628027,0,0,0,0,0,
-63.2698154639439,102.267649139998,-39.1821491225128,51.9914434628026,71.8029589202183,97.6475501285737,37.512750493686,-51.9914434628027,0,0,0,0,0,
-55.6491926312016,105,-51.4623297258447,51.9914434628026,64.8165689616709,101.552822597309,50.4826382550125,-51.9914434628027,0,0,0,0,0,
-47.5363734972792,105,-56.6426471988373,51.9914434628027,57.7336066271192,105.898952915328,58.1151214470336,-51.9914434628026,0,0,0,0,0,
-41.6765240545892,105,-55.568931047634,51.9914434628027,51.5619857148263,108.270785833229,60.174609464999,-51.9914434628026,0,0,0,0,0,
-34.4153967980608,105,-55.7725577195221,51.9914434628027,45.4144933418682,110,61.8604318465391,-51.9914434628027,0,0,0,0,0,
-31.9591518116035,105,-53.955879290467,51.9914434628027,44.1799955464138,110,61.3585792042149,-51.9914434628027,0,0,0,0,0,
-30.9004565026168,105,-52.5295571198305,51.9914434628027,43.7385025075865,110,60.8804568998408,-51.9914434628027,0,0,0,0,0,
