JMW9912/AVATAR/Dynamixel/dynamixel_control/data/csv/poppy/1104_2230_Semina_shoulder_poppy_humanoid_motor_degree.csv
theta1,theta2,theta3,theta4,theta5,theta6,theta7,theta8,theta9,theta10,theta11,theta12,theta13
-155,21.4508693292155,105,51.9914434628026,155,21.2043509398388,-105,-51.9914434628026,0,0,0,0,0
-155,24.2161577021034,105,51.9914434628026,155,23.5293870210522,-105,-51.9914434628026,0,0,0,0,0
-155,23.3799230567913,101.846947935513,51.9914434628026,155,23.4872899436535,-105,-51.9914434628026,0,0,0,0,0
-155,24.0053772653765,100.093705427663,51.9914434628026,155,24.2936483445296,-105,-51.9914434628026,0,0,0,0,0
-155,24.0059337986234,100.53025677065,51.9914434628026,155,24.4453034759701,-105,-51.9914434628026,0,0,0,0,0
-155,24.1481702730837,100.867462865695,51.9914434628026,155,24.5780385126347,-105,-51.9914434628026,0,0,0,0,0
-155,24.0712770342546,101.07134021014,51.9914434628026,155,24.5687864047243,-105,-51.9914434628026,0,0,0,0,0
-155,24.2093743282264,101.23778563543,51.9914434628026,155,24.6491406441064,-105,-51.9914434628026,0,0,0,0,0
-155,24.027616784758,101.396344465762,51.9914434628026,155,24.5799999635889,-105,-51.9914434628026,0,0,0,0,0
-155,24.0268161312378,101.379078416437,51.9914434628026,155,24.4711467769804,-105,-51.9914434628026,0,0,0,0,0
-155,24.010297125493,101.386784499922,51.9914434628026,155,24.4111314694961,-105,-51.9914434628026,0,0,0,0,0
-155,24.0472866465757,101.329026212944,51.9914434628026,155,24.4084022731763,-105,-51.9914434628027,0,0,0,0,0
-155,24.0557413695298,101.356324642465,51.9914434628026,155,24.1792136150811,-105,-51.9914434628026,0,0,0,0,0
-155,23.9838771808439,101.174986808611,51.9914434628027,155,24.1319440745406,-105,-51.9914434628026,0,0,0,0,0
-155,23.8824004451765,100.835147465733,51.9914434628026,155,24.0554382006179,-105,-51.9914434628026,0,0,0,0,0
-155,23.810040580257,100.332976534746,51.9914434628026,155,23.9829482173272,-105,-51.9914434628026,0,0,0,0,0
-155,23.8229020947422,100.065213722277,51.9914434628026,155,23.9884236744527,-104.982913817453,-51.9914434628026,0,0,0,0,0
-155,23.8067682917482,99.7304358344622,51.9914434628026,155,24.0229547396662,-104.691139705151,-51.9914434628027,0,0,0,0,0
-155,23.8292587777066,99.5199152908731,51.9914434628027,155,24.0128712444923,-104.492939003079,-51.9914434628026,0,0,0,0,0
-152.86654873711,23.6495286503951,99.3256629991945,51.9914434628026,155,24.0221841158397,-104.167943182203,-51.9914434628026,0,0,0,0,0
-152.762960147787,23.6500608681743,99.2114719308849,51.9914434628026,155,23.9979833248358,-104.033095538507,-51.9914434628026,0,0,0,0,0
-152.613183746802,23.6223758057481,99.0450441119709,51.9914434628026,155,23.9620065072899,-103.834412513493,-51.9914434628027,0,0,0,0,0
-152.53751186356,23.6132521759886,98.9612176518668,51.9914434628026,155,23.9019116411674,-103.606527617257,-51.9914434628027,0,0,0,0,0
-152.432276913801,23.5522919839752,98.8424333548172,51.9914434628026,155,23.8620043512864,-103.572966713492,-51.9914434628026,0,0,0,0,0
-152.445047404208,23.5592194562961,98.8568220749474,51.9914434628025,155,23.8082739549612,-103.499145695283,-51.9914434628026,0,0,0,0,0
-152.383478451728,23.4739790082894,98.7850494810766,51.9914434628026,155,23.6805677965916,-103.245278368356,-51.9914434628026,0,0,0,0,0
-152.181518365683,23.4654855747593,98.5623628042341,51.9914434628026,155,23.6537768857793,-103.179273176263,-51.9914434628026,0,0,0,0,0
-152.158134275187,23.4413838192015,98.5355368126626,51.9914434628026,155,23.5925763511047,-103.064088031805,-51.9914434628027,0,0,0,0,0
-152.036469856013,23.382873669176,98.3990560849807,51.9914434628026,154.919351497137,23.5327569227589,-102.919994925093,-51.9914434628026,0,0,0,0,0
-151.975725613068,23.3783072727049,98.3320489838008,51.9914434628026,152.462313334519,23.3238584678502,-102.863088286497,-51.9914434628026,0,0,0,0,0
-151.882560328774,23.2896553350267,98.2256808718782,51.9914434628025,152.347633946271,23.2201563570608,-102.729202449841,-51.9914434628026,0,0,0,0,0
-151.835499616162,23.2948275569799,98.1741930505783,51.9914434628026,152.295573720509,23.2335242639462,-102.672665397824,-51.9914434628026,0,0,0,0,0
-151.830028234927,23.2649918081319,98.1668597593379,51.9914434628026,152.140684363827,23.1979698713115,-102.499266197533,-51.9914434628026,0,0,0,0,0
-151.748734535676,23.1916532019047,98.0743111300862,51.9914434628026,152.000374642164,23.1650207792647,-102.3422206141,-51.9914434628026,0,0,0,0,0
-151.756559886333,23.1537226971512,98.0812144360045,51.9914434628026,151.972567880028,23.1397429026268,-102.309838764085,-51.9914434628026,0,0,0,0,0
-151.65942102385,23.1457478832187,97.9742227078065,51.9914434628026,151.972942347954,23.115442573785,-102.308604790336,-51.9914434628026,0,0,0,0,0
-151.520634206238,23.1137092868167,97.8205015018664,51.9914434628026,151.819635757644,23.0869654205414,-102.137659379832,-51.9914434628026,0,0,0,0,0
-149.046734880077,22.9580341419748,97.7520245092967,51.9914434628026,151.719081805305,23.0236121573672,-102.022607026343,-51.9914434628027,0,0,0,0,0
-148.77671205812,22.9377020990022,97.4551139488466,51.9914434628027,151.715652126538,23.0038811530088,-102.017511183049,-51.9914434628026,0,0,0,0,0
-148.710084012746,22.8971791823995,97.3804483228966,51.9914434628026,151.658559625514,22.9755561394733,-101.952732399635,-51.9914434628026,0,0,0,0,0
-148.41916104072,22.8374154978592,97.0593670179744,51.9914434628026,151.554250127628,22.9257390775348,-101.834560688239,-51.9914434628026,0,0,0,0,0
-148.321848097858,22.7926851201215,96.9510777808091,51.9914434628026,151.574709144292,22.8683517057329,-101.853263464943,-51.9914434628026,0,0,0,0,0
-148.089142020531,22.8362644308464,96.6979744875046,51.9914434628026,151.565235028534,22.8827537739589,-101.843797086612,-51.9914434628026,0,0,0,0,0
-148.018410548087,22.8434740843584,96.6208089900119,51.9914434628026,151.683381289164,22.9113979171723,-101.975770862168,-51.9914434628026,0,0,0,0,0
-147.956512100908,22.8321648694521,96.5526452007892,51.9914434628026,151.688287420856,22.8825769003736,-101.979229850894,-51.9914434628026,0,0,0,0,0
-148.036166031762,22.8304506897485,96.6397697523082,51.9914434628026,151.744157978167,22.8635334868726,-102.039437438416,-51.9914434628026,0,0,0,0,0
-147.857397682662,22.8329299472624,96.4441954586777,51.9914434628027,151.746660565815,22.8578535089746,-102.041805333447,-51.9914434628025,0,0,0,0,0
-147.715342049895,22.7622743050183,96.2862794372671,51.9914434628026,151.662598492664,22.8163771196477,-101.946480171006,-51.9914434628026,0,0,0,0,0
-147.577401867174,22.7467268461476,96.1348814626715,51.9914434628026,151.644225318865,22.8118426557932,-101.925957916747,-51.9914434628027,0,0,0,0,0
-147.535487619398,22.7887485496489,96.0904776420622,51.9914434628026,151.666635472774,22.8469716416122,-101.952993754411,-51.9914434628026,0,0,0,0,0
-147.259920498979,22.7696563440954,95.7885221215119,51.9914434628026,151.469421628179,22.8207157203367,-101.734239242907,-51.9914434628026,0,0,0,0,0
-147.237332325614,22.8367491942215,95.7659662702127,51.9914434628026,151.504010597653,22.917717327826,-101.778722449338,-51.9914434628027,0,0,0,0,0
-146.971017856298,22.8194690102966,95.474250056596,51.9914434628027,151.370511442625,22.8330777354874,-101.626243166038,-51.9914434628027,0,0,0,0,0
-146.718522594823,22.8702399610319,95.1997180385136,51.9914434628026,151.260568707219,22.8700017082561,-101.507690015198,-51.9914434628027,0,0,0,0,0
-146.384704350592,22.8956320917445,94.8355547778983,51.9914434628026,151.025825686274,22.8532023981891,-101.248382484214,-51.9914434628026,0,0,0,0,0
-146.102362547441,22.9378476612246,94.5280830101841,51.9914434628026,150.838671534908,22.9010191545473,-101.045494168719,-51.9914434628026,0,0,0,0,0
-145.791789569689,23.063673585984,94.191511251174,51.9914434628026,150.584400377216,22.967338611904,-100.769758603771,-51.9914434628027,0,0,0,0,0
-145.525907756939,23.156127001633,93.9027278181564,51.9914434628026,150.557594190648,23.0692178813458,-100.746233029857,-51.9914434628026,0,0,0,0,0
-144.577897058856,23.2871426669922,93.5102618409172,51.9914434628026,150.279699498854,23.1455268736157,-100.444610949722,-51.9914434628026,0,0,0,0,0
-144.257102506223,23.4603160307918,93.1649691187408,51.9914434628026,149.957222968238,23.2894888317283,-100.097200407894,-51.9914434628026,0,0,0,0,0
-143.505463310549,23.6223227930612,92.3521558682752,51.9914434628027,149.185107793186,23.3746929565812,-99.2508729071222,-51.9914434628026,0,0,0,0,0
-142.745910161807,23.7985455592709,91.5294819796447,51.9914434628026,148.378841828609,23.5538252937081,-98.3705116710446,-51.9914434628026,0,0,0,0,0
-141.955716981543,24.1755418672299,90.6741807309166,51.9914434628026,147.021337014857,23.8278694123187,-97.4615089399421,-51.9914434628026,0,0,0,0,0
-141.33922952289,24.4530194063759,89.327385319822,51.9914434628026,145.874704904238,24.0581150459837,-96.231107230099,-51.9914434628026,0,0,0,0,0
-139.965571256528,24.788215012637,87.8201627940811,51.9914434628026,144.495294169476,24.3206537653375,-94.7465415908273,-51.9914434628026,0,0,0,0,0
-137.957175095522,25.081064549049,85.6219043134779,51.9914434628027,142.67013992794,24.5046854088161,-92.771403090846,-51.9914434628026,0,0,0,0,0
-136.471303679131,25.5506619708493,83.9859720819707,51.9914434628026,141.22026613422,24.8718821434903,-91.2008280684864,-51.9914434628026,0,0,0,0,0
-135.082633835113,25.8466221849463,82.4633565294206,51.9914434628026,142.01150628046,25.1969843789984,-89.4315446217773,-51.9914434628026,0,0,0,0,0
-133.788537930859,26.312803696575,81.0334634262722,51.9914434628027,139.108256005012,25.6422184753994,-88.1795105512329,-51.9914434628026,0,0,0,0,0
-134.410293340449,26.719784131515,79.0532635604665,51.9914434628026,139.677631257247,26.1545328531615,-86.1345296252646,-51.9914434628026,0,0,0,0,0
-132.983305134169,27.2110997478587,77.4742728888802,51.9914434628026,138.288156964362,26.668652680123,-84.5876423554308,-51.9914434628026,0,0,0,0,0
-131.700515979567,27.8952394402325,76.0320212100405,51.9914434628026,136.760846532422,27.1794081086721,-82.887325493699,-51.9914434628026,0,0,0,0,0
-130.496429616627,28.4810510932101,74.6813938602287,51.9914434628027,135.436711456327,27.7600702013619,-81.4010420721498,-51.9914434628026,0,0,0,0,0
-129.283513818681,29.138710215664,73.3124227573193,51.9914434628027,134.062706513579,28.3336667336821,-79.8581970090882,-51.9914434628027,0,0,0,0,0
-128.136348561475,29.7179561474682,72.0218461763076,51.9914434628026,132.869336395509,28.7845041262817,-78.5214757864744,-51.9914434628026,0,0,0,0,0
-127.141605118874,30.6024248457966,70.8546408110476,51.9914434628026,131.8462025902,29.5816518620027,-77.3321119737932,-51.9914434628026,0,0,0,0,0
-126.057099868133,31.4879650010425,69.5880044505108,51.9914434628026,130.661367815132,30.2878373048391,-75.9730097810061,-51.9914434628025,0,0,0,0,0
-125.090669958987,32.1520627859462,68.4751736713907,51.9914434628026,129.801357239558,30.9205446624858,-74.970026311846,-51.9914434628025,0,0,0,0,0
-124.325180492304,32.9069538387456,67.5599227974004,51.9914434628026,128.945331108949,31.4750473073871,-73.9792141730471,-51.9914434628026,0,0,0,0,0
-123.689874059426,33.7263960036742,66.7688757037156,51.9914434628025,128.107911575604,32.0296141779555,-73.0074170615221,-51.9914434628026,0,0,0,0,0
-122.921493822443,34.335809567569,65.8704715750169,51.9914434628026,127.110106656432,32.3575832294742,-71.896535256816,-51.9914434628026,0,0,0,0,0
-122.096985169755,35.083542395712,64.8918984908049,51.9914434628026,125.999454350282,32.8765326946949,-70.641385861909,-51.9914434628026,0,0,0,0,0
-121.056472761193,35.7133732253196,63.7120771686615,51.9914434628025,126.558650628082,33.0859467315448,-68.5712058886471,-51.9914434628027,0,0,0,0,0
-120.280229083443,36.4582613664968,62.7876119280844,51.9914434628026,125.442605182449,33.5764600326447,-67.3184595307275,-51.9914434628026,0,0,0,0,0
-120.942245110524,36.6726041665306,60.8175685301449,51.9914434628027,124.625298957032,34.1554504940793,-66.3675499088423,-51.9914434628026,0,0,0,0,0
-120.267216647376,37.3068549487306,60.0146336200339,51.9914434628026,123.714010276577,34.6579883413986,-65.333152136454,-51.9914434628026,0,0,0,0,0
-119.782282824218,37.8100121934125,59.4299046917782,51.9914434628026,123.053115593989,35.0901447053599,-64.5733032097179,-51.9914434628026,0,0,0,0,0
-119.282360223948,38.2923101477838,58.8351406470235,51.9914434628026,122.363108398272,35.4353483004979,-63.8001990940203,-51.9914434628026,0,0,0,0,0
-117.621195017791,39.1880748982306,59.6044891202062,51.9914434628026,121.958166311393,35.8949577035351,-63.3022285209486,-51.9914434628026,0,0,0,0,0
-117.10726812391,39.6351729877338,59.0086122928484,51.9914434628026,121.267899229217,36.3356742702025,-62.5152472476097,-51.9914434628026,0,0,0,0,0
-117.051470704901,40.3311775200726,58.8203194493292,51.9914434628026,121.229129109695,37.0937351819788,-62.3368126665892,-51.9914434628026,0,0,0,0,0
-116.504079151494,40.90327701432,58.1688517287421,51.9914434628026,120.572783169709,37.791391947578,-61.5369420949631,-51.9914434628026,0,0,0,0,0
-116.281155494491,41.6612228648464,57.8003890069036,51.9914434628026,120.320609781603,38.591628756311,-61.1265319153299,-51.9914434628026,0,0,0,0,0
-115.658897606827,42.1938981457581,57.0870063980004,51.9914434628026,119.717843295965,39.2429195546008,-60.3897090576796,-51.9914434628026,0,0,0,0,0
-115.424604699729,42.9772817549771,56.701424809413,51.9914434628026,119.313621286629,40.0488728745325,-59.8213602019539,-51.9914434628026,0,0,0,0,0
-114.865433308163,43.5384125139468,56.0483470093043,51.9914434628027,118.426773919389,40.6061740666093,-58.8240756887248,-51.9914434628027,0,0,0,0,0
-115.899315273824,43.5721228045986,54.4315522085201,51.9914434628026,119.262678766905,40.7149687078799,-57.0150651643552,-51.9914434628027,0,0,0,0,0
-115.530872203291,44.0336607193075,53.9803660880774,51.9914434628026,118.672891268188,41.3814461170464,-56.2900692252184,-51.9914434628027,0,0,0,0,0
-115.467928686625,44.5186556734582,53.814092497689,51.9914434628027,118.209454918877,41.9051848088429,-55.7221989198123,-51.9914434628027,0,0,0,0,0
-115.214668906751,45.0645212241819,53.4538980537196,51.9914434628027,117.588234471313,42.6064325670343,-54.9640292788119,-51.9914434628026,0,0,0,0,0
-115.128774399037,45.8631263938997,53.1928040485934,51.9914434628027,117.453359452106,43.498556404488,-54.6321434269758,-51.9914434628027,0,0,0,0,0
-114.718880590489,46.5223844459746,52.6604425440771,51.9914434628027,116.858408900504,44.238794484428,-53.8933354327963,-51.9914434628026,0,0,0,0,0
-114.007355727673,47.0744075316855,51.878283955547,51.9914434628026,116.383053807465,44.9028920306227,-53.2889044338273,-51.9914434628026,0,0,0,0,0
-113.258537169708,47.5841421535713,51.0793398130907,51.9914434628026,115.488251596044,45.3089404505346,-52.3550104329416,-51.9914434628027,0,0,0,0,0
-112.958903794926,48.1203036919581,50.6870241785718,51.9914434628027,115.083997163048,45.8114322130212,-51.8628990989287,-51.9914434628026,0,0,0,0,0
-112.386956958593,48.5608520817596,50.0742289141033,51.9914434628026,114.577158392603,46.2707065210912,-51.2885669313956,-51.9914434628026,0,0,0,0,0
-111.952056342731,49.0895958142966,49.5685751315615,51.9914434628026,114.784634789473,45.8917095932887,-48.9773196252384,-51.9914434628027,0,0,0,0,0
-111.759181086267,49.7666203047647,49.2460809178845,51.9914434628026,114.665646888458,46.7080876055118,-48.6760497297246,-51.9914434628026,0,0,0,0,0
-112.081572419213,49.6446538385264,46.9775992913206,51.9914434628026,114.030988932411,47.2822537237001,-47.9668148961959,-51.9914434628026,0,0,0,0,0
-111.813562262482,50.2647145859468,46.6009529316438,51.9914434628026,113.617136384209,47.8286295585305,-47.4671390566902,-51.9914434628027,0,0,0,0,0
-111.411463449395,50.8013697380611,46.1305922840103,51.9914434628026,113.263845572104,48.4351543308973,-47.0097440490684,-51.9914434628026,0,0,0,0,0
-111.099057731812,51.2670729298592,45.756353772576,51.9914434628026,112.853116211954,48.8746622207815,-46.544101320846,-51.9914434628027,0,0,0,0,0
-110.923880239942,51.7496414459592,45.4960604184648,51.9914434628027,112.685278724364,49.4222373239862,-46.2672423847839,-51.9914434628027,0,0,0,0,0
-110.198513165023,52.0673771695429,44.8148618503708,51.9914434628026,112.00514373581,49.889782510216,-45.5676630234376,-51.9914434628026,0,0,0,0,0
-109.784658557427,52.476648602609,44.3783984800756,51.9914434628026,112.351265499901,49.6717981859022,-43.3486803744669,-51.9914434628026,0,0,0,0,0
-109.567295273907,53.0257186613497,44.0756541697834,51.9914434628027,111.970559149276,50.257892138757,-42.8839521472718,-51.9914434628026,0,0,0,0,0
-110.270196040925,52.8730850033972,42.1289856201425,51.9914434628026,111.723724460301,50.8230792999768,-42.5397235911848,-51.9914434628027,0,0,0,0,0
-109.776692551125,53.2341847797855,41.6447643290855,51.9914434628027,111.240528345471,51.2478391801081,-42.0345096750851,-51.9914434628026,0,0,0,0,0
-109.585602833744,53.7682182194698,41.3671986767238,51.9914434628026,111.117254049981,51.7653773986198,-41.8082495582688,-51.9914434628026,0,0,0,0,0
-108.921669275437,54.128527784404,40.7562933705347,51.9914434628026,110.521113540673,52.2334757198621,-41.2076830971098,-51.9914434628026,0,0,0,0,0
-108.843533742366,54.7153031101659,40.561084493047,51.9914434628026,111.239123934272,52.2075763010293,-39.2443921142266,-51.9914434628026,0,0,0,0,0
-108.163727796643,55.2163456029037,39.9181014427368,51.9914434628026,110.780884511385,52.7192006866869,-38.7499281615749,-51.9914434628026,0,0,0,0,0
-108.275998839062,55.063030207916,37.5074025794972,51.9914434628026,110.222330948953,53.292981505815,-38.1663023754031,-51.9914434628026,0,0,0,0,0
-107.834521563544,55.6072133496294,37.0497133391383,51.9914434628027,109.779729854973,53.8967133722591,-37.6733267182369,-51.9914434628027,0,0,0,0,0
-107.288313315522,56.0421445917876,36.5435374677151,51.9914434628027,109.349310139684,54.3682396330841,-37.2268175359678,-51.9914434628027,0,0,0,0,0
-106.849900486569,56.5798325846436,36.1014964242212,51.9914434628026,109.527290878503,54.134437400267,-34.8876150412233,-51.9914434628027,0,0,0,0,0
-106.543628075613,57.2456426694321,35.7341057578759,51.9914434628027,109.107144492212,54.8019355311932,-34.408740207963,-51.9914434628026,0,0,0,0,0
-106.716256913614,57.1423443962404,33.3744379530636,51.9914434628027,108.616814072232,55.4264545749671,-33.8939036041994,-51.9914434628026,0,0,0,0,0
-106.524474692958,57.7722460907048,33.1003193410198,51.9914434628026,108.126900466571,56.0029843081981,-33.3977867093279,-51.9914434628027,0,0,0,0,0
-106.579924798945,58.4730415592872,32.9849646308746,51.9914434628027,107.923487496608,56.6035473171885,-33.1098002525336,-51.9914434628026,0,0,0,0,0
-106.485526748091,59.0533669512362,32.7904906296087,51.9914434628026,108.291476324284,56.2837552848041,-30.9372590395271,-51.9914434628027,0,0,0,0,0
-106.451910199881,59.7207839565358,32.6181865076652,51.9914434628026,108.049654618899,56.8691149215685,-30.6254379259183,-51.9914434628027,0,0,0,0,0
-106.578231105552,60.2969497558494,32.5731780522548,51.9914434628026,108.036508164849,57.3858179129641,-30.4921469977481,-51.9914434628027,0,0,0,0,0
-106.797394914081,60.7921840258443,32.6058003896784,51.9914434628027,108.165601855327,57.9424523676568,-30.4465884078187,-51.9914434628026,0,0,0,0,0
-107.470913942407,60.4705030846664,30.6156841109533,51.9914434628026,108.158854572268,58.4397160376991,-30.3196314959471,-51.9914434628026,0,0,0,0,0
-107.538933038115,61.0150214746968,30.526759921538,51.9914434628026,108.21396660049,59.0884533046548,-30.1958824380112,-51.9914434628027,0,0,0,0,0
-107.707095710742,61.564473783744,30.4992216213143,51.9914434628027,108.26930877178,59.6579268341783,-30.0897469284926,-51.9914434628026,0,0,0,0,0
-107.531492402193,62.0649151618869,30.2607931817893,51.9914434628026,108.176989696201,60.2734807590853,-29.8721671848007,-51.9914434628027,0,0,0,0,0
-107.588369684453,62.6182492570644,30.1574506444366,51.9914434628026,108.724363459584,60.0466927009825,-27.7687577640896,-51.9914434628026,0,0,0,0,0
-107.75088316638,63.3902131191627,30.0615303437182,51.9914434628027,108.931338929961,60.8472538133536,-27.688687792495,-51.9914434628027,0,0,0,0,0
-107.82911716382,63.8959494861192,29.978297368512,51.9914434628026,108.984082197242,61.4322985844142,-27.5633598310821,-51.9914434628027,0,0,0,0,0
-108.310216087067,63.6547917099353,27.8068993484309,51.9914434628027,108.929573204719,62.0935131667043,-27.3479237050611,-51.9914434628026,0,0,0,0,0
-108.351590036621,64.3074532150653,27.6543419255878,51.9914434628027,108.946876857317,62.8056702423822,-27.1617525573209,-51.9914434628026,0,0,0,0,0
-108.243313207909,64.8549690382431,27.44076902889,51.9914434628026,109.343213748039,62.5708290356385,-24.9365239444544,-51.9914434628026,0,0,0,0,0
-108.315764753209,65.4509410994732,27.3189383199483,51.9914434628026,109.343757923642,63.1716128103657,-24.7645167085919,-51.9914434628027,0,0,0,0,0
-108.04568745665,66.03275966163,27.0041724106678,51.9914434628026,108.943319639171,63.7199859107496,-24.3720622049533,-51.9914434628027,0,0,0,0,0
-108.658779782828,65.7150032777224,24.9070181602229,51.9914434628026,109.161618164472,64.2484884140329,-24.3471623018272,-51.9914434628026,0,0,0,0,0
-108.771070366204,66.3219481079096,24.7949284295343,51.9914434628027,109.203366916979,64.7332235818835,-24.2302992706819,-51.9914434628026,0,0,0,0,0
-108.686820878868,66.8171855949005,24.605665737765,51.9914434628027,109.550690590942,64.2888844966974,-22.0224239087779,-51.9914434628026,0,0,0,0,0
-108.374148838277,67.2666697159163,24.3083634174998,51.9914434628026,109.266324330064,64.7028204776087,-21.741018521619,-51.9914434628027,0,0,0,0,0
-108.327245874694,67.7872936433148,24.1344475104883,51.9914434628027,109.055201887521,65.1741198554309,-21.4862918126278,-51.9914434628026,0,0,0,0,0
-108.254705757236,68.1269509136654,23.9992044823547,51.9914434628026,108.897313796117,65.4456453522524,-21.3211288268854,-51.9914434628027,0,0,0,0,0
-108.505028974116,67.5860647425433,21.7545102837834,51.9914434628027,108.694773985006,65.8262070861578,-21.1017197933176,-51.9914434628027,0,0,0,0,0
-108.465559495227,67.9527326919863,21.627497947534,51.9914434628026,108.716527415299,66.2471987370594,-20.9908272599232,-51.9914434628027,0,0,0,0,0
-108.658439159969,68.2590855830224,21.6346525838029,51.9914434628027,109.002940881683,66.6460997968739,-21.0234186293008,-51.9914434628027,0,0,0,0,0
-108.423623425184,68.4883173748502,21.4499003713719,51.9914434628026,108.87035788728,67.0127497680826,-20.8457732180701,-51.9914434628027,0,0,0,0,0
-108.432664935547,68.769657541774,21.3718545092731,51.9914434628026,108.942674210872,67.3032599850046,-20.7963872959905,-51.9914434628026,0,0,0,0,0
-108.322892054777,69.0724204045833,21.2292916225462,51.9914434628026,108.833170442894,67.6086649087393,-20.6496636197898,-51.9914434628026,0,0,0,0,0
-108.424095312788,69.4110525709236,21.1786683843445,51.9914434628026,109.28769265219,67.0095748824718,-18.526630891503,-51.9914434628026,0,0,0,0,0
-108.563605536237,69.8057755950162,21.1281088739876,51.9914434628026,109.304581372403,67.3279976837452,-18.437464804744,-51.9914434628026,0,0,0,0,0
-108.675905462882,70.1374733959881,21.0815952028703,51.9914434628026,109.297939654732,67.5426173712073,-18.3682140845664,-51.9914434628026,0,0,0,0,0
-108.639073846697,70.4549223252317,20.9684689180582,51.9914434628026,109.17804324908,67.7357945706175,-18.2501426609858,-51.9914434628026,0,0,0,0,0
-109.033868631954,69.9813702892879,18.7581853889387,51.9914434628026,109.116800916953,67.9918595195588,-18.1419736138546,-51.9914434628026,0,0,0,0,0
-109.181467989056,70.3454561425418,18.7120790249045,51.9914434628026,109.06261101953,68.2206989449277,-18.0458488505975,-51.9914434628026,0,0,0,0,0
-109.233172355574,70.774817230391,18.6004102747536,51.9914434628026,109.04797961971,68.4998180485508,-17.9534018256969,-51.9914434628026,0,0,0,0,0
-109.529369573766,71.2427420553969,18.5824523659403,51.9914434628026,109.164120123732,68.8950727408658,-17.886449622034,-51.9914434628026,0,0,0,0,0
-109.373830507558,71.6449562051584,18.3856626389347,51.9914434628026,109.118273924741,69.2892582308389,-17.7429785362377,-51.9914434628026,0,0,0,0,0
-109.582530098125,72.0902827099982,18.3313498780522,51.9914434628026,109.414803505533,69.7237654496662,-17.7430287037763,-51.9914434628027,0,0,0,0,0
-109.73255369774,72.5685896799287,18.2380827399779,51.9914434628027,109.661737071527,70.1631800996885,-17.7146642650617,-51.9914434628026,0,0,0,0,0
-109.880218065175,73.0149168609408,18.1514450086956,51.9914434628026,109.93267870737,70.6382846155384,-17.6812526520703,-51.9914434628026,0,0,0,0,0
-110.006217036476,73.5497591102088,18.023531611212,51.9914434628027,110.158375282725,71.2233396375534,-17.5867011664049,-51.9914434628027,0,0,0,0,0
-110.042513765421,74.0329094196288,17.8748687560846,51.9914434628026,110.261160012784,71.7778380919697,-17.4449095192478,-51.9914434628026,0,0,0,0,0
-110.129210021556,74.5068667646185,17.7474593979645,51.9914434628026,110.645154062306,71.4147721330672,-15.1680613161,-51.9914434628026,0,0,0,0,0
-110.312452268174,74.8966472427102,17.6834652271958,51.9914434628026,110.69313221525,71.9386121177702,-15.0065129370744,-51.9914434628027,0,0,0,0,0
-110.402073313325,75.1943310607212,17.6138967752101,51.9914434628027,110.750675138813,72.3621074299745,-14.8821736658847,-51.9914434628027,0,0,0,0,0
-110.817253820016,74.7073559439186,15.3656878813425,51.9914434628027,110.745433375783,72.9306689633093,-14.6809822795327,-51.9914434628026,0,0,0,0,0
-110.881299101398,75.0406787904798,15.269913082659,51.9914434628027,110.828671058863,73.4186148679479,-14.5410675640003,-51.9914434628027,0,0,0,0,0
-111.000449494341,75.4648571860058,15.1597987564414,51.9914434628026,110.76142887264,74.0277141556291,-14.3002074304791,-51.9914434628027,0,0,0,0,0
-111.010276402284,75.7734106162591,15.0515712593529,51.9914434628027,110.654076556093,74.5543535555807,-14.0746915755051,-51.9914434628026,0,0,0,0,0
-111.058437109653,76.0383611610066,14.971966333917,51.9914434628027,110.838734816873,74.146547757379,-11.7153943025623,-51.9914434628027,0,0,0,0,0
-111.200652523937,76.3440349514995,14.908573224133,51.9914434628027,110.948224512568,74.6014814158007,-11.5897132591632,-51.9914434628026,0,0,0,0,0
-111.499499202772,76.670561668654,14.8877591241597,51.9914434628026,111.257046919658,75.1174966939253,-11.505877890207,-51.9914434628026,0,0,0,0,0
-111.448300532681,77.008526584669,14.7445958166793,51.9914434628027,111.461852851495,75.5973287458835,-11.3955571434341,-51.9914434628026,0,0,0,0,0
-111.734637872643,76.5212880924442,12.4295757011253,51.9914434628026,111.635745270589,76.1809964957411,-11.2321559644841,-51.9914434628027,0,0,0,0,0
-111.52659051662,76.9419031266337,12.2052448244703,51.9914434628026,111.617090189407,76.7542471606894,-11.0095595219371,-51.9914434628026,0,0,0,0,0
-111.578566167215,77.4460301973009,12.0306945242852,51.9914434628026,111.825401672963,77.3426243757397,-10.847472872906,-51.9914434628027,0,0,0,0,0
-111.685896321925,77.9112289395163,11.8855509540945,51.9914434628026,111.996349842577,76.8919427884906,-8.47689796161793,-51.9914434628027,0,0,0,0,0
-111.64952360225,78.402229603194,11.6875376595992,51.9914434628026,111.969408437704,77.426980125052,-8.26160659133654,-51.9914434628026,0,0,0,0,0
-111.828589047326,78.9277442102283,11.5351763785006,51.9914434628026,112.162432177216,77.9768200067115,-8.09857456953785,-51.9914434628026,0,0,0,0,0
-111.748088807596,79.3564879749622,11.34788042959,51.9914434628026,112.073030154728,78.4688068834716,-7.88194140776868,-51.9914434628027,0,0,0,0,0
-111.750598510782,79.8192890609092,11.1696217574332,51.9914434628027,112.074896524953,78.9733441578369,-7.68396318229008,-51.9914434628027,0,0,0,0,0
-112.127304415655,79.2878116059973,8.8730582778422,51.9914434628027,112.286374609374,79.511927581558,-7.52119113075876,-51.9914434628027,0,0,0,0,0
-112.167589656406,79.6679836019719,8.73255384126479,51.9914434628027,112.4638441394,79.0540664814778,-5.14068864074246,-51.9914434628027,0,0,0,0,0
-112.285774680976,80.0018208492656,8.62788622242862,51.9914434628027,112.509512125963,79.4721730629673,-4.98192925776817,-51.9914434628027,0,0,0,0,0
-112.349190205224,80.2964391580879,8.52472105167368,51.9914434628026,112.565740215486,79.8973795354038,-4.82143619715116,-51.9914434628027,0,0,0,0,0
-112.439989316699,80.6204993116394,8.41492247550385,51.9914434628026,112.696345674433,80.2903190280282,-4.68788299698107,-51.9914434628027,0,0,0,0,0
-112.418109269131,80.9723202913716,8.26817222750774,51.9914434628027,112.696829472406,80.6717216083317,-4.53153433268734,-51.9914434628027,0,0,0,0,0
-112.379505496764,80.3770569113839,5.89225614645231,51.9914434628026,112.63423567354,80.9954415200469,-4.38681008977248,-51.9914434628026,0,0,0,0,0
-112.436639543801,80.7141232367384,5.76785671357316,51.9914434628027,112.646070143976,80.3747082367962,-2.0317900098519,-51.9914434628027,0,0,0,0,0
-112.525695697344,81.0494908230106,5.64945682463904,51.9914434628027,112.815143092694,80.6714768086982,-1.93960052697782,-51.9914434628026,0,0,0,0,0
-112.543563353353,81.3439176253347,5.53293414654771,51.9914434628027,112.876024390505,80.94847479638,-1.83517543977491,-51.9914434628027,0,0,0,0,0
-112.726671966307,81.6363259563515,5.44737276191532,51.9914434628027,112.903961582519,81.262312171935,-1.7091893930256,-51.9914434628026,0,0,0,0,0
-112.805714508488,80.9668116904859,3.12326749196166,51.9914434628026,112.798914865836,80.5828981525761,0.641857621448001,-51.9914434628027,0,0,0,0,0
-112.800816552754,81.2725583752337,2.99583821679772,51.9914434628026,112.77533123709,80.8728677784686,0.765859732741596,-51.9914434628027,0,0,0,0,0
-113.017482316785,81.5993857146981,2.8965381699993,51.9914434628026,112.89139212412,81.1485340533115,0.863240045956221,-51.9914434628026,0,0,0,0,0
-113.009194556358,81.9233558350593,2.75940247339005,51.9914434628027,112.888689829161,81.4421090417019,0.986289205937657,-51.9914434628026,0,0,0,0,0
-112.984783676091,81.3176705791539,0.389538037557854,51.9914434628027,112.77431531899,80.737551780018,3.32636632503711,-51.9914434628026,0,0,0,0,0
-112.884674205445,81.6687858511567,0.227651021427738,51.9914434628027,112.84126471326,81.003521064367,3.42830963190865,-51.9914434628027,0,0,0,0,0
-113.042652787895,81.9802703193668,0.119640506296515,51.9914434628027,113.112525788271,81.2066484810502,3.47873358078225,-51.9914434628026,0,0,0,0,0
-113.087373140704,82.2435356518454,0.0147539804256384,51.9914434628027,113.146174116973,81.4105329400262,3.56095270244528,-51.9914434628027,0,0,0,0,0
-112.986816666717,82.5449826779375,-0.125562985021806,51.9914434628026,113.086234975705,81.6393186407379,3.66517458203542,-51.9914434628026,0,0,0,0,0
-113.098120677786,81.8552093436619,-2.44299079113383,51.9914434628027,113.157955520352,81.8103580964509,3.72936482447769,-51.9914434628026,0,0,0,0,0
-112.888097357551,82.1231641029644,-2.5812301297949,51.9914434628026,113.060858107051,81.9852879144414,3.81455072973011,-51.9914434628026,0,0,0,0,0
-112.692944707158,82.4097808362766,-2.72327233971779,51.9914434628027,112.879040472514,81.2151812485815,6.13337908547698,-51.9914434628027,0,0,0,0,0
-112.49795961082,82.6236786432185,-2.83309152568819,51.9914434628027,112.717970557999,81.3755622614459,6.2175363130181,-51.9914434628026,0,0,0,0,0
-112.349141859779,82.7693352657454,-2.90856407834728,51.9914434628027,112.620941418647,81.5498064324034,6.29993617170076,-51.9914434628026,0,0,0,0,0
-112.246828150298,81.9852309803603,-5.20940991627354,51.9914434628026,112.563038932939,81.6581278751959,6.35058494055243,-51.9914434628026,0,0,0,0,0
-112.131763011636,82.0672567363615,-5.25419048692873,51.9914434628027,112.506214470831,81.7466839443247,6.39272027809851,-51.9914434628027,0,0,0,0,0
-112.095983152415,82.1379241162985,-5.28629619719626,51.9914434628026,112.321786312147,80.8662210620187,8.66414429634506,-51.9914434628026,0,0,0,0,0
-112.176719587163,82.2179231007737,-5.31092264880227,51.9914434628027,112.491302383647,80.9430745734935,8.6797627383966,-51.9914434628026,0,0,0,0,0
-112.219261584782,82.2832281187183,-5.333424719001,51.9914434628026,112.573831403455,80.9869246755423,8.6902148018424,-51.9914434628026,0,0,0,0,0
-112.241382363117,82.3139716718423,-5.34386072212593,51.9914434628027,112.666475096622,81.0067752562181,8.68987411791747,-51.9914434628026,0,0,0,0,0
-112.292713724711,82.346146377033,-5.35218314547036,51.9914434628026,112.764918028174,80.9965268991465,8.6764591209522,-51.9914434628027,0,0,0,0,0
-112.336606467566,82.3399468909719,-5.34554815791218,51.9914434628027,112.788735269998,80.9777427388297,8.66637093816628,-51.9914434628026,0,0,0,0,0
-112.423213933245,82.3224605703976,-5.33025645252262,51.9914434628026,112.885835410662,80.9371048987832,8.64018433924352,-51.9914434628026,0,0,0,0,0
-112.416243217423,82.2659628584409,-5.30769168490897,51.9914434628027,112.875308541443,80.8304018203689,8.59627166058636,-51.9914434628027,0,0,0,0,0
-112.379715167067,82.1919915737547,-5.28082226229462,51.9914434628026,112.812164920336,80.7381162647845,8.56365128774337,-51.9914434628027,0,0,0,0,0
-112.233295067216,82.1399779167939,-5.2737655012185,51.9914434628026,112.634331075077,80.6897114760412,8.56098270557697,-51.9914434628026,0,0,0,0,0
-112.266567623169,82.0533064160132,-5.23518057869104,51.9914434628026,112.636077212863,80.5889965447576,8.51893767383483,-51.9914434628026,0,0,0,0,0
-112.285381118708,82.0178361760002,-5.21883820253123,51.9914434628026,112.619550303613,80.551737703621,8.50513253589175,-51.9914434628026,0,0,0,0,0
-112.241286701648,81.9826702361307,-5.20892438383418,51.9914434628026,112.545564611988,80.5044376506572,8.49308789574134,-51.9914434628027,0,0,0,0,0
-112.272693631484,81.9577746904706,-5.19561210080337,51.9914434628026,112.58343922248,80.4981861100911,8.48660700671783,-51.9914434628026,0,0,0,0,0
-112.218840278051,81.9304266256869,-5.18993444195759,51.9914434628027,112.506987499751,80.4352649647616,8.46848104414537,-51.9914434628027,0,0,0,0,0
-112.225206505468,81.8424405627656,-5.15349781495561,51.9914434628027,112.535829059972,80.3893493575062,8.44649462130388,-51.9914434628027,0,0,0,0,0
-112.177795272262,81.7505234670344,-5.12110509919621,51.9914434628027,112.506966261143,80.3105658674134,8.4169980414997,-51.9914434628027,0,0,0,0,0
-112.274355481989,81.6401484709833,-5.06595462737705,51.9914434628026,112.574011714863,80.2219914377998,8.37317045747394,-51.9914434628027,0,0,0,0,0
-112.506342970819,81.4462758993257,-4.96106192856176,51.9914434628026,112.662463575025,80.0952647068849,8.31087796847777,-51.9914434628026,0,0,0,0,0
-112.593307856199,81.3221547118018,-4.89997738893032,51.9914434628026,112.695331680755,79.9202426250641,8.23435704304158,-51.9914434628027,0,0,0,0,0
-112.689939462628,81.1423711693394,-4.81420040600923,51.9914434628027,112.706175292905,79.7816868103948,8.17542005996691,-51.9914434628026,0,0,0,0,0
-112.887487251386,80.9576361007676,-4.7133311436811,51.9914434628027,113.033036959389,80.5438776844328,5.83298268145228,-51.9914434628026,0,0,0,0,0
-112.90588434356,80.7979257507556,-4.6440754397569,51.9914434628026,112.989811363941,80.3726133721776,5.7660586276848,-51.9914434628026,0,0,0,0,0
-112.91272606942,80.597548843735,-4.55916367166811,51.9914434628027,112.879242514835,80.2241641789064,5.71766183005886,-51.9914434628026,0,0,0,0,0
-112.952824323628,81.2710174647877,-2.21556258350504,51.9914434628027,112.823671690307,79.9518744954664,5.61104129210543,-51.9914434628027,0,0,0,0,0
-112.799359327904,81.0037670376887,-2.12500310595403,51.9914434628027,112.631141155391,79.6444641882362,5.50956262374563,-51.9914434628026,0,0,0,0,0
-112.718170059401,80.62297227594,-1.9785973291067,51.9914434628026,112.499074651048,79.2841553995372,5.38005838383848,-51.9914434628026,0,0,0,0,0
-112.633057531538,80.2232048298653,-1.8264030375059,51.9914434628026,112.45232663791,79.7622804639542,2.97123977514377,-51.9914434628026,0,0,0,0,0
-112.68932129173,79.7465218407116,-1.62091295683018,51.9914434628026,112.465848789081,79.2691938671574,2.76782166026482,-51.9914434628026,0,0,0,0,0
-112.790759706199,80.1939481350998,0.825538064122974,51.9914434628026,112.599741261756,78.7592989807578,2.53652418244613,-51.9914434628026,0,0,0,0,0
-112.868051881054,79.6641240351463,1.05888498441389,51.9914434628027,112.665051908875,78.1893993795439,2.29097573488393,-51.9914434628027,0,0,0,0,0
-112.866036258658,79.0903554580442,1.29597631827191,51.9914434628027,112.65966386846,78.5667295633927,-0.164312050136724,-51.9914434628027,0,0,0,0,0
-112.761847695043,79.4535017536944,3.73844298094138,51.9914434628027,112.664799995571,77.9597453172236,-0.413452062522062,-51.9914434628026,0,0,0,0,0
-112.697884215585,78.9123387848332,3.94623366612171,51.9914434628027,112.57559742229,77.4043737506691,-0.620178160614017,-51.9914434628027,0,0,0,0,0
-112.698115739016,78.3145960197158,4.18995742208757,51.9914434628026,112.532601969115,76.71614566484,-0.88871576971927,-51.9914434628027,0,0,0,0,0
-112.623782932435,78.7046631856676,6.6229695973652,51.9914434628027,112.600933516983,77.0156402847477,-3.38942118928722,-51.9914434628026,0,0,0,0,0
-112.456422971851,78.1337421952187,6.81134316111642,51.9914434628026,112.522015758112,76.3189983499994,-3.64940299775496,-51.9914434628026,0,0,0,0,0
-112.321121925806,77.524359908288,7.01912266670862,51.9914434628027,112.446981765418,75.624558431335,-3.90642238998592,-51.9914434628026,0,0,0,0,0
-112.189017963938,76.8636957570358,7.24399712407495,51.9914434628027,112.191266015278,75.798448092659,-6.36371519317268,-51.9914434628027,0,0,0,0,0
-112.231746292828,76.1549449470615,7.53402014802852,51.9914434628026,112.170574800028,74.9475259063584,-6.68933153322693,-51.9914434628027,0,0,0,0,0
-112.065210413987,76.3101608118047,10.020133483218,51.9914434628027,112.157966690763,74.0507713766852,-7.03282089153662,-51.9914434628026,0,0,0,0,0
-112.034373758009,75.514005398449,10.3176457656225,51.9914434628026,112.189246906041,73.0678857555448,-7.42176587901943,-51.9914434628027,0,0,0,0,0
-112.048030703072,74.6981114335877,10.6351180476559,51.9914434628027,112.064578918412,73.0244248965977,-9.98373511453216,-51.9914434628027,0,0,0,0,0
-111.802484386078,74.693869357534,13.1428524415913,51.9914434628026,112.091272315458,71.9885666640387,-10.3854155785067,-51.9914434628026,0,0,0,0,0
-111.800307700651,73.6580600795666,13.5301484763777,51.9914434628026,112.165643423295,70.8911855694814,-10.8269155451068,-51.9914434628027,0,0,0,0,0
-111.545720473258,72.7422472667599,13.7719503962703,51.9914434628026,111.86433766467,70.7794013746603,-13.3286887874613,-51.9914434628026,0,0,0,0,0
-111.636622566877,71.9066376970079,14.1133016079329,51.9914434628026,111.853037135011,69.6365576722093,-13.7409244332831,-51.9914434628027,0,0,0,0,0
-111.695338070183,71.004258812691,14.4661095039908,51.9914434628027,111.860057682659,68.465826305082,-14.16674312282,-51.9914434628027,0,0,0,0,0
-111.221968278339,70.9439591470438,16.8619431159317,51.9914434628026,111.704237203878,67.1846480873378,-14.5495538235768,-51.9914434628026,0,0,0,0,0
-111.031807942729,70.0618558044506,17.0859259312962,51.9914434628027,111.182611661197,66.8028591423162,-16.9918937457163,-51.9914434628026,0,0,0,0,0
-110.981330995415,69.1838884373987,17.3652168109589,51.9914434628026,111.024091287372,65.5969696102184,-17.3160867030525,-51.9914434628026,0,0,0,0,0
-110.938164163163,68.4096932528121,17.6087618838337,51.9914434628026,111.000356482716,64.4710353621998,-17.6748310574659,-51.9914434628027,0,0,0,0,0
-110.967005047099,67.662427812551,17.8753954737603,51.9914434628026,111.281583986683,63.5361703132069,-18.133986305225,-51.9914434628027,0,0,0,0,0
-110.79945236098,67.8505581209023,20.291110029762,51.9914434628027,111.317559098925,63.5916480531324,-20.6908714621976,-51.9914434628026,0,0,0,0,0
-110.786155831261,67.2007306627372,20.4994709851433,51.9914434628027,111.443997959166,62.7397100992822,-21.0403950857607,-51.9914434628026,0,0,0,0,0
-110.704526128309,66.538870786124,20.67412471905,51.9914434628027,111.551766629145,61.9816024127258,-21.3489343703592,-51.9914434628026,0,0,0,0,0
-111.040760729702,66.0370360222273,21.0165971126232,51.9914434628026,111.916651479963,61.5096282388361,-21.7201573096685,-51.9914434628027,0,0,0,0,0
-110.972438838,65.3942186585357,21.1904928644612,51.9914434628026,111.956754626423,61.0078508208166,-21.9077656035285,-51.9914434628026,0,0,0,0,0
-110.751516659372,65.6399727246693,23.5491788650136,51.9914434628027,112.182011423255,60.5312906519642,-22.2011328650234,-51.9914434628027,0,0,0,0,0
-110.903714341329,65.0317683386579,23.8295408390857,51.9914434628027,112.41337355249,60.1178439462598,-22.4801359924345,-51.9914434628027,0,0,0,0,0
-111.122577220908,64.4415899003081,24.144126087089,51.9914434628027,112.562289585734,59.6493197582613,-22.7272959956768,-51.9914434628027,0,0,0,0,0
-111.044319445165,63.7831698952582,24.3091646137268,51.9914434628026,112.447675231769,59.1362572737836,-22.821091575447,-51.9914434628027,0,0,0,0,0
-111.056229291196,63.0810684461457,24.5383814348336,51.9914434628026,112.372458572708,58.5882908462813,-22.9486686892127,-51.9914434628026,0,0,0,0,0
-110.956540361833,62.4852774303284,24.6649562774681,51.9914434628026,112.340576145043,58.2150519289927,-23.0467198444883,-51.9914434628026,0,0,0,0,0
-111.06223328733,61.7947249759693,24.9438583964765,51.9914434628027,111.879300156458,58.4959471586616,-25.2090708528544,-51.9914434628026,0,0,0,0,0
-110.570141195553,61.9963441758446,27.1296889501842,51.9914434628027,111.785268749847,57.9474915952869,-25.314501924149,-51.9914434628027,0,0,0,0,0
-110.511915029039,61.2665906206422,27.3104782346413,51.9914434628027,111.630464250995,57.3518909933131,-25.3901925854017,-51.9914434628027,0,0,0,0,0
-110.60096090897,60.7708161155078,27.514090110823,51.9914434628027,111.490156027032,56.848073009902,-25.4446533674969,-51.9914434628026,0,0,0,0,0
-110.672661387911,60.1978436995571,27.7293332177693,51.9914434628026,111.514340090724,56.4563370700389,-25.5764416705517,-51.9914434628026,0,0,0,0,0
-110.793384833096,59.7695322492359,27.9343254926828,51.9914434628027,111.598578587473,56.0967154765237,-25.7399450779527,-51.9914434628026,0,0,0,0,0
-110.932925549234,59.2538958313858,28.1781948858746,51.9914434628026,111.14420601521,56.395642714075,-27.8763035310598,-51.9914434628026,0,0,0,0,0
-110.823446642528,58.6974579180898,28.2667167044658,51.9914434628026,110.988800527213,55.8109740775237,-27.9318020979428,-51.9914434628026,0,0,0,0,0
-111.046489966329,58.1779534639286,28.5685007280767,51.9914434628026,111.300698175667,55.3084580651931,-28.2944985108655,-51.9914434628026,0,0,0,0,0
-110.673977636217,58.5302212899198,30.7595198526699,51.9914434628026,111.576189528438,54.8468558316078,-28.6226768445732,-51.9914434628027,0,0,0,0,0
-110.76390900495,57.9782225742691,30.9777670162482,51.9914434628026,111.712482056658,54.3981800365369,-28.8482067945938,-51.9914434628027,0,0,0,0,0
-110.644592397818,57.5434370734945,31.015667804273,51.9914434628027,111.683075575077,54.0172737994394,-28.9335717317499,-51.9914434628026,0,0,0,0,0
-110.746351120809,57.04142867953,31.226880622681,51.9914434628026,111.843615834548,53.6425263981781,-29.1565997140337,-51.9914434628027,0,0,0,0,0
-110.718845428429,56.5266867963906,31.3489783342837,51.9914434628026,111.918392848452,53.2726461896636,-29.3152862359296,-51.9914434628027,0,0,0,0,0
-110.582547297126,56.0796038515346,31.3724360295642,51.9914434628027,111.936009517208,52.8628879186435,-29.4421538713385,-51.9914434628026,0,0,0,0,0
-110.535620061371,55.6284660053998,31.4596085755596,51.9914434628027,112.26216355484,52.5765341519865,-29.7670996412162,-51.9914434628027,0,0,0,0,0
-110.593151000592,55.2825369072464,31.5939319633393,51.9914434628026,112.395180296074,52.1998771880245,-29.9728672747459,-51.9914434628027,0,0,0,0,0
-110.774514757123,54.8732244540898,31.836468352253,51.9914434628027,112.720803204833,51.7499494983599,-30.3472649938699,-51.9914434628027,0,0,0,0,0
-110.928161782622,54.399656885874,32.0766823379248,51.9914434628027,112.921769717414,51.1936439526191,-30.6577424469405,-51.9914434628027,0,0,0,0,0
-111.127709008042,53.8833641394888,32.3636128113574,51.9914434628026,112.497327623346,51.4174614667235,-32.8081063331359,-51.9914434628026,0,0,0,0,0
-111.17424586458,53.2536958855045,32.5654842878917,51.9914434628026,112.676706286683,50.6728255568842,-33.150411165064,-51.9914434628027,0,0,0,0,0
-111.216168396747,52.7940984142622,32.7180900606474,51.9914434628027,112.867593191814,50.1539619920124,-33.4416289926277,-51.9914434628026,0,0,0,0,0
-111.255494397817,52.2773755856511,32.882870158139,51.9914434628026,113.040457802168,49.5750547481275,-33.7351152909322,-51.9914434628027,0,0,0,0,0
-111.295020850188,51.7152212231201,33.0585544374616,51.9914434628026,113.249022086653,49.0630323847445,-34.0402898283352,-51.9914434628026,0,0,0,0,0
-111.531084174729,51.2144747019316,33.3719959922992,51.9914434628026,113.496110424299,48.5438985779079,-34.3799010929363,-51.9914434628026,0,0,0,0,0
-111.620430229386,50.6862455237702,33.5776791887972,51.9914434628027,113.603117711539,48.0571248435141,-34.5964865996493,-51.9914434628026,0,0,0,0,0
-111.061241588621,50.8365376774051,35.6263914718234,51.9914434628026,113.855797816108,47.4591850243528,-34.9631489226186,-51.9914434628027,0,0,0,0,0
-111.255396588107,50.2161318086685,35.9345592224487,51.9914434628027,114.082973093834,46.90437746511,-35.2982620363173,-51.9914434628027,0,0,0,0,0
-111.436533224506,49.6034947816056,36.2309233890589,51.9914434628027,114.267300607968,46.4192525241919,-35.5798199153408,-51.9914434628027,0,0,0,0,0
-111.765844937576,49.1545513870456,36.6101410625435,51.9914434628027,114.736159808743,46.0654046931835,-36.0702825755839,-51.9914434628026,0,0,0,0,0
-112.14161211248,48.704319091398,37.0307858647887,51.9914434628027,115.146299323604,45.7638570409292,-36.5001711342016,-51.9914434628026,0,0,0,0,0
-112.38393008809,48.0958868563088,37.3815217882657,51.9914434628026,115.530829663792,45.3551611260557,-36.9389214752543,-51.9914434628027,0,0,0,0,0
-112.696075744321,47.5863957548105,37.7682862984849,51.9914434628027,115.26237436236,45.7886724403151,-39.147224966354,-51.9914434628027,0,0,0,0,0
-113.079872248193,47.1273943615122,38.2058181895169,51.9914434628027,115.734211515468,45.4983301385709,-39.6347334395031,-51.9914434628027,0,0,0,0,0
-113.49176128257,46.6815034124933,38.6671546062301,51.9914434628027,116.27258196877,45.1294271304161,-40.2047582003301,-51.9914434628026,0,0,0,0,0
-113.071882279234,46.9742471708515,40.7808730193574,51.9914434628027,116.680580430824,44.6892063562743,-40.6818989270798,-51.9914434628027,0,0,0,0,0
-113.51766098952,46.6252722896958,41.2513471258538,51.9914434628026,117.218171140314,44.3375330555966,-41.2542667866832,-51.9914434628027,0,0,0,0,0
-113.927894655564,46.3321739769151,41.6803530908284,51.9914434628026,117.50037960637,43.9179857471356,-41.6184964778442,-51.9914434628026,0,0,0,0,0
-114.324061887796,46.0786348166262,42.0898970320461,51.9914434628026,118.140926573985,43.5149198230391,-42.3041979699096,-51.9914434628026,0,0,0,0,0
-114.643240630646,45.6579492803604,42.4745397992262,51.9914434628027,118.526294124736,42.9223613917231,-42.812083310606,-51.9914434628027,0,0,0,0,0
-114.824779657875,45.1662539267709,42.7555098038729,51.9914434628027,118.852930978895,42.2377149979037,-43.2913766232542,-51.9914434628027,0,0,0,0,0
-115.182435048505,44.7513065482175,43.1758524772329,51.9914434628026,119.219917912301,41.5427574047321,-43.8107709106554,-51.9914434628027,0,0,0,0,0
-115.501357942446,44.2642567047763,43.5806951728151,51.9914434628027,119.784007385938,40.9166020921435,-44.4972695688135,-51.9914434628027,0,0,0,0,0
-115.730870419143,43.8225495698061,43.894862764443,51.9914434628027,119.194010844726,40.9235984900962,-46.5199037354547,-51.9914434628027,0,0,0,0,0
-116.071134335816,43.3796092790519,44.3108622309611,51.9914434628027,119.829920472126,40.2724510477968,-47.2811788849875,-51.9914434628026,0,0,0,0,0
-116.44341101114,42.8737542198612,44.7728267241531,51.9914434628026,120.474986719689,39.6640244960973,-48.0445498326473,-51.9914434628027,0,0,0,0,0
-116.693081769008,42.2763829690279,45.1448063738084,51.9914434628027,121.17211596021,39.0134555905878,-48.8718579218368,-51.9914434628027,0,0,0,0,0
-116.872853197284,41.6614833906698,45.4556740817428,51.9914434628026,121.721784373336,38.2891185045812,-49.5769825091639,-51.9914434628026,0,0,0,0,0
-116.019306496623,41.6272079282617,47.2296192506896,51.9914434628026,122.408444060138,37.6044750032336,-50.4077672596175,-51.9914434628026,0,0,0,0,0
-116.201390705521,41.0944252144717,47.5173608035315,51.9914434628026,122.939494533757,37.0335970651219,-51.0615308251641,-51.9914434628026,0,0,0,0,0
-116.538093085828,40.5299950756994,47.9574319483754,51.9914434628027,123.48066162455,36.4995330356829,-51.7179360753923,-51.9914434628027,0,0,0,0,0
-116.839928008051,40.0242335182461,48.3524063567607,51.9914434628026,124.092980649157,36.0249151332293,-52.4328378092114,-51.9914434628026,0,0,0,0,0
-116.742142309521,39.3244744627813,48.4070498505318,51.9914434628027,124.211207786544,35.3479067079981,-52.7009072855269,-51.9914434628026,0,0,0,0,0
-116.821047277531,38.6086169245231,48.6298138765103,51.9914434628026,123.019322417069,35.3584719600178,-54.0919625746929,-51.9914434628026,0,0,0,0,0
-117.368006168248,38.1893938460587,49.2407289380386,51.9914434628026,123.596679982745,35.0134083016577,-54.7417831144679,-51.9914434628026,0,0,0,0,0
-117.66110083874,37.560422484918,49.6505706973974,51.9914434628026,123.959559139193,34.621227276518,-55.1868282902376,-51.9914434628026,0,0,0,0,0
-118.067351886823,36.87592774852,50.1806824040062,51.9914434628027,124.425458344797,34.1315401304646,-55.7554487126888,-51.9914434628026,0,0,0,0,0
-118.437750928883,36.220668953925,50.6698304995384,51.9914434628026,124.904951962295,33.7155345742496,-56.3233260551728,-51.9914434628026,0,0,0,0,0
-119.058130830057,35.4618704109125,51.4240020111096,51.9914434628026,125.519462392688,33.2997856930836,-57.0289085191995,-51.9914434628026,0,0,0,0,0
-119.772272662061,34.7967473960839,52.2546392318853,51.9914434628026,126.193966262958,33.0127019685053,-57.772256670989,-51.9914434628026,0,0,0,0,0
-119.024594941684,34.5965837508619,54.1019959927069,51.9914434628026,126.728623832479,32.5485341659637,-58.4078368303604,-51.9914434628026,0,0,0,0,0
-119.753721672921,33.970506058886,54.939788850557,51.9914434628026,127.401561818595,32.1611445608192,-59.1713023096819,-51.9914434628026,0,0,0,0,0
-120.412203769007,33.2616585759124,55.7224875067195,51.9914434628026,128.059116400974,31.8591078666185,-59.9044593067599,-51.9914434628026,0,0,0,0,0
-121.169201982427,32.6200218550874,56.5941523426592,51.9914434628027,128.697179947084,31.4961102762972,-60.6298356757287,-51.9914434628026,0,0,0,0,0
-121.571360279697,31.8184532563849,57.1321749265077,51.9914434628026,129.239707973652,31.041812792424,-61.2729203111552,-51.9914434628027,0,0,0,0,0
-122.431628497917,31.3243989128773,58.0861979024827,51.9914434628027,128.431664977048,31.1722319587884,-63.0063156986339,-51.9914434628026,0,0,0,0,0
-122.957103823495,30.5575351306631,58.7413637778323,51.9914434628026,129.086688230614,30.5851428089065,-63.7857812810552,-51.9914434628026,0,0,0,0,0
-123.753875384871,29.88712311677,59.6582897027975,51.9914434628026,129.849801103849,30.1351700873501,-64.6554077031663,-51.9914434628027,0,0,0,0,0
-124.481898473446,29.3816975696833,60.4805769769282,51.9914434628026,130.448604632321,29.8261047096495,-65.3311556732544,-51.9914434628026,0,0,0,0,0
-125.022810257409,28.712999903824,61.1322065440225,51.9914434628025,130.922595479679,29.3717310232729,-65.8975465256476,-51.9914434628027,0,0,0,0,0
-125.870043443012,28.2022478233899,62.0777812341764,51.9914434628027,131.559032826335,29.0621083952635,-66.6126457017427,-51.9914434628026,0,0,0,0,0
-126.567492161142,27.6185932079951,62.8773123505429,51.9914434628026,132.356631141949,28.6678017352246,-67.5099323790634,-51.9914434628026,0,0,0,0,0
-127.539732870516,27.0855533674752,63.955312958411,51.9914434628026,133.237902822854,28.168750982324,-68.509756412764,-51.9914434628026,0,0,0,0,0
-128.440277847752,26.5068601983941,64.9637402652279,51.9914434628026,134.200917461149,27.6581836859182,-69.5965676704267,-51.9914434628025,0,0,0,0,0
-129.359768571298,25.7323199639448,66.012022781857,51.9914434628026,135.127057774169,26.9973844188296,-70.6605651869612,-51.9914434628026,0,0,0,0,0
-130.884544512211,25.2692961670198,67.6592298366495,51.9914434628025,136.592532104474,26.4839833140233,-72.2784937279797,-51.9914434628026,0,0,0,0,0
-131.92886582179,24.7389872686738,68.8093518977493,51.9914434628026,137.860291874316,25.9895907539183,-73.6830953285945,-51.9914434628026,0,0,0,0,0
-132.975375527856,24.336766750268,69.9486258902777,51.9914434628026,138.86487175969,25.4770510803558,-74.8061320204463,-51.9914434628026,0,0,0,0,0
-131.847354695892,24.251751475125,71.3272083198883,51.9914434628026,139.925319244893,24.9867165162598,-75.9838287591803,-51.9914434628026,0,0,0,0,0
-133.009797255996,23.7305053777285,72.5961161203623,51.9914434628026,141.016336115362,24.5635777256776,-77.1860285905059,-51.9914434628026,0,0,0,0,0
-134.151580808588,23.4219499438819,73.82677838191,51.9914434628026,142.301394445643,24.2022304792893,-78.589892825802,-51.9914434628026,0,0,0,0,0
-135.252359022062,23.0005236191604,75.0209371688758,51.9914434628026,140.995940268809,23.9840188914638,-79.8017936433311,-51.9914434628026,0,0,0,0,0
-136.393130353896,22.6720211261898,76.2508088791209,51.9914434628026,141.999147734435,23.6065298597177,-80.8995383382542,-51.9914434628026,0,0,0,0,0
-137.59417434329,22.3899209287708,77.5418266299856,51.9914434628026,143.067067713981,23.4572902708981,-82.0548548656618,-51.9914434628027,0,0,0,0,0
-138.286493442636,22.0781605532972,78.7552765839098,51.9914434628026,144.159206061462,23.2237207912299,-83.2398886730757,-51.9914434628026,0,0,0,0,0
-139.497949254612,21.8551675984099,80.0939390393768,51.9914434628026,145.331691710677,23.1458206855306,-84.5064667829511,-51.9914434628026,0,0,0,0,0
-140.975865153052,21.3483367075159,81.7308471722828,51.9914434628026,146.48374145894,22.7370972617592,-85.7593508579892,-51.9914434628025,0,0,0,0,0
-142.761182912819,21.1610833776983,83.6850260052622,51.9914434628027,147.321411404973,22.7125614459499,-87.3053585168007,-51.9914434628026,0,0,0,0,0
-144.49366355616,20.8194322880744,85.5805711615244,51.9914434628026,148.518322503427,22.6024780409531,-88.609360314544,-51.9914434628025,0,0,0,0,0
-146.000377032237,20.6265081895612,87.2210888654611,51.9914434628026,149.777401328036,22.4496125685631,-89.9785078504874,-51.9914434628026,0,0,0,0,0
-145.105139589784,20.1298175974909,88.8832044808433,51.9914434628027,151.803764099344,22.087745178821,-91.5119344544197,-51.9914434628027,0,0,0,0,0
-147.022479394677,19.866465704925,90.9586902910637,51.9914434628026,153.53039043374,22.0166864657654,-93.3812212615135,-51.9914434628026,0,0,0,0,0
-149.783697377995,19.5425285895273,93.1604733800205,51.9914434628026,152.612216431083,21.6406514630565,-94.9940314527812,-51.9914434628027,0,0,0,0,0
-151.334685966244,19.1984332911638,94.8026421168023,51.9914434628026,153.84129157312,21.3353478694858,-96.312173351474,-51.9914434628026,0,0,0,0,0
-153.241692423887,19.1452621917543,96.8400890764658,51.9914434628026,155,21.2079852333793,-98.0282878229227,-51.9914434628026,0,0,0,0,0
-151.928614424206,18.7637161277563,97.9986534029039,51.9914434628027,155,20.9579848027323,-99.5497343136922,-51.9914434628026,0,0,0,0,0
-153.42975983141,18.7177730573449,99.6016501074082,51.9914434628027,155,20.9570450691207,-101.168513495974,-51.9914434628027,0,0,0,0,0
-154.742463427742,18.6339119033577,100.999276042917,51.9914434628025,155,21.0014887696033,-102.422862610532,-51.9914434628026,0,0,0,0,0
-155,18.4231607127419,102.694930305725,51.9914434628026,155,20.774096677229,-104.208774629168,-51.9914434628026,0,0,0,0,0
-155,18.208183474237,104.840360264229,51.9914434628026,155,20.1703591132548,-105,-51.9914434628026,0,0,0,0,0
-155,18.0710721300592,105,51.9914434628026,155,19.9950617093833,-105,-51.9914434628026,0,0,0,0,0
-155,18.0150563057189,105,51.9914434628026,155,19.75798354421,-105,-51.9914434628027,0,0,0,0,0
-155,17.3873990992197,105,51.9914434628026,155,19.4826349299888,-105,-51.9914434628026,0,0,0,0,0
-155,17.2343811547129,105,51.9914434628026,155,19.4628112301721,-105,-51.9914434628026,0,0,0,0,0
-155,17.066179440649,105,51.9914434628026,155,18.7400738726465,-105,-51.9914434628027,0,0,0,0,0
-155,17.0776881655619,105,51.9914434628027,155,18.6981639966846,-105,-51.9914434628026,0,0,0,0,0
-155,16.8113404536252,105,51.9914434628026,155,18.3672993099335,-105,-51.9914434628025,0,0,0,0,0
-155,16.248149218867,105,51.9914434628026,155,18.3637292726382,-105,-51.9914434628026,0,0,0,0,0
-155,16.3286706461491,105,51.9914434628026,-120,18.4383280523253,-105,-51.9914434628026,0,0,0,0,0
-155,16.263996828647,105,51.9914434628026,-120,18.3768979183282,-105,-51.9914434628026,0,0,0,0,0
120,16.188829998792,105,51.9914434628026,-120,18.3840774658303,-105,-51.9914434628026,0,0,0,0,0
120,16.3477037502679,105,51.9914434628026,-120,18.5972600897115,-105,-51.9914434628026,0,0,0,0,0
120,16.4003683658764,105,51.9914434628027,-120,18.5642084304953,-105,-51.9914434628026,0,0,0,0,0
120,16.3077270773944,105,51.9914434628026,-120,18.5904931018743,-105,-51.9914434628027,0,0,0,0,0
120,16.2753570302313,105,51.9914434628026,-120,17.9459022482387,-105,-51.9914434628026,0,0,0,0,0
120,16.4586265859158,105,51.9914434628026,-120,18.1076378817457,-105,-51.9914434628026,0,0,0,0,0
120,16.2788816680515,105,51.9914434628027,-120,18.002344932626,-105,-51.9914434628026,0,0,0,0,0
120,15.6841875496422,105,51.9914434628027,-120,18.30911924396,-105,-51.9914434628026,0,0,0,0,0
120,15.729259403779,105,51.9914434628027,-120,18.4237649055411,-105,-51.9914434628026,0,0,0,0,0
120,15.8385055172547,105,51.9914434628026,-120,18.4521643143848,-105,-51.9914434628026,0,0,0,0,0
120,15.8396008600592,105,51.9914434628026,-120,18.4261391258569,-105,-51.9914434628026,0,0,0,0,0
120,16.0721790551126,105,51.9914434628027,-120,18.5866214602113,-105,-51.9914434628027,0,0,0,0,0
120,16.2712880169834,105,51.9914434628026,-120,17.8924417988915,-105,-51.9914434628026,0,0,0,0,0
120,16.4276589559077,105,51.9914434628026,-120,18.0365198083469,-105,-51.9914434628027,0,0,0,0,0
120,16.6045464955159,105,51.9914434628026,-120,18.1074917195056,-105,-51.9914434628026,0,0,0,0,0
120,16.7175803511248,105,51.9914434628026,-120,18.2410332495397,-105,-51.9914434628026,0,0,0,0,0
120,15.9429170989262,105,51.9914434628026,-120,18.2863319051983,-105,-51.9914434628027,0,0,0,0,0
120,16.139799036154,105,51.9914434628026,-120,18.3745576302744,-105,-51.9914434628027,0,0,0,0,0
120,16.3222124653105,105,51.9914434628026,-120,17.682396408105,-105,-51.9914434628027,0,0,0,0,0
120,16.4875030555138,105,51.9914434628027,-120,17.8178026559587,-105,-51.9914434628026,0,0,0,0,0
120,16.7920609621592,105,51.9914434628026,-120,18.0797656969843,-105,-51.9914434628026,0,0,0,0,0
120,16.222051753716,-105,51.9914434628027,-120,18.2474117618788,-105,-51.9914434628027,0,0,0,0,0
120,16.7151694025543,-105,51.9914434628027,-120,18.5901529776747,-105,-51.9914434628027,0,0,0,0,0
120,17.199850567592,-105,51.9914434628026,-120,18.0333978807524,105,-51.9914434628027,0,0,0,0,0
120,16.7841935361746,-105,51.9914434628027,-120,18.3624915267396,105,-51.9914434628026,0,0,0,0,0
120,17.2408860523988,-105,51.9914434628027,-120,18.7625322811767,105,-51.9914434628026,0,0,0,0,0
120,17.7423443839191,-105,51.9914434628027,-120,19.1885104638327,105,-51.9914434628027,0,0,0,0,0
120,18.2490085393674,-105,51.9914434628027,-120,18.7549565353324,105,-51.9914434628026,0,0,0,0,0
120,18.6511733785201,-105,51.9914434628026,-120,19.0913261987245,105,-51.9914434628027,0,0,0,0,0
119.417170928512,18.1750450611225,-105,51.9914434628026,-120,19.5078468478366,105,-51.9914434628026,0,0,0,0,0
118.451324938333,18.4974850441454,-105,51.9914434628027,-120,19.8857098162184,105,-51.9914434628026,0,0,0,0,0
117.486073043906,19.0633453475348,-105,51.9914434628026,-120,19.4854920176487,105,-51.9914434628026,0,0,0,0,0
115.789004129066,19.3965015935378,-105,51.9914434628026,-118.582309909682,19.906790936793,105,-51.9914434628026,0,0,0,0,0
113.913450371058,19.7643268981363,-105,51.9914434628026,-116.556546828798,20.2795610638322,105,-51.9914434628027,0,0,0,0,0
111.19860376285,19.4228885022135,-105,51.9914434628026,-115.199779900235,20.6676529776375,105,-51.9914434628026,0,0,0,0,0
109.390811066038,20.0317009637102,-105,51.9914434628026,-113.236826255919,21.2816884484351,105,-51.9914434628027,0,0,0,0,0
108.089970984277,20.5906918335685,-105,51.9914434628027,-110.540899353817,20.901288362989,105,-51.9914434628026,0,0,0,0,0
107.265611761811,21.1961784773445,-105,51.9914434628027,-109.785794770085,21.3804418614556,105,-51.9914434628026,0,0,0,0,0
106.081676106119,21.8976702695711,-105,51.9914434628026,-108.603377086095,21.9721608010503,105,-51.9914434628026,0,0,0,0,0
103.312942603827,21.8377603588858,-105,51.9914434628026,-107.851235825612,22.554177288679,105,-51.9914434628027,0,0,0,0,0
103.087494562677,22.438437991032,-105,51.9914434628026,-107.495241745731,23.0405835672301,105,-51.9914434628027,0,0,0,0,0
102.397516778293,23.0062433590096,-105,51.9914434628026,-106.659463871211,23.5677263345493,105,-51.9914434628027,0,0,0,0,0
102.431068891722,23.3975014010069,-105,51.9914434628026,-106.802233425747,23.9050830600691,105,-51.9914434628027,0,0,0,0,0
101.572638888305,23.9606016560825,-105,51.9914434628027,-104.30353192298,23.6406508217148,105,-51.9914434628026,0,0,0,0,0
99.3279494745784,23.8379607062719,-105,51.9914434628026,-103.96327623571,24.0164273079762,105,-51.9914434628026,0,0,0,0,0
99.2334592907625,24.3188685496217,-105,51.9914434628027,-103.906184289181,24.4321756908826,105,-51.9914434628026,0,0,0,0,0
98.8751864442328,24.7170750997506,-105,51.9914434628027,-103.434481635389,24.7539747644735,105,-51.9914434628026,0,0,0,0,0
98.9656921909976,25.0372898378049,-105,51.9914434628026,-103.231346338612,25.0380386972017,105,-51.9914434628027,0,0,0,0,0
98.5988526197763,25.5232919370011,-105,51.9914434628027,-102.93888171827,25.4889292844424,105,-51.9914434628027,0,0,0,0,0
97.9853670213866,25.9645608277449,-105,51.9914434628026,-100.962741458975,25.2966556229306,105,-51.9914434628027,0,0,0,0,0
97.8166198595521,26.3824465423371,-105,51.9914434628027,-100.962408725814,25.7612929045216,105,-51.9914434628027,0,0,0,0,0
95.5168131352213,26.3229002691679,-105,51.9914434628026,-100.603687751353,26.2265605402604,105,-51.9914434628026,0,0,0,0,0
94.9565642603509,26.7341376960259,-105,51.9914434628027,-100.251766701201,26.7535874003315,105,-51.9914434628026,0,0,0,0,0
94.4418695646443,27.2872772179344,-105,51.9914434628027,-99.8406775731257,27.3228284153848,105,-51.9914434628026,0,0,0,0,0
93.8651684754574,27.7677170453637,-105,51.9914434628027,-97.616108072954,27.2701940717025,105,-51.9914434628026,0,0,0,0,0
91.5661598716975,27.9685968684966,-105,51.9914434628027,-96.957524288332,27.9585334209585,105,-51.9914434628027,0,0,0,0,0
91.091998013086,28.580597234123,-105,51.9914434628027,-96.3391052388591,28.6392212727054,105,-51.9914434628026,0,0,0,0,0
90.1694479308735,29.3098652954484,-105,51.9914434628026,-95.2685879847473,29.3731997714922,105,-51.9914434628027,0,0,0,0,0
89.8042962579287,29.8255588051922,-105,51.9914434628027,-94.7325290354208,29.8977001689926,105,-51.9914434628026,0,0,0,0,0
89.0588632932216,30.5814661758455,-105,51.9914434628026,-92.3703372228112,30.0672065873096,105,-51.9914434628026,0,0,0,0,0
86.862183255773,30.799713907527,-105,51.9914434628026,-91.8144152766843,30.710417639054,105,-51.9914434628026,0,0,0,0,0
86.5920603829821,31.2898055637718,-105,51.9914434628026,-91.5349294507894,31.2826864676058,105,-51.9914434628026,0,0,0,0,0
86.4205672642706,31.8997706242597,-105,51.9914434628027,-91.2165761331812,31.9951628971068,105,-51.9914434628026,0,0,0,0,0
85.9991097556808,32.6246736192535,-105,51.9914434628026,-90.6023501325684,32.7129665109302,105,-51.9914434628026,0,0,0,0,0
83.9854075445332,32.9764381027506,-105,51.9914434628027,-88.5418647268758,33.0744444161511,105,-51.9914434628026,0,0,0,0,0
83.688973101048,33.7858311033958,-105,51.9914434628026,-87.9087961171169,33.8911901949417,105,-51.9914434628026,0,0,0,0,0
83.0705251808454,34.5055113446936,-105,51.9914434628027,-87.2007517948305,34.6485174298947,105,-51.9914434628027,0,0,0,0,0
82.8616236370986,35.2438575283835,-105,51.9914434628026,-86.8871034623142,35.4045096351695,105,-51.9914434628027,0,0,0,0,0
80.5311589724595,36.1214267564189,-104.148412077645,51.9914434628027,-84.5885654049876,36.1507706931653,105,-51.9914434628027,0,0,0,0,0
80.1396474148715,36.8159802550379,-104.03116511468,51.9914434628026,-84.1809890471435,36.9215651494274,105,-51.9914434628027,0,0,0,0,0
78.306613111641,37.4184954098568,-100.556604802951,51.9914434628027,-82.2550458463013,37.3795806594406,105,-51.9914434628026,0,0,0,0,0
77.8380879499314,38.059358977665,-100.421685990437,51.9914434628027,-81.8050919564271,38.0937366764742,105,-51.9914434628027,0,0,0,0,0
77.3842380665466,38.7752118528733,-100.320412301705,51.9914434628026,-81.2240163967494,38.7685267963818,105,-51.9914434628026,0,0,0,0,0
75.4426537454999,39.2325837066203,-96.833019648427,51.9914434628027,-79.2747912663303,39.0903932501101,102.664329111492,-51.9914434628026,0,0,0,0,0
75.2090633517436,39.7584541537252,-96.8381405105966,51.9914434628026,-79.0689524647745,39.5078345089013,102.630307464268,-51.9914434628026,0,0,0,0,0
74.5218008124859,40.5811943465765,-96.6909840172655,51.9914434628026,-78.312328098626,40.2692137261401,102.38067625965,-51.9914434628026,0,0,0,0,0
74.1201087875132,41.0107600056164,-96.6002186516701,51.9914434628027,-77.9183008252427,40.7094403157381,102.267076920946,-51.9914434628027,0,0,0,0,0
72.3281745951072,41.3641576200591,-93.2418102162358,51.9914434628027,-76.2350040156637,40.9532121649817,98.9266507612628,-51.9914434628027,0,0,0,0,0
72.2616428332175,41.6774606380744,-93.3030855947654,51.9914434628026,-76.0878701490024,41.3160322072648,98.9378429393217,-51.9914434628027,0,0,0,0,0
72.1318860040067,42.0917722536113,-93.3651727125392,51.9914434628027,-75.7725973881116,41.7579254122952,98.8875676355603,-51.9914434628026,0,0,0,0,0
72.2036370950834,42.299772978827,-93.4637902591295,51.9914434628027,-75.793839561788,41.9754191698507,98.9504805919259,-51.9914434628027,0,0,0,0,0
71.9900191622336,42.6200033225278,-93.4590170173089,51.9914434628026,-75.7070795609746,42.2691897285314,98.9797891527833,-51.9914434628027,0,0,0,0,0
70.5280018270818,42.9581316883288,-90.3002241844529,51.9914434628026,-74.269168676792,42.5313968383502,95.8054490384851,-51.9914434628026,0,0,0,0,0
70.3446293090149,43.2481852328866,-90.3114916021271,51.9914434628026,-74.101868824535,42.7875643557801,95.7955139091852,-51.9914434628027,0,0,0,0,0
70.4006282685995,43.6698349326148,-90.4818885942232,51.9914434628026,-74.0885457814492,43.1584023853762,95.8909113151176,-51.9914434628026,0,0,0,0,0
70.2475207001757,44.1408495332384,-90.573228140156,51.9914434628027,-73.9932400147622,43.5123384871315,95.9443480950076,-51.9914434628026,0,0,0,0,0
70.2360222822881,44.534161056524,-90.7044366164505,51.9914434628027,-73.941926666017,43.9081705318063,96.0309689700239,-51.9914434628027,0,0,0,0,0
68.5310353077859,45.2529926475317,-87.625745741102,51.9914434628026,-72.1905784256431,44.5405910769264,92.8678101437062,-51.9914434628027,0,0,0,0,0
68.5242954770501,45.6959863807525,-87.7920756405636,51.9914434628027,-72.1148798680231,45.027648012272,92.9872472737089,-51.9914434628027,0,0,0,0,0
68.2954261265068,46.1348822766263,-87.8628075428679,51.9914434628026,-71.7873338887561,45.4165902756677,92.9689168311612,-51.9914434628027,0,0,0,0,0
68.1007011426877,46.7413177778872,-88.0180304794269,51.9914434628026,-71.6059254657286,46.013097740268,93.0851751804331,-51.9914434628026,0,0,0,0,0
67.6164701887684,47.3497518724903,-87.6787022577522,51.9914434628027,-71.2128319792653,46.6744228814937,93.1409075672732,-51.9914434628026,0,0,0,0,0
66.2904993839022,47.8515188235065,-84.6098218450397,51.9914434628026,-69.9613646749035,47.0136814792746,90.1770228552023,-51.9914434628026,0,0,0,0,0
66.1087826154873,48.4483016331553,-84.6409196391301,51.9914434628026,-69.8027182859339,47.5702307993715,90.3153257962683,-51.9914434628026,0,0,0,0,0
65.8710740786482,49.1224218590302,-84.6753637338082,51.9914434628026,-69.6689559887042,48.2235611240636,90.7671730649535,-51.9914434628026,0,0,0,0,0
65.6874545648265,49.7540012059445,-84.7070030370572,51.9914434628026,-68.0744330519063,48.9767181146336,87.7150330750004,-51.9914434628026,0,0,0,0,0
65.7503319812726,50.1864643356875,-84.7283284073092,51.9914434628027,-67.9816890416804,49.5268755475951,87.7269125827457,-51.9914434628027,0,0,0,0,0
64.1210918045718,51.1365210512976,-81.7868470545184,51.9914434628026,-67.4635742576108,50.3769255956053,87.7448903826158,-51.9914434628026,0,0,0,0,0
64.0153373147408,51.6920867452173,-81.8281422206607,51.9914434628027,-67.262867871082,50.9896545538264,87.7575770410685,-51.9914434628027,0,0,0,0,0
63.8592393309193,52.27327459367,-81.8706691732305,51.9914434628027,-65.7905390782759,51.6977323548154,84.8008027785814,-51.9914434628027,0,0,0,0,0
63.7198839253969,52.9247793958912,-81.9175539346119,51.9914434628027,-65.5778781135586,52.3839270895277,84.8327157382659,-51.9914434628026,0,0,0,0,0
63.4585136227217,53.5268392732413,-81.9601683819671,51.9914434628027,-65.2756734134467,52.9778006515217,84.8598627408297,-51.9914434628027,0,0,0,0,0
63.332629650485,53.8889479946697,-81.9854803638646,51.9914434628026,-65.1632899684226,53.3489698390438,84.8766145514145,-51.9914434628026,0,0,0,0,0
62.2518329208948,54.4676507271932,-79.1229841918482,51.9914434628027,-65.1793858497803,53.7596075694256,84.8949604499093,-51.9914434628026,0,0,0,0,0
62.1581291582714,54.9109058461932,-79.1641777727286,51.9914434628026,-63.915368604449,54.2613156169337,82.0112668302368,-51.9914434628027,0,0,0,0,0
62.0520423339734,55.4024805169395,-79.2093401019788,51.9914434628026,-63.8407658893954,54.7398669088671,82.0440542180101,-51.9914434628026,0,0,0,0,0
61.9391149074824,55.6985242799208,-79.2362803276663,51.9914434628026,-63.7384150640736,55.0518827031441,82.0652232722193,-51.9914434628027,0,0,0,0,0
60.6796353608254,56.2240845455928,-76.4214720491405,51.9914434628026,-63.6913859538696,55.383941036201,82.0875756192806,-51.9914434628026,0,0,0,0,0
60.7402430187333,56.5928923801618,-76.4630941068087,51.9914434628027,-63.7494275119202,55.7101859937107,82.1093628801793,-51.9914434628026,0,0,0,0,0
60.5276661509204,57.0742347222545,-76.5168858327207,51.9914434628027,-62.4934757792626,56.3866903421152,79.2981764980429,-51.9914434628026,0,0,0,0,0
60.3916515470353,57.611091735621,-76.57619261884,51.9914434628026,-62.4023080306573,56.8829621827317,79.3422004181156,-51.9914434628026,0,0,0,0,0
59.2320296893111,58.2502256975014,-73.8275895364989,51.9914434628026,-62.261798488174,57.3297284811174,79.381408030608,-51.9914434628027,0,0,0,0,0
59.2079136131929,58.5058370913581,-73.8609609145992,51.9914434628026,-62.2213814641367,57.6804313563706,79.4119106446937,-51.9914434628026,0,0,0,0,0
58.9889357231555,58.9929218569441,-73.9240479483295,51.9914434628027,-60.915745755222,58.3898576473554,76.6609781712728,-51.9914434628026,0,0,0,0,0
58.9668941379225,59.3207197385407,-73.9661397659315,51.9914434628026,-60.8077673191112,58.8488598819415,76.7102845576094,-51.9914434628026,0,0,0,0,0
58.9409287819282,59.7013375060431,-74.0146549990697,51.9914434628026,-60.7283333518745,59.3006324572819,76.7583482690881,-51.9914434628027,0,0,0,0,0
58.855737248138,60.0746572558698,-74.0618732918897,51.9914434628026,-60.6399600322144,59.734752628426,76.8041100338747,-51.9914434628027,0,0,0,0,0
57.8651178826723,60.7804858382839,-71.3836474351975,51.9914434628026,-60.5769276696402,60.1881727560594,76.8514745149774,-51.9914434628026,0,0,0,0,0
57.8401697924942,61.2877667892533,-71.4571549418829,51.9914434628027,-60.5929495867201,60.6397778257298,76.8982226142056,-51.9914434628026,0,0,0,0,0
58.0548643023364,61.6692542506289,-71.5119619916713,51.9914434628026,-59.7251410152779,61.2409569994191,74.2071387413109,-51.9914434628027,0,0,0,0,0
58.2683788423875,62.1302266564913,-71.5776619628106,51.9914434628027,-59.8585765438473,61.632355550933,74.2551534900033,-51.9914434628026,0,0,0,0,0
57.2894576790519,62.9446852259074,-68.9663272713158,51.9914434628027,-59.9636771654817,62.1354844249466,74.3163545018863,-51.9914434628027,0,0,0,0,0
57.146805272496,63.5364418523168,-69.0606362707112,51.9914434628026,-58.8273574320335,62.9617078512065,71.6947604961516,-51.9914434628027,0,0,0,0,0
57.2423625465235,63.9770041079565,-69.1302144771286,51.9914434628026,-58.8837630726225,63.3846855494045,71.7536575902865,-51.9914434628027,0,0,0,0,0
57.1530168270896,64.5426727199587,-69.2187820108792,51.9914434628026,-58.7664769310055,63.9844964997749,71.836430279286,-51.9914434628027,0,0,0,0,0
57.2925543085769,65.0103374253818,-69.2913717427699,51.9914434628026,-58.9895148583927,64.3596539304685,71.8877682277973,-51.9914434628027,0,0,0,0,0
56.4247129370537,65.9369304921949,-66.7611996077497,51.9914434628027,-59.0591016127367,64.9118680594275,71.9627477578875,-51.9914434628027,0,0,0,0,0
56.4000478530333,66.5254517148283,-66.8617126641742,51.9914434628027,-58.1464146122033,65.8410453618424,69.4189523165592,-51.9914434628026,0,0,0,0,0
56.4220008839199,67.2265604507804,-66.9802778021438,51.9914434628026,-57.9889258699675,66.518139965388,69.5217055476615,-51.9914434628027,0,0,0,0,0
55.3008332990361,68.2897846310163,-64.5231451611416,51.9914434628027,-56.8565340859626,67.5222895305081,67.0299178707111,-51.9914434628026,0,0,0,0,0
55.3021408460577,68.8202096569845,-64.6204192846088,51.9914434628026,-56.7672437848749,68.1470697909703,67.1340922905223,-51.9914434628026,0,0,0,0,0
55.0683246286455,69.4449959711591,-64.7340952457148,51.9914434628027,-56.5158219513257,68.714560610403,67.2279178854006,-51.9914434628026,0,0,0,0,0
54.7895516704141,69.9110738089104,-64.818281438377,51.9914434628027,-56.2618524726316,69.248062682597,67.3154579486235,-51.9914434628027,0,0,0,0,0
53.7308979258341,70.7183171148016,-62.3645822598103,51.9914434628026,-56.0003141344974,69.7251681639325,67.3932160276944,-51.9914434628027,0,0,0,0,0
53.4838992449792,71.1022428790437,-62.4396077148033,51.9914434628026,-54.8471971415231,70.4438304373753,64.913892081661,-51.9914434628027,0,0,0,0,0
53.1568847083419,71.5766377916766,-62.5318309548451,51.9914434628027,-54.4788134348529,70.8969667478312,64.99471038265,-51.9914434628027,0,0,0,0,0
53.1524147146733,71.6897790022295,-62.5537489800805,51.9914434628026,-54.5777385794681,70.9654688307348,65.006888642111,-51.9914434628027,0,0,0,0,0
53.0224855720931,72.0154062525635,-62.6166687415865,51.9914434628026,-54.4983595881358,71.2419228742183,65.0559334871984,-51.9914434628027,0,0,0,0,0
52.9723384481903,72.1515347755239,-62.6429022016363,51.9914434628027,-54.4554982243139,71.376047843819,65.0796693593816,-51.9914434628026,0,0,0,0,0
52.8337452007353,72.2627890371211,-62.6643118161078,51.9914434628027,-54.3021405767441,71.4847420438299,65.0988769384265,-51.9914434628026,0,0,0,0,0
51.8256343786622,72.8185747281917,-60.2005014346974,51.9914434628026,-54.1201998718408,71.5854535597071,65.1166518024767,-51.9914434628026,0,0,0,0,0
51.8931443532386,72.7610294848226,-60.1885214532215,51.9914434628026,-54.1732910042558,71.5265734842457,65.1062624586762,-51.9914434628027,0,0,0,0,0
51.9385320663393,72.6977061040523,-60.1753297536395,51.9914434628027,-54.1282750191807,71.4580984397375,65.0941709869195,-51.9914434628027,0,0,0,0,0
51.8882440194716,72.6851032272002,-60.1727031836483,51.9914434628027,-54.1324926982957,71.4540520579925,65.0934561608027,-51.9914434628027,0,0,0,0,0
51.8764266447514,72.6248951321882,-60.1601501176631,51.9914434628026,-54.0438342761308,71.4190544977815,65.0872721239236,-51.9914434628027,0,0,0,0,0
51.9235903382912,72.4675614572027,-60.1273070369017,51.9914434628026,-53.2582733622402,71.6898980321153,62.5537720235071,-51.9914434628027,0,0,0,0,0
51.9979955229382,72.2320825922349,-60.0780424271137,51.9914434628026,-54.2818958341885,71.0945336717484,65.0298060812826,-51.9914434628027,0,0,0,0,0
51.9776021450987,72.0968807677359,-60.0496970647396,51.9914434628026,-54.2414165998211,70.9681249647098,65.0073606426181,-51.9914434628027,0,0,0,0,0
52.8659493480198,71.4677502320309,-62.51070925321,51.9914434628027,-54.2388057064438,70.8994332783439,64.9951490582668,-51.9914434628027,0,0,0,0,0
53.0161395590073,71.3486521727788,-62.4875755822883,51.9914434628027,-54.3082330200171,70.8514906352023,64.986620018257,-51.9914434628027,0,0,0,0,0
53.2186655501223,71.2560293791264,-62.4695616586071,51.9914434628026,-54.4428870112222,70.7943347661821,64.9764453657714,-51.9914434628027,0,0,0,0,0
53.2162564823191,71.1561434033839,-62.4501125994241,51.9914434628026,-54.4106445782562,70.7187027190167,64.9629706282663,-51.9914434628027,0,0,0,0,0
53.1590304731861,70.9818084692774,-62.4161108690374,51.9914434628027,-54.3401184419879,70.596996051946,64.9412606198692,-51.9914434628027,0,0,0,0,0
53.2125987254983,70.7984543187429,-62.3802716980947,51.9914434628026,-54.3747948939991,70.4705817343607,64.9186759493898,-51.9914434628027,0,0,0,0,0
53.2387944803773,70.6952822128885,-62.3600695488063,51.9914434628027,-54.4618357952024,70.3205904446121,64.8918325467924,-51.9914434628026,0,0,0,0,0
53.1363009540218,70.6463475771758,-62.3504785912376,51.9914434628027,-54.3360061071276,70.3044889918392,64.8889479038316,-51.9914434628026,0,0,0,0,0
52.9649362145195,70.5441777041491,-62.3304348827745,51.9914434628027,-54.195017344106,70.1659593949301,64.864105356733,-51.9914434628026,0,0,0,0,0
53.062309402447,70.173099303499,-62.2574191246032,51.9914434628027,-54.2997942220369,69.9023820954592,64.816716165769,-51.9914434628026,0,0,0,0,0
53.1222797116303,69.9066329721581,-62.2047735270355,51.9914434628027,-54.3791409278875,69.6432982720565,64.7699769095694,-51.9914434628027,0,0,0,0,0
53.1233844929326,69.7213292930589,-62.1680557730662,51.9914434628026,-54.3309871412073,69.3743480383438,64.7212891173786,-51.9914434628026,0,0,0,0,0
52.9985222925125,69.32864088604,-62.0899481405203,51.9914434628027,-54.3504929629014,68.980357613487,64.6496488907768,-51.9914434628025,0,0,0,0,0
52.9606769140377,68.9287241978867,-62.0099791747169,51.9914434628026,-54.3660151966559,68.5142292654627,64.5643935211448,-51.9914434628027,0,0,0,0,0
53.0377441350702,68.4253085346186,-61.9086887884025,51.9914434628027,-54.5447532362901,67.9608600284246,64.4624587410004,-51.9914434628027,0,0,0,0,0
53.1394490192781,67.9071250577179,-61.8036760635859,51.9914434628026,-54.7223113991422,67.3241892618853,64.3441727586391,-51.9914434628026,0,0,0,0,0
53.1820281185527,67.1812328209974,-61.6552394676339,51.9914434628026,-55.7731052510918,66.1860864882885,66.8038652200408,-51.9914434628026,0,0,0,0,0
53.0855427186237,66.574945403858,-61.5300224372597,51.9914434628027,-55.6000052454927,65.5881972619128,66.7011995009919,-51.9914434628027,0,0,0,0,0
52.949542235263,65.9833638552905,-61.4067108843094,51.9914434628027,-55.6271273207396,64.9297678577201,66.5869921559789,-51.9914434628027,0,0,0,0,0
52.7578608883756,65.1815641348358,-61.2377194565734,51.9914434628025,-55.4252132969438,64.1348492940313,66.4474397532368,-51.9914434628026,0,0,0,0,0
53.8201984727094,63.9722150081864,-63.7018269165545,51.9914434628027,-55.5785176146694,63.3456176313593,66.3069921575441,-51.9914434628026,0,0,0,0,0
53.8341065979542,63.2046585470004,-63.5496209274934,51.9914434628027,-56.6044546694704,62.2390856988553,68.8525510702672,-51.9914434628027,0,0,0,0,0
53.5252779728972,62.5032887393518,-63.4087000619452,51.9914434628027,-56.3208099873399,61.5477855724241,68.7396261696467,-51.9914434628027,0,0,0,0,0
53.269415506907,61.8996947617944,-63.2859571001559,51.9914434628027,-56.0234328344828,60.9460979037392,68.640119253119,-51.9914434628026,0,0,0,0,0
53.2027583378753,61.3019111440603,-63.1630047061618,51.9914434628026,-55.9835293780071,60.2427288438846,68.5222968067726,-51.9914434628027,0,0,0,0,0
53.2214878268832,60.7766517432673,-63.0537856290735,51.9914434628027,-56.0471029567083,59.6557273289957,68.4226814907049,-51.9914434628026,0,0,0,0,0
53.2939013294733,60.2827016355055,-62.9500329202998,51.9914434628027,-56.0647194688832,59.0796494483058,68.3237386703921,-51.9914434628027,0,0,0,0,0
54.1573673423706,59.3953016971963,-65.5721968761382,51.9914434628027,-57.05242468158,58.2370493272351,71.0034931290347,-51.9914434628027,0,0,0,0,0
54.2637133467942,58.6713314557832,-65.4311042099202,51.9914434628026,-57.2016777732704,57.4793968472982,70.886211821145,-51.9914434628027,0,0,0,0,0
54.4518600802382,58.0104624433222,-65.3003749639821,51.9914434628027,-57.3011661096653,56.845541590161,70.7865520267427,-51.9914434628027,0,0,0,0,0
54.5366973126368,57.1675329684285,-65.1308279193788,51.9914434628026,-57.4478095655656,55.9952287480918,70.650549699147,-51.9914434628026,0,0,0,0,0
55.7330421287817,56.0123672904343,-67.7754287964125,51.9914434628027,-57.5493179757862,55.2935211913828,70.5362316728214,-51.9914434628026,0,0,0,0,0
55.9024687499038,55.1764138307177,-67.619114205772,51.9914434628027,-58.8889126669036,54.196556084903,73.2714602858342,-51.9914434628026,0,0,0,0,0
56.0476637711433,54.2918829166498,-67.4501795373901,51.9914434628027,-59.1251171458285,53.3244086405782,73.1444489373944,-51.9914434628026,0,0,0,0,0
56.22985412865,53.4947917384167,-67.2946625911086,51.9914434628027,-59.3712563545464,52.5403082875167,73.027760490163,-51.9914434628027,0,0,0,0,0
56.5149140037839,52.6463995400424,-67.1255323831648,51.9914434628026,-60.8568252212253,51.4252781119498,75.8436945516547,-51.9914434628026,0,0,0,0,0
57.7859944809292,51.546171983328,-69.890069067993,51.9914434628026,-61.165553589503,50.5917783015303,75.7355717566945,-51.9914434628026,0,0,0,0,0
58.1144044857679,50.8745503033255,-69.7671912600146,51.9914434628027,-61.5187907258787,49.8977442334244,75.6435401825777,-51.9914434628026,0,0,0,0,0
58.3277469950544,50.3394966056843,-69.6675938384609,51.9914434628027,-61.8732521796586,49.346884522414,75.5691407600077,-51.9914434628027,0,0,0,0,0
58.554235536396,49.7427110787647,-69.5546499934751,51.9914434628026,-62.0799779268383,48.7605051669461,75.4885745072222,-51.9914434628027,0,0,0,0,0
58.6975215498604,49.1639546905035,-69.443178484709,51.9914434628026,-63.5971589723874,47.9535019222706,78.4571517397001,-51.9914434628027,0,0,0,0,0
58.7408237001799,48.6697670325464,-69.3464272309316,51.9914434628027,-63.677674516699,47.3697340793038,78.3909898058547,-51.9914434628027,0,0,0,0,0
60.1272686651037,47.8680934696584,-72.2761690146595,51.9914434628027,-63.2270577692151,47.0645144980761,76.9547168257599,-51.9914434628026,0,0,0,0,0
60.4376830191036,47.1175413577874,-72.1451518752027,51.9914434628027,-64.786797336406,46.1755804489514,79.8485444177546,-51.9914434628026,0,0,0,0,0
60.4746273502601,46.7385807611391,-71.5888411298177,51.9914434628026,-64.9739218705162,45.7924568598785,79.7582148448593,-51.9914434628026,0,0,0,0,0
60.5427958446377,45.9847274891342,-71.2177860637098,51.9914434628027,-64.9917733492328,45.1525820250791,79.479880287014,-51.9914434628027,0,0,0,0,0
61.8117003634235,44.9306833038414,-73.932370316422,51.9914434628027,-65.0460759662838,44.4076985161216,79.1744333691219,-51.9914434628026,0,0,0,0,0
62.0555675946914,43.9306683089491,-73.5533131649598,51.9914434628027,-66.6652311678282,43.2836257596224,82.0870354371558,-51.9914434628026,0,0,0,0,0
62.1940491478166,43.1686489329904,-73.24981042282,51.9914434628026,-66.7865439787405,42.5934623139067,81.866620107187,-51.9914434628027,0,0,0,0,0
63.8583517377852,41.9972304340257,-76.1959793550071,51.9914434628026,-67.2417343680243,41.6918930891482,81.7370993459382,-51.9914434628027,0,0,0,0,0
63.6901867233489,41.4339370273244,-75.8538928314493,51.9914434628026,-67.108343261336,41.0519845122698,81.4182983132497,-51.9914434628026,0,0,0,0,0
63.8913545592012,40.7223347077662,-75.6429767545885,51.9914434628027,-67.4057269382376,40.2997424570608,81.2838393122623,-51.9914434628026,0,0,0,0,0
64.0191727679143,39.9737905675354,-75.3827507878733,51.9914434628026,-69.0397455805618,39.4346917563298,84.4477851987159,-51.9914434628026,0,0,0,0,0
64.2532233042179,39.2507368268808,-75.1993762854115,51.9914434628027,-69.4885074138792,38.7181852446649,84.44469821362,-51.9914434628026,0,0,0,0,0
64.4298181838613,38.5696610476249,-75.0088828776614,51.9914434628027,-69.6868414205888,38.0866152745775,84.3413171048568,-51.9914434628026,0,0,0,0,0
65.9200098158886,37.8025780248128,-78.1787240026566,51.9914434628026,-69.4839824309155,37.5689668937292,84.0527562575191,-51.9914434628026,0,0,0,0,0
66.135895186845,37.1334115113974,-78.042171675403,51.9914434628027,-69.7288813196873,36.921179551436,83.9774733793117,-51.9914434628027,0,0,0,0,0
66.0141076788803,36.5604137958025,-77.7472705876049,51.9914434628027,-71.1751794909438,36.3488498077144,87.2324136620967,-51.9914434628026,0,0,0,0,0
65.9569133677348,35.9600165301036,-77.4803957283718,51.9914434628027,-71.1722231147004,35.7844930733758,87.0595405576237,-51.9914434628027,0,0,0,0,0
66.0456443648513,35.1923613458706,-77.2405204331739,51.9914434628027,-71.3713611596806,35.0598500392752,86.9619595787663,-51.9914434628026,0,0,0,0,0
68.1955003933182,34.0269896599088,-80.7749979582458,51.9914434628026,-71.7022681735897,34.1106365694656,86.8870056121849,-51.9914434628027,0,0,0,0,0
68.6389098814317,33.0936287132628,-80.7427046059603,51.9914434628026,-73.8869514883444,33.2394333130854,90.5991861454542,-51.9914434628027,0,0,0,0,0
68.7145845316071,32.4220857758667,-80.5706853427527,51.9914434628027,-73.9988155429881,32.5859659670979,90.5074424000379,-51.9914434628027,0,0,0,0,0
69.1048551237078,31.6122808095969,-80.5661117673768,51.9914434628026,-74.3949141099742,31.8529035403272,90.5839370016479,-51.9914434628027,0,0,0,0,0
70.9495783096823,30.6685688362561,-84.1155634702441,51.9914434628027,-74.5209262138205,31.1399142756483,90.4976369708132,-51.9914434628026,0,0,0,0,0
71.2336426784778,29.8343218688948,-84.0723310739837,51.9914434628026,-76.7725312497775,30.3695311821228,94.4009850572234,-51.9914434628027,0,0,0,0,0
71.187748218911,28.9585448788517,-83.7980189074942,51.9914434628026,-77.1484386321347,29.6703727169848,94.5173911465955,-51.9914434628027,0,0,0,0,0
71.4075322052061,28.1007659538834,-83.7184586386642,51.9914434628026,-77.7391308581156,28.8922170325578,94.7753732747632,-51.9914434628027,0,0,0,0,0
71.6250798660735,27.4754596057434,-83.7065852677452,51.9914434628027,-78.4713748673405,28.4337883514449,95.1996936263552,-51.9914434628026,0,0,0,0,0
71.8096016551493,26.6131323837798,-83.6149641839564,51.9914434628027,-80.8707332197501,27.822492544812,99.352968369998,-51.9914434628027,0,0,0,0,0
73.9340452240377,25.6874900216345,-87.5425597568588,51.9914434628027,-81.5033097058294,27.0630317447707,99.7021697163817,-51.9914434628027,0,0,0,0,0
74.2451375934519,24.8428293048245,-87.5865613486365,51.9914434628026,-82.2257295457974,26.3280303740711,100.132821259624,-51.9914434628026,0,0,0,0,0
74.0575786766831,23.9074475765322,-87.2429174477065,51.9914434628027,-82.3867025110604,25.4328798332598,100.152969685834,-51.9914434628027,0,0,0,0,0
74.4568002691783,22.8406336664312,-87.3227460541738,51.9914434628026,-83.1282335193004,24.5124212498035,100.607091558732,-51.9914434628027,0,0,0,0,0
74.3546408380905,21.9534223593554,-87.0605843900048,51.9914434628026,-85.8794032010527,23.928485952883,105,-51.9914434628027,0,0,0,0,0
76.9664030514715,20.8806081887901,-91.5147290598541,51.9914434628027,-86.4483858263568,23.0507056230609,105,-51.9914434628027,0,0,0,0,0
77.1926180528096,19.8909935264197,-91.532829446723,51.9914434628027,-87.1208244017233,22.3105154907219,105,-51.9914434628027,0,0,0,0,0
77.205937681648,18.854049107715,-91.3777904986001,51.9914434628026,-90.2523802902792,21.8139967956338,105,-51.9914434628026,0,0,0,0,0
77.2421921506038,17.8269708134402,-91.2470786700914,51.9914434628026,-90.8393771872564,21.0461865288387,105,-51.9914434628026,0,0,0,0,0
80.6278751420065,16.9129288395346,-96.5450859304562,51.9914434628027,-91.5667559767374,20.2394732301467,105,-51.9914434628027,0,0,0,0,0
80.9290493439077,16.0511517939691,-96.706001949058,51.9914434628027,-92.195289353003,19.5589563880474,105,-51.9914434628027,0,0,0,0,0
81.4753192799473,15.2832506238997,-97.0943864919934,51.9914434628026,-92.8121036559508,18.9610464172753,105,-51.9914434628026,0,0,0,0,0
81.9241720327158,14.2784375987194,-97.387462529686,51.9914434628026,-96.016155919538,18.4917767014733,105,-51.9914434628028,0,0,0,0,0
82.1380674668604,13.5745588978518,-97.5118024493317,51.9914434628026,-96.4686986931135,17.9988083411277,105,-51.9914434628026,0,0,0,0,0
87.1581639124206,12.9786624109348,-104.48454984432,51.9914434628027,-97.3796623890245,17.2869702379525,105,-51.9914434628026,0,0,0,0,0
87.5827206480715,12.2282108236844,-104.840017261593,51.9914434628027,-97.9283485962866,16.5549096162187,105,-51.9914434628026,0,0,0,0,0
88.7954712054371,11.5174111152428,-105,51.9914434628026,-98.7228934390692,15.9017954300938,105,-51.9914434628027,0,0,0,0,0
90.3417412946299,10.5950727130135,-105,51.9914434628026,-99.888837109597,15.1706983652149,105,-51.9914434628027,0,0,0,0,0
92.18564419531,9.819644532002,-105,51.9914434628026,-103.836257638653,14.9856555958128,105,-51.9914434628027,0,0,0,0,0
100.119746443001,9.35577671491144,-105,51.9914434628026,-105.798580865602,14.1391146990946,105,-51.9914434628026,0,0,0,0,0
103.207938542977,8.44210721631855,-105,51.9914434628026,-107.43895620102,13.2767427436321,105,-51.9914434628026,0,0,0,0,0
106.308116911016,7.54891327794586,-105,51.9914434628027,-109.208937643996,12.3009183288756,105,-51.9914434628027,0,0,0,0,0
110.657453591691,6.89575841560035,-105,51.9914434628027,-114.288106761141,12.3191142064819,105,-51.9914434628026,0,0,0,0,0
120,6.83222858364159,-105,51.9914434628027,-117.45903234296,11.5912629639527,105,-51.9914434628027,0,0,0,0,0
120,6.21909974340327,-105,51.9914434628026,-120,10.9320787688518,105,-51.9914434628027,0,0,0,0,0
120,5.75874809476014,-105,51.9914434628026,-120,10.2792452124138,105,-51.9914434628027,0,0,0,0,0
120,5.38299144779884,-105,51.9914434628026,-120,9.7962264348509,105,-51.9914434628026,0,0,0,0,0
120,5.11144311832093,-105,51.9914434628026,-120,9.39803959029943,105,-51.9914434628027,0,0,0,0,0
120,5.11583742822615,-105,51.9914434628027,-120,10.0275386820097,105,-51.9914434628027,0,0,0,0,0
120,6.11210456900134,105,51.9914434628027,-120,9.83550191355746,105,-51.9914434628026,0,0,0,0,0
120,6.12973876538165,105,51.9914434628027,-120,9.60481224412646,105,-51.9914434628027,0,0,0,0,0
120,6.21809548639616,105,51.9914434628026,-120,9.53062651434742,105,-51.9914434628026,0,0,0,0,0
-155,5.4897900231194,105,51.9914434628026,-120,9.45244262110405,105,-51.9914434628027,0,0,0,0,0
-155,6.49869039358166,105,51.9914434628026,-120,9.32198179392462,-105,-51.9914434628027,0,0,0,0,0
-155,6.6847667445622,105,51.9914434628025,-120,9.26525260093223,-105,-51.9914434628027,0,0,0,0,0
-155,6.81403517773666,105,51.9914434628026,-120,9.22779957715993,-105,-51.9914434628026,0,0,0,0,0
-155,6.85895892861519,105,51.9914434628025,-120,9.17321474303215,-105,-51.9914434628026,0,0,0,0,0
-155,7.1365697950345,105,51.9914434628026,-120,9.19541409613626,-105,-51.9914434628026,0,0,0,0,0
-155,7.4845743564571,105,51.9914434628026,-120,10.1098541095381,-105,-51.9914434628026,0,0,0,0,0
-154.944376531677,7.94773504477697,105,51.9914434628026,-120,10.1453527439354,-105,-51.9914434628026,0,0,0,0,0
-150.913327668217,8.43353636488085,105,51.9914434628026,-120,10.2604247455579,-105,-51.9914434628026,0,0,0,0,0
-147.177389994818,8.57478104271548,105,51.9914434628026,-120,10.2432937099862,-105,-51.9914434628025,0,0,0,0,0
-148.210339768211,9.4418841775373,105,51.9914434628026,155,10.3103722685127,-105,-51.9914434628026,0,0,0,0,0
-145.088601002046,10.0632865943902,105,51.9914434628027,155,10.5227602065779,-105,-51.9914434628026,0,0,0,0,0
-142.072779227738,10.6109040188272,105,51.9914434628026,155,10.7272831289479,-105,-51.9914434628026,0,0,0,0,0
-139.368300523934,10.8227585737487,105,51.9914434628026,155,11.2791898722951,-105,-51.9914434628026,0,0,0,0,0
-140.05469063843,11.6034929624659,105,51.9914434628025,155,11.4198855561874,-105,-51.9914434628026,0,0,0,0,0
-137.79446106479,11.9025830436369,105,51.9914434628026,155,11.5174973183697,-105,-51.9914434628027,0,0,0,0,0
-135.395077029364,12.0591968047589,105,51.9914434628027,155,11.5815517694464,-105,-51.9914434628027,0,0,0,0,0
-138.667776741248,12.4234050559226,105,51.9914434628026,155,11.6366427621458,-105,-51.9914434628026,0,0,0,0,0
-137.502039685603,12.5563986168607,105,51.9914434628026,155,11.6723750364257,-105,-51.9914434628026,0,0,0,0,0
-135.867837380935,13.0652830886186,105,51.9914434628026,154.096154719653,12.0596651757426,-105,-51.9914434628026,0,0,0,0,0
-134.665184224163,13.1811228599176,104.932501437423,51.9914434628026,152.31489661711,12.1283891805233,-105,-51.9914434628026,0,0,0,0,0
-133.48537579951,13.8944940085051,103.775138754967,51.9914434628026,149.847197917112,12.7208432013014,-105,-51.9914434628026,0,0,0,0,0
-132.061093428266,14.3544364144786,102.3153554204,51.9914434628026,151.169521565741,13.4781868109245,-105,-51.9914434628026,0,0,0,0,0
-130.226253817487,14.8903202156387,100.417792835371,51.9914434628026,148.24218638289,13.8068178866262,-105,-51.9914434628027,0,0,0,0,0
-131.866149286937,15.3283372241416,99.6081742007839,51.9914434628026,145.831433594066,14.0736106812192,-105,-51.9914434628026,0,0,0,0,0
-129.425133787357,15.6809500020826,97.0339990723269,51.9914434628027,145.982538927233,14.530481220357,-105,-51.9914434628026,0,0,0,0,0
-130.13095294109,16.4068069636315,95.2494848961844,51.9914434628026,142.522696209773,15.1194823915442,-104.436988447632,-51.9914434628026,0,0,0,0,0
-128.010636469762,17.0436368196179,93.0252320854691,51.9914434628026,139.709424352891,15.5296256581216,-101.493996431387,-51.9914434628026,0,0,0,0,0
-129.397506867286,17.4776311860499,91.9423470847918,51.9914434628026,140.531299673192,16.0415466911385,-99.8317899047403,-51.9914434628026,0,0,0,0,0
-127.696330728107,17.9310623863608,90.1447707640066,51.9914434628026,138.329570637565,16.4283924106847,-97.5228387081702,-51.9914434628026,0,0,0,0,0
-125.905873648334,18.2223918119902,88.2404480623822,51.9914434628026,136.192345314574,16.4572257053786,-95.2469727275267,-51.9914434628026,0,0,0,0,0
-126.491240938424,18.613963942928,87.1333899726928,51.9914434628027,134.465502314769,16.7926014268604,-93.4316106971585,-51.9914434628026,0,0,0,0,0
-125.14358872773,18.6812820854986,85.6888548096891,51.9914434628026,133.225770632924,16.9390324445036,-92.1196467753558,-51.9914434628026,0,0,0,0,0
-124.349788021506,18.8322536825037,84.8300301485608,51.9914434628027,132.118725721223,16.9562909265493,-90.9407033789993,-51.9914434628027,0,0,0,0,0
-124.132706845995,18.9724150580774,84.5887311449431,51.9914434628026,131.733112410215,17.0948341983302,-90.5378290221138,-51.9914434628025,0,0,0,0,0
-124.090595310834,19.0482607270025,84.5388883990246,51.9914434628026,131.557899485724,17.026861583944,-90.3472123163883,-51.9914434628026,0,0,0,0,0
-124.032197633686,19.0618973004985,84.47542021919,51.9914434628027,131.547720563088,16.972693967803,-90.3332612942698,-51.9914434628027,0,0,0,0,0
-124.048895446212,19.0222853386667,84.4957820605056,51.9914434628027,131.766054324382,16.8743902438024,-90.5600980853141,-51.9914434628026,0,0,0,0,0
-124.187854803429,19.021657958394,84.6448109608787,51.9914434628026,131.734698123887,16.8138242748688,-90.5231020658481,-51.9914434628026,0,0,0,0,0
-124.026269003731,18.963266288744,84.4752085172596,51.9914434628026,131.661929814666,16.6721662537152,-90.4371091717938,-51.9914434628026,0,0,0,0,0
-124.016626071936,18.9039206801636,84.4686113819931,51.9914434628026,131.781433515294,16.4976538571008,-90.553498818033,-51.9914434628026,0,0,0,0,0
-123.977982093451,18.8353538281724,84.4315689943851,51.9914434628025,132.040069438796,16.3996210772421,-90.8223468534836,-51.9914434628026,0,0,0,0,0
-123.8666326486,18.8287029723265,84.3127065142754,51.9914434628027,132.018244046608,16.3034275084667,-90.7928952332057,-51.9914434628026,0,0,0,0,0
-120.769221343953,18.9196809801126,83.5819494633297,51.9914434628026,131.835324847349,16.236767805819,-90.5941153852029,-51.9914434628026,0,0,0,0,0
-123.545950044493,18.6815350076228,83.9789678268209,51.9914434628026,131.511354703986,16.0925442118055,-90.2405173236178,-51.9914434628025,0,0,0,0,0
-123.453633227809,18.6147082575473,83.8846803461046,51.9914434628027,131.631243485064,16.0540912283685,-90.3653158532162,-51.9914434628026,0,0,0,0,0
-120.42523864378,18.6589466702405,83.2319696687931,51.9914434628026,131.469590835199,15.9814056832695,-90.1888693125548,-51.9914434628026,0,0,0,0,0
-120.353630288743,18.5240559002307,83.1651652770155,51.9914434628026,131.593680744845,15.8412636968686,-90.3111925693388,-51.9914434628027,0,0,0,0,0
-119.988102720909,18.3965138823262,82.7840325739881,51.9914434628027,131.368755925325,15.7362433052646,-90.065439355899,-51.9914434628026,0,0,0,0,0
-122.677008865389,18.0906434856275,83.0923487450367,51.9914434628026,131.018023217007,15.5509167161976,-89.6809560473472,-51.9914434628026,0,0,0,0,0
-122.247411520125,18.0467000969648,82.6369335887338,51.9914434628026,130.863133422913,15.5202676479394,-89.5147241905696,-51.9914434628026,0,0,0,0,0
-118.93758126687,18.0064396651166,81.6938663737368,51.9914434628026,130.609064191131,15.395725713184,-89.2370925174984,-51.9914434628026,0,0,0,0,0
-121.639790640047,17.6956598416315,82.0173810429876,51.9914434628027,130.246724983551,15.3110813431593,-88.8476749667023,-51.9914434628026,0,0,0,0,0
-121.409571135833,17.5430164648349,81.7851673234164,51.9914434628026,130.032944852573,15.2727418562365,-88.6187961236118,-51.9914434628026,0,0,0,0,0
-117.965220733899,17.5759016760438,80.6959480350719,51.9914434628027,129.754810354525,15.2131755069999,-88.3204669118818,-51.9914434628026,0,0,0,0,0
-117.73817287079,17.4254702530163,80.4685094411975,51.9914434628026,127.69075674082,15.2078370002297,-87.3543625233088,-51.9914434628026,0,0,0,0,0
-117.451278068978,17.2305721675375,80.182341604658,51.9914434628026,127.37987580801,15.133100801345,-87.0330868398203,-51.9914434628026,0,0,0,0,0
-117.193833513872,17.0678412346674,79.9250527005457,51.9914434628026,127.126932921607,15.054674533081,-86.7733645184219,-51.9914434628026,0,0,0,0,0
-117.175033625234,16.9069458137402,79.9214361176334,51.9914434628026,127.213248329123,15.0111127238058,-86.8679944587154,-51.9914434628026,0,0,0,0,0
-117.087336539917,16.6916702724699,79.8506259416749,51.9914434628026,127.129355124769,14.9037434980669,-86.788984619306,-51.9914434628026,0,0,0,0,0
-116.811090081677,16.4600309336216,79.5824425195359,51.9914434628026,126.957414658277,14.7699665956248,-86.6198758886449,-51.9914434628026,0,0,0,0,0
-116.589530928549,16.1255598377816,79.3844505023114,51.9914434628026,126.761216145896,14.5361272270861,-86.4347583700313,-51.9914434628026,0,0,0,0,0
-116.52841839565,15.87319049749,79.3480203368024,51.9914434628026,126.475776419267,14.3840465371732,-86.1490480550017,-51.9914434628026,0,0,0,0,0
-116.24770748115,15.6298024690137,79.0796101162043,51.9914434628026,126.20368689378,14.2155135513881,-85.8794984630974,-51.9914434628026,0,0,0,0,0
-115.991294830536,15.3687283702263,78.8399751968595,51.9914434628026,125.899315153699,14.1310733181995,-85.5683606873755,-51.9914434628026,0,0,0,0,0
-115.756372729836,14.9976244432174,78.6374510000072,51.9914434628026,125.362652338595,13.8766265152322,-85.0312937903719,-51.9914434628026,0,0,0,0,0
-115.552877944134,14.7041284753727,78.4599461895234,51.9914434628026,124.836144377765,13.7056120598973,-84.4975924156912,-51.9914434628027,0,0,0,0,0
-114.970397911542,14.3400881294501,77.8955573523502,51.9914434628026,124.511188134635,13.4365469895932,-84.1866768953344,-51.9914434628027,0,0,0,0,0
-114.725664051835,14.0982349630063,77.6710797459118,51.9914434628026,123.910078345974,13.2269967481606,-83.5816258262138,-51.9914434628026,0,0,0,0,0
-114.903768303988,13.8184631825528,77.8945522978882,51.9914434628026,123.783362526391,13.0438150706325,-83.4704331720836,-51.9914434628027,0,0,0,0,0
