JMW9912/AVATAR/install/dynamixel_control/share/dynamixel_control/data/csv/.data/0708_1327_WMCA_Dance_SPE_wrist_Scale=Arm.mp4_motor_degree.csv
theta1,theta2,theta3,theta4,theta5,theta6,theta7,theta8,theta9,theta10,theta11,theta12,theta13,theta14,theta15,theta16,theta17,theta18,theta19,theta20,theta21,frame
0.0,0.0,0.0,0.0,0.0,0.0,0.0,0.0,0.0,0.0,0.0,0.0,0.0,0.0,0.0,0.0,0.0,0.0,0.0,0.0,0.0,0.0
9.649319727643547,14.872477575450356,44.48237426537669,128.74156541157006,139.51964638549958,0.0,10.658322827487925,-4.915882047481802,1.4514198988844094,-32.93928063313951,-48.61345470292434,-99.82027310439109,-136.03048391827696,0.0,-6.883663290660111,-7.608348953631543,-4.139992772558148,7.6767637577301615,-2.4052022056058338,0.0,0.0,0.0
-8.150268646648605,27.813110043715035,41.26016382163497,116.19716817173624,128.3014402090648,0.0,11.305249701153745,-3.0970341458455017,13.02342280131539,-40.611202137244604,-44.33591744844029,-97.31405158913732,-125.29228685562475,0.0,-7.966240318561009,-6.325367342973133,-4.246485876783475,8.930110898200201,-2.1265245378368927,0.0,0.0,1.0
-7.274589049933843,25.737415825597303,40.68546216983848,119.90308794591792,128.66325753269294,0.0,11.379612593510494,-2.8952221336265,13.468531112750929,-39.310270796858724,-43.04443627344811,-98.75477734166917,-123.48552908096612,0.0,-7.963145004460892,-6.281132255972137,-3.179002799707754,9.444620435259795,-2.2566627715187972,0.0,0.0,2.0
23.211250961152952,-9.218044285220408,37.01783425512226,-179.9686046967598,138.7562751087637,0.0,11.715707505344655,-0.33232497090237334,1.816070627383774,-19.714832607786278,-42.461572732445546,-127.36150265971438,-129.67128896242357,0.0,-8.437825842192591,-5.8216581505951694,-2.202894314789281,8.822300518402065,-2.4441157149322454,0.0,0.0,3.0
22.256122571092845,-7.042531878578647,30.65911089468582,178.98493241586482,146.12910847098712,0.0,11.682025903001081,-0.2917159636089375,-24.116948488810717,10.727136316712084,-37.367712131902415,179.01000643612315,-138.210726717472,0.0,-9.517596037461209,-3.887932452868266,-1.442970011955779,9.549432402681884,-2.686482736307858,0.0,0.0,4.0
23.48951789177429,-5.64012162823835,26.15728495240112,178.8877760499274,152.3993336902737,0.0,11.63666525628484,-0.49572727559150587,-23.53906409549362,7.618404470758712,-33.31000882723912,-179.7430367730769,-142.8301945416935,0.0,-9.46683125620086,-3.947990327651417,-1.4446573550377322,10.480202646285003,-2.7271785942499185,0.0,0.0,5.0
25.20618789611517,-5.922291858053455,24.61607940385761,178.057082115969,155.354678472085,0.0,11.622518072937227,-0.9587872992838214,-23.623064423845804,6.997917335282484,-32.17679744474168,-177.97134371543166,-144.7421013142742,0.0,-9.36234135152525,-4.193363675819407,-1.4704747642108276,11.387547625952957,-2.588486945130326,0.0,0.0,6.0
25.185404744551064,-5.178255854952856,25.288646491200026,179.45346745349804,153.79356742851482,0.0,11.60386633455037,-0.7011179979792632,-21.695058379891528,6.390580020640241,-32.83678938291488,-178.95448582859103,-142.30236688333054,0.0,-9.52951665681343,-3.77905906740876,-1.0292918185687656,11.504234069456212,-2.4619471689537535,0.0,0.0,7.0
23.694782203109153,-4.600827232947663,26.770375332232817,178.7973360598918,150.77467273908871,0.0,11.605249226727663,-0.5699344982695407,-20.047284841702503,5.912765379036679,-34.52572375534675,-178.9886630343269,-139.0384703097701,0.0,-9.622596037360449,-3.535538711481334,-0.19340513202879814,10.92116806722308,-2.1872819616173023,0.0,0.0,8.0
23.74231841846682,-4.584705651039866,27.399298340836758,-179.7974544287411,147.6298148510046,0.0,11.592737806883907,-0.4076109364123023,-19.821126779494243,6.025507570284642,-34.50595930610613,179.29380710233403,-137.0570865733598,0.0,-9.697524235332272,-3.307909600481193,1.1674858269626867,10.136477789874503,-1.9638044871919023,0.0,0.0,9.0
24.302568730070867,-4.093461458839757,28.345004683094338,178.79086388543573,144.85838893870786,0.0,11.586523349276181,-0.8327424807800493,-20.12939992164741,6.381995902760949,-34.2944325939083,-179.83787136992626,-135.6890989657615,0.0,-9.652582425900258,-3.497608543035399,2.1917542101667995,9.671170221553691,-1.7118763757454387,0.0,0.0,10.0
26.48411180456256,-4.809067145027984,29.868916472350666,-179.9794989041891,141.1843353508959,0.0,11.578042401790995,-1.1180246630332293,-20.713236942036293,5.804324799587376,-35.05364675501951,-178.41610306312927,-133.58531999741436,0.0,-9.547786233109496,-3.8027916897111154,2.7086443651745924,8.856724378975985,-1.589369728281162,0.0,0.0,11.0
26.964669614373157,-4.302896859929346,30.436968489212422,178.47056122183236,139.7521440248956,0.0,11.554748487393628,-1.5054767242511182,-22.73781813064477,6.248475227233633,-34.80559609085916,-178.7493835443361,-133.30723989546826,0.0,-9.435558031112574,-4.087494203481983,2.985213710378096,8.680634426185557,-1.485370514445888,0.0,0.0,12.0
28.76728908032462,-5.1255962339527965,30.616904699898413,179.86339314170374,139.14331893870687,0.0,11.545224939541546,-1.6314242641945194,-24.672724818805825,6.012821248089625,-34.76601277406958,-179.1381879170269,-133.7915965178467,0.0,-9.316332180862178,-4.34792025927044,2.810131387230324,8.441376169193898,-1.5152068907685716,0.0,0.0,13.0
28.968773589703286,-4.873179100314777,30.808115023337937,179.37071206742098,138.3085712378281,0.0,11.530155382229898,-1.7751138813698857,-26.58775836278746,6.548850155312677,-34.4371944066978,-179.78931249692286,-133.65923410932783,0.0,-9.215263501798193,-4.567152384638679,2.5433287284876718,8.499170316039473,-1.5947436871232523,0.0,0.0,14.0
27.21403361559134,-4.640395932157197,31.928405449891613,179.60573351979497,136.37547943436155,0.0,11.562615963570718,-1.4204040855921218,-26.592647298340367,6.786758980528677,-34.838446360892284,179.62332706439287,-132.84157039283554,0.0,-9.24907658576086,-4.497968496243922,2.2098003180892984,8.494244083227883,-1.6364483179051659,0.0,0.0,15.0
25.435203496813394,-4.479255492100855,33.226496622277296,-179.90299614954347,133.94790789834698,0.0,11.581404584055417,-1.0329697041477586,-14.175244274905658,-4.346114824577566,-36.02384345118434,-159.98158195868066,-130.71446409098144,0.0,-8.924903978790242,-5.125341722542363,1.8800627269864707,8.484153687196423,-1.6303585017000217,0.0,0.0,16.0
15.196738241965264,3.093958636856712,33.83487608954616,164.49983581303297,132.07843002041787,0.0,11.572773244999022,-1.5849338146899563,-8.19456142344813,-9.922433725104838,-35.89276917824647,-150.53021146383574,-128.70051867845385,0.0,-8.788408418654456,-5.3528008931040185,1.6526648837040023,8.515376335097862,-1.6112769188716445,0.0,0.0,17.0
-2.344616374026721,17.126725208932637,33.3714474425671,141.24333938682958,125.4650449623914,0.0,11.547474269496547,-1.916284201128104,2.4942814122017323,-17.038877987268123,-35.99766996706978,-139.51108467902398,-124.26664523283318,0.0,-8.992163673282747,-4.988539132094517,1.5809350976360819,9.7662787281866,-1.8378043085700608,0.0,0.0,18.0
-13.039645137025692,24.63900966475733,32.16485650235457,131.5607740563781,119.2878262202851,0.0,11.584216105874134,-1.4823067055547485,10.208291778175054,-22.32709206903276,-35.42944296589227,-133.67909393963052,-120.18187973255844,0.0,-9.240944154843755,-4.515701270417436,1.6734986554779954,10.764810321948445,-1.8538367304150125,0.0,0.0,19.0
-18.551406179522562,28.23004150330755,31.02693879369511,127.3982957665558,115.35325592721344,0.0,11.58617958175578,-1.229308982645692,14.44372974384156,-25.178888346828202,-34.68424886945541,-130.68502626255318,-117.4871529482936,0.0,-9.358551386178206,-4.26878173684572,1.299211407243883,11.307633324071716,-1.88831104360851,0.0,0.0,20.0
-18.449108199314903,26.212893321119736,31.90838536973333,130.21971557207146,116.09168792957004,0.0,11.602519882523021,-0.7598704988076563,13.542305976125242,-23.238245406528915,-35.32992564661414,-134.09064798905396,-118.68329271873499,0.0,-9.482942010823294,-3.990830997703902,1.3656217001568713,11.9410340377011,-2.0184084096027086,0.0,0.0,21.0
-17.599909286333176,24.35642250084703,32.28046357153711,133.47879679833113,117.06479030128283,0.0,11.581713525896213,-0.44749241365851566,12.509511001123832,-21.761859323394276,-35.51936243849717,-136.4718735084062,-119.51351412774255,0.0,-9.529837900953835,-3.8769104567866863,1.1977553366157916,12.44149624006832,-2.059456376633137,0.0,0.0,22.0
3.623201048906117,5.9953049113330605,35.6026982685948,164.10659238620198,128.08345261861942,0.0,11.499400125910034,0.5488721927782028,-11.163242253141641,1.217082326027762,-38.07261012320421,-172.303827865621,-129.84108029966998,0.0,-9.801018902187584,-3.0474770635991906,0.6761255538552975,11.689015390382538,-1.9988642195914261,0.0,0.0,23.0
16.87335290819477,-4.333901915349096,33.65637273160377,178.8279518544712,140.3110820899442,0.0,11.577998499770962,0.6859271198078114,-21.81142560488719,8.432293629215074,-36.442188850366186,179.95586393813971,-141.56778273343238,0.0,-9.604297321713908,-3.593477815314684,0.292860711394031,10.941840339543784,-1.9981464685220736,0.0,0.0,24.0
27.22009237548834,-9.084634867569234,30.883421770376724,178.29768402881186,156.8332169920629,0.0,11.652367227930895,-1.2073515554955325,-32.214083206699755,14.135646455470752,-33.7647550251052,-178.15008021208786,-156.570718575218,0.0,-8.751970852178342,-5.319104812012539,0.12515634315623472,10.297848606861612,-1.745708542986198,0.0,0.0,25.0
41.40779059268768,-15.980214859819364,28.78293969654277,169.95855014059165,167.10264360519108,0.0,10.372321302726338,-5.559257968678452,-42.820565438317445,19.87924618805899,-31.710677898061057,-168.89817686241474,-165.35932798032638,0.0,-6.594782304699159,-7.7917980679328975,0.5619751974998581,9.677536148321005,-1.4654387096562917,0.0,0.0,26.0
47.11725925266628,-18.412938010812702,27.751077210040197,158.86433081334917,170.1358987028277,0.0,8.371264947877044,-8.283019199658261,-46.71102390831214,21.338152534604045,-31.587750441742248,-163.29497770949774,-168.4713884405324,0.0,-5.337535057563675,-8.613721855550597,1.280721714184021,9.498014807671739,-1.3667132399325836,0.0,0.0,27.0
67.4698375945963,-28.180992773645382,19.39188645373745,120.69901840873652,172.343661998953,0.0,-2.7683305219283283,-11.438128934858769,-61.6740981862673,28.840647571153955,-26.38320243508151,-124.73871973847734,-172.67197701630565,0.0,3.345320610649633,-9.40376939959753,1.583614439129792,8.697940501126862,-0.9887663608009113,0.0,0.0,28.0
80.69400285797519,-33.56419487105533,14.40124425317316,97.60929103346429,170.17936381060187,0.0,-8.787913427232239,-7.845129347995187,-69.55602894952965,34.07675445475982,-21.629653251886115,-83.64596425795018,-169.6107977499844,0.0,9.058231681178308,-4.028803270272404,2.384877780066823,7.0061947988370425,-0.7014405223002045,0.0,0.0,29.0
88.20986723369376,-37.29321432407048,9.71628534152131,90.81525381780448,167.9211505916939,0.0,-10.347235571679306,-5.625299125143184,-75.28241851563988,37.660527640810535,-17.194388090262503,-70.76817130786652,-165.66528424707553,0.0,9.769714953767549,-1.2867752758246802,2.916156324645902,6.654945368695692,-0.535397058395976,0.0,0.0,30.0
84.50278092617772,-38.33242185940512,11.302852551319692,79.14409379331671,166.6210971041593,0.0,-11.082836720986746,-3.9670003885955722,-67.77867374801971,36.90522408392656,-21.592782622788047,-60.74774552661136,-164.06590262558936,0.0,9.815046488462686,-0.7185601463282381,2.997427968725074,7.37441334886379,-0.40296869533510576,0.0,0.0,31.0
78.88194805675599,-37.5402907382877,14.251960185808667,70.55729641416097,166.2658425889413,0.0,-11.33083036630283,-3.1764241849083623,-60.37859739620149,34.527082560695746,-25.782938379096027,-53.090139046081866,-163.26378053429215,0.0,9.821753921101585,-0.559012579816562,2.889473713118837,7.989152937973429,-0.486351782249318,0.0,0.0,32.0
53.18722244700493,-27.98530225659696,28.349133561385685,50.31612211424874,167.41490496329376,0.0,-11.134502530869206,-3.811097184935804,-36.31502177776977,21.535746845662207,-38.98510667899421,-38.990290135871064,-168.79843790222523,0.0,9.674630369048858,-2.1386153764263383,2.6070061972606307,10.279942888740406,-0.2852479093352728,0.0,0.0,33.0
31.615150886155295,-16.844140154341613,36.40216061125052,35.692461985275386,170.99766432834798,0.0,-10.549123121817864,-5.237258331051881,-20.14310489486469,12.359304201861784,-46.8335250237318,-57.63512421199386,-177.0162411090194,0.0,6.878733717724195,-7.311343532236591,1.9328151777528746,11.5693100272808,0.051366892623162415,0.0,0.0,34.0
22.456127505887423,-9.674011982925228,37.89698106492676,34.178916328384865,175.5614260142786,0.0,-9.494881932432683,-6.969737713378985,-18.887302779210394,12.319642308768062,-52.47600385583784,178.93228706704636,-168.77398796898328,0.0,-9.84858793887777,-1.829597382778851,1.4770224846435454,11.944704569338455,0.938283678609163,0.0,0.0,35.0
14.977539760915588,-6.348295123920958,36.38528879719844,35.86103945263878,177.34862172045683,0.0,-8.266946640243315,-8.397616214522206,2.5901737022999405,-32.132515006581244,-55.64533515001418,-117.4011539903285,-150.27633157177243,0.0,-9.017052538772557,-4.737568426291354,0.8435010090224688,11.271264883872288,2.5277752025429665,0.0,0.0,36.0
14.811231266179826,-6.01343663477772,34.533178156874385,26.508992440298478,177.18733255932307,0.0,-9.470490436969657,-7.004029893737306,15.041298238417845,-58.39423150350233,-45.68804529734032,-88.98536611271884,-138.21786042802412,0.0,-8.655021097984365,-5.403135406496878,-0.3456230645834707,11.591381977024295,3.946920040646451,0.0,0.0,37.0
18.777381683084798,-4.897131248687053,31.44142684958123,156.3368828765346,176.94073386666176,0.0,11.245390138793287,-3.2644070601560884,28.902440974983932,-82.71458719067186,-29.649904425951487,-70.57588357987785,-108.98769429908299,0.0,-8.630341463009085,-5.608765406708619,-2.788394649053726,10.618241848412953,5.547950310629853,0.0,0.0,38.0
28.01281933851406,-8.610333555242525,28.749213823598826,164.67784897869754,174.03200751834353,0.0,11.117673309714629,-3.650636172138099,35.901114067048695,-83.10197723145635,-23.240817851163282,-64.14720654692236,-101.25164814891471,0.0,-8.387820822454982,-5.772071935193488,-6.668855270113526,9.976889957527147,6.880385881404185,0.0,0.0,39.0
39.10706992409733,-11.92979403539301,28.389331350685655,168.03188706319537,171.80514837639993,0.0,10.49861487416228,-5.138704151769092,39.19908018406376,-70.78595941264254,-16.55107779261016,-66.05528450144281,-104.59536310248166,0.0,-7.463946716650229,-6.766979437637315,-9.9091798740014,9.66356637394522,7.822462709960069,0.0,0.0,40.0
47.06828526421691,-17.01370985075645,27.795316282864267,158.57517186521213,172.1842961770677,0.0,8.426582921428613,-8.179304184645037,42.398969409320664,-61.39116463147892,-12.425429041857697,-67.38717949425876,-109.35331577591221,0.0,-6.964155305018807,-7.2180257745293135,-12.799963305485928,8.802843112134406,8.172021884826695,0.0,0.0,41.0
48.82123721862548,-17.929532857972287,27.6095136051492,159.12607482876805,171.8451037530244,0.0,8.238363091711788,-8.37509712058296,43.64659845908056,-58.56056212642394,-9.977486267695163,-69.88634065302324,-111.4660415894147,0.0,-6.944744421556519,-7.349347575664919,-14.60136732876701,8.021218180659366,8.402797484139887,0.0,0.0,42.0
56.575338615064865,-23.732249738635502,25.50699034392723,106.00841853672291,173.9265634643514,0.0,-3.4594467390800046,-11.231461433262773,45.16001475204008,-51.31562450740792,-8.986557279243451,-67.83333691918796,-114.18831133992241,0.0,-6.442475638606598,-7.588753754125743,-15.037510990537175,7.93299366998736,8.314816971686637,0.0,0.0,43.0
58.59490367760911,-25.86698903378734,24.367975294685245,76.31080563980055,172.4696838554178,0.0,-8.88968414126341,-7.711885478844994,45.917259386084126,-46.855008928569575,-8.654399319928622,-66.41033850751593,-117.21308840497387,0.0,-6.110558964581242,-7.770702510146898,-14.637728788488992,8.22095802693685,8.126778791797271,0.0,0.0,44.0
56.87847652424656,-26.944483378991894,22.47289438862474,61.028848321091324,170.6219943559864,0.0,-10.559141150363352,-5.213354946197748,45.71209764679472,-49.8310868279886,-9.264052386948137,-67.79139457098437,-119.37640769623657,0.0,-6.486572254793895,-7.697373674337101,-13.500350710760355,9.901813832457238,7.791925678938389,0.0,0.0,45.0
53.337327756266404,-25.11620863270111,23.215843790896454,53.03535207247046,170.05922702410402,0.0,-10.915569095664669,-4.406390651588838,43.990946960116865,-60.29992467465522,-11.545690178739067,-71.40126731351255,-119.84386707472845,0.0,-7.417345460908834,-7.109544154589638,-11.842652547155529,11.76408019868908,6.972512808585022,0.0,0.0,46.0
53.278880728671375,-25.41998662786041,22.398965557200725,44.93309518114278,168.60598427401519,0.0,-11.418610380179707,-2.830795093028061,43.164526771500185,-64.02174703834972,-12.895000750168814,-72.51629792601341,-118.80245808993976,0.0,-7.716269058354387,-6.808262329605565,-10.993546779272938,12.708727367837666,6.381433918817291,0.0,0.0,47.0
51.528781566484895,-24.855484865023264,22.238093781740286,59.677656457521174,171.15936403194686,0.0,-10.243349944979972,-5.815533369864432,35.860093865308755,-83.21672999280702,-22.324612553149187,-72.4008132090789,-115.82557964491974,0.0,-8.719229611436937,-5.338208616011962,-8.919528744782582,13.364931084644944,4.9337039022227245,0.0,0.0,48.0
56.83214919982851,-25.16102322690678,21.247257811670043,61.20322545483184,171.91848704633983,0.0,-10.475951046417174,-5.366758007443157,21.492559934837793,-74.86735703935743,-37.53203374228803,-75.24446406247328,-132.101562059673,0.0,-8.573770025240595,-5.406683973535906,-8.521194883332877,13.231874772527938,3.6081821302537196,0.0,0.0,49.0
64.20770728663211,-25.657638520982985,19.64797925893565,71.01753724193114,172.31605825727638,0.0,-10.073798550352437,-6.0448151626226965,-12.09867946609802,-27.131643408776284,-56.13920291876333,-113.75261440522962,-157.61321589159223,0.0,-7.236266372609628,-6.709581653128589,-8.28441637424444,12.268693735665005,2.4985544179607344,0.0,0.0,50.0
80.60218237390716,-28.53614317489091,14.115714956267162,91.24668657537802,172.52350579368573,0.0,-9.382987834364561,-7.013112368882181,-47.52622271892596,25.99572419199486,-44.21570913732585,-163.96531748878712,-171.51189567892686,0.0,-5.516995498086065,-8.031700792974902,-7.879773468965624,11.740252737647115,1.5627156747466717,0.0,0.0,51.0
84.43728133724113,-29.572267219109488,12.365555491823024,92.5263776283417,171.6936403595414,0.0,-9.635490174864573,-6.67077621739314,-55.251311381808456,29.111604781272288,-38.96954161634191,-151.29159958191238,-171.99383574662684,0.0,-2.418815207231144,-9.447281926153325,-7.6786270540836306,11.97100977697035,1.3627272894715714,0.0,0.0,52.0
73.31225692472718,-23.33865537731039,22.983512145278105,97.95768552836088,169.066261458202,0.0,-7.103308749444105,-9.247666915951982,-78.61128968358051,32.208222844825706,-26.23749667069689,-107.85749745702613,-171.87071560743792,0.0,6.874237072937972,-6.3259811073218595,-6.48703015676811,11.38185183104373,0.9180044911220963,0.0,0.0,53.0
63.36212223278899,-13.009175598501983,31.520106533487827,91.69596095064294,163.93595751635925,0.0,-5.6293153620926075,-10.13531184210777,-80.4250872602865,26.504035770519046,-29.704849294527403,-115.60189228406952,-168.56341813899738,0.0,5.751593151356659,-7.072104913642754,-4.9920680470607985,10.41662109623315,0.6169771949997435,0.0,0.0,54.0
57.336909259434854,-4.034607754989693,34.93716966970589,85.95513443754113,159.40656794805807,0.0,-4.713561914659289,-10.579843501414167,-70.47384530297465,15.252722675414098,-35.683773229152386,-107.08483961332009,-164.2860834280598,0.0,5.120851222562632,-7.527133846601733,-3.1647237821058978,9.665784622125075,0.369967141967063,0.0,0.0,55.0
62.48900781844838,-5.017893074026891,36.454566517814605,97.10494011444487,159.14340038638332,0.0,-3.439162101372273,-10.985772492218464,-70.2145901592988,11.158750328473689,-38.07147558018824,-114.67386287523425,-161.7894472927509,0.0,3.892777408588393,-8.224418799763471,-0.9415613479656633,8.913423587663383,0.3018436334830927,0.0,0.0,56.0
64.28572220521302,-5.876817746875904,36.88390674570008,103.28201972533302,158.30570775558186,0.0,-2.6859316705790794,-11.218894148424202,-70.46003647840378,9.252461900600162,-39.62777836857983,-120.12428203759175,-161.77800448424293,0.0,3.0748544984242607,-8.43516668730006,0.060554327422558965,7.734192479939443,0.01006507601578537,0.0,0.0,57.0
66.00315792107524,-7.926432884128849,38.05564819583637,106.17335977320614,158.29638899321827,0.0,-2.469251491006573,-11.264484776747164,-73.89135412348087,12.525773063283026,-40.08700601325212,-126.57175727562391,-161.3303515433694,0.0,2.7272147189456253,-8.54778131110298,1.2974568119074268,7.981351658714272,-0.27318850232105385,0.0,0.0,58.0
68.0130241551742,-10.517988135882204,38.7050722446014,111.79820094977036,158.82914713832173,0.0,-1.9142839158758416,-11.365101766737487,-74.1781513480161,13.50938527938467,-40.96939714318324,-131.3990345726609,-161.0342004422528,0.0,2.1259502814366193,-8.73457856126956,2.9877896888785096,8.85624184946947,-0.5876894786796378,0.0,0.0,59.0
69.77999410311652,-13.592449132800667,37.59844335628734,116.55357431605988,157.43469072374066,0.0,-1.726815580095604,-11.504356833159738,-76.0272471583408,14.346540644860466,-41.83254020669189,-141.10791715186477,-157.70225280153176,0.0,1.165654274746312,-9.119357086463454,4.59186060075376,10.251114495084915,-1.0201604955134878,0.0,0.0,60.0
71.76260658552326,-16.549752450356262,39.07187521262714,124.07772940487682,156.99629456694234,0.0,-0.7477384308392446,-11.618370212253499,-75.18214369552447,11.275344593591203,-44.968923300449596,-140.04393721860325,-151.4406969834848,0.0,0.9269858376427559,-9.37039104782053,6.3076989232326754,10.02483716705388,-1.0609404228366635,0.0,0.0,61.0
73.21119494845593,-19.346105926969127,38.62368962552783,126.1591920190244,154.57772834137668,0.0,-0.8717000787779805,-11.6901005552466,-82.46961739796727,9.093135400991944,-45.530208146417884,-130.87129161203075,-142.14117393793188,0.0,2.71451930427764,-9.183533980657504,8.130927516405395,9.682344400777321,-1.2966084566438132,0.0,0.0,62.0
69.48916553067504,-6.346271132794092,43.06434346106882,104.89050906412764,141.39323666425585,0.0,-2.636033803404806,-11.468064325190682,-61.60782065633456,-29.681768511195223,-47.7781069739503,-90.63460076938078,-124.85526959136136,0.0,2.3704997262585215,-9.57745308189675,12.492932516428322,10.464054770978132,-2.5405486234675894,0.0,0.0,63.0
45.24393238922817,24.291726460997324,46.33949556685809,69.05246574135467,130.5024761151162,0.0,-1.3928343470202786,-11.629042688556664,-48.43893993597043,-55.05573967452694,-42.08264004610525,-66.43690305472212,-109.53230356025246,0.0,1.473701339922951,-9.964907501520512,14.4624972613797,10.407233855877267,-3.404515254357558,0.0,0.0,64.0
29.50241487449867,48.63413667789428,43.16726327209336,48.753184101340835,123.98242762265332,0.0,0.8189509797276132,-11.614962096381868,-41.27498445451795,-71.60928354045271,-35.25110667502184,-53.057788331387286,-94.87491505036623,0.0,0.6246056301420235,-10.192159504979786,16.747875437373885,9.305779317034938,-4.748153221372275,0.0,0.0,65.0
15.161187213972946,74.61462718949286,34.11048222353829,36.44915130525319,114.5989863668664,0.0,4.2060777893392975,-10.82855947517393,-37.5215021988945,-87.8762258139629,-27.543811083526972,-42.14675886016225,-80.49253043342003,0.0,-0.50526807907132,-10.229940420439831,18.064188361288767,8.431892077721534,-6.21539487366578,0.0,0.0,66.0
11.091437824563027,84.02343666207338,29.691244058089694,35.38169801436521,111.5346612850771,0.0,5.6435335983517,-10.238784558544271,-38.114294442631284,-88.58418552289427,-25.733609533515736,-39.67731286058143,-78.5727402553503,0.0,-0.42444275980892276,-10.229876243902162,19.691077461256274,6.316328227585034,-7.513363070552953,0.0,0.0,67.0
8.592887595880915,89.29860092740186,26.95542746320872,33.506210556026105,108.02870092567433,0.0,6.261581551982391,-9.847371947609561,-40.55480447744425,-84.79273393679105,-23.321887441847537,-43.21505637326023,-78.49018569645793,0.0,0.6489709521648347,-10.194335492097656,20.595255866653183,4.84350277239821,-8.459552508885949,0.0,0.0,68.0
7.722617544150579,83.98033968917305,23.284612766631692,36.593522359415104,110.23510088805675,0.0,5.492301880713449,-10.367661605732819,-43.0130184827756,-84.36851304926903,-24.201652832836285,-39.749074726805404,-82.33114974520558,0.0,0.5626022279811986,-10.05444690501413,21.858324198489612,3.345411262612909,-9.531337265324789,0.0,0.0,69.0
5.256860510571827,79.14033086836561,20.219324095217452,39.00391784642152,113.00795430175398,0.0,4.927261046519244,-10.670236204377838,-43.82470134255912,-83.52425160281369,-23.90173914093281,-39.96176562304827,-85.49662423905943,0.0,0.7153841388542448,-9.895979956681144,23.46748547009086,1.5416181232570194,-10.547953979915144,0.0,0.0,70.0
3.7985292565072863,72.77069933303261,16.058702261682928,44.18859863367577,112.96771380060109,0.0,4.138142708761191,-11.001292553181706,-42.351484648917484,-82.20114479818946,-23.2716971947316,-39.76758908652907,-86.09339793900615,0.0,0.7715315869790086,-9.928861335043054,24.406267402971547,2.391861658993853,-11.14893163193824,0.0,0.0,71.0
3.8979708440893464,71.66847245712815,15.68038010321395,43.615898850791204,113.45787659152663,0.0,3.868674254881243,-11.09733369681304,-41.4299704703562,-81.17604390906409,-22.885112944718845,-39.62748848793148,-86.80847155246401,0.0,0.826278478643322,-9.936845700360045,25.987945176162015,2.7958720319423533,-11.578045056833735,0.0,0.0,72.0
5.935370841621161,71.57649633592428,15.941222160483266,43.66780002854461,113.33218675257643,0.0,3.64579196907791,-11.182889262052731,-39.91939306907322,-82.5406769688877,-24.159065806373178,-35.916320681121626,-87.14414682774147,0.0,0.23127487771869043,-10.007533812584757,25.87607121607242,4.900195578319719,-11.186896272931211,0.0,0.0,73.0
7.5908333943106685,72.39763083851031,16.726867851377392,44.315520858430155,113.43641063364923,0.0,3.7275235393169686,-11.164505839019156,-37.19201006759624,-79.65503412256908,-22.831664703071464,-39.58134570415188,-89.05937890140373,0.0,0.6224685160909126,-10.033000010980595,24.50780323871247,6.6368674141920945,-10.229294400814261,0.0,0.0,74.0
9.259523658834402,72.39253348347255,17.145652734697457,44.40130950719414,112.56356370001568,0.0,3.5667820981898912,-11.216417799066976,-32.947471660860174,-81.11361918395247,-24.34293589062619,-36.03461345686486,-90.64461807109541,0.0,-0.1943715930623975,-10.125257890315169,24.237116123217433,7.729079066541262,-9.350752961629778,0.0,0.0,75.0
13.273915272811568,73.24038624283205,17.129074090781952,44.89667309928519,114.64841421705813,0.0,3.3030201759255395,-11.257732619193364,-24.454339296795496,-77.10270704640514,-22.60146095863261,-39.84665957080312,-98.91197295132632,0.0,-0.25748254294671913,-10.110242675195634,19.802587716516012,5.592564123727299,-7.441405080779837,0.0,0.0,76.0
17.480564635769316,73.53403228144231,17.005700544935603,44.98390538810368,114.8019625937692,0.0,2.8373325632247957,-11.301105172309947,-21.41376337083609,-76.11749318691449,-22.617154718782874,-39.97541682286555,-103.45645439896559,0.0,-0.46196941951535225,-10.050625255594738,17.081909544947678,4.4214291147533125,-6.025129004043187,0.0,0.0,77.0
24.39146090947387,74.87197016660896,17.89722083076396,45.50725622298037,111.62004056693941,0.0,2.2877363287756203,-11.34996765621382,-21.037861214129126,-75.96466848324526,-23.00799513775444,-40.539005256235654,-109.23602493188044,0.0,-0.6018907436389928,-9.814426084927472,12.740578085793006,4.476240581818696,-4.254921447891261,0.0,0.0,78.0
28.41498110232132,74.03100131689882,17.696650058916802,44.66772044624719,106.0316611095863,0.0,1.4981493457556068,-11.578154536782188,-15.54047027813279,-74.00492242659217,-22.2643643219554,-39.82052349003421,-111.09430250370029,0.0,-0.7620493388986185,-9.955180362731456,8.99060479939616,2.458169274041857,-2.562492507114346,0.0,0.0,79.0
31.958298885716296,75.30538768148394,17.830484278953694,44.17514848525555,94.53967144611447,0.0,1.0488372623998494,-11.716406183787122,-10.604380766590934,-74.52629159026124,-22.502115356508646,-40.10955510725548,-111.51335925014695,0.0,-1.328449542957077,-10.024559805958264,4.386761418107923,1.7393333983655195,-0.4167349292361579,0.0,0.0,80.0
36.30455054999298,76.07421751463683,17.38502657767931,43.74977867835543,87.92789474995838,0.0,0.46529802606362086,-11.731949967697426,-1.8758389968544136,-71.43921461187394,-20.334435129565797,-43.16621825946381,-115.24422300777215,0.0,-1.6949584945236047,-10.052907696604752,-2.0067858824012554,0.8530673512272547,2.336808654518119,0.0,0.0,81.0
38.836476710227856,75.97179427359103,16.859022968757355,43.276747258596984,83.28441697287765,0.0,-0.0035482868564226076,-11.698371760295855,1.9749887861164859,-71.00924811222292,-20.132362913676985,-43.19550635797545,-119.21931414322493,0.0,-2.064228214773487,-9.961360294395892,-5.957578332051143,-0.055732904884972116,4.143758940092906,0.0,0.0,82.0
40.553923104613474,74.41393905082508,16.244719446640147,42.831343154951924,84.55767877753394,0.0,-0.4874252763968934,-11.725041744853817,4.450412187190777,-67.39659965936096,-17.56926153836433,-45.488355421247874,-121.99073272711672,0.0,-1.739097202339421,-9.997609593301334,-6.700732839520094,-1.4940623795070944,4.938292204714898,0.0,0.0,83.0
41.82895075505823,72.46676829552354,15.511569921481515,42.18649730455418,86.09961402768722,0.0,-0.9848897142013936,-11.715256260160897,5.159956459982001,-63.59466713464539,-14.759176262593614,-47.21983778483019,-123.53977101835758,0.0,-1.132842528544807,-10.061625675041993,-6.53382262651629,-3.136253580167983,5.206441620962213,0.0,0.0,84.0
42.7865823811133,70.41626555441644,14.94119314544133,41.48611910745966,88.29775936763635,0.0,-1.425682202445314,-11.67894282453922,4.176075995699235,-62.497580768141646,-14.201642921321794,-46.4031924397655,-124.82526873695568,0.0,-0.7659338505514443,-10.04363388366238,-6.542974512672068,-3.6196799960858166,5.562355854884804,0.0,0.0,85.0
41.96826804428107,69.42557492649533,14.721604773752132,41.12557117817712,89.30608046919149,0.0,-1.5099278539066694,-11.668494861942893,2.4259606290759783,-59.8696391568953,-11.758804119805676,-48.600070321553034,-125.87878698710863,0.0,-0.09392944895317247,-9.991109761633618,-6.922180905757912,-2.6112790841558833,5.5198850107132635,0.0,0.0,86.0
40.80959298180215,69.20258264980718,14.594785443097301,41.025475090390934,90.19615826612886,0.0,-1.4314211186149932,-11.678236399838008,1.2789174665582226,-59.78322552104881,-11.485327064748295,-48.384634796287955,-126.22169404912776,0.0,0.09842235186260581,-9.937712947841993,-6.919890786980599,-1.9993808482921833,5.234013446578633,0.0,0.0,87.0
37.66565704526613,68.23252298413546,14.651058443430335,40.80932660776359,93.42420189384359,0.0,-1.212303337314469,-11.70268664134716,-3.3601685648649475,-59.84025837961562,-11.432155470081563,-48.39029775468803,-126.54879146699366,0.0,0.6496517504462573,-9.741625345398763,-6.28279650749309,1.294958157641389,4.620932201289038,0.0,0.0,88.0
34.12546897768824,72.1842620627801,16.80631834152688,38.38176657593097,90.82304516239412,0.0,-0.03313850887861757,-11.726839719800445,-8.473878207190985,-60.75329766152447,-12.237713106968213,-49.23759541636344,-122.23110179909145,0.0,1.0474357860847108,-9.753476180452404,-5.768584370583448,3.854165153388148,3.7392417537656018,0.0,0.0,89.0
30.487354811563055,71.38645356029846,16.92256138103261,38.369145021313315,95.92449080458462,0.0,0.3045452761531674,-11.74505535728958,-11.941704781233575,-60.17277092081219,-12.273606548516211,-48.87808160958449,-119.16848134881809,0.0,1.5709608060599547,-9.74416724241633,-3.1474192398060246,3.78882669073309,2.466817561063575,0.0,0.0,90.0
28.18984152080552,71.3370780974673,17.42448367148739,38.78120469326557,101.16026448836108,0.0,0.7085886322048632,-11.74337115562339,-17.43755591223604,-62.7556184222122,-14.676810377230716,-46.39902386919974,-113.52981340867116,0.0,1.6699933355349375,-9.772597827501958,1.1164245494542446,3.1441345382616483,1.0620688062654506,0.0,0.0,91.0
27.155703484332662,74.13147651135212,19.515992174129234,36.06460383389012,103.37212947358945,0.0,1.4594643705926391,-11.67230565722295,-18.638571332404776,-62.877897457316166,-14.727712560855458,-46.277150404347104,-106.99326376331744,0.0,1.8629635193736802,-9.956861756497199,4.39113711599565,3.3240531951316914,-0.061833471157273286,0.0,0.0,92.0
18.110391359920996,72.70798205108684,17.66277393191673,39.39825073376079,101.64193527863793,0.0,2.07327225794153,-11.506688299220556,-19.016439082994992,-64.81551859613849,-14.625748946149695,-46.57599430560934,-94.27225110697613,0.0,1.8460279905463444,-10.11461807795067,8.281266359074765,3.092333789903541,-1.6416607645952463,0.0,0.0,93.0
11.093480217016108,69.12501533746588,15.529081725465531,41.91077937485311,103.7737082468729,0.0,2.2462038443401604,-11.382081753440842,-21.158780076895805,-64.80488483630613,-12.692372750557668,-49.93135045987463,-86.1007895233172,0.0,2.3921725384218644,-9.927040043210226,13.036078405005085,3.56797276207481,-3.5855705137234324,0.0,0.0,94.0
7.623535130540858,67.43048817551401,15.169524810110609,41.24083966005173,108.40904321206773,0.0,2.358190845371451,-11.397892423396993,-24.624694517049157,-65.74562553438933,-12.554143497134763,-50.044439827349926,-83.37694966226047,0.0,2.68989262958972,-9.864405808433316,15.39684433573131,3.530673692612624,-4.867107977417738,0.0,0.0,95.0
5.52959880858412,64.98293441318523,14.357175249303168,39.74484517445723,110.81909657902094,0.0,2.002154090288349,-11.456624458581569,-27.599807775381418,-65.97290396974101,-12.037485981351841,-49.81082483621663,-80.89495616198523,0.0,3.0527145125602306,-9.7673485698839,16.552049214186173,2.668330900238521,-5.946139151988862,0.0,0.0,96.0
4.685131318506337,61.56625953822741,12.100950537064156,41.72472120568933,112.28526591668944,0.0,1.5446799451750868,-11.551155457959927,-29.07694949123705,-66.23595071866967,-11.772695907306334,-49.738674512338065,-80.38572392374208,0.0,3.2003867891432134,-9.7380395809998,16.584124084529133,0.9580047064227457,-6.5077369928002415,0.0,0.0,97.0
1.3475755690054136,54.75913868164714,9.090554828305,40.91878674845531,108.1556170069966,0.0,0.4031359108199219,-11.282232662643018,-25.472391005439945,-62.14668916858095,-8.050217311114451,-51.176248589402334,-76.27530668887555,0.0,3.8486481908973236,-9.296358342574928,15.315449206143951,-2.43613948941284,-6.573298743070324,0.0,0.0,98.0
0.7922145790930223,48.30838881079858,5.243025894813787,44.57917852355583,105.41304355159662,0.0,-0.4846311211810755,-10.98647142440981,-23.6677210741334,-58.755123366447926,-6.710448892575906,-49.42370520139395,-74.78173315563527,0.0,4.230909695467501,-8.974095199640798,14.091783500896765,-4.35971641507963,-6.280604849983185,0.0,0.0,99.0
-0.40740691170245513,41.98792593943132,1.8567367408353985,48.3122170116294,104.47206582260092,0.0,-1.0330316019474224,-10.630931608914734,-21.952257973000762,-55.54183587437486,-4.898061321260721,-51.68639683507404,-76.83589399561559,0.0,4.6039653962470855,-8.725335033021109,13.57545627355437,-3.296734915164634,-6.0431855425017815,0.0,0.0,100.0
-6.828460853315744,34.8388345784568,-1.1365104877416257,51.17568402948745,108.6549152545011,0.0,-0.5560253509594468,-10.467714724451332,-18.429112747827503,-50.75951916393243,-3.4412756919015424,-53.072125747023776,-88.29971520175398,0.0,4.780372206323568,-8.867698399946384,13.90451287605882,-0.9880215965805613,-5.843245217539362,0.0,0.0,101.0
-8.534829113928,31.867285127290376,-2.7149019551863622,52.94097215324813,110.39233549178324,0.0,-0.3907979497385808,-10.459527485639743,-17.28209886549409,-49.466503111618,-3.5003514210883138,-52.35336294569774,-92.5095118281728,0.0,4.762257346003484,-8.964776321404791,14.139945331617342,1.1923280643144505,-5.207094042231246,0.0,0.0,102.0
-14.512417461984244,36.31134269282217,-1.050039309422245,52.288071478670204,115.79931480765569,0.0,1.2824468835976859,-10.902992053615158,-0.4689937215208532,-45.99428084754874,-5.780491889631162,-46.60075161540764,-102.3070114851195,0.0,3.220485398374826,-9.452743369138219,14.096611168431775,4.66883453324878,-4.4019150009775085,0.0,0.0,103.0
-19.653771290218685,50.43271152969611,3.2202915198527315,54.93796623030756,115.73155295204131,0.0,4.416702470313942,-10.489846330656512,15.892685177083848,-52.21288009315613,-13.171965516816915,-39.881411260954366,-108.13336727372959,0.0,0.3217689001041865,-9.688631974715394,13.34678112267215,7.136669669043186,-3.6702042729577076,0.0,0.0,104.0
-20.13150532866298,67.92366707093626,11.314623795472235,55.96401537152853,109.1365257658691,0.0,7.148014088105442,-8.921191389978938,23.714118564016445,-63.868006259717795,-19.78342929055515,-39.76989095535257,-109.52419153422254,0.0,-2.7017902075069524,-9.175859820561818,10.239831435826678,7.170019541079917,-2.858086098171801,0.0,0.0,105.0
-20.369051181608494,89.34527657791074,23.973834013158175,49.612288098162594,93.73239969559481,0.0,9.574034573206834,-5.3458137601088325,27.97478919148477,-82.65919464001557,-28.895704355663955,-38.13480594658798,-101.0106011712282,0.0,-5.949350314345618,-6.888859961553829,7.584386694346728,3.9338739023996263,-2.2093372966931004,0.0,0.0,106.0
-17.489878121580688,81.18341407280477,27.59834876771485,54.44443456475269,100.01155752900026,0.0,9.335352741313168,-5.945137503326215,26.732451169571583,-89.6920285180216,-31.454619859389435,-42.45666877403434,-97.8214240668658,0.0,-7.278239539633774,-6.068651126292811,5.616941464856163,2.844399606354739,-1.5308251219066844,0.0,0.0,107.0
-16.578800371608665,66.67205345608235,34.097440639288855,63.4662290949034,109.74413260634813,0.0,9.335992421576057,-5.885194897814929,26.201106869985168,-77.86799125925926,-36.38967823272674,-54.37191328752065,-105.45835258679962,0.0,-7.467630808891331,-6.145656281736666,6.105083073637834,-0.0298018022870943,-1.498802044780573,0.0,0.0,108.0
-14.001685715969618,51.77018559940797,38.22852097774912,80.43849149464491,116.98766393742409,0.0,9.965606798589178,-5.358739839082384,22.750695476879695,-63.110891967796775,-41.489550249240615,-69.08724593755429,-114.69085527209313,0.0,-7.6200330691246325,-6.279631687079341,5.5285786835060176,-1.4913626956045731,-1.4155677738131283,0.0,0.0,109.0
-12.147271316415631,37.83312512008073,38.625780965832995,100.76628149772375,119.70055534708486,0.0,10.826901403886941,-4.134633549667529,19.839354095277884,-50.86835247813584,-42.435844096552856,-85.83058010043716,-116.74227113215929,0.0,-8.054175952201504,-5.958114268012836,4.739009662880071,-2.527840119450582,-1.1598864417719263,0.0,0.0,110.0
0.3296353984611368,16.01320888641863,37.27290777844353,135.17783766891688,128.1026406409188,0.0,11.430669377367247,-2.7943616623292256,13.24283027271095,-32.242540628787886,-40.51376516446724,-112.5844287447796,-119.25457027582002,0.0,-8.591369238083688,-5.45084629019363,5.750142715256551,-4.211505346367483,-1.2832687847888355,0.0,0.0,111.0
21.220034078019378,-7.937266236458058,34.060236385826855,-179.7847611082119,134.52619753153257,0.0,11.690472563690669,-0.06435564032311801,4.6492170644162405,-18.222792583161713,-40.482965991958935,-134.16879612523732,-125.51026388727422,0.0,-9.049469491888571,-4.845101625886503,6.385559848100501,-3.5056324996407175,-1.5663974609160787,0.0,0.0,112.0
19.046199778082272,-5.502020740571596,30.966612769469027,178.94105815339998,136.6101682866891,0.0,11.639083309203548,0.08022123982038715,-5.668459192315979,-5.72649514438588,-38.524549812082306,-156.46225824644756,-128.90895085374203,0.0,-9.434332127137054,-4.105303019723608,7.02767321179705,-3.9308276984135984,-1.7229140521360944,0.0,0.0,113.0
17.04083741782542,-4.162668931690926,29.762891507398887,178.5524018175287,136.46350304587037,0.0,11.585320804808465,0.331323751095754,-18.346735349235118,6.5657357184046745,-35.696054025652536,179.07218027265347,-129.82040453071002,0.0,-9.782797862977553,-3.13177507612073,7.72449812078511,-3.3907488811325472,-1.6357972718170717,0.0,0.0,114.0
18.609631902803038,-4.292620159486623,27.866269184244523,179.59095785095664,138.50965008934904,0.0,11.580331918332837,0.19627184790502814,-18.593779396761757,4.989586272459328,-33.627045432281825,-178.9555824809323,-131.34283258368106,0.0,-9.67287239054042,-3.4646361685709586,7.7734152636385705,-2.3813020105608795,-1.5094057436356427,0.0,0.0,115.0
14.667344626064475,-3.303457835332581,28.25117068971016,178.51742537283,140.40419820708385,0.0,11.510334094117047,0.8553321092005582,-16.240857126916172,4.074623767256788,-32.94822758998103,-178.6968381055791,-134.63925161669633,0.0,-9.773062168373295,-3.0895127976763033,8.021872083416858,-0.40460206571303725,-1.280304146444805,0.0,0.0,116.0
12.602913143642114,-2.842297275328097,27.961279029377177,178.63894566979474,140.27749569728147,0.0,11.433123259331818,1.252772668832479,-15.619321022094201,4.398744389433399,-31.899903847156896,179.27152278606775,-135.18520612958162,0.0,-9.86215054420532,-2.723726912074578,8.504735660057403,0.26243554905827066,-1.38404647491102,0.0,0.0,117.0
10.60432014093519,-2.5377394698292406,28.29808711401307,178.5798445992186,139.8241895506971,0.0,11.356530061423506,1.6213170461064998,-13.668532598379224,3.7757866263109485,-32.03678432589252,179.61628285189485,-134.30889407120495,0.0,-9.916483413626096,-2.4731355664910937,8.826504383170306,1.338081382517844,-1.3451235959547625,0.0,0.0,118.0
10.243513347736789,-3.0521284996889806,29.289812447200756,-179.4655833460536,137.12147914139533,0.0,11.254520701429895,1.9391678900907128,-11.899973202695232,3.0431669529725838,-32.83981348861792,-179.79300891417208,-131.68692570603298,0.0,-9.949359684890398,-2.3154221934990646,9.020045105149073,2.2861832421981383,-1.300027840929766,0.0,0.0,119.0
8.313838208272962,-3.1821549295444553,30.669045313008674,-179.4794631560017,133.31796005293276,0.0,11.169399600060858,2.1918433592846274,-12.00105889041859,3.6865810140039477,-34.27025702578934,179.37510768766995,-126.73538643985772,0.0,-9.971803035053227,-2.2895706354905276,9.436132249991747,2.7733540365662757,-1.258788805769103,0.0,0.0,120.0
8.69030849904546,-2.7256260136042227,31.382970038384755,179.66771545531265,131.04350401994142,0.0,11.224419623984092,1.904686997162253,2.9310640020500935,-11.45830777134545,-33.523321565032425,-153.08697694121076,-122.8236490313166,0.0,-9.633677730255894,-3.5927926379362702,9.16805487869329,3.0377427663437904,-1.1837368191331301,0.0,0.0,121.0
8.6788715294641,-2.825159869008088,32.115623019893555,-179.95029539406121,129.2336323411155,0.0,11.204527086270595,1.9114248158915692,9.009713913705466,-17.966695106485595,-32.16338579368525,-141.9045600391601,-119.31774813866417,0.0,-9.428551595456302,-4.118928978745299,8.636857660238142,3.1571385050672625,-1.0577663257372616,0.0,0.0,122.0
8.810182385453432,-2.6703460434293764,32.670181092452495,179.9653842532415,127.42725398643358,0.0,11.210603142634886,1.8052023383391578,14.107453805502976,-23.1424215280286,-30.546861372690383,-132.85489869091245,-115.14946078040971,0.0,-9.24202383823163,-4.499834319800565,7.630692449783379,2.5530276347089265,-0.9796384813337088,0.0,0.0,123.0
9.053784661894914,-2.375836923754881,33.01104861310487,179.3828218158824,126.43604883955582,0.0,11.246638245924983,1.635895306270435,15.189547618080896,-25.370370330855156,-29.61439775893083,-129.01974597645386,-113.47040957445247,0.0,-9.061519444915731,-4.822600420614944,6.525562017324917,1.656969010853412,-0.9396228587638275,0.0,0.0,124.0
0.9953561032595791,5.5340767128630945,32.94427665060855,163.89948758198628,125.77976337855472,0.0,11.452303627042985,0.7244736799983998,14.642232615625558,-26.39845969767981,-29.225276219944465,-127.57986816966212,-113.23395547191703,0.0,-8.906116502672353,-5.090110649991133,5.578850132175215,0.7731099068948062,-0.9012546084216887,0.0,0.0,125.0
-2.181416085651848,10.201362522589957,32.46826135933089,155.39602977591477,125.12176163885425,0.0,11.53880368881472,-0.027420102087111833,13.199606966851624,-26.075402310912757,-29.425001824885126,-127.34355307751689,-114.07567459893056,0.0,-8.782386484717604,-5.284267874469609,4.812070588444748,-0.789863559935412,-1.18815375626376,0.0,0.0,126.0
-5.3500546314916475,13.884507446797452,31.98493063908013,148.33515560330736,123.76572078564612,0.0,11.57777904815728,-0.5531449724724745,13.100236192210865,-26.9596429968887,-29.296227481833412,-125.51515731813261,-113.61406184623233,0.0,-8.647088235000892,-5.474318497394653,4.496875774193266,-1.8315662771840524,-1.2061069265016335,0.0,0.0,127.0
-8.012201850852184,16.91976581112639,31.803849942067846,142.70740713879903,122.36349023525555,0.0,11.59488494122555,-0.9070028878676333,12.860041617640439,-27.717639469205928,-29.783717828865434,-124.78364549721347,-113.929816881344,0.0,-8.6084348925256,-5.543592888810766,4.524102936614095,-2.1701666355772007,-1.5068805762872068,0.0,0.0,128.0
-13.098346727370481,22.917060053625775,30.760760485250653,133.5729412895236,118.73678192597772,0.0,11.574346301970166,-1.4241728139663647,14.833539560586718,-29.510166183295738,-29.887856705246914,-122.44491211698872,-112.49478173830275,0.0,-8.648526918741466,-5.4710825499586795,4.567541079875288,-1.6533591794571987,-1.542415481419759,0.0,0.0,129.0
-19.94711913931848,28.68279470546384,29.513022364458855,125.70832074870346,113.3146060546589,0.0,11.575064068045778,-1.4473362198540496,18.300507018964307,-31.04421013943099,-30.164618115731102,-121.54999864955633,-110.82077583291634,0.0,-8.921144692974787,-5.048661029077637,4.5938744626906285,-0.5811847357681104,-1.5849707259358037,0.0,0.0,130.0
-26.13973001011907,32.699550801987144,28.45860986458801,120.58402129765089,107.95200033044755,0.0,11.590050222533446,-1.1907576093089083,23.604885664429112,-33.19165038518779,-30.005020891568915,-119.5230848892136,-107.45408877960404,0.0,-9.228525838881815,-4.480912930231818,4.630875859876195,-0.05118144050828395,-1.558496931683735,0.0,0.0,131.0
-28.683959825995593,33.8746387276246,27.864321613619726,118.95990419597516,105.49787840535672,0.0,11.591998746419094,-1.0650528849379088,26.13716444334896,-34.23096087213613,-29.70641757537857,-119.06046568096589,-105.71587001429752,0.0,-9.36792896406225,-4.204982494665641,4.267283512637937,0.36182888264086144,-1.6053175970625528,0.0,0.0,132.0
-29.0781833475724,33.493717736245586,27.733756960984948,119.78533653060592,105.36396573711237,0.0,11.57766690111149,-0.9543572998059248,26.62797531197566,-33.64015664761524,-30.1077053852056,-120.36583522521522,-106.02735730692353,0.0,-9.474833601950262,-3.9816368256558827,3.5836686592860083,0.7903163119367724,-1.7192965018636273,0.0,0.0,133.0
-26.778463072553514,31.04884374889386,28.196280977646087,122.9449880838273,107.83019832392975,0.0,11.569465328652965,-0.8977381232504259,24.3750767745408,-31.490017261723967,-30.81860732977648,-123.03164205202752,-108.33183239363596,0.0,-9.47843641089276,-3.9816266923508703,2.695705355864779,1.4844612600392146,-1.7348348349885359,0.0,0.0,134.0
-20.923574183786307,27.02733953493052,29.194301712143133,128.3773745881198,112.87472525739355,0.0,11.568394227558517,-1.0352427248252531,19.187299298558223,-27.59396379663904,-32.16547141410384,-127.5118691468383,-112.73641142855458,0.0,-9.408009703287995,-4.147935621549456,1.7410495972570594,1.3038672153034825,-1.619132588041743,0.0,0.0,135.0
15.47460941399616,-3.1037508125827222,33.73484335741506,179.22798025656493,130.0497864293745,0.0,11.498940066552175,0.6226127745385271,-12.72297721277415,-0.12455687783418636,-37.44395613971489,-171.0339035133759,-129.77449231181612,0.0,-9.649081709473148,-3.5054543827848694,0.9850607092395723,0.7035072066354793,-1.3008981224878184,0.0,0.0,136.0
20.61867788808117,-4.775292769189116,31.51389879415381,-179.74151869161588,139.44729410573422,0.0,11.596059651470892,0.08050717163965204,-22.15510976160184,6.093270286909984,-36.047372138826326,-179.46355194516252,-138.45110368423582,0.0,-9.518804157963029,-3.794181768206521,1.0408069420013566,0.6332765629409156,-1.1143986609797556,0.0,0.0,137.0
29.490953045380753,-7.877858202538929,29.664078738293785,179.19481304531752,151.07067241906327,0.0,11.587154677477326,-1.5973135447002635,-30.93649435099421,10.021628438412671,-34.74950739457314,179.84663109553415,-148.31237347711195,0.0,-8.978351157046198,-4.91138698989277,0.5439321796389845,0.5106652819702584,-0.7552982847263643,0.0,0.0,138.0
45.37371174468573,-14.808003359260578,27.562535918195238,176.14165563029232,160.68837108913104,0.0,10.568405798553343,-5.16574406832786,-41.77244283616052,15.367433518283132,-34.228143793081095,-177.48383128637718,-155.9001907911273,0.0,-7.7339988999629306,-6.672219287590996,0.17148887318733305,-0.05970507825885861,-0.4632577196348008,0.0,0.0,139.0
61.5419461192208,-20.910441518412064,25.151999632506694,164.55071535231107,165.40961339607244,0.0,7.12043334734151,-9.38032601137786,-53.28832999857898,21.364912828434687,-32.293483341463606,-173.65711463909804,-160.86769908005016,0.0,-5.847511332731458,-8.323445021603725,0.05148174299455056,-0.012292515572459431,-0.0692731342963233,0.0,0.0,140.0
80.49000515892757,-31.463613758289387,16.77946171566103,134.66689530129284,169.20630308936634,0.0,-2.226904136173606,-11.554130100826221,-65.15075885397556,30.72787999012432,-27.10001067653619,-146.18744000814436,-169.34970555277891,0.0,0.3013396613666747,-10.048942470220958,-0.08291183948404342,-1.1495068720987536,0.20139309023626392,0.0,0.0,141.0
89.97282799130193,-35.08075037175662,12.074588076653406,128.89815294029353,167.28744795941066,0.0,-4.967756653172418,-10.67649126798425,-72.67508445045982,35.28198323687664,-22.57218514195407,-124.51970569321598,-170.28843246286337,0.0,4.891631322070367,-8.736780320028346,0.2712755701472877,-1.3958268471444022,0.14142592433810677,0.0,0.0,142.0
86.27355650835784,-36.82247374559613,13.20029729280125,108.96517896702262,167.30737395496743,0.0,-7.878822890780996,-8.763159751353621,-72.85286706428009,37.13610679612205,-21.364266598500016,-95.99326659405229,-169.83924261025243,0.0,8.329950116778354,-5.442160481657163,0.8584796670539143,-1.0088876530528623,0.09988790965221864,0.0,0.0,143.0
88.23441920793404,-37.97568609750084,10.790064907775188,99.41942193470577,167.95982842219942,0.0,-9.42249241927667,-7.0760736204499946,-65.81030776925545,34.87252574900367,-24.697031581451526,-78.62016693541082,-168.78090582619615,0.0,9.161779976424874,-3.794810748960703,1.0920698077699929,0.2773284995884406,0.01529442397584813,0.0,0.0,144.0
80.6925598022249,-35.843476987910094,14.25882088183501,86.72421152717402,168.8977021071294,0.0,-10.137346531651755,-5.996028565936032,-54.5390198028999,30.03581901282545,-30.88263073908086,-74.57716407453525,-171.46800448357095,0.0,8.734763133717127,-4.695007849912736,1.0679508788815317,1.4859899361506883,0.009531533711081131,0.0,0.0,145.0
58.581006345821265,-27.21008304350741,25.380869228588175,75.74290452058841,171.98154735560547,0.0,-9.025229692576513,-7.561797836221167,-38.85868582799349,21.040519411210855,-39.46582058250655,-144.7972463391733,-174.12501993750647,0.0,-3.8992183380465164,-9.176417438167949,0.5559904933369455,3.0591365406547997,0.32767374673360533,0.0,0.0,146.0
49.43162531043506,-23.812364767027077,27.048204191202128,75.8604960430175,173.3780892931664,0.0,-7.835285469961244,-8.801395245407265,-31.9417623420304,15.975158601168545,-43.07337838277355,-170.94264141563238,-169.67371614795624,0.0,-8.27411294416505,-5.583212703066002,0.39091364887116953,4.159133237964969,0.6056789859268309,0.0,0.0,147.0
44.340782127009795,-19.685521417570794,27.391280804963007,80.61470095422992,174.79859704574565,0.0,-6.05884739618663,-10.094230089012497,-32.50078615189656,16.139132140972013,-45.01692222412479,178.00145443320795,-160.66470973957877,0.0,-9.03287683707184,-4.3526517466782,0.09478363826913755,4.746923770327754,1.1134268370796692,0.0,0.0,148.0
38.818620478302755,-15.264737581881112,27.865348077618485,98.70378800967956,176.43574965986483,0.0,-1.2470439298666784,-11.67015512889018,-30.231458558886995,13.762347380450569,-49.47705074278666,177.7349961049351,-149.6099511509468,0.0,-9.19762892311495,-4.152996965916128,-0.34239732508525106,5.190866193453037,1.749190258916264,0.0,0.0,149.0
38.83014554241131,-13.570041771378577,26.15191126018727,135.20070573754586,175.9427680137501,0.0,6.0584589730984675,-10.049486666199746,8.777283798156406,-51.025693034078415,-40.786825850262154,-93.54238029482251,-122.82224207141789,0.0,-7.477916701907691,-7.0753334763056275,-1.5101079823899435,5.3130090840109325,3.07977794831793,0.0,0.0,150.0
52.79412404247773,-17.16675345472226,23.914069839938637,153.06412151133404,172.3706327732967,0.0,6.722045726802144,-9.620299776003154,24.06970089691969,-82.34635577141395,-24.76857039497781,-67.82365317816623,-88.3762956163362,0.0,-7.4409060052163145,-6.805312492127811,-4.441448875433545,5.149849690064173,4.886278752539919,0.0,0.0,151.0
57.862145166618305,-18.411975907829138,23.661239311004476,165.66449403893824,168.41494187993246,0.0,7.887234457087008,-8.715486189202439,25.756299084806546,-87.61613810639136,-19.770724027034667,-63.9889043257856,-81.0168676417628,0.0,-7.238266249684798,-6.88168901991577,-7.214806117146604,5.439101055016103,6.580782602838783,0.0,0.0,152.0
61.485977294484584,-20.84993934407845,24.96678383611384,165.00520648856002,165.6688754462753,0.0,7.201871074968992,-9.31643620495893,28.025565129551214,-77.35447978763972,-14.350566203717893,-68.1717922340535,-86.3867186071616,0.0,-6.3705880830530175,-7.617424924012776,-9.514016635869405,5.390309819739405,7.430529717927496,0.0,0.0,153.0
66.74501670410412,-23.764060298051973,25.993573912959672,167.5568781586008,165.31242038631848,0.0,6.789351160510506,-9.610515407905318,31.02506557376775,-67.65835935003281,-10.210071969544959,-70.42524597235149,-93.22909939608222,0.0,-5.785803780992334,-8.027630774328323,-11.342158811579333,4.927992095018916,7.894777963330165,0.0,0.0,154.0
74.60593367074522,-27.47980110793094,22.927948866124694,156.92792269896677,166.66076382385327,0.0,3.5064751927965983,-11.227740073366556,32.19128059241232,-58.35249898618641,-6.308363187867624,-71.5388033730484,-97.29896617937541,0.0,-4.98607133367004,-8.380855577790253,-12.419848223228687,4.359767919711459,8.522786412700995,0.0,0.0,155.0
74.8677441044112,-29.01124362814065,22.059845001502715,142.25981465325313,169.19689824430847,0.0,0.49602533476330846,-11.740862220963233,32.38191066973533,-51.13821474762176,-2.8235966184257006,-72.31311491704938,-104.51236710314448,0.0,-4.289235602933528,-8.869407311069947,-13.171127795870133,4.802779880244795,8.757424508018257,0.0,0.0,156.0
76.73756422958564,-30.60717877277204,18.1321062760773,130.13023623021954,170.3540896903194,0.0,-2.469593505639278,-11.503435943482147,32.70615226676215,-49.133473863607335,-2.657476825344372,-71.7001930915378,-107.62515545279705,0.0,-4.180218211205268,-8.971171555351985,-12.405396518308667,4.415398571704667,8.771564083024664,0.0,0.0,157.0
71.1915670570164,-28.925522030417252,20.355910801791243,126.01025625051219,171.44208735921737,0.0,-2.2759969290816127,-11.539390141001935,32.9168756810525,-49.807334065160546,-2.9564855872912235,-72.14446239327826,-109.79338675121897,0.0,-4.357899801422026,-9.015095223915033,-11.33056283153194,5.32157132110729,8.627153234345945,0.0,0.0,158.0
67.55380271007452,-27.198362518271566,21.614052303482687,125.05676668054652,171.9748762365355,0.0,-1.752878761838169,-11.625779586279354,32.636315440016304,-55.000638899022505,-3.852024328430076,-74.00991423067045,-111.42141851684379,0.0,-4.908193267799255,-8.954872128895646,-9.42144972976378,6.64565263269403,8.020410960137365,0.0,0.0,159.0
67.3518521670837,-27.88636009156323,19.790807799543444,129.63081601047642,172.03500351153315,0.0,-0.9110815941140908,-11.729322411008221,33.72710788967022,-63.78019486862802,-8.877379923981547,-74.1013779426778,-110.72749639255287,0.0,-6.171963596341771,-8.223002362055475,-7.619139058765109,7.622466964446773,7.150027666088585,0.0,0.0,160.0
74.86484691080237,-28.36974607751736,15.895060231263392,131.75125475259435,171.0962101710917,0.0,-1.8380996043849112,-11.621741068884123,26.311757336577312,-87.74978547017722,-24.27962938446612,-69.37409815814621,-107.34726001852324,0.0,-8.103550840531367,-6.261664691189502,-6.335656781435011,7.702157588354701,5.32583086658752,0.0,0.0,161.0
77.00719729027401,-28.03391304121759,15.334990348401986,111.48992859150921,171.98061653917736,0.0,-5.984174868063926,-10.12687053641196,19.700573745950923,-81.19891897734885,-32.491698775632095,-69.59916811660328,-117.09762593276184,0.0,-7.977230272186807,-6.416192146428206,-6.136481645146878,7.793921293894633,4.485763225999688,0.0,0.0,162.0
82.52905498871529,-27.9716165277591,13.483775469595548,102.43726211348756,172.42765092347486,0.0,-8.11672897950613,-8.456273245867898,3.5815411876317067,-60.37030827098903,-44.10965265139855,-81.91073733976813,-136.808611263572,0.0,-7.036762020143918,-7.2080218641947456,-6.183917935654408,6.690900118564005,3.7159414540124716,0.0,0.0,163.0
88.08821925341601,-27.59862108065701,12.500090035480742,103.47598910134484,171.7496031524575,0.0,-8.538262441812424,-7.9562642371317684,-32.3802125724234,0.4708283088947167,-54.833690874255566,-136.76492274855508,-157.5445147998943,0.0,-5.609281564704594,-8.210840336350323,-6.270234859761202,6.155979080158008,3.050484222467792,0.0,0.0,164.0
73.21142527820223,-21.94265676394472,21.356830095709327,92.85848405554161,169.7714987634129,0.0,-7.857119337865756,-8.58567739176838,-62.25937510260993,28.553366210656304,-40.941367683226595,-173.37051331440009,-165.58162110565914,0.0,-4.745793522909798,-8.379894079611416,-5.755641721297052,6.16423622130646,2.4050447508878268,0.0,0.0,165.0
56.237263206938344,-10.250131665621842,29.856083200157283,78.12304874581342,163.6666332534814,0.0,-6.871521728996611,-9.413993108202687,-86.01492070202863,33.21734532213093,-27.243495216017365,-150.84212366108994,-168.11304463526818,0.0,1.9889771466544344,-9.196441115367781,-4.434556276524616,6.5255938475125514,1.5905989066706834,0.0,0.0,166.0
52.21636394872222,-4.5207834036227,32.01441932215775,71.16956424643215,161.19718701643794,0.0,-6.746447098335976,-9.451051381883651,-82.28360870542559,28.298816584758477,-29.247778975349984,-136.19294833988366,-165.27515278784855,0.0,3.5426594202214665,-8.797702349985087,-3.540474773133373,7.000675560071183,1.063489434412759,0.0,0.0,167.0
49.90215428920895,1.2050442465167595,32.82518960332533,67.41208296683537,158.57515373387136,0.0,-6.361767157437182,-9.659600799784393,-74.39953098210034,19.608268670539715,-34.60161092610643,-124.61866283010278,-162.3936914965417,0.0,3.718093342002001,-8.65437242634313,-2.8170896744134573,7.277317627602997,0.9707445167763548,0.0,0.0,168.0
53.33046167565295,2.5384945119635267,34.14664230493552,76.71519824233094,158.00632563283227,0.0,-5.063512704387359,-10.335160719829949,-72.21995687852807,14.351957500967108,-37.362554043232606,-124.37033159359311,-159.8445410667438,0.0,3.159879018520091,-8.834332773499202,-1.8664157098236107,6.801786385646413,0.8922635348451217,0.0,0.0,169.0
56.79899442214599,1.554211127448263,35.04274111165908,87.52038345758024,156.43137874718622,0.0,-3.8287360887795105,-10.905298036906593,-71.93660134715255,10.174891414928325,-39.10151872180788,-127.31767428399434,-157.09943727696617,0.0,2.5368629472938835,-9.041881552581021,-0.6833299917330173,5.864805405668576,0.6808907125914551,0.0,0.0,170.0
62.23359263634254,-2.9998893284969337,37.556862326960605,100.65461861500444,156.27315551872547,0.0,-2.546134894797744,-11.28617922183729,-73.46436026877757,11.295363765384705,-40.931550371822134,-131.91401126029018,-154.63068631373895,0.0,2.021618372067688,-9.237011442509054,0.5851560728228085,6.8312344491152635,0.5490361711439891,0.0,0.0,171.0
64.04633398849961,-4.378428689517499,38.90234303706396,106.84711459722557,155.35792337043608,0.0,-1.7345371034830825,-11.458750014132338,-73.59321935294511,11.765912847401712,-42.234197570574516,-135.39910304518972,-153.26115094613328,0.0,1.5165519843277118,-9.381854158689114,1.2465770240771015,6.6687822212733625,0.19129327081470893,0.0,0.0,172.0
64.09864471709557,-7.761423731240437,38.52989262154245,105.58336964153047,155.7671846542895,0.0,-2.3124609799632596,-11.417802807294986,-75.37098910040976,14.123742913759616,-42.54848545386668,-138.78863829613593,-153.3574660306137,0.0,1.3286605922702355,-9.387094852439507,2.4770068284765334,7.330671253556424,0.07955711544861753,0.0,0.0,173.0
65.77985094662559,-9.917295843860808,38.705995910076226,106.43819475394264,156.3791815490239,0.0,-2.54677181174107,-11.356674795272069,-75.5763205648014,12.878146005484787,-44.42814699135082,-142.2220307341072,-153.22056335089513,0.0,0.7758834633904839,-9.319987029207011,3.8339877468256827,8.730745058772959,-0.33779396157344405,0.0,0.0,174.0
67.60053597494013,-14.581351197682979,38.03223673634435,109.26559754887249,156.1537184863216,0.0,-2.7957135880286983,-11.363591180007772,-86.0242449898224,18.187970108145425,-43.79759295239816,-145.74249050555156,-147.59601914027272,0.0,1.7707422323285993,-9.296583630882651,4.880829709190402,9.08031154564921,-0.496755730754519,0.0,0.0,175.0
71.42050364777099,-18.09598907482103,39.940937892595066,125.02285881930536,153.87047099016874,0.0,-0.635604718114015,-11.71095712928696,-66.86973687912386,-17.55235217551286,-49.15621690019378,-103.21384129076654,-132.4583493929551,0.0,2.3475689542281377,-9.416984278624623,7.416527864005433,9.050132191067494,-1.244038606991932,0.0,0.0,176.0
75.21496038800203,-12.182878659280153,41.073120889809154,110.22108968594524,142.82764090200592,0.0,-3.1604162831791127,-11.332520267403588,-57.79245043859544,-36.38219703158952,-46.45874634013739,-85.31939109504481,-120.38539853670251,0.0,2.1712582206769473,-9.743204567021012,10.734785807708127,9.014881340026434,-2.169743043577124,0.0,0.0,177.0
55.19101088229262,9.241937695555944,45.99371810291195,80.79081813841275,135.12033413376986,0.0,-2.7604027083678266,-11.42191048901329,-50.68056229764461,-53.45702477922132,-42.313047327853326,-71.09332036346399,-110.5401164787716,0.0,1.6804332090958694,-9.903789735487548,13.342226359948283,8.009050130676442,-3.0805657557190638,0.0,0.0,178.0
41.23404878124171,28.82090252021177,46.86699886246804,61.47226343496838,131.48596550719657,0.0,-1.316172142872222,-11.65197812003556,-45.70235834703075,-65.47740985587043,-37.8464326564308,-59.817596668151545,-101.24701322769182,0.0,1.1957159938825346,-10.042989860464992,14.68609299931668,6.475430020320716,-4.024992569500855,0.0,0.0,179.0
30.66983664136624,49.45657559821914,43.85079839719186,48.76652059073956,127.32321450046491,0.0,1.0033434177679237,-11.69416129297078,-42.76030888669137,-76.82228479967463,-32.66387629391187,-52.9996180768306,-91.7951873685225,0.0,0.7041914495617322,-10.116839405223953,15.64532958159841,5.165494824004943,-5.033007636044147,0.0,0.0,180.0
17.546126109190258,77.44532659133182,32.83441502575923,40.44472439673034,114.90577486220946,0.0,4.812944172397964,-10.728394604973705,-40.927066957170894,-89.97554390185577,-26.380429657447774,-43.900572623740004,-81.38540788465514,0.0,-0.15372056430329542,-10.105199905954718,16.528630188991933,4.174039578367697,-6.547972645600792,0.0,0.0,181.0
13.11906326494667,85.54599156605892,28.547645493703808,36.90954017752225,111.24913772648235,0.0,5.772686180202485,-10.247066551299339,-41.48638309286358,-85.52587823904832,-24.34755699096554,-43.98235898867869,-83.9980344134376,0.0,0.5162050132071485,-10.029611752444247,17.621088459646245,2.2060608193561344,-7.687653147677352,0.0,0.0,182.0
9.184546982179683,85.46923486955026,23.418891671611245,37.14452597638482,110.3472751907145,0.0,5.667622009981014,-10.309078257911287,-39.310168796852935,-79.12227881059404,-20.404192424325323,-46.9716002222665,-86.63368965273818,0.0,1.5144702436219801,-9.946560194921453,17.92988512058035,0.07793087541720971,-8.368610589688293,0.0,0.0,183.0
7.391232133826514,76.12343444046728,17.946107219539034,41.63807641075445,112.48802424535769,0.0,4.228202302203443,-10.984188408392685,-40.441421475880965,-76.50893969151986,-20.401474591847524,-42.647447605818314,-89.0299454412897,0.0,1.6420182617814552,-9.824192856394701,19.046259335867603,-0.3268282097015468,-9.063357374399471,0.0,0.0,184.0
4.554893310882402,69.48126870122992,13.235971927095473,46.25415123961531,113.58830832126947,0.0,3.4254807760107346,-11.256859118930334,-38.22278503190611,-72.96840874258861,-18.92568513897164,-41.59384677015388,-91.51081392691333,0.0,1.9429363964382167,-9.771297801664941,20.382509929953976,-0.7165600696753089,-9.374535289095183,0.0,0.0,185.0
5.766575484456716,63.316302155734256,9.161363139414751,50.74341362030926,114.47039545129925,0.0,2.259111409347164,-11.54831362422454,-34.479375039064394,-69.77813938305576,-17.045910600922163,-44.522329148750906,-92.32904081332475,0.0,2.330836033415782,-9.823391803990958,21.18323973424578,1.3384294721430017,-9.073003804819674,0.0,0.0,186.0
7.3991619805210105,60.46662514381818,7.011252635537495,52.86308521262928,114.58450224040787,0.0,1.5132372739802875,-11.667892053002683,-33.22242797738365,-69.37910385603104,-17.007017810439457,-44.4282645913957,-92.96317335275447,0.0,2.2687802782186526,-9.857126526869006,22.57261069189967,2.0661605487802,-8.908655885028885,0.0,0.0,187.0
8.348951953354,60.41486015139247,7.231353468150995,52.964970829604844,114.39908179388719,0.0,1.3952330529203,-11.682147474473709,-29.326553499556006,-70.5420781369597,-17.234263036707368,-44.780410352608506,-92.08307818166516,0.0,1.788394445149516,-10.049793871377735,23.521017299844466,3.536570467550516,-8.599460996196107,0.0,0.0,188.0
11.300493595579358,60.78471405564979,7.495494933095786,53.300123745585786,114.49895749791274,0.0,1.061346897209225,-11.70703458112811,-25.677484982599644,-69.65390803570219,-17.081323458869477,-44.5598981945874,-93.64082180525084,0.0,1.5655086384366437,-10.11957874033411,22.67614011998227,3.3536143120448156,-7.94815534335641,0.0,0.0,189.0
14.487327681467091,61.55578649885073,7.595616279279784,53.75231950165584,115.50690443740305,0.0,0.7521096325507304,-11.681641323199662,-21.520871041115782,-70.12497393089642,-18.684008059570075,-41.1081714982405,-99.49622175017794,0.0,0.8585609029678062,-10.16142284600464,20.892276898975606,3.8458900044312228,-7.016275371463771,0.0,0.0,190.0
21.74125194287176,68.93759674338955,13.189254872428597,50.28222399943458,110.26767393122539,0.0,1.2665871041136523,-11.613638531508155,-17.351126738265965,-72.57169082253196,-20.91226109693759,-38.394878406725574,-104.23556544249148,0.0,-0.12437792308001568,-10.165375384063891,14.942849727788529,2.5523194146199994,-4.997164686521206,0.0,0.0,191.0
27.819074817545612,71.01149214519157,14.068973525884765,51.108415142293296,106.69511098319417,0.0,0.8299654675635654,-11.614083347515267,-16.8897432016124,-73.45345133987794,-21.61713021629767,-39.15614983315753,-107.59859108032703,0.0,-0.43000254183118364,-10.063925746994054,11.613534262148855,1.8492196067467097,-3.5528465191046648,0.0,0.0,192.0
30.03724894134262,72.99303863250229,15.821179527664508,47.64145941134709,100.89869971160383,0.0,0.8666374027565911,-11.703820777330824,-13.850944203065563,-72.91145782257907,-21.401545232285592,-39.00712474691074,-109.32216399415461,0.0,-0.6172883885806014,-10.084954287444837,7.864816518521016,-0.9002503332628489,-1.9364879243864292,0.0,0.0,193.0
32.56569305238298,75.92758024616228,16.40860677359251,47.83139410562061,91.13312498257704,0.0,0.8748378237153582,-11.723262044727942,-11.735760160082831,-74.33700176571026,-21.970519440009827,-39.749703053080104,-110.01760278725875,0.0,-1.1080196229999837,-10.061317223086535,3.9475127040196947,-1.818848806083774,-0.3016474400870471,0.0,0.0,194.0
33.540256834291036,78.13822531115167,16.342525455505818,47.591991311604666,82.75382053706504,0.0,0.897923976851599,-11.60706835657528,-8.818602485578891,-74.38643631452545,-21.061275657235942,-44.10171076978731,-111.03783966400063,0.0,-1.4653294160880352,-10.018171671949174,0.36550793501324347,-2.538387079635393,1.3633173226584907,0.0,0.0,195.0
35.12564748513836,79.06677342880029,15.36448438709728,46.92476283272503,74.6552321454627,0.0,0.5365465797676239,-11.40127575779902,-2.7179189729758866,-67.41302818091913,-16.198917048074005,-48.95299304614554,-112.03065851460816,0.0,-0.8335877527802574,-10.196076714214444,-4.804178659844556,-3.757567813638029,3.650675698392709,0.0,0.0,196.0
35.87130416833632,80.59898067718215,15.904823863711668,42.98909991816686,69.93774677129869,0.0,0.6850442934357892,-11.181126079240267,0.49331778912174445,-63.421424943120115,-13.511729317003832,-50.81759020140056,-113.6413915449588,0.0,-0.49147190853346856,-10.242705581263671,-8.555374981675897,-4.515947487760047,5.451612257415233,0.0,0.0,197.0
37.771335652419666,76.14415347789601,13.74791153869614,45.924158857609484,71.94279042616697,0.0,-0.5011249244347513,-11.304022596971572,2.100686216409116,-58.137431468051474,-10.551988284871607,-51.720856223406855,-117.65495207462324,0.0,0.22754821128936115,-10.239804889522736,-10.301185144437943,-4.95827199090104,6.559661722145521,0.0,0.0,198.0
39.93059082233024,72.44174994705986,13.21144658724738,45.27285696336149,77.25617956169742,0.0,-1.285110538444102,-11.4753438526807,1.833228686068722,-53.0906169997985,-5.678021435956943,-55.8486026320545,-121.35584710595282,0.0,1.129775999987668,-10.137975445829785,-10.045909746636715,-5.24410656598975,6.940090682433925,0.0,0.0,199.0
39.596003831852784,69.82505270611293,12.602427682890584,44.50075808605962,79.60640581713385,0.0,-1.6819969983929433,-11.459455172084732,1.2011152096322786,-49.27386704919293,-3.3882944538373576,-57.13837401705065,-121.81244323679316,0.0,1.8248422470916839,-10.06936930855106,-10.15999989313453,-3.9967286071795107,7.179238780737476,0.0,0.0,200.0
35.28447682620363,65.138792866075,10.41330042339795,46.628251172775826,83.51553964586775,0.0,-2.1243906921858624,-11.339607333246498,-2.5408621233511615,-47.9268589573595,-3.4443154107197596,-56.427551095145105,-120.58804491058169,0.0,2.5531953628224127,-9.918759867564965,-7.74690209556861,-1.1764606363868306,5.741496182922449,0.0,0.0,201.0
32.94053786043846,64.23726847338216,10.24277024797957,46.26805459014387,85.56543849196433,0.0,-1.9792548947252624,-11.359443096910832,-4.444453511043363,-46.41184721099892,-1.083854193945692,-58.802790147498676,-118.77920163794684,0.0,3.128355900979196,-9.779631589930878,-6.0804083573532175,0.9030219239916872,4.334121311001239,0.0,0.0,202.0
32.06042223718635,64.53028565245694,11.821706296445281,42.65439721878368,90.14790084494015,0.0,-1.6293958509699942,-11.535338064776122,-6.676097373527669,-47.86707610177703,-3.1795956272662336,-56.14230163906409,-118.56617754548482,0.0,3.1960114118401486,-9.727191542499474,-4.153527620815972,2.688176556966064,3.1341329773650375,0.0,0.0,203.0
31.128639186143257,63.64480729613016,11.695299873272576,42.25660241474999,92.30113109010799,0.0,-1.6595601041318109,-11.558451453759496,-8.152459831664773,-48.12811667616994,-2.902926319676254,-56.03536130784958,-118.49408611206016,0.0,3.4028939347064098,-9.636045767816295,-3.353639811835172,3.2418134419603195,2.3726119213096233,0.0,0.0,204.0
29.3597060596866,65.02562007185166,13.184810288304101,38.89112331066763,94.54124675498433,0.0,-1.1328175344645612,-11.643037424937491,-9.328410517004711,-49.98234242504764,-5.031630663716595,-53.587688886985454,-117.11895660839562,0.0,3.2379747709150193,-9.675449168028162,-1.8880237173291128,3.1522045405992682,1.6480109561654823,0.0,0.0,205.0
28.999033320172664,64.92692258372469,13.334733362865107,38.93616003423718,96.52321711092647,0.0,-1.054309200724685,-11.679509526133227,-9.688448830265651,-51.85221019944904,-7.111171943203769,-51.04395928534584,-116.26378703294282,0.0,2.9491489661867947,-9.7506931838182,-0.9397301676131149,3.1287290716596106,1.2548180871618828,0.0,0.0,206.0
24.555875796619834,67.19857340390881,14.716698048322653,35.82717525825958,97.36999706491356,0.0,-0.1859086698657189,-11.676219824801427,-11.224207924361787,-54.87793775431949,-9.273544131749826,-49.09993187845798,-109.28974582328297,0.0,2.677986722048895,-9.90559554417924,2.1262428524588883,1.2118700827758855,0.17566848209278543,0.0,0.0,207.0
20.211947879938176,71.11699054527097,16.70025512631419,33.710285294099855,101.39252438735203,0.0,1.0982971756664053,-11.648495253998146,-13.114741154216587,-58.104096134329566,-11.11731724977487,-46.87429001361949,-106.56159773668479,0.0,2.3650178809988254,-9.97851342935293,5.035038641957642,-0.11482702992666174,-0.9726781005758429,0.0,0.0,208.0
17.51227542372927,72.24713223918907,17.11406016622901,34.55766846864052,105.96539580724578,0.0,1.7480920144713838,-11.616035531972187,-15.210002455926551,-58.53933317861461,-10.79956530029767,-46.84356300213905,-104.06773574196609,0.0,2.595414076324167,-9.92700998363815,8.069077391854266,-1.402480233391328,-2.437692523744201,0.0,0.0,209.0
13.008877402908446,71.2440705075034,16.522490585220226,33.87055182004825,106.3353249891595,0.0,1.885350428638127,-11.533512692495455,-16.13059635431583,-60.22301349749735,-11.891640220466385,-43.351664712276026,-98.28027084330805,0.0,2.5024583200636226,-9.975452969449087,10.705314993442963,-2.5298216242453044,-3.737775541982054,0.0,0.0,210.0
10.67197995021303,68.25727457762507,14.690019898462024,36.55530319422207,108.53572447293696,0.0,1.6836763389352116,-11.57905843173808,-16.250199479180228,-60.080814711017325,-11.4957988295811,-43.057019366461404,-95.90645082358326,0.0,2.617922030788069,-9.941539814001205,12.348465035976472,-3.1098436549911925,-4.638081607485487,0.0,0.0,211.0
4.2522171905929875,62.29311890154476,11.690216537031533,36.72330726874823,103.73673198652023,0.0,0.9804411816148199,-11.234994652126042,-14.931760318779169,-58.83902933421851,-10.120445580646768,-41.75511423855862,-89.86013651289184,0.0,2.9353332164473103,-9.752799674702983,12.410091402259237,-3.889753381855006,-5.100227497669441,0.0,0.0,212.0
-2.178966439382534,51.91981640242153,6.385187089675255,42.49060987552181,103.84962811694977,0.0,0.3173629292826854,-10.86086912347246,-14.666784550004294,-53.1731530913092,-6.076095815360789,-46.22626284160744,-88.43060987694369,0.0,4.004175406724256,-9.245450462416596,12.021401921030403,-3.4937691342531254,-5.207867469317674,0.0,0.0,213.0
-9.95573572752175,41.03847458692716,1.5433824421230102,47.044862847309844,106.98544335863367,0.0,0.3111724389052235,-10.465147922119835,-11.666623124162607,-46.695814738243165,-3.9299375103613787,-46.01647007704825,-89.84734380982546,0.0,4.713338828065725,-8.735892493580666,11.289368359284842,-0.7356574712844607,-4.821795527336456,0.0,0.0,214.0
-18.737839397236147,31.88332895856069,-1.1817076261063697,49.29178068739851,111.80908007029835,0.0,1.1220063237472437,-10.166556578462776,-3.691430313335547,-35.3327444114787,0.5187499214058903,-50.123974802355775,-95.25408942223355,0.0,5.173570890886033,-7.898652384941502,10.340140831043353,4.4942761050716085,-3.7270332111697253,0.0,0.0,215.0
-21.935016634035748,26.83320546581729,-4.150979839110135,52.7851664500986,114.60818357390764,0.0,1.6797181925203541,-10.217366618697259,-1.3726300038301291,-31.65707593232008,1.810979465487486,-51.31003007546576,-99.36807816414117,0.0,5.193214037715672,-7.827433450331314,9.53588012242921,8.187705868346981,-2.839037928052405,0.0,0.0,216.0
-25.73577060207628,31.282285042427183,-8.456192777655971,60.185057255229026,123.26519206061195,0.0,3.5885671194387077,-10.916596064558684,14.441936665527306,-25.863696557581278,4.078487147389307,-56.613331212795224,-106.84723952318332,0.0,2.8816574670718964,-8.277666758952012,6.391872396857015,12.258776027517404,-2.336952982003711,0.0,0.0,217.0
-26.072821242593065,39.978156340429884,-9.753715089049363,64.63763713381157,126.41795861787963,0.0,4.6709009123772605,-10.804460967464431,27.504964762472586,-29.483518967651776,1.758277087997345,-59.440021140287584,-113.13722238829898,0.0,-0.15813248262166854,-9.129563031763324,2.801883848939447,14.225416693763894,-1.5505906574044124,0.0,0.0,218.0
-19.4699142414789,50.16293305174544,-5.664951924940686,63.0936749371967,126.29602089978515,0.0,4.493734571735546,-10.86314166455787,29.50911703130416,-34.93399682676445,1.9873327500496698,-62.74665371068179,-119.3970857673193,0.0,-1.3434667380981826,-9.769811757446606,-1.927385851467486,14.61760907857323,-0.3755777517960355,0.0,0.0,219.0
-11.18978354451882,54.67099138252777,-1.8296291521782975,58.611079742207416,124.39869416787255,0.0,3.4307205185228398,-11.235624789403738,26.225535549841517,-39.436377795713895,2.4679366914677106,-62.26805638780445,-124.58336098389988,0.0,-1.062400239519909,-10.157104500105289,-7.4962762233444264,13.271115276379689,1.2861295167233844,0.0,0.0,220.0
-9.762486128616517,55.258785929226676,0.28271439204790283,55.554690393447196,122.52129659581392,0.0,3.158774391742602,-11.337275457927147,23.942487542054177,-41.63213046572434,3.540251012254873,-62.4390381151842,-127.44933196017637,0.0,-0.7835985842327741,-10.250896853682043,-10.487469795825163,12.49368995158642,2.272860710559081,0.0,0.0,221.0
-3.0133631205696747,49.635449429229176,-0.3225463817987206,51.43376269477461,118.88647002156681,0.0,0.7422699339753187,-11.70789874322577,20.46678316608447,-37.5592464253384,4.674929255666512,-58.23757122007179,-129.0859985156059,0.0,0.6823248717697938,-10.25668408149832,-15.717766602392881,11.022666461711221,4.376318891116998,0.0,0.0,222.0
2.0815917742166326,48.183482211757244,-0.021696758684248592,50.76614068468926,106.42528088445835,0.0,-0.5795540557715113,-11.308096337730852,19.80431236238444,-32.26000841712735,3.9953993388027387,-54.443692766101215,-126.00944456367624,0.0,1.6382944469260563,-10.030615040459038,-24.672138500129847,10.465038626581023,7.5755893900376075,0.0,0.0,223.0
3.794273500884945,48.25561554782655,-0.20174811412933352,51.021618077470336,92.6619580836819,0.0,-1.0584365667396813,-10.283034286621769,20.957816707975073,-29.358608469088995,3.9909229045165495,-54.18844204471695,-121.3696843474569,0.0,1.7677981708552282,-9.71724852968259,-32.4285056446956,11.015783982227363,10.615900882125322,0.0,0.0,224.0
5.575896555394976,45.24244985309024,-2.3347718645249507,52.714542822313774,88.37188294183417,0.0,-1.8465473663859433,-9.680428430853315,27.68538255010231,-25.139704249757475,2.3940383220920447,-50.41421731512731,-121.94187481907841,0.0,1.3481461782370352,-9.461433053548467,-41.20180586935663,14.1233764328179,12.928168585459769,0.0,0.0,225.0
4.888930681058901,43.49389199854744,-2.4212039389047018,51.61010619303015,86.54951183942181,0.0,-2.0557620909163563,-9.241473364380754,31.53460316207491,-25.107756088856295,-0.7258178190371553,-45.72656475925696,-122.31881314579209,0.0,1.1875933877754914,-9.307479463462263,-45.46696477293746,16.03447531862922,14.16222138395141,0.0,0.0,226.0
3.234177820394993,38.80635043678773,-4.4213563053614235,52.98971983064864,71.7760047902979,0.0,-2.275154162285787,-6.469064674895717,32.88324452816536,-21.668662589351676,-1.8562261676759633,-43.438853529717655,-115.76646271438806,0.0,1.562274734822267,-8.358050205662401,-49.65828145570275,19.283471918519783,15.423515525132023,0.0,0.0,227.0
3.708044230756362,36.28779724024956,-4.502511558391496,52.76930839449784,60.54472591980001,0.0,-2.4544197914867465,-4.053865930940443,37.86552270280862,-20.484985819989372,-4.684537511205003,-40.98002850789724,-109.32266672847175,0.0,1.0874959007277636,-7.173565249913607,-52.38316152999635,23.083262651704203,16.11578840984843,0.0,0.0,228.0
6.570534478194983,31.925272640172512,-5.111652771471209,55.61288206420951,54.310977865036335,0.0,-2.856635175065564,-2.1706195827016352,38.310711636170005,-20.971679054530348,-5.829089912679511,-41.34230249375011,-99.89125712269008,0.0,0.8320441593076807,-5.802581791175543,-49.75949652799196,25.76695562029674,16.24982513989651,0.0,0.0,229.0
9.21671198741586,28.443159491689492,-5.646600873814086,60.68445339208263,57.96468751314921,0.0,-2.9435061939908977,-2.240072716727291,36.64989997361,-20.101348017516795,-4.581123673557143,-46.08892786903615,-94.10480731408032,0.0,0.427920512492345,-5.071959376493516,-47.343922822554156,27.89761559671247,15.84729959268502,0.0,0.0,230.0
11.03385212620215,27.87954200068984,-4.148625557884877,58.46018938636067,61.4166547800051,0.0,-3.49804627113649,-2.7887805585751217,35.905773017790445,-20.523612746063318,-4.724588011922114,-46.84677065201123,-90.95208812326744,0.0,0.3688151226500909,-4.644778462813104,-46.65549256527109,29.068078671408063,15.257858755995105,0.0,0.0,231.0
7.09296922141967,25.83721509099193,-4.254098120583344,58.6171290210022,66.72946183667544,0.0,-2.9273274190247447,-3.3378174550063133,42.537538349464526,-22.004554382206457,-6.3683180132463,-47.1611934931544,-84.13796320951047,0.0,-1.0737509367093445,-3.250355018130893,-43.57802672666522,27.924751829238836,13.376199621842883,0.0,0.0,232.0
4.256714117998677,27.57210009348721,-4.157797004991057,59.30477976336304,73.02794851757446,0.0,-2.294919439064858,-4.798822025749193,43.55147819181467,-25.564780154429485,-5.946614596473539,-52.721495219446155,-80.15092792263178,0.0,-2.3540260669743343,-3.0858473008825986,-40.36000336760062,27.422256314087015,11.667863157264625,0.0,0.0,233.0
-0.47502530125018516,29.52245917841843,-2.7235674228954285,56.052007495253015,80.03700643698306,0.0,-1.6786603006036744,-6.195464176629209,44.11869551639598,-27.847365775118934,-6.135273337526309,-54.59972959374092,-82.70471890142463,0.0,-2.849223750023314,-3.719147071379631,-38.85142276918384,25.802669995281388,10.2390028275591,0.0,0.0,234.0
-3.6212703755649667,31.526476575059053,-3.3797750904842925,57.23634200588029,85.70501836555417,0.0,-0.8898284216295959,-7.4363403706860165,42.57541953336114,-28.443978386174468,-3.4409950430833165,-60.53914481292495,-85.81616377015567,0.0,-3.2613989134130237,-4.763035341266095,-34.69285000605765,23.69326277281039,8.788471252708487,0.0,0.0,235.0
-3.641752668787437,32.97413030389893,-3.495773745368588,57.23356960183135,85.8225742531148,0.0,-0.8058795831601849,-7.664968547136577,40.2148504137477,-29.88411875958263,-3.6625951030396453,-58.6872511090044,-85.70374027300888,0.0,-2.6946762111539493,-4.963226326891279,-32.385122645033114,22.662306650524155,7.900476204748792,0.0,0.0,236.0
-7.484425021282196,35.74086915972442,-4.382304328005077,58.664325962354305,92.43141780239118,0.0,0.2221378086775049,-8.94614035061795,40.15086620080904,-31.52626054379436,-1.4109810525760857,-64.11974880292698,-90.62678375261919,0.0,-3.3029396205199317,-6.113835816131308,-28.603081998207788,19.893654450897152,6.869560468923863,0.0,0.0,237.0
-8.475203211420313,38.947491819589516,-3.831297393103782,57.901392142333215,96.81226199123303,0.0,0.645209005094081,-9.73045667934792,37.26821548182825,-34.725925695569565,-0.8365840803446323,-64.64285003838003,-95.09750656588015,0.0,-2.99133495268462,-7.152849763627783,-24.31082202668514,16.72457086013876,5.724723549070351,0.0,0.0,238.0
-10.353333861593162,38.96391921651354,-4.264065531233442,57.19278784404225,102.66890184799101,0.0,0.9112069738199371,-10.306885384453137,34.83060663298936,-34.732884402818556,2.1468653734263605,-66.56255338174374,-99.49259385613709,0.0,-2.530084195074475,-8.011249133048796,-21.424091709305475,13.611470370060848,4.9406140270513434,0.0,0.0,239.0
-13.108219263417798,39.75715613114772,-6.822480748047178,60.62072247783385,106.95707987501804,0.0,1.7008894044525642,-10.771890572751614,32.11611006338156,-35.9442483106482,2.8906779443830666,-66.09043906141314,-103.63390015230783,0.0,-2.0105250035839464,-8.661776813785066,-19.356058909061606,10.809617711599024,4.191076110453623,0.0,0.0,240.0
-14.222979567740051,40.71270634876984,-7.0625853509127525,60.991811047814636,108.41433856039887,0.0,2.027529115286834,-10.884122508185497,30.440769384930864,-36.041833515139096,3.830943526160423,-65.99917123153578,-104.7838140182056,0.0,-1.6202074966347089,-8.890226398841865,-17.983899242441215,8.695434374303469,3.539303014243194,0.0,0.0,241.0
-19.0395012759249,41.7891748946433,-9.519727656591295,64.67407162261422,113.04189326334271,0.0,3.2491468116058453,-11.013996083316664,29.3530443128047,-34.561955652207914,7.205032704402149,-67.89422950525463,-108.92174339321559,0.0,-1.2494095106798138,-9.320600957035781,-16.851908049566095,6.268651682951284,3.1370145243213283,0.0,0.0,242.0
-24.591645217245627,45.13641547263718,-7.69333015582059,64.51413196416348,117.18135805242449,0.0,4.791928383794067,-10.639442945160598,31.425989345692788,-32.85362051362017,7.2433727886998085,-66.40199478008286,-113.64491671719605,0.0,-1.3956673968737565,-9.502481752863412,-15.664039487841574,3.4543437809770206,2.2458441107948777,0.0,0.0,243.0
-28.188198385748485,44.89099397142842,-9.454951274832515,66.62392333216181,121.33163533771832,0.0,5.504971377127931,-10.399864992360621,33.29723507905292,-29.573091768261094,6.673629105934239,-64.04673826858686,-117.83156915950549,0.0,-1.3701528118324957,-9.54977800306883,-14.638512025498137,1.6449090605290049,1.3600083827434193,0.0,0.0,244.0
-29.744657858079556,45.17623124438869,-9.31569900816275,66.93083564255309,124.2743619759758,0.0,5.890471347856267,-10.201509230634723,33.22593172258725,-25.65386268108684,8.803212757723141,-64.52648652060275,-120.22553441255886,0.0,-1.075869808191314,-9.601402912185131,-13.77930025385014,1.0290931849171574,0.8423001513156002,0.0,0.0,245.0
-30.638926979361866,43.75721257322755,-11.745314925286632,69.014901138141,125.35549714176584,0.0,5.902736397080681,-10.18166714096741,32.62889073457052,-24.612819559226082,8.773255421284759,-63.9731500590972,-120.87080228877734,0.0,-0.8641599000994443,-9.602962743335167,-13.224370621235565,0.4787244729239283,0.855398402191451,0.0,0.0,246.0
-23.107897853490044,44.36753678622412,-10.759401392297619,66.16075181344844,124.84706208398345,0.0,4.397917274583356,-10.919412569875034,23.030065112684365,-27.794806172621854,10.50405561487692,-62.06483495552494,-124.06704204970276,0.0,1.0732494083464497,-9.959578239855528,-14.235321170792417,1.6468652353674404,1.217910902212511,0.0,0.0,247.0
-16.068711766127883,44.15527227564943,-7.8453966319898845,62.42819678222029,119.97022990775069,0.0,2.9285083085803536,-11.345402910310657,14.158182715699086,-30.593114109746328,9.365780391078623,-59.17288210757799,-122.98985167254914,0.0,2.6811241335716103,-9.767950417189894,-17.46752248573604,3.2894366646957214,2.9697162666294306,0.0,0.0,248.0
-13.45622716760696,42.22388896709428,-5.653823837849516,57.76530518212652,117.92052363804326,0.0,1.931186744863791,-11.405586477827644,14.79086243630296,-28.383794134065628,9.338023102641001,-56.955245784173556,-122.93164547578407,0.0,2.967909505919256,-9.622605004435803,-23.748203804081193,5.918430744341677,5.384002081507033,0.0,0.0,249.0
-9.049511649549189,40.078378980711065,-5.6988001832821675,56.11924092520227,115.60325516701452,0.0,0.6429431976187873,-11.415412700069904,13.48513832792559,-29.059113431994028,7.169056498124873,-53.64671354581604,-122.22151938645322,0.0,3.3244345984494306,-9.515555630475493,-29.77744505819658,8.483601051004975,7.5374326638679126,0.0,0.0,250.0
-7.326575391864092,39.42332042005436,-5.832361739572112,55.45255548407283,115.27280559421823,0.0,0.14829899586996556,-11.41518855424734,13.289043424806827,-28.413936735269402,7.317865153254592,-52.64182015686254,-122.81610020082375,0.0,3.521624927378998,-9.459732250707582,-35.16118206086234,11.014439774257715,9.08252147571712,0.0,0.0,251.0
-10.360761336544332,36.524643026635374,-5.52034461674544,53.598482158246554,106.45665184482446,0.0,0.098321466414488,-10.556600353851332,28.98534108570573,-24.263295440916473,3.4855971512424637,-48.17747204640935,-121.78350517328634,0.0,1.5987147334446772,-9.397448656989784,-44.30381300323209,14.790735548717425,10.737507854718686,0.0,0.0,252.0
-9.742414705985546,36.943129880194206,-3.212629894475353,50.48738002851686,90.70355328311929,0.0,-0.27594231455834206,-8.59906065526716,36.40214820377956,-26.86681656452308,-1.3038726549229502,-44.91427090123785,-118.54535131145596,0.0,0.38249641377765814,-9.011243333397342,-51.5391453138152,19.366081433550164,12.057212139139383,0.0,0.0,253.0
-7.011646364353074,33.64163600404061,-5.16350158503038,52.121030662670414,74.17440624911713,0.0,-0.9693355658590576,-5.805203041850527,36.296909462569175,-27.654533426356647,-1.5495124161725284,-45.784288006391364,-116.50132708748411,0.0,0.20677035450702055,-8.873993260854201,-56.501324587627174,24.19766434748558,13.619801188083928,0.0,0.0,254.0
-4.4053785278347934,32.47541922947221,-5.3742675698913756,50.89667420678509,63.37341916246708,0.0,-1.5937819651595093,-3.70553958028803,39.4932057477295,-29.43236422642541,-4.87799882648525,-42.0703226364506,-112.18161091880317,0.0,-0.060975433861281285,-8.199530738992353,-59.09656837160047,28.264016093332753,14.836552685816352,0.0,0.0,255.0
-1.3799589698310017,30.478728289687155,-5.630974609829209,52.401122139068725,64.63424023415784,0.0,-2.1295603382077197,-3.7232107995227928,41.878054925211345,-28.11365859065183,-4.606823928440623,-44.6435661277614,-110.54994603327657,0.0,-0.7191791729142905,-7.8527838216496635,-59.852477062230854,30.7844037861513,15.3938330960787,0.0,0.0,256.0
0.6626468785890416,29.293097183859405,-5.8691885697028585,54.681258818463554,57.17709160840194,0.0,-2.150539858799073,-2.125845561330251,45.05881990224354,-29.285996058470577,-7.042290030761312,-42.9882504035794,-96.0370802038504,0.0,-1.2323974850939141,-5.586779607145167,-55.725415354652746,32.19649835915574,15.350322127027033,0.0,0.0,257.0
2.8466499673512846,26.49864870221903,-6.707321770730543,59.5611936283245,57.79520977657172,0.0,-2.0803501126095205,-1.8066253385239557,45.868225942628065,-30.138292109942796,-6.916425800566264,-46.39726175428208,-85.82280638050204,0.0,-2.040480965821266,-4.095794706625566,-51.343891169332835,33.16144627210263,14.746210725145882,0.0,0.0,258.0
3.393004219975395,25.46482427879308,-6.036793350649158,59.73006804166889,61.52710731693529,0.0,-2.1836509525386587,-2.3108713246788506,46.67474326329326,-31.308101245202963,-6.670213028663761,-49.99257936707996,-78.73794102250241,0.0,-2.8606884047863987,-3.115100835139453,-47.83226336210224,33.50581434674248,13.583083521835242,0.0,0.0,259.0
0.49801697687231117,24.247583116482655,-4.54522806731776,57.19495709237249,69.67923870379437,0.0,-2.0316739910440917,-3.5378502392445097,44.9136336763004,-30.828598500529875,-6.428406057532557,-51.75316111091998,-82.48546510774136,0.0,-2.7516350258315265,-3.8449911959095564,-45.88349655941269,32.9627969042694,11.774075846787458,0.0,0.0,260.0
-0.7199666460872227,23.819167309694357,-4.184126392689691,56.136556718575505,72.35226072978134,0.0,-1.9848395175514773,-3.9258210348150797,42.845177116241544,-29.843371920931602,-5.310973437171375,-52.377239152470786,-83.89550628340008,0.0,-2.3462096617412835,-4.248815231489479,-43.17437101176996,32.46787630329705,10.530107033256115,0.0,0.0,261.0
-6.777573112929931,26.662487783201488,-3.3145768048004283,55.239604020873564,84.4093316097912,0.0,-0.8632661197374977,-6.4220058120561525,40.58854172887989,-30.597055230184232,-4.084867556271502,-55.25553365743771,-90.51343391282754,0.0,-2.3005011210488204,-5.623975636849837,-38.779421684117395,29.61234604288603,8.372617907656538,0.0,0.0,262.0
-12.45768656225943,30.13393557891724,-5.2264071532636,58.742877444943964,97.43013028508747,0.0,0.7547527553480454,-8.935418724259707,40.36657740168229,-33.540918114191115,-5.228989819056812,-54.276565448476404,-94.88465819253116,0.0,-2.38856604903477,-6.3628970972535015,-35.524529554693906,26.65757988340582,6.709675788089985,0.0,0.0,263.0
-14.032949967072133,36.15236340508356,-5.387266868422789,59.72201446473326,107.75742205142247,0.0,1.6828114696710859,-10.513137327585286,38.619954494745365,-33.48544293175198,-3.9915956674524407,-54.54101983190342,-94.95132153671707,0.0,-2.0336304186336043,-6.609648540820298,-30.750776456678874,23.62681513811777,4.889976084986493,0.0,0.0,264.0
-16.495481786745284,42.14379164237973,-6.494006683363594,62.48998155348268,112.83878686537118,0.0,2.9120926924475437,-11.010637590657158,37.61205885317955,-36.39182911600788,-3.5928473900031674,-56.54113194408208,-97.12547304240601,0.0,-2.3181614134491726,-7.2233373750771595,-25.99792798316561,19.935654538069166,3.8188377511226115,0.0,0.0,265.0
-15.910981090942617,44.58942457644987,-6.949915846826881,63.531350176135135,112.9414263949717,0.0,3.0509409591326406,-11.099208861532642,36.827116857229065,-36.79668522415439,-1.233665934325633,-59.87820319250246,-97.2971799830488,0.0,-2.446800617893426,-7.548868140125936,-22.797088484184357,18.03579851415974,3.097060807353961,0.0,0.0,266.0
-16.637764957372227,49.314091337051295,-6.473303165827574,66.4845835466032,110.18909736070228,0.0,3.880582198709825,-10.90737177822524,29.922165576231944,-42.68599625168414,1.3249913777206128,-65.58135840701998,-101.5905952779199,0.0,-2.1248610142612923,-8.901888800816684,-20.158797159331847,14.854819353398264,3.1950877020522257,0.0,0.0,267.0
-16.14773341313222,50.751158848710396,-6.933219608950956,67.36467104516684,110.14559135555483,0.0,3.913750164622184,-10.955055107026523,25.164173484359345,-44.67560140376946,4.307165537510869,-68.77692464831273,-106.93176317776434,0.0,-1.4754189110341085,-9.68314779952866,-16.418176461292862,12.175719486057174,2.6062004300745474,0.0,0.0,268.0
-14.360703406302376,49.33507610932202,-7.473181732434093,65.68448458058832,110.44737554368096,0.0,3.229546662574859,-11.143515124993161,20.34999650898378,-44.07960251696398,4.877372421603588,-66.58945831224864,-110.26797992836718,0.0,-0.3629547404732793,-9.96136133277417,-12.521992945051387,10.458734058583685,1.7679967673410648,0.0,0.0,269.0
-10.804135203775312,46.92904199614395,-8.29167689486487,63.67929522169491,110.23059214227386,0.0,2.030150056690832,-11.354623876097305,14.368278902931353,-42.77344037429213,6.702507454120475,-65.40722656023011,-111.4745971822746,0.0,1.0708246449452805,-9.995987823540572,-7.7742103952761195,10.043980824496245,0.6520545912470515,0.0,0.0,270.0
-8.832693221961616,46.155067161642584,-8.6931771885593,62.868774990284514,109.88468998935923,0.0,1.4355093744056207,-11.419397765371606,13.397943842024446,-41.52876991241692,6.9773699823141895,-64.39284378208117,-111.40166907862788,0.0,1.449556065336061,-9.91829387949286,-4.610542144729786,9.593832947857457,-0.36558714969523914,0.0,0.0,271.0
3.746666361442152,42.34188052334674,-6.972070061298516,56.55663605144464,111.5401669310357,0.0,-1.6999176099067093,-11.41673126792985,-0.6597581277094015,-38.74426453814291,6.038156922968132,-57.70765757805933,-114.21195984210414,0.0,4.279507413928085,-9.28479658013327,-0.3449449128783896,11.288011712060529,-1.4531468954353084,0.0,0.0,272.0
8.35281585605865,37.57932957311051,-5.910803009023998,54.01189376576368,107.17380624086907,0.0,-3.2000709186810132,-10.73661163013997,-8.980282587880444,-35.67847969794881,5.482720015417221,-55.97967622754822,-110.2267327443322,0.0,5.724577732829001,-8.43218197160589,3.958855502545072,14.46097112226551,-2.2061062709867967,0.0,0.0,273.0
9.664271846351268,35.43137269671279,-5.555210718734075,52.341082021055456,112.59509892646577,0.0,-3.692176486045652,-10.828248155639015,-11.534938976154233,-35.11408312147077,5.485745064977658,-55.31507350570072,-116.48047355111325,0.0,6.049718308002763,-8.3233041297391,6.9453285448935915,17.11306644921806,-2.2436338171647208,0.0,0.0,274.0
4.556002185529779,35.72860302748269,-5.581681145653563,52.522012687076504,114.81267966947912,0.0,-2.729121165108078,-11.118191282847121,-6.169701146066021,-34.223371103130795,5.142086994945285,-54.85862865472402,-120.52378286828188,0.0,5.419776454701173,-8.7456922244266,8.269169718618574,18.959710342066764,-2.058531053816432,0.0,0.0,275.0
3.4615128879522037,36.20713816686024,-5.7464341927685805,52.70837938607308,117.07151840552987,0.0,-2.4440462842172117,-11.284062141358211,-4.262155184427787,-33.99473189579257,5.132837594454335,-54.59083634538527,-123.52515511994841,0.0,5.177974013940454,-8.894663718394256,9.135304510606508,20.86431188990963,-2.2166612621823054,0.0,0.0,276.0
-6.982313523232223,36.621017737982676,-5.427856363005716,53.58757734663839,113.05774310055476,0.0,-0.419849217312956,-11.140834434178192,4.43072051623771,-36.1803095825329,4.749868404771996,-57.079440158853636,-122.46308871619163,0.0,3.547314765310044,-9.636406209435789,10.864265419092423,19.551921159573155,-2.2875976520372787,0.0,0.0,277.0
-13.830315838881273,37.23226927353979,-5.2180684100547525,54.423706077026495,111.50103248089015,0.0,1.0421764434771983,-10.893403091888516,9.635087079395467,-42.55316149035969,2.304561180860221,-58.61105134561343,-121.71110275890169,0.0,1.804917009340056,-10.118904707702491,15.85668655334304,19.20561418324481,-3.627801384047672,0.0,0.0,278.0
-16.870783295133776,38.367663105925715,-3.1746838805860187,51.59408291006696,110.72759316738963,0.0,1.5129869459691492,-10.650461230404815,14.208818542772411,-44.83109960780723,1.32491160515956,-61.03619667667666,-117.48875557191481,0.0,0.5973198730222505,-10.20387703335766,23.428674551072696,18.470762911973083,-5.584809676714674,0.0,0.0,279.0
-18.966811441158008,36.61676155411464,-3.6927615286006374,49.186178406471996,114.54850441012498,0.0,1.3802640028229707,-10.826954784169262,17.703372521886234,-46.12714553575985,-1.1985318008358574,-58.75429389726711,-116.49308997242672,0.0,-0.12928313786281867,-10.165690332155272,31.438301895065372,18.290333048551524,-7.330466255200335,0.0,0.0,280.0
-17.76577052122039,36.01221971047249,-4.312287453885937,47.67641488418481,117.32986531985001,0.0,0.8571236898535808,-11.090783214420313,20.15751003347254,-45.772836836449734,-1.4007908550319248,-58.754324895039595,-116.235306248036,0.0,-0.5020067450933622,-10.10819090702235,36.534996748590885,18.52079702661758,-8.541431641607462,0.0,0.0,281.0
-26.585651314259337,30.472101927026312,-2.99915811904306,43.39420347289288,118.24699900665088,0.0,1.4167573417863966,-10.520181415447588,20.617525276692543,-42.92989507331206,-1.5850287555381888,-56.184332907792836,-114.1334908181452,0.0,-0.015139597492295773,-9.930971033271495,43.622866029573075,19.276704339573246,-9.693265811376754,0.0,0.0,282.0
-33.782012951440215,25.52977511589911,-2.865767557953555,41.941202139527014,118.79480152954584,0.0,2.1375194384133276,-10.014927245806224,20.404511581897776,-37.82438501767677,-1.22695410780437,-53.5267290135201,-109.36130540114871,0.0,0.8988352461602742,-9.376050816708451,51.956097867561155,21.021325322549746,-10.725751831797673,0.0,0.0,283.0
-44.623006201857585,23.806783234367238,1.4854784582105418,37.037105040258275,115.59540306104103,0.0,3.367090751230168,-8.494124255529485,21.334949808543314,-33.265819545211656,0.7721901574131954,-54.60361335303849,-103.09989925713154,0.0,1.243864821105584,-8.539704258372126,57.787061639746746,22.97562770290248,-11.24376427806587,0.0,0.0,284.0
-51.37823859630826,23.381775530702004,5.56313913557533,32.98275037654872,107.71570796039035,0.0,3.9959047661216296,-6.30741833812646,17.720404838575107,-30.355455420232467,1.852044385224869,-54.377247769906226,-97.81176683189423,0.0,2.1920047824113373,-7.748157839249746,58.260637585310356,24.665133394867222,-11.885526952194402,0.0,0.0,285.0
-55.14949880418339,22.152554347081907,6.689471685040628,33.857915615074084,104.20923449931041,0.0,4.834406665275868,-5.222454964487914,15.962354011196075,-27.789101332935388,2.565255799090576,-53.91800453895533,-96.65031115296662,0.0,2.767371592715436,-7.331877924242725,59.15795542347909,26.094622929733216,-12.386183368944714,0.0,0.0,286.0
-49.80560788230549,21.778251182007416,6.121661161045608,36.97197003500239,94.63316151088588,0.0,4.501002501883954,-4.114192369077403,10.654720692764355,-25.386602185764147,2.101692442705204,-53.565093862070746,-83.19383341533437,0.0,3.7034390788173015,-5.220620395320631,55.31315049833841,27.474680989186147,-12.665557991637298,0.0,0.0,287.0
-45.60834322516695,17.82015190444242,3.24687222536224,45.53373114432787,88.1883275229746,0.0,4.990528432607624,-3.654480406841725,7.438153620274398,-23.1042822997928,2.788755090544663,-55.695938363721694,-75.9044808724493,0.0,4.042750958882525,-3.8182819659772567,54.6602417197408,28.175589490363436,-12.591903287788126,0.0,0.0,288.0
-40.885418104897056,16.665385335622442,0.43157175676058895,52.180776469353034,88.67310987568477,0.0,5.034622210033209,-4.434880584778038,3.680336384837993,-21.615160230728026,3.5265377797867887,-57.59892853430692,-77.33296643351709,0.0,4.511941451246148,-3.81148214645091,52.62676636148276,27.886019576356652,-11.990968302312146,0.0,0.0,289.0
