JMW9912/AVATAR/install/dynamixel_control/share/dynamixel_control/data/csv/.data/0708_1131_WMCA_Dance_SPE_select_vector_Visualization_Scale=Arm.mp4_motor_degree.csv
theta1,theta2,theta3,theta4,theta5,theta6,theta7,theta8,theta9,theta10,theta11,theta12,theta13,theta14,theta15,theta16,theta17,theta18,theta19,theta20,theta21,frame
0.0,0.0,0.0,0.0,0.0,0.0,0.0,0.0,0.0,0.0,0.0,0.0,0.0,0.0,0.0,0.0,0.0,0.0,0.0,0.0,0.0,0.0
9.649319727643547,14.872477575450356,44.48237426537669,128.74156541157006,139.51964638549958,-1.0158599429078414,2.50867714813242,8.522739954555496,1.4514198988844094,-32.93928063313951,-48.61345470292434,-99.82027310439109,-136.03048391827696,-3.8588830007820056,-2.3184235290693116,7.766651694406882,-4.139992772558148,7.6767637577301615,-2.4052022056058338,0.0,0.0,0.0
-8.150268646648605,27.813110043715035,41.26016382163497,116.19716817173624,128.3014402090648,-4.395961207012299,3.723271825281848,10.05146878878568,13.02342280131539,-40.611202137244604,-44.33591744844029,-97.31405158913732,-125.29228685562475,0.2739977056510282,-2.998668322229022,9.431479456778932,-4.246485876783475,8.930110898200201,-2.1265245378368927,0.0,0.0,1.0
-7.274589049933843,25.737415825597303,40.68546216983848,119.90308794591792,128.66325753269294,-5.350521081545297,3.728061871351149,10.52772410784273,13.468531112750929,-39.310270796858724,-43.04443627344811,-98.75477734166917,-123.48552908096612,1.1403547041555269,-3.0280345659997323,10.008174584532544,-3.179002799707754,9.444620435259795,-2.2566627715187972,0.0,0.0,2.0
23.211250961152952,-9.218044285220408,37.01783425512226,-179.9686046967598,138.7562751087637,-7.5168794900568106,3.127090195307447,9.262431312400587,1.816070627383774,-19.714832607786278,-42.461572732445546,-127.36150265971438,-129.67128896242357,2.9653585542811496,-2.5941665954542255,8.597483924416482,-2.202894314789281,8.822300518402065,-2.4441157149322454,0.0,0.0,3.0
22.256122571092845,-7.042531878578647,30.65911089468582,178.98493241586482,146.12910847098712,-9.023603879127005,2.5655036281673076,8.561139705722221,-24.116948488810717,10.727136316712084,-37.367712131902415,179.01000643612315,-138.210726717472,4.3480531069458035,-2.0191896219399883,7.666221898259602,-1.442970011955779,9.549432402681884,-2.686482736307858,0.0,0.0,4.0
23.48951789177429,-5.64012162823835,26.15728495240112,178.8877760499274,152.3993336902737,-10.15552010511929,1.8752713718193998,8.054648959439575,-23.53906409549362,7.618404470758712,-33.31000882723912,-179.7430367730769,-142.8301945416935,5.279076700062753,-1.3693557147262183,6.953069459754896,-1.4446573550377322,10.480202646285003,-2.7271785942499185,0.0,0.0,5.0
25.20618789611517,-5.922291858053455,24.61607940385761,178.057082115969,155.354678472085,-10.42376715417872,1.4428944707810527,8.145262429287314,-23.623064423845804,6.997917335282484,-32.17679744474168,-177.97134371543166,-144.7421013142742,5.378782626338124,-0.9090663805459412,6.9634320183410185,-1.4704747642108276,11.387547625952957,-2.588486945130326,0.0,0.0,6.0
25.185404744551064,-5.178255854952856,25.288646491200026,179.45346745349804,153.79356742851482,-10.935194013350536,1.267989120689745,8.158633595099905,-21.695058379891528,6.390580020640241,-32.83678938291488,-178.95448582859103,-142.30236688333054,5.826591638292708,-0.6928480249469449,7.030104018411909,-1.0292918185687656,11.504234069456212,-2.4619471689537535,0.0,0.0,7.0
23.694782203109153,-4.600827232947663,26.770375332232817,178.7973360598918,150.77467273908871,-10.982645856108281,1.3941798305954434,8.372327571037799,-20.047284841702503,5.912765379036679,-34.52572375534675,-178.9886630343269,-139.0384703097701,5.956254788555481,-0.6192659809280563,7.48494745065976,-0.19340513202879814,10.92116806722308,-2.1872819616173023,0.0,0.0,8.0
23.74231841846682,-4.584705651039866,27.399298340836758,-179.7974544287411,147.6298148510046,-10.921650521146356,1.5030703517993953,8.335008133133107,-19.821126779494243,6.025507570284642,-34.50595930610613,179.29380710233403,-137.0570865733598,6.364481816388393,-0.5154976855752528,7.718693299433707,1.1674858269626867,10.136477789874503,-1.9638044871919023,0.0,0.0,9.0
24.302568730070867,-4.093461458839757,28.345004683094338,178.79086388543573,144.85838893870786,-10.589936727087625,1.6147571028306098,8.151164434351406,-20.12939992164741,6.381995902760949,-34.2944325939083,-179.83787136992626,-135.6890989657615,6.707793223139712,-0.4064640301593811,7.8574634209401175,2.1917542101667995,9.671170221553691,-1.7118763757454387,0.0,0.0,10.0
26.48411180456256,-4.809067145027984,29.868916472350666,-179.9794989041891,141.1843353508959,-10.2007017099801,1.7668707848166199,7.989774849032658,-20.713236942036293,5.804324799587376,-35.05364675501951,-178.41610306312927,-133.58531999741436,7.190485242136626,-0.3758851813046345,7.888884868114573,2.7086443651745924,8.856724378975985,-1.589369728281162,0.0,0.0,11.0
26.964669614373157,-4.302896859929346,30.436968489212422,178.47056122183236,139.7521440248956,-10.090838737151303,1.6331244535268306,7.70128477250975,-22.73781813064477,6.248475227233633,-34.80559609085916,-178.7493835443361,-133.30723989546826,7.541364627033235,-0.28228769348926763,7.702287895988805,2.985213710378096,8.680634426185557,-1.485370514445888,0.0,0.0,12.0
28.76728908032462,-5.1255962339527965,30.616904699898413,179.86339314170374,139.14331893870687,-10.03705918587886,1.5865544425144051,7.352605674786124,-24.672724818805825,6.012821248089625,-34.76601277406958,-179.1381879170269,-133.7915965178467,7.767843845623093,-0.2553973364304121,7.410373186702346,2.810131387230324,8.441376169193898,-1.5152068907685716,0.0,0.0,13.0
28.968773589703286,-4.873179100314777,30.808115023337937,179.37071206742098,138.3085712378281,-10.21385472028781,1.5394764933244962,6.996933193593918,-26.58775836278746,6.548850155312677,-34.4371944066978,-179.78931249692286,-133.65923410932783,8.014131060597872,-0.2748279117536809,6.990128827946842,2.5433287284876718,8.499170316039473,-1.5947436871232523,0.0,0.0,14.0
27.21403361559134,-4.640395932157197,31.928405449891613,179.60573351979497,136.37547943436155,-10.467584325965513,1.5932204131067136,6.8404926710993275,-26.592647298340367,6.786758980528677,-34.838446360892284,179.62332706439287,-132.84157039283554,8.248677471332655,-0.416190633243982,6.713002800686189,2.2098003180892984,8.494244083227883,-1.6364483179051659,0.0,0.0,15.0
25.435203496813394,-4.479255492100855,33.226496622277296,-179.90299614954347,133.94790789834698,-10.802711712409693,1.7630457559861537,6.827210664527609,-14.175244274905658,-4.346114824577566,-36.02384345118434,-159.98158195868066,-130.71446409098144,8.476341214708748,-0.7193557295780624,6.580410546238451,1.8800627269864707,8.484153687196423,-1.6303585017000217,0.0,0.0,16.0
15.196738241965264,3.093958636856712,33.83487608954616,164.49983581303297,132.07843002041787,-11.037703164573234,1.8491377807383367,6.83714249293824,-8.19456142344813,-9.922433725104838,-35.89276917824647,-150.53021146383574,-128.70051867845385,8.539611711127009,-0.8723534723339986,6.490809073781561,1.6526648837040023,8.515376335097862,-1.6112769188716445,0.0,0.0,17.0
-2.344616374026721,17.126725208932637,33.3714474425671,141.24333938682958,125.4650449623914,-11.158437418758949,1.7982340281711184,7.523422189930498,2.4942814122017323,-17.038877987268123,-35.99766996706978,-139.51108467902398,-124.26664523283318,8.674064977226495,-1.1857465212571763,7.155951675819197,1.5809350976360819,9.7662787281866,-1.8378043085700608,0.0,0.0,18.0
-13.039645137025692,24.63900966475733,32.16485650235457,131.5607740563781,119.2878262202851,-11.104529704529376,1.7985011673616311,8.294653258920896,10.208291778175054,-22.32709206903276,-35.42944296589227,-133.67909393963052,-120.18187973255844,8.685976536701505,-1.4258326053819133,8.052332170580774,1.6734986554779954,10.764810321948445,-1.8538367304150125,0.0,0.0,19.0
-18.551406179522562,28.23004150330755,31.02693879369511,127.3982957665558,115.35325592721344,-10.841223496537152,1.7024984927352595,8.67258868069768,14.44372974384156,-25.178888346828202,-34.68424886945541,-130.68502626255318,-117.4871529482936,8.48739281544046,-1.383051494667325,8.569043726016726,1.299211407243883,11.307633324071716,-1.88831104360851,0.0,0.0,20.0
-18.449108199314903,26.212893321119736,31.90838536973333,130.21971557207146,116.09168792957004,-10.17500400789896,1.5131427409739149,9.121038653045675,13.542305976125242,-23.238245406528915,-35.32992564661414,-134.09064798905396,-118.68329271873499,8.06001730561291,-1.5699239610673608,9.05097487851967,1.3656217001568713,11.9410340377011,-2.0184084096027086,0.0,0.0,21.0
-17.599909286333176,24.35642250084703,32.28046357153711,133.47879679833113,117.06479030128283,-9.84722976101509,1.373371153192256,9.35141007800236,12.509511001123832,-21.761859323394276,-35.51936243849717,-136.4718735084062,-119.51351412774255,7.659717277252989,-1.6311085416556934,9.44045984401171,1.1977553366157916,12.44149624006832,-2.059456376633137,0.0,0.0,22.0
3.623201048906117,5.9953049113330605,35.6026982685948,164.10659238620198,128.08345261861942,-8.575777620883573,1.199484340969644,9.862868178023483,-11.163242253141641,1.217082326027762,-38.07261012320421,-172.303827865621,-129.84108029966998,6.2720335390686355,-1.941512722288071,9.898066000034785,0.6761255538552975,11.689015390382538,-1.9988642195914261,0.0,0.0,23.0
16.87335290819477,-4.333901915349096,33.65637273160377,178.8279518544712,140.3110820899442,-7.121528824876549,1.0573186309487086,10.009428034675146,-21.81142560488719,8.432293629215074,-36.442188850366186,179.95586393813971,-141.56778273343238,4.212319298536339,-2.0630556069087294,10.263181121866218,0.292860711394031,10.941840339543784,-1.9981464685220736,0.0,0.0,24.0
27.22009237548834,-9.084634867569234,30.883421770376724,178.29768402881186,156.8332169920629,-5.354384270531213,1.0425502678906076,9.618088493545189,-32.214083206699755,14.135646455470752,-33.7647550251052,-178.15008021208786,-156.570718575218,1.885335716159916,-2.048144757982707,10.10197430482127,0.12515634315623472,10.297848606861612,-1.745708542986198,0.0,0.0,25.0
41.40779059268768,-15.980214859819364,28.78293969654277,169.95855014059165,167.10264360519108,-4.020528757432784,1.6925076740528022,9.525920947927808,-42.820565438317445,19.87924618805899,-31.710677898061057,-168.89817686241474,-165.35932798032638,0.1753382189699196,-2.3949147179153187,10.07580814343393,0.5619751974998581,9.677536148321005,-1.4654387096562917,0.0,0.0,26.0
47.11725925266628,-18.412938010812702,27.751077210040197,158.86433081334917,170.1358987028277,-3.9913778120919075,2.3681634688742474,9.72841314897832,-46.71102390831214,21.338152534604045,-31.587750441742248,-163.29497770949774,-168.4713884405324,-0.033659316085496854,-2.8989013507676544,10.289373881794798,1.280721714184021,9.498014807671739,-1.3667132399325836,0.0,0.0,27.0
67.4698375945963,-28.180992773645382,19.39188645373745,120.69901840873652,172.343661998953,-2.9542454055746212,3.50674158278914,9.671535293994536,-61.6740981862673,28.840647571153955,-26.38320243508151,-124.73871973847734,-172.67197701630565,-1.3611778558367222,-3.5590145991355904,10.364275956121714,1.583614439129792,8.697940501126862,-0.9887663608009113,0.0,0.0,28.0
80.69400285797519,-33.56419487105533,14.40124425317316,97.60929103346429,170.17936381060187,-2.6459030396775307,4.818293549591196,9.914170313766402,-69.55602894952965,34.07675445475982,-21.629653251886115,-83.64596425795018,-169.6107977499844,-1.5089435129997342,-4.501815555333932,10.792800849991092,2.384877780066823,7.0061947988370425,-0.7014405223002045,0.0,0.0,29.0
88.20986723369376,-37.29321432407048,9.71628534152131,90.81525381780448,167.9211505916939,-2.855269927838907,5.5683939457549485,10.455439502202264,-75.28241851563988,37.660527640810535,-17.194388090262503,-70.76817130786652,-165.66528424707553,-0.8440662653643346,-5.054110268806916,11.307669667749412,2.916156324645902,6.654945368695692,-0.535397058395976,0.0,0.0,30.0
84.50278092617772,-38.33242185940512,11.302852551319692,79.14409379331671,166.6210971041593,-3.401325775045445,6.028838596375928,11.244879884287782,-67.77867374801971,36.90522408392656,-21.592782622788047,-60.74774552661136,-164.06590262558936,0.0805001656273406,-5.402910892737629,12.09734813719842,2.997427968725074,7.37441334886379,-0.40296869533510576,0.0,0.0,31.0
78.88194805675599,-37.5402907382877,14.251960185808667,70.55729641416097,166.2658425889413,-4.047553827260651,6.183329052156726,11.696134488197304,-60.37859739620149,34.527082560695746,-25.782938379096027,-53.090139046081866,-163.26378053429215,0.9098691143847811,-5.598319131640463,12.521016327062828,2.889473713118837,7.989152937973429,-0.486351782249318,0.0,0.0,32.0
53.18722244700493,-27.98530225659696,28.349133561385685,50.31612211424874,167.41490496329376,-4.816295480013399,6.1652276742741625,13.289368201753176,-36.31502177776977,21.535746845662207,-38.98510667899421,-38.990290135871064,-168.79843790222523,1.5262908554063748,-5.24575535896646,14.410900283058565,2.6070061972606307,10.279942888740406,-0.2852479093352728,0.0,0.0,33.0
31.615150886155295,-16.844140154341613,36.40216061125052,35.692461985275386,170.99766432834798,-5.157778037045353,6.1179712525672425,15.121211825440074,-20.14310489486469,12.359304201861784,-46.8335250237318,-57.63512421199386,-177.0162411090194,1.6007057640633762,-4.898437651116454,16.94366265806367,1.9328151777528746,11.5693100272808,0.051366892623162415,0.0,0.0,34.0
22.456127505887423,-9.674011982925228,37.89698106492676,34.178916328384865,175.5614260142786,-5.471931657965289,5.776115765823374,15.772636714566882,-18.887302779210394,12.319642308768062,-52.47600385583784,178.93228706704636,-168.77398796898328,1.9867534366944133,-4.434299987861613,18.58614090583,1.4770224846435454,11.944704569338455,0.938283678609163,0.0,0.0,35.0
14.977539760915588,-6.348295123920958,36.38528879719844,35.86103945263878,177.34862172045683,-5.482626977240421,5.421085157513189,15.560738019971744,2.5901737022999405,-32.132515006581244,-55.64533515001418,-117.4011539903285,-150.27633157177243,2.160826816533098,-3.8731759350904786,19.542100870507156,0.8435010090224688,11.271264883872288,2.5277752025429665,0.0,0.0,36.0
14.811231266179826,-6.01343663477772,34.533178156874385,26.508992440298478,177.18733255932307,-5.708848665684972,5.35621426123813,15.131701405734365,15.041298238417845,-58.39423150350233,-45.68804529734032,-88.98536611271884,-138.21786042802412,1.9859075836555435,-3.8274611016772084,20.05865769493816,-0.3456230645834707,11.591381977024295,3.946920040646451,0.0,0.0,37.0
18.777381683084798,-4.897131248687053,31.44142684958123,156.3368828765346,176.94073386666176,-6.512986514858318,4.503977131288985,14.638270409378535,28.902440974983932,-82.71458719067186,-29.649904425951487,-70.57588357987785,-108.98769429908299,1.557537207743608,-3.3842988474784668,20.578017539676008,-2.788394649053726,10.618241848412953,5.547950310629853,0.0,0.0,38.0
28.01281933851406,-8.610333555242525,28.749213823598826,164.67784897869754,174.03200751834353,-7.374562690236691,3.8675199333066095,14.340260623240809,35.901114067048695,-83.10197723145635,-23.240817851163282,-64.14720654692236,-101.25164814891471,0.3107674274674396,-3.1277388646981095,20.52522741551135,-6.668855270113526,9.976889957527147,6.880385881404185,0.0,0.0,39.0
39.10706992409733,-11.92979403539301,28.389331350685655,168.03188706319537,171.80514837639993,-7.909418576655891,3.619768925000059,14.231845718535068,39.19908018406376,-70.78595941264254,-16.55107779261016,-66.05528450144281,-104.59536310248166,-0.7422742178316356,-2.9827999643537635,20.433078432975343,-9.9091798740014,9.66356637394522,7.822462709960069,0.0,0.0,40.0
47.06828526421691,-17.01370985075645,27.795316282864267,158.57517186521213,172.1842961770677,-8.024342544024677,3.7116012552722784,14.086693844418294,42.398969409320664,-61.39116463147892,-12.425429041857697,-67.38717949425876,-109.35331577591221,-2.112362412035896,-3.19390539573941,19.843594233348448,-12.799963305485928,8.802843112134406,8.172021884826695,0.0,0.0,41.0
48.82123721862548,-17.929532857972287,27.6095136051492,159.12607482876805,171.8451037530244,-8.927251568797603,3.888334585187078,13.566957374235471,43.64659845908056,-58.56056212642394,-9.977486267695163,-69.88634065302324,-111.4660415894147,-2.697278105718361,-3.3068272363405256,19.22151001263844,-14.60136732876701,8.021218180659366,8.402797484139887,0.0,0.0,42.0
56.575338615064865,-23.732249738635502,25.50699034392723,106.00841853672291,173.9265634643514,-8.31570377834139,4.38862159641928,13.467489148232834,45.16001475204008,-51.31562450740792,-8.986557279243451,-67.83333691918796,-114.18831133992241,-3.477754634737839,-3.573465402981373,18.699520922762883,-15.037510990537175,7.93299366998736,8.314816971686637,0.0,0.0,43.0
58.59490367760911,-25.86698903378734,24.367975294685245,76.31080563980055,172.4696838554178,-9.031567762841544,4.7714468430924795,13.18321287665384,45.917259386084126,-46.855008928569575,-8.654399319928622,-66.41033850751593,-117.21308840497387,-4.041909585941388,-3.8678173194829597,18.340269761456057,-14.637728788488992,8.22095802693685,8.126778791797271,0.0,0.0,44.0
56.87847652424656,-26.944483378991894,22.47289438862474,61.028848321091324,170.6219943559864,-9.947915185313231,5.040813946556826,12.803546445690236,45.71209764679472,-49.8310868279886,-9.264052386948137,-67.79139457098437,-119.37640769623657,-3.7960767888901192,-4.328195066606538,18.265772199860393,-13.500350710760355,9.901813832457238,7.791925678938389,0.0,0.0,45.0
53.337327756266404,-25.11620863270111,23.215843790896454,53.03535207247046,170.05922702410402,-10.332383916477742,5.147604483323491,12.355405798665181,43.990946960116865,-60.29992467465522,-11.545690178739067,-71.40126731351255,-119.84386707472845,-3.236632490744515,-4.767119197439449,18.418174472268024,-11.842652547155529,11.76408019868908,6.972512808585022,0.0,0.0,46.0
53.278880728671375,-25.41998662786041,22.398965557200725,44.93309518114278,168.60598427401519,-10.378977587623,5.397772932140543,12.230156658724333,43.164526771500185,-64.02174703834972,-12.895000750168814,-72.51629792601341,-118.80245808993976,-2.81962077337367,-4.8848238914453335,18.429486027163218,-10.993546779272938,12.708727367837666,6.381433918817291,0.0,0.0,47.0
51.528781566484895,-24.855484865023264,22.238093781740286,59.677656457521174,171.15936403194686,-10.596923523801452,5.107537900377799,11.25871205737586,35.860093865308755,-83.21672999280702,-22.324612553149187,-72.4008132090789,-115.82557964491974,-1.9065139432147709,-5.0968880113510675,17.12264445815829,-8.919528744782582,13.364931084644944,4.9337039022227245,0.0,0.0,48.0
56.83214919982851,-25.16102322690678,21.247257811670043,61.20322545483184,171.91848704633983,-10.252198755859178,4.814840652768273,11.056447299944267,21.492559934837793,-74.86735703935743,-37.53203374228803,-75.24446406247328,-132.101562059673,-1.333769172780792,-4.886622972785196,15.60275955059763,-8.521194883332877,13.231874772527938,3.6081821302537196,0.0,0.0,49.0
64.20770728663211,-25.657638520982985,19.64797925893565,71.01753724193114,172.31605825727638,-9.921397428405385,4.520881092314426,11.133934378390387,-12.09867946609802,-27.131643408776284,-56.13920291876333,-113.75261440522962,-157.61321589159223,-0.9255459953587944,-4.700508556043347,14.047347251693118,-8.28441637424444,12.268693735665005,2.4985544179607344,0.0,0.0,50.0
80.60218237390716,-28.53614317489091,14.115714956267162,91.24668657537802,172.52350579368573,-9.607922270231926,4.27876310844775,11.004446779508033,-47.52622271892596,25.99572419199486,-44.21570913732585,-163.96531748878712,-171.51189567892686,-0.7212546417105584,-4.696556521891742,12.521622890501215,-7.879773468965624,11.740252737647115,1.5627156747466717,0.0,0.0,51.0
84.43728133724113,-29.572267219109488,12.365555491823024,92.5263776283417,171.6936403595414,-9.316386952160965,4.3652260686933895,11.097729935677059,-55.251311381808456,29.111604781272288,-38.96954161634191,-151.29159958191238,-171.99383574662684,-0.43814592097767907,-4.79042833689254,12.087930705663956,-7.6786270540836306,11.97100977697035,1.3627272894715714,0.0,0.0,52.0
73.31225692472718,-23.33865537731039,22.983512145278105,97.95768552836088,169.066261458202,-8.726510892987525,3.990626966437443,10.55533735409858,-78.61128968358051,32.208222844825706,-26.23749667069689,-107.85749745702613,-171.87071560743792,-0.12801729034760242,-4.425494860783053,10.80520223868258,-6.48703015676811,11.38185183104373,0.9180044911220963,0.0,0.0,53.0
63.36212223278899,-13.009175598501983,31.520106533487827,91.69596095064294,163.93595751635925,-8.108133348402395,3.8241555232058335,10.128722975888127,-80.4250872602865,26.504035770519046,-29.704849294527403,-115.60189228406952,-168.56341813899738,0.5082831506246107,-4.120696944142392,9.938794614906955,-4.9920680470607985,10.41662109623315,0.6169771949997435,0.0,0.0,54.0
57.336909259434854,-4.034607754989693,34.93716966970589,85.95513443754113,159.40656794805807,-7.560315572238178,3.5795199827440953,9.509866296911804,-70.47384530297465,15.252722675414098,-35.683773229152386,-107.08483961332009,-164.2860834280598,1.001973161066845,-3.6296626829338816,9.439467335833623,-3.1647237821058978,9.665784622125075,0.369967141967063,0.0,0.0,55.0
62.48900781844838,-5.017893074026891,36.454566517814605,97.10494011444487,159.14340038638332,-6.878756462605207,3.297443702540118,9.629054160658981,-70.2145901592988,11.158750328473689,-38.07147558018824,-114.67386287523425,-161.7894472927509,1.4372997117700013,-2.992090478709966,9.92151861052318,-0.9415613479656633,8.913423587663383,0.3018436334830927,0.0,0.0,56.0
64.28572220521302,-5.876817746875904,36.88390674570008,103.28201972533302,158.30570775558186,-6.412019872350328,3.110574159585771,9.696196605769241,-70.46003647840378,9.252461900600162,-39.62777836857983,-120.12428203759175,-161.77800448424293,1.5463995949102958,-2.7051619025469793,10.25206113265182,0.060554327422558965,7.734192479939443,0.01006507601578537,0.0,0.0,57.0
66.00315792107524,-7.926432884128849,38.05564819583637,106.17335977320614,158.29638899321827,-6.221005945002493,3.2613572960082804,9.766913472560628,-73.89135412348087,12.525773063283026,-40.08700601325212,-126.57175727562391,-161.3303515433694,1.8054415566198465,-2.7895000948843425,10.442590952418701,1.2974568119074268,7.981351658714272,-0.27318850232105385,0.0,0.0,58.0
68.0130241551742,-10.517988135882204,38.7050722446014,111.79820094977036,158.82914713832173,-6.36683950120466,3.554876784152603,9.925924641066159,-74.1781513480161,13.50938527938467,-40.96939714318324,-131.3990345726609,-161.0342004422528,2.230672450168191,-2.95085313818941,10.746262614593745,2.9877896888785096,8.85624184946947,-0.5876894786796378,0.0,0.0,59.0
69.77999410311652,-13.592449132800667,37.59844335628734,116.55357431605988,157.43469072374066,-6.494681863243835,3.7801647586552463,10.095051098801514,-76.0272471583408,14.346540644860466,-41.83254020669189,-141.10791715186477,-157.70225280153176,2.673366608647589,-2.8315442624293863,11.079484502613239,4.59186060075376,10.251114495084915,-1.0201604955134878,0.0,0.0,60.0
71.76260658552326,-16.549752450356262,39.07187521262714,124.07772940487682,156.99629456694234,-5.781200271977916,4.448794859587133,10.537867551531754,-75.18214369552447,11.275344593591203,-44.968923300449596,-140.04393721860325,-151.4406969834848,2.846819926252108,-2.6013997527980846,11.783464926063798,6.3076989232326754,10.02483716705388,-1.0609404228366635,0.0,0.0,61.0
73.21119494845593,-19.346105926969127,38.62368962552783,126.1591920190244,154.57772834137668,-5.20920577947065,4.943453350909759,10.31280522177347,-82.46961739796727,9.093135400991944,-45.530208146417884,-130.87129161203075,-142.14117393793188,3.437754652009408,-2.3697201792333957,11.83372821026685,8.130927516405395,9.682344400777321,-1.2966084566438132,0.0,0.0,62.0
69.48916553067504,-6.346271132794092,43.06434346106882,104.89050906412764,141.39323666425585,-4.706158068259127,5.051962660831875,10.128336854105681,-61.60782065633456,-29.681768511195223,-47.7781069739503,-90.63460076938078,-124.85526959136136,4.375866730478652,-2.083550749079546,12.048207235826826,12.492932516428322,10.464054770978132,-2.5405486234675894,0.0,0.0,63.0
45.24393238922817,24.291726460997324,46.33949556685809,69.05246574135467,130.5024761151162,-4.022251467321818,5.1798541861653495,9.97479383429517,-48.43893993597043,-55.05573967452694,-42.08264004610525,-66.43690305472212,-109.53230356025246,4.806373781573011,-2.2835273034803985,12.390960539735456,14.4624972613797,10.407233855877267,-3.404515254357558,0.0,0.0,64.0
29.50241487449867,48.63413667789428,43.16726327209336,48.753184101340835,123.98242762265332,-3.662940311832127,5.07270422604881,10.200909203953323,-41.27498445451795,-71.60928354045271,-35.25110667502184,-53.057788331387286,-94.87491505036623,5.412469437398822,-2.4512181937016013,12.693831614950081,16.747875437373885,9.305779317034938,-4.748153221372275,0.0,0.0,65.0
15.161187213972946,74.61462718949286,34.11048222353829,36.44915130525319,114.5989863668664,-2.5382395964916533,4.46097260460747,11.374500333617537,-37.5215021988945,-87.8762258139629,-27.543811083526972,-42.14675886016225,-80.49253043342003,4.571377215340437,-2.4684225129779054,13.60639139537216,18.064188361288767,8.431892077721534,-6.21539487366578,0.0,0.0,66.0
11.091437824563027,84.02343666207338,29.691244058089694,35.38169801436521,111.5346612850771,-2.8773653904889542,4.605082205487432,11.8801766005804,-38.114294442631284,-88.58418552289427,-25.733609533515736,-39.67731286058143,-78.5727402553503,5.347019129975515,-2.6359716273531633,13.874474759436287,19.691077461256274,6.316328227585034,-7.513363070552953,0.0,0.0,67.0
8.592887595880915,89.29860092740186,26.95542746320872,33.506210556026105,108.02870092567433,-3.4330184470514973,4.531060472484264,12.929497347928722,-40.55480447744425,-84.79273393679105,-23.321887441847537,-43.21505637326023,-78.49018569645793,5.766710046938032,-2.7361612964192163,14.324732505099009,20.595255866653183,4.84350277239821,-8.459552508885949,0.0,0.0,68.0
7.722617544150579,83.98033968917305,23.284612766631692,36.593522359415104,110.23510088805675,-3.724743848717305,4.8053595775097895,14.407805072173424,-43.0130184827756,-84.36851304926903,-24.201652832836285,-39.749074726805404,-82.33114974520558,5.758261567894223,-3.308909614356715,14.814368543350795,21.858324198489612,3.345411262612909,-9.531337265324789,0.0,0.0,69.0
5.256860510571827,79.14033086836561,20.219324095217452,39.00391784642152,113.00795430175398,-4.320387987217728,5.532293906040307,15.742937988231924,-43.82470134255912,-83.52425160281369,-23.90173914093281,-39.96176562304827,-85.49662423905943,6.3016930648777265,-4.049420901022592,15.265487060050756,23.46748547009086,1.5416181232570194,-10.547953979915144,0.0,0.0,70.0
3.7985292565072863,72.77069933303261,16.058702261682928,44.18859863367577,112.96771380060109,-5.152059747982932,5.8511777354247005,17.416424859823646,-42.351484648917484,-82.20114479818946,-23.2716971947316,-39.76758908652907,-86.09339793900615,7.228594698774163,-4.618491439113275,16.135411384772386,24.406267402971547,2.391861658993853,-11.14893163193824,0.0,0.0,71.0
3.8979708440893464,71.66847245712815,15.68038010321395,43.615898850791204,113.45787659152663,-5.834261015487112,6.482663613201426,18.776686969148436,-41.4299704703562,-81.17604390906409,-22.885112944718845,-39.62748848793148,-86.80847155246401,8.03107043359393,-5.2300800108380106,16.68184599587544,25.987945176162015,2.7958720319423533,-11.578045056833735,0.0,0.0,72.0
5.935370841621161,71.57649633592428,15.941222160483266,43.66780002854461,113.33218675257643,-6.6727964226875205,7.156148541052004,20.15824484834093,-39.91939306907322,-82.5406769688877,-24.159065806373178,-35.916320681121626,-87.14414682774147,9.01105197505265,-5.8699064680363575,17.79278455821142,25.87607121607242,4.900195578319719,-11.186896272931211,0.0,0.0,73.0
7.5908333943106685,72.39763083851031,16.726867851377392,44.315520858430155,113.43641063364923,-6.964704253796403,7.513302316338001,21.938480105274827,-37.19201006759624,-79.65503412256908,-22.831664703071464,-39.58134570415188,-89.05937890140373,9.453685118053192,-6.615762594011288,19.412188952800964,24.50780323871247,6.6368674141920945,-10.229294400814261,0.0,0.0,74.0
9.259523658834402,72.39253348347255,17.145652734697457,44.40130950719414,112.56356370001568,-7.1281588489531424,7.626869168429957,23.32231528625029,-32.947471660860174,-81.11361918395247,-24.34293589062619,-36.03461345686486,-90.64461807109541,9.88302546765985,-7.175686412557447,20.64990990967647,24.237116123217433,7.729079066541262,-9.350752961629778,0.0,0.0,75.0
13.273915272811568,73.24038624283205,17.129074090781952,44.89667309928519,114.64841421705813,-7.274437591467991,7.739574437893613,24.063851138874668,-24.454339296795496,-77.10270704640514,-22.60146095863261,-39.84665957080312,-98.91197295132632,8.313389690622659,-7.9512906779399,21.48954461849058,19.802587716516012,5.592564123727299,-7.441405080779837,0.0,0.0,76.0
17.480564635769316,73.53403228144231,17.005700544935603,44.98390538810368,114.8019625937692,-7.441054235885238,7.68674598759954,24.150923452462926,-21.41376337083609,-76.11749318691449,-22.617154718782874,-39.97541682286555,-103.45645439896559,6.757217958377055,-8.043363706853977,21.435721448137976,17.081909544947678,4.4214291147533125,-6.025129004043187,0.0,0.0,77.0
24.39146090947387,74.87197016660896,17.89722083076396,45.50725622298037,111.62004056693941,-8.288063528702605,7.386230023362576,23.82535294788869,-21.037861214129126,-75.96466848324526,-23.00799513775444,-40.539005256235654,-109.23602493188044,5.1493745188631435,-8.1919561382488,21.40029123214261,12.740578085793006,4.476240581818696,-4.254921447891261,0.0,0.0,78.0
28.41498110232132,74.03100131689882,17.696650058916802,44.66772044624719,106.0316611095863,-8.695034189035825,6.95544613621314,23.487932242093922,-15.54047027813279,-74.00492242659217,-22.2643643219554,-39.82052349003421,-111.09430250370029,4.386839165081009,-8.293564477242485,21.167278196899044,8.99060479939616,2.458169274041857,-2.562492507114346,0.0,0.0,79.0
31.958298885716296,75.30538768148394,17.830484278953694,44.17514848525555,94.53967144611447,-10.114906825496965,6.288947495421886,22.742930331154927,-10.604380766590934,-74.52629159026124,-22.502115356508646,-40.10955510725548,-111.51335925014695,3.988837643449065,-8.057234033564189,20.97587606428978,4.386761418107923,1.7393333983655195,-0.4167349292361579,0.0,0.0,80.0
36.30455054999298,76.07421751463683,17.38502657767931,43.74977867835543,87.92789474995838,-9.958324284028365,6.172911457911156,22.435938481112633,-1.8758389968544136,-71.43921461187394,-20.334435129565797,-43.16621825946381,-115.24422300777215,2.8500511644802105,-8.20050835333568,21.214946178757852,-2.0067858824012554,0.8530673512272547,2.336808654518119,0.0,0.0,81.0
38.836476710227856,75.97179427359103,16.859022968757355,43.276747258596984,83.28441697287765,-10.34191754247268,6.332112955526873,22.015038763676447,1.9749887861164859,-71.00924811222292,-20.132362913676985,-43.19550635797545,-119.21931414322493,2.4914010899833703,-8.233398272156832,21.669067261898977,-5.957578332051143,-0.055732904884972116,4.143758940092906,0.0,0.0,82.0
40.553923104613474,74.41393905082508,16.244719446640147,42.831343154951924,84.55767877753394,-9.890407679110098,6.720034155415243,21.72439692776114,4.450412187190777,-67.39659965936096,-17.56926153836433,-45.488355421247874,-121.99073272711672,2.4430163623048577,-8.298575922169572,22.217133503672596,-6.700732839520094,-1.4940623795070944,4.938292204714898,0.0,0.0,83.0
41.82895075505823,72.46676829552354,15.511569921481515,42.18649730455418,86.09961402768722,-9.202687711427357,6.897355821543804,21.7243788970312,5.159956459982001,-63.59466713464539,-14.759176262593614,-47.21983778483019,-123.53977101835758,2.4044582870569973,-8.344941865060974,22.67209086006154,-6.53382262651629,-3.136253580167983,5.206441620962213,0.0,0.0,84.0
42.7865823811133,70.41626555441644,14.94119314544133,41.48611910745966,88.29775936763635,-8.80097977602956,7.301034710174219,21.52229856142214,4.176075995699235,-62.497580768141646,-14.201642921321794,-46.4031924397655,-124.82526873695568,2.887342029572623,-8.573375826866943,23.161193173706867,-6.542974512672068,-3.6196799960858166,5.562355854884804,0.0,0.0,85.0
41.96826804428107,69.42557492649533,14.721604773752132,41.12557117817712,89.30608046919149,-8.583208849406885,7.544337955703491,22.075442354874543,2.4259606290759783,-59.8696391568953,-11.758804119805676,-48.600070321553034,-125.87878698710863,3.108197456712022,-8.83541964515576,24.0615421469917,-6.922180905757912,-2.6112790841558833,5.5198850107132635,0.0,0.0,86.0
40.80959298180215,69.20258264980718,14.594785443097301,41.025475090390934,90.19615826612886,-8.530420905806226,7.637196612499009,22.474218267630732,1.2789174665582226,-59.78322552104881,-11.485327064748295,-48.384634796287955,-126.22169404912776,3.3987797171482845,-9.121250645940961,24.539704528193315,-6.919890786980599,-1.9993808482921833,5.234013446578633,0.0,0.0,87.0
37.66565704526613,68.23252298413546,14.651058443430335,40.80932660776359,93.42420189384359,-8.47341392793997,8.35000450305521,23.32031759438479,-3.3601685648649475,-59.84025837961562,-11.432155470081563,-48.39029775468803,-126.54879146699366,3.8762571731260387,-9.523826200177389,25.55183747889654,-6.28279650749309,1.294958157641389,4.620932201289038,0.0,0.0,88.0
34.12546897768824,72.1842620627801,16.80631834152688,38.38176657593097,90.82304516239412,-9.158381832045828,8.161264967697731,23.794189762947923,-8.473878207190985,-60.75329766152447,-12.237713106968213,-49.23759541636344,-122.23110179909145,4.78291146258926,-9.087160089302964,26.03162604495638,-5.768584370583448,3.854165153388148,3.7392417537656018,0.0,0.0,89.0
30.487354811563055,71.38645356029846,16.92256138103261,38.369145021313315,95.92449080458462,-8.206152384434843,8.410794243919979,23.825984318335255,-11.941704781233575,-60.17277092081219,-12.273606548516211,-48.87808160958449,-119.16848134881809,5.259467418607967,-8.575145030614571,25.752250175190916,-3.1474192398060246,3.78882669073309,2.466817561063575,0.0,0.0,90.0
28.18984152080552,71.3370780974673,17.42448367148739,38.78120469326557,101.16026448836108,-6.730377406929333,8.738562701771928,23.654336099093193,-17.43755591223604,-62.7556184222122,-14.676810377230716,-46.39902386919974,-113.52981340867116,6.356454394146059,-8.118684167569105,25.281307846851412,1.1164245494542446,3.1441345382616483,1.0620688062654506,0.0,0.0,91.0
27.155703484332662,74.13147651135212,19.515992174129234,36.06460383389012,103.37212947358945,-6.084759748538973,8.880102705233172,22.987098707514658,-18.638571332404776,-62.877897457316166,-14.727712560855458,-46.277150404347104,-106.99326376331744,7.28230897507823,-7.591830198512497,24.60886388933107,4.39113711599565,3.3240531951316914,-0.061833471157273286,0.0,0.0,92.0
18.110391359920996,72.70798205108684,17.66277393191673,39.39825073376079,101.64193527863793,-5.751152814885337,8.695563976572311,22.973165610363704,-19.016439082994992,-64.81551859613849,-14.625748946149695,-46.57599430560934,-94.27225110697613,8.679581916090575,-6.75765071256228,24.169610172786243,8.281266359074765,3.092333789903541,-1.6416607645952463,0.0,0.0,93.0
11.093480217016108,69.12501533746588,15.529081725465531,41.91077937485311,103.7737082468729,-4.52812983252586,8.687984591400262,23.203189318150766,-21.158780076895805,-64.80488483630613,-12.692372750557668,-49.93135045987463,-86.1007895233172,8.907838007453725,-6.495850032952752,24.222598828086532,13.036078405005085,3.56797276207481,-3.5855705137234324,0.0,0.0,94.0
7.623535130540858,67.43048817551401,15.169524810110609,41.24083966005173,108.40904321206773,-3.580602633998938,8.820987838163733,23.174255427208898,-24.624694517049157,-65.74562553438933,-12.554143497134763,-50.044439827349926,-83.37694966226047,8.908008503664636,-6.623914821538089,24.04926491150648,15.39684433573131,3.530673692612624,-4.867107977417738,0.0,0.0,95.0
5.52959880858412,64.98293441318523,14.357175249303168,39.74484517445723,110.81909657902094,-3.163021660384565,8.66175934641027,22.991666270496435,-27.599807775381418,-65.97290396974101,-12.037485981351841,-49.81082483621663,-80.89495616198523,8.75428144162867,-6.5476765701404265,23.847294952341816,16.552049214186173,2.668330900238521,-5.946139151988862,0.0,0.0,96.0
4.685131318506337,61.56625953822741,12.100950537064156,41.72472120568933,112.28526591668944,-3.23119228582423,8.595743397440101,22.937355417676137,-29.07694949123705,-66.23595071866967,-11.772695907306334,-49.738674512338065,-80.38572392374208,8.77284887383384,-6.491207516315515,23.736303575714153,16.584124084529133,0.9580047064227457,-6.5077369928002415,0.0,0.0,97.0
1.3475755690054136,54.75913868164714,9.090554828305,40.91878674845531,108.1556170069966,-3.176930876359038,7.626911448675221,22.495699982632736,-25.472391005439945,-62.14668916858095,-8.050217311114451,-51.176248589402334,-76.27530668887555,8.171174226830708,-6.099874130101099,23.33159368116709,15.315449206143951,-2.43613948941284,-6.573298743070324,0.0,0.0,98.0
0.7922145790930223,48.30838881079858,5.243025894813787,44.57917852355583,105.41304355159662,-2.82015267500078,6.773258259493816,23.106316075486912,-23.6677210741334,-58.755123366447926,-6.710448892575906,-49.42370520139395,-74.78173315563527,7.558515550231276,-5.9777777629447,23.204563656512367,14.091783500896765,-4.35971641507963,-6.280604849983185,0.0,0.0,99.0
-0.40740691170245513,41.98792593943132,1.8567367408353985,48.3122170116294,104.47206582260092,-2.360372637806731,6.1862071715873865,24.43039884371641,-21.952257973000762,-55.54183587437486,-4.898061321260721,-51.68639683507404,-76.83589399561559,6.749265308179777,-5.841385696474314,23.724795111669508,13.57545627355437,-3.296734915164634,-6.0431855425017815,0.0,0.0,100.0
-6.828460853315744,34.8388345784568,-1.1365104877416257,51.17568402948745,108.6549152545011,-1.000994524622483,6.247938258617868,26.240245402524607,-18.429112747827503,-50.75951916393243,-3.4412756919015424,-53.072125747023776,-88.29971520175398,4.9105572990544335,-6.543833148371519,25.05187801084349,13.90451287605882,-0.9880215965805613,-5.843245217539362,0.0,0.0,101.0
-8.534829113928,31.867285127290376,-2.7149019551863622,52.94097215324813,110.39233549178324,-0.0822568742185477,6.22420875751821,27.793045171714905,-17.28209886549409,-49.466503111618,-3.5003514210883138,-52.35336294569774,-92.5095118281728,4.1113357251168265,-6.698723461407728,26.062716486617525,14.139945331617342,1.1923280643144505,-5.207094042231246,0.0,0.0,102.0
-14.512417461984244,36.31134269282217,-1.050039309422245,52.288071478670204,115.79931480765569,0.07481848844103064,7.422121747076392,29.488528611343376,-0.4689937215208532,-45.99428084754874,-5.780491889631162,-46.60075161540764,-102.3070114851195,3.934345093250766,-9.060487353640838,26.912780618250473,14.096611168431775,4.66883453324878,-4.4019150009775085,0.0,0.0,103.0
-19.653771290218685,50.43271152969611,3.2202915198527315,54.93796623030756,115.73155295204131,-0.8979386964104458,7.963131151152518,29.724401776616627,15.892685177083848,-52.21288009315613,-13.171965516816915,-39.881411260954366,-108.13336727372959,3.4704072297796613,-10.680419284164024,27.453722176573887,13.34678112267215,7.136669669043186,-3.6702042729577076,0.0,0.0,104.0
-20.13150532866298,67.92366707093626,11.314623795472235,55.96401537152853,109.1365257658691,-3.166267071553504,7.913346693842663,27.932980815747243,23.714118564016445,-63.868006259717795,-19.78342929055515,-39.76989095535257,-109.52419153422254,2.9935279983826146,-11.03557099078963,26.511750793065747,10.239831435826678,7.170019541079917,-2.858086098171801,0.0,0.0,105.0
-20.369051181608494,89.34527657791074,23.973834013158175,49.612288098162594,93.73239969559481,-5.723755056554535,7.572236302472493,24.830401976356395,27.97478919148477,-82.65919464001557,-28.895704355663955,-38.13480594658798,-101.0106011712282,3.547095121933975,-10.754214589777114,24.300088008091947,7.584386694346728,3.9338739023996263,-2.2093372966931004,0.0,0.0,106.0
-17.489878121580688,81.18341407280477,27.59834876771485,54.44443456475269,100.01155752900026,-6.083332046512551,7.5259364805254165,23.81381246223942,26.732451169571583,-89.6920285180216,-31.454619859389435,-42.45666877403434,-97.8214240668658,2.5802102808309866,-10.046427286944407,24.50179731200261,5.616941464856163,2.844399606354739,-1.5308251219066844,0.0,0.0,107.0
-16.578800371608665,66.67205345608235,34.097440639288855,63.4662290949034,109.74413260634813,-6.874131014005371,7.770275077126765,22.63565950630539,26.201106869985168,-77.86799125925926,-36.38967823272674,-54.37191328752065,-105.45835258679962,2.177539092970509,-9.87618921897104,23.89242116997551,6.105083073637834,-0.0298018022870943,-1.498802044780573,0.0,0.0,108.0
-14.001685715969618,51.77018559940797,38.22852097774912,80.43849149464491,116.98766393742409,-7.793108447420794,7.891137879204176,21.937735445239166,22.750695476879695,-63.110891967796775,-41.489550249240615,-69.08724593755429,-114.69085527209313,1.855489185559761,-9.570985617230354,23.590588754914556,5.5285786835060176,-1.4913626956045731,-1.4155677738131283,0.0,0.0,109.0
-12.147271316415631,37.83312512008073,38.625780965832995,100.76628149772375,119.70055534708486,-8.946148975362625,7.8083592661182415,21.57121132408445,19.839354095277884,-50.86835247813584,-42.435844096552856,-85.83058010043716,-116.74227113215929,2.248243615657095,-8.958476411059385,23.48147498995445,4.739009662880071,-2.527840119450582,-1.1598864417719263,0.0,0.0,110.0
0.3296353984611368,16.01320888641863,37.27290777844353,135.17783766891688,128.1026406409188,-10.922350738132357,8.244959000944256,20.813251180985173,13.24283027271095,-32.242540628787886,-40.51376516446724,-112.5844287447796,-119.25457027582002,4.162416415151242,-8.341445500719296,22.567503937076385,5.750142715256551,-4.211505346367483,-1.2832687847888355,0.0,0.0,111.0
21.220034078019378,-7.937266236458058,34.060236385826855,-179.7847611082119,134.52619753153257,-11.703389678602289,7.983655296548213,20.806063576426087,4.6492170644162405,-18.222792583161713,-40.482965991958935,-134.16879612523732,-125.51026388727422,5.347748764397142,-7.774987253995801,22.21458601178319,6.385559848100501,-3.5056324996407175,-1.5663974609160787,0.0,0.0,112.0
19.046199778082272,-5.502020740571596,30.966612769469027,178.94105815339998,136.6101682866891,-12.680973538188946,7.465438469320354,19.922204196867686,-5.668459192315979,-5.72649514438588,-38.524549812082306,-156.46225824644756,-128.90895085374203,6.875533073173444,-7.16598649776652,20.967777712280828,7.02767321179705,-3.9308276984135984,-1.7229140521360944,0.0,0.0,113.0
17.04083741782542,-4.162668931690926,29.762891507398887,178.5524018175287,136.46350304587037,-13.360624491475269,6.794940359794996,19.073822096574332,-18.346735349235118,6.5657357184046745,-35.696054025652536,179.07218027265347,-129.82040453071002,8.300206971261556,-6.4037071359271085,19.6660735423532,7.72449812078511,-3.3907488811325472,-1.6357972718170717,0.0,0.0,114.0
18.609631902803038,-4.292620159486623,27.866269184244523,179.59095785095664,138.50965008934904,-13.694667319533545,6.024400243835839,18.22804926277848,-18.593779396761757,4.989586272459328,-33.627045432281825,-178.9555824809323,-131.34283258368106,9.239516146562,-5.5419824474091985,18.39405052403623,7.7734152636385705,-2.3813020105608795,-1.5094057436356427,0.0,0.0,115.0
14.667344626064475,-3.303457835332581,28.25117068971016,178.51742537283,140.40419820708385,-13.108434319737897,5.86457750032233,18.49551358862828,-16.240857126916172,4.074623767256788,-32.94822758998103,-178.6968381055791,-134.63925161669633,9.085717184526745,-4.942397054395587,18.21191318879944,8.021872083416858,-0.40460206571303725,-1.280304146444805,0.0,0.0,116.0
12.602913143642114,-2.842297275328097,27.961279029377177,178.63894566979474,140.27749569728147,-12.811255835278732,5.56274836657278,18.309667816427318,-15.619321022094201,4.398744389433399,-31.899903847156896,179.27152278606775,-135.18520612958162,9.205996221778138,-4.659582109945749,17.505181109019123,8.504735660057403,0.26243554905827066,-1.38404647491102,0.0,0.0,117.0
10.60432014093519,-2.5377394698292406,28.29808711401307,178.5798445992186,139.8241895506971,-12.478680998174413,5.513650420203021,18.06331452900887,-13.668532598379224,3.7757866263109485,-32.03678432589252,179.61628285189485,-134.30889407120495,9.136581269128884,-4.344971726174433,17.02090801340979,8.826504383170306,1.338081382517844,-1.3451235959547625,0.0,0.0,118.0
10.243513347736789,-3.0521284996889806,29.289812447200756,-179.4655833460536,137.12147914139533,-12.142276826653084,5.50467840352257,17.77492361679526,-11.899973202695232,3.0431669529725838,-32.83981348861792,-179.79300891417208,-131.68692570603298,9.086865088021753,-4.1915936261275775,16.6744261496784,9.020045105149073,2.2861832421981383,-1.300027840929766,0.0,0.0,119.0
8.313838208272962,-3.1821549295444553,30.669045313008674,-179.4794631560017,133.31796005293276,-11.754081236236022,5.510549308456092,17.363141370851142,-12.00105889041859,3.6865810140039477,-34.27025702578934,179.37510768766995,-126.73538643985772,9.280470360464653,-4.1418055264015665,16.408540160615182,9.436132249991747,2.7733540365662757,-1.258788805769103,0.0,0.0,120.0
8.69030849904546,-2.7256260136042227,31.382970038384755,179.66771545531265,131.04350401994142,-10.955286800058529,5.328383416378861,17.035800834382684,2.9310640020500935,-11.45830777134545,-33.523321565032425,-153.08697694121076,-122.8236490313166,9.275986893487932,-4.063153183649707,16.2229114556937,9.16805487869329,3.0377427663437904,-1.1837368191331301,0.0,0.0,121.0
8.6788715294641,-2.825159869008088,32.115623019893555,-179.95029539406121,129.2336323411155,-10.382459079913797,5.133828146239572,16.80936653583011,9.009713913705466,-17.966695106485595,-32.16338579368525,-141.9045600391601,-119.31774813866417,9.449347782776238,-4.0699602942023345,16.148281523601234,8.636857660238142,3.1571385050672625,-1.0577663257372616,0.0,0.0,122.0
8.810182385453432,-2.6703460434293764,32.670181092452495,179.9653842532415,127.42725398643358,-9.980571235538768,4.94652081689008,16.786774139413094,14.107453805502976,-23.1424215280286,-30.546861372690383,-132.85489869091245,-115.14946078040971,9.581229327127518,-4.1763253076617515,16.09258286349982,7.630692449783379,2.5530276347089265,-0.9796384813337088,0.0,0.0,123.0
9.053784661894914,-2.375836923754881,33.01104861310487,179.3828218158824,126.43604883955582,-9.706938087314455,4.803367664453024,16.700304634276407,15.189547618080896,-25.370370330855156,-29.61439775893083,-129.01974597645386,-113.47040957445247,9.633802055653783,-4.2904657357372,16.010475031048074,6.525562017324917,1.656969010853412,-0.9396228587638275,0.0,0.0,124.0
0.9953561032595791,5.5340767128630945,32.94427665060855,163.89948758198628,125.77976337855472,-9.537835867148138,4.625549282566254,16.564625477688093,14.642232615625558,-26.39845969767981,-29.225276219944465,-127.57986816966212,-113.23395547191703,9.603685305646005,-4.326118398778293,15.842904418000755,5.578850132175215,0.7731099068948062,-0.9012546084216887,0.0,0.0,125.0
-2.181416085651848,10.201362522589957,32.46826135933089,155.39602977591477,125.12176163885425,-9.331901539192126,4.562829198044158,16.494071675505058,13.199606966851624,-26.075402310912757,-29.425001824885126,-127.34355307751689,-114.07567459893056,9.397601221000889,-4.553760529484613,15.6682015066734,4.812070588444748,-0.789863559935412,-1.18815375626376,0.0,0.0,126.0
-5.3500546314916475,13.884507446797452,31.98493063908013,148.33515560330736,123.76572078564612,-9.485450134772783,4.47266927192849,16.228361112047306,13.100236192210865,-26.9596429968887,-29.296227481833412,-125.51515731813261,-113.61406184623233,9.401162444935634,-4.604085859849423,15.505221942980555,4.496875774193266,-1.8315662771840524,-1.2061069265016335,0.0,0.0,127.0
-8.012201850852184,16.91976581112639,31.803849942067846,142.70740713879903,122.36349023525555,-9.424472860191925,4.36133078748319,16.29432883581171,12.860041617640439,-27.717639469205928,-29.783717828865434,-124.78364549721347,-113.929816881344,9.015578217150477,-4.660332340086005,15.553046757318226,4.524102936614095,-2.1701666355772007,-1.5068805762872068,0.0,0.0,128.0
-13.098346727370481,22.917060053625775,30.760760485250653,133.5729412895236,118.73678192597772,-9.451175644344776,4.279240378361875,16.59846966089045,14.833539560586718,-29.510166183295738,-29.887856705246914,-122.44491211698872,-112.49478173830275,8.640137939148081,-4.750151555866454,15.94863437141937,4.567541079875288,-1.6533591794571987,-1.542415481419759,0.0,0.0,129.0
-19.94711913931848,28.68279470546384,29.513022364458855,125.70832074870346,113.3146060546589,-9.496907552930397,4.279860251990558,17.122153853238185,18.300507018964307,-31.04421013943099,-30.164618115731102,-121.54999864955633,-110.82077583291634,8.422188027786982,-4.917230778112411,16.590991258379706,4.5938744626906285,-0.5811847357681104,-1.5849707259358037,0.0,0.0,130.0
-26.13973001011907,32.699550801987144,28.45860986458801,120.58402129765089,107.95200033044755,-9.390536684554268,4.252329554638383,17.651750496079938,23.604885664429112,-33.19165038518779,-30.005020891568915,-119.5230848892136,-107.45408877960404,8.309901275277308,-5.1950528397587075,17.29281993204055,4.630875859876195,-0.05118144050828395,-1.558496931683735,0.0,0.0,131.0
-28.683959825995593,33.8746387276246,27.864321613619726,118.95990419597516,105.49787840535672,-9.171739872948493,4.055636310206608,17.957503957900897,26.13716444334896,-34.23096087213613,-29.70641757537857,-119.06046568096589,-105.71587001429752,7.826613877477963,-5.0349643782978735,17.83243564199563,4.267283512637937,0.36182888264086144,-1.6053175970625528,0.0,0.0,132.0
-29.0781833475724,33.493717736245586,27.733756960984948,119.78533653060592,105.36396573711237,-8.879834637244814,3.7419452587552375,18.048040695218255,26.62797531197566,-33.64015664761524,-30.1077053852056,-120.36583522521522,-106.02735730692353,7.449195558982161,-4.951929545665596,17.895038010445774,3.5836686592860083,0.7903163119367724,-1.7192965018636273,0.0,0.0,133.0
-26.778463072553514,31.04884374889386,28.196280977646087,122.9449880838273,107.83019832392975,-8.630891023013673,3.432407231772723,17.967577060396412,24.3750767745408,-31.490017261723967,-30.81860732977648,-123.03164205202752,-108.33183239363596,6.952989816362344,-4.888979079961406,17.77850639095424,2.695705355864779,1.4844612600392146,-1.7348348349885359,0.0,0.0,134.0
-20.923574183786307,27.02733953493052,29.194301712143133,128.3773745881198,112.87472525739355,-8.073202832970477,3.1981186941231017,17.950167715038805,19.187299298558223,-27.59396379663904,-32.16547141410384,-127.5118691468383,-112.73641142855458,5.920116168551087,-4.734755704155974,17.665237811835624,1.7410495972570594,1.3038672153034825,-1.619132588041743,0.0,0.0,135.0
15.47460941399616,-3.1037508125827222,33.73484335741506,179.22798025656493,130.0497864293745,-6.6211322940954584,3.062967683231085,17.925460616345237,-12.72297721277415,-0.12455687783418636,-37.44395613971489,-171.0339035133759,-129.77449231181612,3.820633595779919,-4.336128581434191,17.725436149369248,0.9850607092395723,0.7035072066354793,-1.3008981224878184,0.0,0.0,136.0
20.61867788808117,-4.775292769189116,31.51389879415381,-179.74151869161588,139.44729410573422,-6.123612856974384,3.137868781723651,17.608348157385326,-22.15510976160184,6.093270286909984,-36.047372138826326,-179.46355194516252,-138.45110368423582,2.9118305990501576,-4.213165306114344,17.441162848665783,1.0408069420013566,0.6332765629409156,-1.1143986609797556,0.0,0.0,137.0
29.490953045380753,-7.877858202538929,29.664078738293785,179.19481304531752,151.07067241906327,-5.100569118208623,3.3643760408622985,17.293721315267323,-30.93649435099421,10.021628438412671,-34.74950739457314,179.84663109553415,-148.31237347711195,1.5629381755322778,-4.029992134398267,17.220920477704365,0.5439321796389845,0.5106652819702584,-0.7552982847263643,0.0,0.0,138.0
45.37371174468573,-14.808003359260578,27.562535918195238,176.14165563029232,160.68837108913104,-4.129377960857706,3.9102744798180855,16.858797314492183,-41.77244283616052,15.367433518283132,-34.228143793081095,-177.48383128637718,-155.9001907911273,0.35789168414898015,-4.123974213517454,16.964066415290475,0.17148887318733305,-0.05970507825885861,-0.4632577196348008,0.0,0.0,139.0
61.5419461192208,-20.910441518412064,25.151999632506694,164.55071535231107,165.40961339607244,-3.54652958537665,4.641566513870631,16.347682242427695,-53.28832999857898,21.364912828434687,-32.293483341463606,-173.65711463909804,-160.86769908005016,-0.17367435074566437,-4.556295027609724,16.499972056840896,0.05148174299455056,-0.012292515572459431,-0.0692731342963233,0.0,0.0,140.0
80.49000515892757,-31.463613758289387,16.77946171566103,134.66689530129284,169.20630308936634,-2.7091743068144223,6.0027854930556455,15.824291367777446,-65.15075885397556,30.72787999012432,-27.10001067653619,-146.18744000814436,-169.34970555277891,-0.6687162484081021,-5.785708451693493,15.993180019378027,-0.08291183948404342,-1.1495068720987536,0.20139309023626392,0.0,0.0,141.0
89.97282799130193,-35.08075037175662,12.074588076653406,128.89815294029353,167.28744795941066,-3.4748734923427533,6.731621130743963,15.419775744375182,-72.67508445045982,35.28198323687664,-22.57218514195407,-124.51970569321598,-170.28843246286337,0.5504740101059883,-6.671154145429184,15.437984317956829,0.2712755701472877,-1.3958268471444022,0.14142592433810677,0.0,0.0,142.0
86.27355650835784,-36.82247374559613,13.20029729280125,108.96517896702262,167.30737395496743,-3.90220367577032,7.273001483906283,15.524225094561803,-72.85286706428009,37.13610679612205,-21.364266598500016,-95.99326659405229,-169.83924261025243,1.3458251820178586,-7.143721736291647,15.504645593845908,0.8584796670539143,-1.0088876530528623,0.09988790965221864,0.0,0.0,143.0
88.23441920793404,-37.97568609750084,10.790064907775188,99.41942193470577,167.95982842219942,-4.698578886383702,7.470518550239897,15.87268259327018,-65.81030776925545,34.87252574900367,-24.697031581451526,-78.62016693541082,-168.78090582619615,2.2578182359913326,-7.353934085147148,15.698561297078838,1.0920698077699929,0.2773284995884406,0.01529442397584813,0.0,0.0,144.0
80.6925598022249,-35.843476987910094,14.25882088183501,86.72421152717402,168.8977021071294,-5.394583735080645,7.464089373194179,16.527533186688004,-54.5390198028999,30.03581901282545,-30.88263073908086,-74.57716407453525,-171.46800448357095,2.9441812405873513,-7.3052174527556835,16.21313062479803,1.0679508788815317,1.4859899361506883,0.009531533711081131,0.0,0.0,145.0
58.581006345821265,-27.21008304350741,25.380869228588175,75.74290452058841,171.98154735560547,-5.949728933454521,7.441422481648527,17.66946084207969,-38.85868582799349,21.040519411210855,-39.46582058250655,-144.7972463391733,-174.12501993750647,3.5072917642368173,-6.843260342773693,17.589056540255555,0.5559904933369455,3.0591365406547997,0.32767374673360533,0.0,0.0,146.0
49.43162531043506,-23.812364767027077,27.048204191202128,75.8604960430175,173.3780892931664,-5.787889231306105,7.449687164407468,18.393434314859284,-31.9417623420304,15.975158601168545,-43.07337838277355,-170.94264141563238,-169.67371614795624,3.4891909931610345,-6.603329045185954,18.66804685715304,0.39091364887116953,4.159133237964969,0.6056789859268309,0.0,0.0,147.0
44.340782127009795,-19.685521417570794,27.391280804963007,80.61470095422992,174.79859704574565,-5.723515646584061,7.290959021852604,18.48650013326424,-32.50078615189656,16.139132140972013,-45.01692222412479,178.00145443320795,-160.66470973957877,3.84383576346078,-6.273421144301952,19.353629788764028,0.09478363826913755,4.746923770327754,1.1134268370796692,0.0,0.0,148.0
38.818620478302755,-15.264737581881112,27.865348077618485,98.70378800967956,176.43574965986483,-5.397145715605648,6.962953704728054,18.62915130188512,-30.231458558886995,13.762347380450569,-49.47705074278666,177.7349961049351,-149.6099511509468,3.7862755796278966,-5.9221623470884746,20.442521940179617,-0.34239732508525106,5.190866193453037,1.749190258916264,0.0,0.0,149.0
38.83014554241131,-13.570041771378577,26.15191126018727,135.20070573754586,175.9427680137501,-5.027778838161189,6.385979665215888,18.676434726511978,8.777283798156406,-51.025693034078415,-40.786825850262154,-93.54238029482251,-122.82224207141789,3.4450973023963973,-5.395736476170044,21.934740212488283,-1.5101079823899435,5.3130090840109325,3.07977794831793,0.0,0.0,150.0
52.79412404247773,-17.16675345472226,23.914069839938637,153.06412151133404,172.3706327732967,-4.691364883746922,5.767351917008716,19.0354435428006,24.06970089691969,-82.34635577141395,-24.76857039497781,-67.82365317816623,-88.3762956163362,1.9881526326005667,-4.658466151421214,24.152042761126943,-4.441448875433545,5.149849690064173,4.886278752539919,0.0,0.0,151.0
57.862145166618305,-18.411975907829138,23.661239311004476,165.66449403893824,168.41494187993246,-5.817413707806351,5.710346635595109,18.64657058037427,25.756299084806546,-87.61613810639136,-19.770724027034667,-63.9889043257856,-81.0168676417628,1.2231988195730537,-4.299172189384699,25.125069616303307,-7.214806117146604,5.439101055016103,6.580782602838783,0.0,0.0,152.0
61.485977294484584,-20.84993934407845,24.96678383611384,165.00520648856002,165.6688754462753,-6.356117670770143,5.778359808865712,18.200368532461944,28.025565129551214,-77.35447978763972,-14.350566203717893,-68.1717922340535,-86.3867186071616,0.20503635951812915,-4.060652039052782,25.373881703933854,-9.514016635869405,5.390309819739405,7.430529717927496,0.0,0.0,153.0
66.74501670410412,-23.764060298051973,25.993573912959672,167.5568781586008,165.31242038631848,-6.687306321227452,5.928475972993609,18.084287390938247,31.02506557376775,-67.65835935003281,-10.210071969544959,-70.42524597235149,-93.22909939608222,-1.2993576984622717,-3.9247683080147207,25.635030843444202,-11.342158811579333,4.927992095018916,7.894777963330165,0.0,0.0,154.0
74.60593367074522,-27.47980110793094,22.927948866124694,156.92792269896677,166.66076382385327,-6.914774820979967,6.27493382765336,17.561928092111234,32.19128059241232,-58.35249898618641,-6.308363187867624,-71.5388033730484,-97.29896617937541,-2.4823506889416924,-3.770371147899926,25.66435619933751,-12.419848223228687,4.359767919711459,8.522786412700995,0.0,0.0,155.0
74.8677441044112,-29.01124362814065,22.059845001502715,142.25981465325313,169.19689824430847,-7.833227495737215,6.660880839198041,17.319148725859094,32.38191066973533,-51.13821474762176,-2.8235966184257006,-72.31311491704938,-104.51236710314448,-3.4073499730218715,-4.295722284679801,25.523349360026035,-13.171127795870133,4.802779880244795,8.757424508018257,0.0,0.0,156.0
76.73756422958564,-30.60717877277204,18.1321062760773,130.13023623021954,170.3540896903194,-8.906886276145896,6.975266775740805,16.771569112503894,32.70615226676215,-49.133473863607335,-2.657476825344372,-71.7001930915378,-107.62515545279705,-3.9695431367869047,-4.6143252041212905,25.59288709784702,-12.405396518308667,4.415398571704667,8.771564083024664,0.0,0.0,157.0
71.1915670570164,-28.925522030417252,20.355910801791243,126.01025625051219,171.44208735921737,-9.876384240321878,6.956374235161333,16.564849695889624,32.9168756810525,-49.807334065160546,-2.9564855872912235,-72.14446239327826,-109.79338675121897,-4.1879765777730364,-4.861482292547328,25.688306960733097,-11.33056283153194,5.32157132110729,8.627153234345945,0.0,0.0,158.0
67.55380271007452,-27.198362518271566,21.614052303482687,125.05676668054652,171.9748762365355,-10.389742810837394,6.829157575624504,16.239907486723247,32.636315440016304,-55.000638899022505,-3.852024328430076,-74.00991423067045,-111.42141851684379,-4.515515924146491,-5.123595914158974,25.700591242862735,-9.42144972976378,6.64565263269403,8.020410960137365,0.0,0.0,159.0
67.3518521670837,-27.88636009156323,19.790807799543444,129.63081601047642,172.03500351153315,-10.782316265933636,6.875922370389739,15.52547209974251,33.72710788967022,-63.78019486862802,-8.877379923981547,-74.1013779426778,-110.72749639255287,-4.35696610707418,-5.5378743910809805,24.820744983501758,-7.619139058765109,7.622466964446773,7.150027666088585,0.0,0.0,160.0
74.86484691080237,-28.36974607751736,15.895060231263392,131.75125475259435,171.0962101710917,-10.938144604882787,6.4699340015158375,14.207590265247909,26.311757336577312,-87.74978547017722,-24.27962938446612,-69.37409815814621,-107.34726001852324,-3.6841020873578545,-6.1538797520877315,21.6676019160621,-6.335656781435011,7.702157588354701,5.32583086658752,0.0,0.0,161.0
77.00719729027401,-28.03391304121759,15.334990348401986,111.48992859150921,171.98061653917736,-10.441106748368897,6.264981571478076,14.235334513692832,19.700573745950923,-81.19891897734885,-32.491698775632095,-69.59916811660328,-117.09762593276184,-3.0389475024840724,-6.3673241854819995,20.35811319412565,-6.136481645146878,7.793921293894633,4.485763225999688,0.0,0.0,162.0
82.52905498871529,-27.9716165277591,13.483775469595548,102.43726211348756,172.42765092347486,-10.321720507514291,6.0587459852210515,13.93314860233163,3.5815411876317067,-60.37030827098903,-44.10965265139855,-81.91073733976813,-136.808611263572,-2.7136159781934377,-6.447159409152171,18.707992763717993,-6.183917935654408,6.690900118564005,3.7159414540124716,0.0,0.0,163.0
88.08821925341601,-27.59862108065701,12.500090035480742,103.47598910134484,171.7496031524575,-9.9142165322901,5.637465258389312,13.849135663123242,-32.3802125724234,0.4708283088947167,-54.833690874255566,-136.76492274855508,-157.5445147998943,-2.4192482900112653,-6.267869000282523,17.206872921934266,-6.270234859761202,6.155979080158008,3.050484222467792,0.0,0.0,164.0
73.21142527820223,-21.94265676394472,21.356830095709327,92.85848405554161,169.7714987634129,-9.379974815039187,5.355585895046987,13.758255328309927,-62.25937510260993,28.553366210656304,-40.941367683226595,-173.37051331440009,-165.58162110565914,-1.9644697621686253,-6.0490902195787095,15.720269788955726,-5.755641721297052,6.16423622130646,2.4050447508878268,0.0,0.0,165.0
56.237263206938344,-10.250131665621842,29.856083200157283,78.12304874581342,163.6666332534814,-9.064736414618206,5.457372744220834,13.531106812239152,-86.01492070202863,33.21734532213093,-27.243495216017365,-150.84212366108994,-168.11304463526818,-1.1040346736659734,-6.109762671417728,14.157744102273469,-4.434556276524616,6.5255938475125514,1.5905989066706834,0.0,0.0,166.0
52.21636394872222,-4.5207834036227,32.01441932215775,71.16956424643215,161.19718701643794,-9.514103198918116,5.524231030761638,13.40842580453095,-82.28360870542559,28.298816584758477,-29.247778975349984,-136.19294833988366,-165.27515278784855,0.5205222988709873,-6.140162165884709,13.414620985300674,-3.540474773133373,7.000675560071183,1.063489434412759,0.0,0.0,167.0
49.90215428920895,1.2050442465167595,32.82518960332533,67.41208296683537,158.57515373387136,-9.381327567679836,5.5904704607963795,13.322422431133269,-74.39953098210034,19.608268670539715,-34.60161092610643,-124.61866283010278,-162.3936914965417,1.4090762645885309,-5.906913426186931,13.345384379217139,-2.8170896744134573,7.277317627602997,0.9707445167763548,0.0,0.0,168.0
53.33046167565295,2.5384945119635267,34.14664230493552,76.71519824233094,158.00632563283227,-9.108620159877066,5.3591956014064746,13.24128728025622,-72.21995687852807,14.351957500967108,-37.362554043232606,-124.37033159359311,-159.8445410667438,2.2154218432778294,-5.498932153049235,13.596708231510984,-1.8664157098236107,6.801786385646413,0.8922635348451217,0.0,0.0,169.0
56.79899442214599,1.554211127448263,35.04274111165908,87.52038345758024,156.43137874718622,-8.542396916207213,5.00523362347977,12.982159262478222,-71.93660134715255,10.174891414928325,-39.10151872180788,-127.31767428399434,-157.09943727696617,2.7456416182993264,-5.024532203279389,13.658415416482363,-0.6833299917330173,5.864805405668576,0.6808907125914551,0.0,0.0,170.0
62.23359263634254,-2.9998893284969337,37.556862326960605,100.65461861500444,156.27315551872547,-7.974522244276566,5.081948764406708,13.153454044511022,-73.46436026877757,11.295363765384705,-40.931550371822134,-131.91401126029018,-154.63068631373895,3.1559431146810466,-4.834309363198131,14.037475152012993,0.5851560728228085,6.8312344491152635,0.5490361711439891,0.0,0.0,171.0
64.04633398849961,-4.378428689517499,38.90234303706396,106.84711459722557,155.35792337043608,-7.793168160413294,5.264270282796429,13.350962253110286,-73.59321935294511,11.765912847401712,-42.234197570574516,-135.39910304518972,-153.26115094613328,3.581214382926914,-4.9221536948717866,14.215862954368268,1.2465770240771015,6.6687822212733625,0.19129327081470893,0.0,0.0,172.0
64.09864471709557,-7.761423731240437,38.52989262154245,105.58336964153047,155.7671846542895,-7.635953633273225,5.52617056756924,13.50424745482907,-75.37098910040976,14.123742913759616,-42.54848545386668,-138.78863829613593,-153.3574660306137,3.8877618960736484,-5.013065095016134,14.530168691742551,2.4770068284765334,7.330671253556424,0.07955711544861753,0.0,0.0,173.0
65.77985094662559,-9.917295843860808,38.705995910076226,106.43819475394264,156.3791815490239,-7.244793667843316,5.919780442470303,14.064020289008763,-75.5763205648014,12.878146005484787,-44.42814699135082,-142.2220307341072,-153.22056335089513,4.008440199882997,-5.006204445124782,15.32148472835555,3.8339877468256827,8.730745058772959,-0.33779396157344405,0.0,0.0,174.0
67.60053597494013,-14.581351197682979,38.03223673634435,109.26559754887249,156.1537184863216,-6.699200707423475,6.3795890785228835,14.481291846647634,-86.0242449898224,18.187970108145425,-43.79759295239816,-145.74249050555156,-147.59601914027272,4.257889980381094,-5.071773029470501,16.214514619428478,4.880829709190402,9.08031154564921,-0.496755730754519,0.0,0.0,175.0
71.42050364777099,-18.09598907482103,39.940937892595066,125.02285881930536,153.87047099016874,-5.986075287273685,6.319916886930331,14.915976172346891,-66.86973687912386,-17.55235217551286,-49.15621690019378,-103.21384129076654,-132.4583493929551,4.972364264744215,-4.801948945208626,16.972062768471133,7.416527864005433,9.050132191067494,-1.244038606991932,0.0,0.0,176.0
75.21496038800203,-12.182878659280153,41.073120889809154,110.22108968594524,142.82764090200592,-5.432386377620977,6.240360745363554,14.669899604118735,-57.79245043859544,-36.38219703158952,-46.45874634013739,-85.31939109504481,-120.38539853670251,5.747449959317584,-4.459843744931177,17.002070417708147,10.734785807708127,9.014881340026434,-2.169743043577124,0.0,0.0,177.0
55.19101088229262,9.241937695555944,45.99371810291195,80.79081813841275,135.12033413376986,-4.677653344932505,6.503446418549982,14.74700711399452,-50.68056229764461,-53.45702477922132,-42.313047327853326,-71.09332036346399,-110.5401164787716,6.020291726741666,-4.604036823097792,17.37878672992632,13.342226359948283,8.009050130676442,-3.0805657557190638,0.0,0.0,178.0
41.23404878124171,28.82090252021177,46.86699886246804,61.47226343496838,131.48596550719657,-3.9021381370178343,6.400565118941057,15.449607294106713,-45.70235834703075,-65.47740985587043,-37.8464326564308,-59.817596668151545,-101.24701322769182,5.907183430582315,-4.8018958795742614,18.27320581688658,14.68609299931668,6.475430020320716,-4.024992569500855,0.0,0.0,179.0
30.66983664136624,49.45657559821914,43.85079839719186,48.76652059073956,127.32321450046491,-3.5120219139528293,6.003212546377972,16.205673015158233,-42.76030888669137,-76.82228479967463,-32.66387629391187,-52.9996180768306,-91.7951873685225,5.892586795841195,-4.810009203532539,18.98751318389708,15.64532958159841,5.165494824004943,-5.033007636044147,0.0,0.0,180.0
17.546126109190258,77.44532659133182,32.83441502575923,40.44472439673034,114.90577486220946,-2.607835791333259,5.44263941258567,17.602763092469544,-40.927066957170894,-89.97554390185577,-26.380429657447774,-43.900572623740004,-81.38540788465514,4.834631030907693,-4.730849492041043,19.884625725326842,16.528630188991933,4.174039578367697,-6.547972645600792,0.0,0.0,181.0
13.11906326494667,85.54599156605892,28.547645493703808,36.90954017752225,111.24913772648235,-3.120430614493171,5.914747621725942,18.324094571651155,-41.48638309286358,-85.52587823904832,-24.34755699096554,-43.98235898867869,-83.9980344134376,5.766253745407072,-5.099313319636274,20.217667667517308,17.621088459646245,2.2060608193561344,-7.687653147677352,0.0,0.0,182.0
9.184546982179683,85.46923486955026,23.418891671611245,37.14452597638482,110.3472751907145,-3.4267719761495385,6.431011189694385,19.404983535004295,-39.310168796852935,-79.12227881059404,-20.404192424325323,-46.9716002222665,-86.63368965273818,6.010206448631767,-5.438833822406656,20.929651857251013,17.92988512058035,0.07793087541720971,-8.368610589688293,0.0,0.0,183.0
7.391232133826514,76.12343444046728,17.946107219539034,41.63807641075445,112.48802424535769,-3.9847658436178186,6.802455689976947,21.044509524394375,-40.441421475880965,-76.50893969151986,-20.401474591847524,-42.647447605818314,-89.0299454412897,6.864782562677874,-6.178664719960644,21.27264838382273,19.046259335867603,-0.3268282097015468,-9.063357374399471,0.0,0.0,184.0
4.554893310882402,69.48126870122992,13.235971927095473,46.25415123961531,113.58830832126947,-4.5787186474681665,7.296877917929959,22.782177249238167,-38.22278503190611,-72.96840874258861,-18.92568513897164,-41.59384677015388,-91.51081392691333,7.7300125466608565,-7.0642189178774135,21.894812424557195,20.382509929953976,-0.7165600696753089,-9.374535289095183,0.0,0.0,185.0
5.766575484456716,63.316302155734256,9.161363139414751,50.74341362030926,114.47039545129925,-4.28841210504079,7.097693451662763,25.630295340395477,-34.479375039064394,-69.77813938305576,-17.045910600922163,-44.522329148750906,-92.32904081332475,7.698910385697389,-7.279092350007756,24.057632655469057,21.18323973424578,1.3384294721430017,-9.073003804819674,0.0,0.0,186.0
7.3991619805210105,60.46662514381818,7.011252635537495,52.86308521262928,114.58450224040787,-4.263590954645056,7.485208098855915,27.691237476542828,-33.22242797738365,-69.37910385603104,-17.007017810439457,-44.4282645913957,-92.96317335275447,7.931563193140352,-7.743159222560306,25.544368387755373,22.57261069189967,2.0661605487802,-8.908655885028885,0.0,0.0,187.0
8.348951953354,60.41486015139247,7.231353468150995,52.964970829604844,114.39908179388719,-4.40408590910624,7.786479765225383,29.297236045979513,-29.326553499556006,-70.5420781369597,-17.234263036707368,-44.780410352608506,-92.08307818166516,8.477995763182433,-8.04310155977712,26.60809260436391,23.521017299844466,3.536570467550516,-8.599460996196107,0.0,0.0,188.0
11.300493595579358,60.78471405564979,7.495494933095786,53.300123745585786,114.49895749791274,-4.7970258578444165,8.016468731169205,30.39510764464326,-25.677484982599644,-69.65390803570219,-17.081323458869477,-44.5598981945874,-93.64082180525084,8.566569323047037,-8.55808853306333,27.24061207785913,22.67614011998227,3.3536143120448156,-7.94815534335641,0.0,0.0,189.0
14.487327681467091,61.55578649885073,7.595616279279784,53.75231950165584,115.50690443740305,-5.735721567205012,8.668724872739944,30.797778382461267,-21.520871041115782,-70.12497393089642,-18.684008059570075,-41.1081714982405,-99.49622175017794,8.188379262487594,-9.490867018717157,27.237631557716394,20.892276898975606,3.8458900044312228,-7.016275371463771,0.0,0.0,190.0
21.74125194287176,68.93759674338955,13.189254872428597,50.28222399943458,110.26767393122539,-7.885264908487178,8.543711140124445,30.327180366934655,-17.351126738265965,-72.57169082253196,-20.91226109693759,-38.394878406725574,-104.23556544249148,7.03104998602371,-10.038615146335113,26.893762209979844,14.942849727788529,2.5523194146199994,-4.997164686521206,0.0,0.0,191.0
27.819074817545612,71.01149214519157,14.068973525884765,51.108415142293296,106.69511098319417,-8.669380516076727,8.367287785003654,29.69264917651407,-16.8897432016124,-73.45345133987794,-21.61713021629767,-39.15614983315753,-107.59859108032703,5.865425298752897,-9.915494384036037,26.6608225103651,11.613534262148855,1.8492196067467097,-3.5528465191046648,0.0,0.0,192.0
30.03724894134262,72.99303863250229,15.821179527664508,47.64145941134709,100.89869971160383,-9.4458227919105,8.125300366622799,28.592865694653938,-13.850944203065563,-72.91145782257907,-21.401545232285592,-39.00712474691074,-109.32216399415461,5.062520526501101,-9.693993520232409,25.97995304320024,7.864816518521016,-0.9002503332628489,-1.9364879243864292,0.0,0.0,193.0
32.56569305238298,75.92758024616228,16.40860677359251,47.83139410562061,91.13312498257704,-10.80929675106067,7.631339271243694,27.425815784671823,-11.735760160082831,-74.33700176571026,-21.970519440009827,-39.749703053080104,-110.01760278725875,4.600684493078483,-9.276167627554905,25.61359421199913,3.9475127040196947,-1.818848806083774,-0.3016474400870471,0.0,0.0,194.0
33.540256834291036,78.13822531115167,16.342525455505818,47.591991311604666,82.75382053706504,-11.23589770006727,7.105157932069094,26.450915157478246,-8.818602485578891,-74.38643631452545,-21.061275657235942,-44.10171076978731,-111.03783966400063,4.106841183110751,-8.882168550961818,25.861682567404657,0.36550793501324347,-2.538387079635393,1.3633173226584907,0.0,0.0,195.0
35.12564748513836,79.06677342880029,15.36448438709728,46.92476283272503,74.6552321454627,-11.282218966555837,6.849476920700006,25.68790067616687,-2.7179189729758866,-67.41302818091913,-16.198917048074005,-48.95299304614554,-112.03065851460816,3.1321826564734385,-8.245295871437255,26.170754108131543,-4.804178659844556,-3.757567813638029,3.650675698392709,0.0,0.0,196.0
35.87130416833632,80.59898067718215,15.904823863711668,42.98909991816686,69.93774677129869,-11.845615045457883,6.8520119999436,25.000911591880406,0.49331778912174445,-63.421424943120115,-13.511729317003832,-50.81759020140056,-113.6413915449588,2.7614910697256834,-8.073904478147147,26.457187374500542,-8.555374981675897,-4.515947487760047,5.451612257415233,0.0,0.0,197.0
37.771335652419666,76.14415347789601,13.74791153869614,45.924158857609484,71.94279042616697,-10.915111609277346,7.06171918658856,25.04048755968214,2.100686216409116,-58.137431468051474,-10.551988284871607,-51.720856223406855,-117.65495207462324,2.045117294247189,-8.119928664781078,27.217984014140466,-10.301185144437943,-4.95827199090104,6.559661722145521,0.0,0.0,198.0
39.93059082233024,72.44174994705986,13.21144658724738,45.27285696336149,77.25617956169742,-9.88021883247394,7.52503882220084,25.177082957124913,1.833228686068722,-53.0906169997985,-5.678021435956943,-55.8486026320545,-121.35584710595282,1.82400979004487,-8.282954948314574,28.49807686475572,-10.045909746636715,-5.24410656598975,6.940090682433925,0.0,0.0,199.0
39.596003831852784,69.82505270611293,12.602427682890584,44.50075808605962,79.60640581713385,-9.394981924119,7.562850572941708,25.87113560526352,1.2011152096322786,-49.27386704919293,-3.3882944538373576,-57.13837401705065,-121.81244323679316,1.945170605370027,-8.259849857083417,30.101071981433556,-10.15999989313453,-3.9967286071795107,7.179238780737476,0.0,0.0,200.0
35.28447682620363,65.138792866075,10.41330042339795,46.628251172775826,83.51553964586775,-8.625973828618996,7.864590106228289,27.382784702565207,-2.5408621233511615,-47.9268589573595,-3.4443154107197596,-56.427551095145105,-120.58804491058169,2.3854062939964487,-8.334758765664548,31.5875185376528,-7.74690209556861,-1.1764606363868306,5.741496182922449,0.0,0.0,201.0
32.94053786043846,64.23726847338216,10.24277024797957,46.26805459014387,85.56543849196433,-8.070964235488681,7.69303012903401,28.437305417311833,-4.444453511043363,-46.41184721099892,-1.083854193945692,-58.802790147498676,-118.77920163794684,2.3148165999208103,-8.241244700810508,32.55178578306345,-6.0804083573532175,0.9030219239916872,4.334121311001239,0.0,0.0,202.0
32.06042223718635,64.53028565245694,11.821706296445281,42.65439721878368,90.14790084494015,-7.71107258282877,8.102729773658954,28.811583852446407,-6.676097373527669,-47.86707610177703,-3.1795956272662336,-56.14230163906409,-118.56617754548482,2.4542342856944876,-8.47921062259485,32.904271565552186,-4.153527620815972,2.688176556966064,3.1341329773650375,0.0,0.0,203.0
31.128639186143257,63.64480729613016,11.695299873272576,42.25660241474999,92.30113109010799,-7.929983845839257,8.532328749419225,28.58489194042082,-8.152459831664773,-48.12811667616994,-2.902926319676254,-56.03536130784958,-118.49408611206016,2.811301879081553,-8.864634570440801,32.61145219437837,-3.353639811835172,3.2418134419603195,2.3726119213096233,0.0,0.0,204.0
29.3597060596866,65.02562007185166,13.184810288304101,38.89112331066763,94.54124675498433,-8.186211730715833,9.000540724418832,28.217380790338243,-9.328410517004711,-49.98234242504764,-5.031630663716595,-53.587688886985454,-117.11895660839562,3.532894785545399,-9.251364721689724,31.880768204811417,-1.8880237173291128,3.1522045405992682,1.6480109561654823,0.0,0.0,205.0
28.999033320172664,64.92692258372469,13.334733362865107,38.93616003423718,96.52321711092647,-8.034884916352125,9.147943260213925,27.97117063534152,-9.688448830265651,-51.85221019944904,-7.111171943203769,-51.04395928534584,-116.26378703294282,3.8498305312462273,-9.425075881568759,31.31606782542976,-0.9397301676131149,3.1287290716596106,1.2548180871618828,0.0,0.0,206.0
24.555875796619834,67.19857340390881,14.716698048322653,35.82717525825958,97.36999706491356,-8.263428295641903,9.69803955802626,27.153661868473403,-11.224207924361787,-54.87793775431949,-9.273544131749826,-49.09993187845798,-109.28974582328297,5.646613297335848,-9.522376112293298,29.861778938642125,2.1262428524588883,1.2118700827758855,0.17566848209278543,0.0,0.0,207.0
20.211947879938176,71.11699054527097,16.70025512631419,33.710285294099855,101.39252438735203,-7.498177425540201,10.019968176354583,26.67476781426662,-13.114741154216587,-58.104096134329566,-11.11731724977487,-46.87429001361949,-106.56159773668479,6.194977987706642,-9.77885374140733,28.794597518337564,5.035038641957642,-0.11482702992666174,-0.9726781005758429,0.0,0.0,208.0
17.51227542372927,72.24713223918907,17.11406016622901,34.55766846864052,105.96539580724578,-6.362270523595511,10.010892506239504,26.34450038219945,-15.210002455926551,-58.53933317861461,-10.79956530029767,-46.84356300213905,-104.06773574196609,6.34224383679783,-10.016374636034628,27.785167787235622,8.069077391854266,-1.402480233391328,-2.437692523744201,0.0,0.0,209.0
13.008877402908446,71.2440705075034,16.522490585220226,33.87055182004825,106.3353249891595,-6.183155360609173,10.025513182931986,25.818196299272813,-16.13059635431583,-60.22301349749735,-11.891640220466385,-43.351664712276026,-98.28027084330805,7.214058729244207,-9.99120246177552,26.7133190520154,10.705314993442963,-2.5298216242453044,-3.737775541982054,0.0,0.0,210.0
10.67197995021303,68.25727457762507,14.690019898462024,36.55530319422207,108.53572447293696,-5.944373296546632,10.305421260743138,25.607536990342556,-16.250199479180228,-60.080814711017325,-11.4957988295811,-43.057019366461404,-95.90645082358326,7.6827885275049566,-10.211163677663338,26.10299788195135,12.348465035976472,-3.1098436549911925,-4.638081607485487,0.0,0.0,211.0
4.2522171905929875,62.29311890154476,11.690216537031533,36.72330726874823,103.73673198652023,-5.8155626266100535,9.487052577853051,25.229283481745707,-14.931760318779169,-58.83902933421851,-10.120445580646768,-41.75511423855862,-89.86013651289184,7.985984466676343,-9.540808850378665,25.242626606383492,12.410091402259237,-3.889753381855006,-5.100227497669441,0.0,0.0,212.0
-2.178966439382534,51.91981640242153,6.385187089675255,42.49060987552181,103.84962811694977,-4.36381423867232,8.784845437010425,26.070819595722067,-14.666784550004294,-53.1731530913092,-6.076095815360789,-46.22626284160744,-88.43060987694369,7.2292993469323195,-9.106976498592347,25.278736162951056,12.021401921030403,-3.4937691342531254,-5.207867469317674,0.0,0.0,213.0
-9.95573572752175,41.03847458692716,1.5433824421230102,47.044862847309844,106.98544335863367,-2.2729128717612723,8.221809509963382,27.392539386169798,-11.666623124162607,-46.695814738243165,-3.9299375103613787,-46.01647007704825,-89.84734380982546,5.937515408381828,-9.065562987697495,25.90462336369977,11.289368359284842,-0.7356574712844607,-4.821795527336456,0.0,0.0,214.0
-18.737839397236147,31.88332895856069,-1.1817076261063697,49.29178068739851,111.80908007029835,0.01875949426430678,7.874234953425697,29.641432628221292,-3.691430313335547,-35.3327444114787,0.5187499214058903,-50.123974802355775,-95.25408942223355,3.7227868033800893,-9.200197998406791,27.368072791429125,10.340140831043353,4.4942761050716085,-3.7270332111697253,0.0,0.0,215.0
-21.935016634035748,26.83320546581729,-4.150979839110135,52.7851664500986,114.60818357390764,1.147044191312793,7.57720549692619,31.705366026447262,-1.3726300038301291,-31.65707593232008,1.810979465487486,-51.31003007546576,-99.36807816414117,2.2613672642667138,-8.923740544061381,29.16850081844673,9.53588012242921,8.187705868346981,-2.839037928052405,0.0,0.0,216.0
-25.73577060207628,31.282285042427183,-8.456192777655971,60.185057255229026,123.26519206061195,2.0834481055259313,7.165080253960597,35.63880844044053,14.441936665527306,-25.863696557581278,4.078487147389307,-56.613331212795224,-106.84723952318332,-0.8867739739105782,-8.083905095154552,32.60189270548968,6.391872396857015,12.258776027517404,-2.336952982003711,0.0,0.0,217.0
-26.072821242593065,39.978156340429884,-9.753715089049363,64.63763713381157,126.41795861787963,2.325738449972186,6.9480105229105495,37.96302038619704,27.504964762472586,-29.483518967651776,1.758277087997345,-59.440021140287584,-113.13722238829898,-3.284962759692904,-7.214992467591692,36.193408214722844,2.801883848939447,14.225416693763894,-1.5505906574044124,0.0,0.0,218.0
-19.4699142414789,50.16293305174544,-5.664951924940686,63.0936749371967,126.29602089978515,1.3587219422606385,7.721081478251309,37.623576596801925,29.50911703130416,-34.93399682676445,1.9873327500496698,-62.74665371068179,-119.3970857673193,-4.327287170110862,-7.221880656299583,37.72654441144901,-1.927385851467486,14.61760907857323,-0.3755777517960355,0.0,0.0,219.0
-11.18978354451882,54.67099138252777,-1.8296291521782975,58.611079742207416,124.39869416787255,-0.31187811369661966,9.21537733712292,35.08532287778375,26.225535549841517,-39.436377795713895,2.4679366914677106,-62.26805638780445,-124.58336098389988,-4.141653148045263,-8.110817565086087,37.057345203503694,-7.4962762233444264,13.271115276379689,1.2861295167233844,0.0,0.0,220.0
-9.762486128616517,55.258785929226676,0.28271439204790283,55.554690393447196,122.52129659581392,-0.626321440666465,9.638839920416153,33.466564162557646,23.942487542054177,-41.63213046572434,3.540251012254873,-62.4390381151842,-127.44933196017637,-4.076555476463978,-8.454781589850997,36.212681524325276,-10.487469795825163,12.49368995158642,2.272860710559081,0.0,0.0,221.0
-3.0133631205696747,49.635449429229176,-0.3225463817987206,51.43376269477461,118.88647002156681,-0.5312203289892652,9.65091487593005,32.311321004560924,20.46678316608447,-37.5592464253384,4.674929255666512,-58.23757122007179,-129.0859985156059,-4.65887279005285,-8.375204734786823,35.295428230229305,-15.717766602392881,11.022666461711221,4.376318891116998,0.0,0.0,222.0
2.0815917742166326,48.183482211757244,-0.021696758684248592,50.76614068468926,106.42528088445835,-2.0432838429280995,8.711425912896333,31.20544346264706,19.80431236238444,-32.26000841712735,3.9953993388027387,-54.443692766101215,-126.00944456367624,-4.964189816067629,-7.7526003237508645,34.01101700969473,-24.672138500129847,10.465038626581023,7.5755893900376075,0.0,0.0,223.0
3.794273500884945,48.25561554782655,-0.20174811412933352,51.021618077470336,92.6619580836819,-3.7621117488750957,7.7509435634502895,30.26056647033369,20.957816707975073,-29.358608469088995,3.9909229045165495,-54.18844204471695,-121.3696843474569,-4.761482649739339,-6.812261411124254,33.28864064699943,-32.4285056446956,11.015783982227363,10.615900882125322,0.0,0.0,224.0
5.575896555394976,45.24244985309024,-2.3347718645249507,52.714542822313774,88.37188294183417,-4.664763366216988,7.6342478965234895,29.845141020049052,27.68538255010231,-25.139704249757475,2.3940383220920447,-50.41421731512731,-121.94187481907841,-5.307893098288915,-6.980983394551197,32.5812177696402,-41.20180586935663,14.1233764328179,12.928168585459769,0.0,0.0,225.0
4.888930681058901,43.49389199854744,-2.4212039389047018,51.61010619303015,86.54951183942181,-5.385466751976094,7.852047543743415,29.60366941537649,31.53460316207491,-25.107756088856295,-0.7258178190371553,-45.72656475925696,-122.31881314579209,-5.178789527052371,-7.3797585541073145,32.10120232370896,-45.46696477293746,16.03447531862922,14.16222138395141,0.0,0.0,226.0
3.234177820394993,38.80635043678773,-4.4213563053614235,52.98971983064864,71.7760047902979,-7.609715038685011,7.436997176827063,29.193967989674736,32.88324452816536,-21.668662589351676,-1.8562261676759633,-43.438853529717655,-115.76646271438806,-4.334338916054712,-7.023557805866022,31.369267680127724,-49.65828145570275,19.283471918519783,15.423515525132023,0.0,0.0,227.0
3.708044230756362,36.28779724024956,-4.502511558391496,52.76930839449784,60.54472591980001,-9.78981258253078,7.162880410281339,28.444107498740323,37.86552270280862,-20.484985819989372,-4.684537511205003,-40.98002850789724,-109.32266672847175,-3.7771646952279854,-6.617239114776569,30.522685783828468,-52.38316152999635,23.083262651704203,16.11578840984843,0.0,0.0,228.0
6.570534478194983,31.925272640172512,-5.111652771471209,55.61288206420951,54.310977865036335,-10.554062837378607,6.786538685993189,27.533331492122898,38.310711636170005,-20.971679054530348,-5.829089912679511,-41.34230249375011,-99.89125712269008,-2.5177416767850223,-6.141261761483872,29.961152062354323,-49.75949652799196,25.76695562029674,16.24982513989651,0.0,0.0,229.0
9.21671198741586,28.443159491689492,-5.646600873814086,60.68445339208263,57.96468751314921,-9.369486958225307,6.845810105624571,28.01172825658356,36.64989997361,-20.101348017516795,-4.581123673557143,-46.08892786903615,-94.10480731408032,-1.4553491020500384,-6.007316249581274,30.146476873523596,-47.343922822554156,27.89761559671247,15.84729959268502,0.0,0.0,230.0
11.03385212620215,27.87954200068984,-4.148625557884877,58.46018938636067,61.4166547800051,-8.581310460016448,6.926263184624935,28.37575479938529,35.905773017790445,-20.523612746063318,-4.724588011922114,-46.84677065201123,-90.95208812326744,-0.9381063147410186,-6.029414315609067,30.250312360823344,-46.65549256527109,29.068078671408063,15.257858755995105,0.0,0.0,231.0
7.09296922141967,25.83721509099193,-4.254098120583344,58.6171290210022,66.72946183667544,-7.383360372881573,6.860344427019139,28.2624174672007,42.537538349464526,-22.004554382206457,-6.3683180132463,-47.1611934931544,-84.13796320951047,0.052451247513882436,-6.043560273760849,29.59155567085332,-43.57802672666522,27.924751829238836,13.376199621842883,0.0,0.0,232.0
4.256714117998677,27.57210009348721,-4.157797004991057,59.30477976336304,73.02794851757446,-5.4053695882194095,6.632791148952526,29.569970596887256,43.55147819181467,-25.564780154429485,-5.946614596473539,-52.721495219446155,-80.15092792263178,0.28634872341182926,-5.52401060106867,30.34407290276055,-40.36000336760062,27.422256314087015,11.667863157264625,0.0,0.0,233.0
-0.47502530125018516,29.52245917841843,-2.7235674228954285,56.052007495253015,80.03700643698306,-3.380633100310168,6.493896994222833,30.66946881454507,44.11869551639598,-27.847365775118934,-6.135273337526309,-54.59972959374092,-82.70471890142463,-0.8439075108259825,-5.275638058242426,30.885128620985164,-38.85142276918384,25.802669995281388,10.2390028275591,0.0,0.0,234.0
-3.6212703755649667,31.526476575059053,-3.3797750904842925,57.23634200588029,85.70501836555417,-1.5217129486267928,6.162649845526483,32.03998623575906,42.57541953336114,-28.443978386174468,-3.4409950430833165,-60.53914481292495,-85.81616377015567,-2.0211824411848887,-4.894277379374837,31.754572228980035,-34.69285000605765,23.69326277281039,8.788471252708487,0.0,0.0,235.0
-3.641752668787437,32.97413030389893,-3.495773745368588,57.23356960183135,85.8225742531148,-1.1191717456974901,5.992883157711948,32.78758408777388,40.2148504137477,-29.88411875958263,-3.6625951030396453,-58.6872511090044,-85.70374027300888,-2.466774098194347,-4.818690096824154,32.10650474549928,-32.385122645033114,22.662306650524155,7.900476204748792,0.0,0.0,236.0
-7.484425021282196,35.74086915972442,-4.382304328005077,58.664325962354305,92.43141780239118,0.285093316893001,6.02847487551671,33.31962345926787,40.15086620080904,-31.52626054379436,-1.4109810525760857,-64.11974880292698,-90.62678375261919,-3.357168858316851,-4.54673267937246,32.71864898090968,-28.603081998207788,19.893654450897152,6.869560468923863,0.0,0.0,237.0
-8.475203211420313,38.947491819589516,-3.831297393103782,57.901392142333215,96.81226199123303,1.7098297210991995,5.951504340876003,33.81545549343514,37.26821548182825,-34.725925695569565,-0.8365840803446323,-64.64285003838003,-95.09750656588015,-4.1439891551245545,-4.449767173829804,33.0838263665616,-24.31082202668514,16.72457086013876,5.724723549070351,0.0,0.0,238.0
-10.353333861593162,38.96391921651354,-4.264065531233442,57.19278784404225,102.66890184799101,3.2175877777153796,6.1450372687007455,34.0265743456921,34.83060663298936,-34.732884402818556,2.1468653734263605,-66.56255338174374,-99.49259385613709,-4.891164366256569,-4.739684199017874,33.13570584720075,-21.424091709305475,13.611470370060848,4.9406140270513434,0.0,0.0,239.0
-13.108219263417798,39.75715613114772,-6.822480748047178,60.62072247783385,106.95707987501804,4.2372215332665695,5.986057891886109,34.73233298306558,32.11611006338156,-35.9442483106482,2.8906779443830666,-66.09043906141314,-103.63390015230783,-5.52323686794684,-4.874690868328066,33.47415194529409,-19.356058909061606,10.809617711599024,4.191076110453623,0.0,0.0,240.0
-14.222979567740051,40.71270634876984,-7.0625853509127525,60.991811047814636,108.41433856039887,4.612291539597567,5.8993926106326215,35.139430241773326,30.440769384930864,-36.041833515139096,3.830943526160423,-65.99917123153578,-104.7838140182056,-5.913668588557145,-4.942341729729869,33.651232173972566,-17.983899242441215,8.695434374303469,3.539303014243194,0.0,0.0,241.0
-19.0395012759249,41.7891748946433,-9.519727656591295,64.67407162261422,113.04189326334271,5.409531327405488,5.723656651909506,35.75822520407776,29.3530443128047,-34.561955652207914,7.205032704402149,-67.89422950525463,-108.92174339321559,-6.499342039831674,-5.078963157506231,33.95289941910866,-16.851908049566095,6.268651682951284,3.1370145243213283,0.0,0.0,242.0
-24.591645217245627,45.13641547263718,-7.69333015582059,64.51413196416348,117.18135805242449,5.820853148757833,5.809509569867552,36.28185390525101,31.425989345692788,-32.85362051362017,7.2433727886998085,-66.40199478008286,-113.64491671719605,-7.628691640983624,-5.304271857248142,34.38839040279288,-15.664039487841574,3.4543437809770206,2.2458441107948777,0.0,0.0,243.0
-28.188198385748485,44.89099397142842,-9.454951274832515,66.62392333216181,121.33163533771832,5.919059234428156,5.7766690080708925,37.0367766335657,33.29723507905292,-29.573091768261094,6.673629105934239,-64.04673826858686,-117.83156915950549,-8.394440381561004,-5.356678334037696,35.06109876912837,-14.638512025498137,1.6449090605290049,1.3600083827434193,0.0,0.0,244.0
-29.744657858079556,45.17623124438869,-9.31569900816275,66.93083564255309,124.2743619759758,5.987396648908526,5.571821372718895,37.87150338982479,33.22593172258725,-25.65386268108684,8.803212757723141,-64.52648652060275,-120.22553441255886,-8.79997966805819,-5.14899567634791,35.90358561628469,-13.77930025385014,1.0290931849171574,0.8423001513156002,0.0,0.0,245.0
-30.638926979361866,43.75721257322755,-11.745314925286632,69.014901138141,125.35549714176584,5.929501694312958,5.571513384302593,38.0401651850765,32.62889073457052,-24.612819559226082,8.773255421284759,-63.9731500590972,-120.87080228877734,-8.712628129558007,-5.110706320208022,36.29420321893598,-13.224370621235565,0.4787244729239283,0.855398402191451,0.0,0.0,246.0
-23.107897853490044,44.36753678622412,-10.759401392297619,66.16075181344844,124.84706208398345,5.1044120515179765,6.513200141584474,37.465818601425525,23.030065112684365,-27.794806172621854,10.50405561487692,-62.06483495552494,-124.06704204970276,-7.740042750548117,-6.0780484937348005,36.353877731858354,-14.235321170792417,1.6468652353674404,1.217910902212511,0.0,0.0,247.0
-16.068711766127883,44.15527227564943,-7.8453966319898845,62.42819678222029,119.97022990775069,3.680858854485851,7.359871350995072,36.10108176557552,14.158182715699086,-30.593114109746328,9.365780391078623,-59.17288210757799,-122.98985167254914,-6.34313137335751,-6.921208061190165,35.52884605773023,-17.46752248573604,3.2894366646957214,2.9697162666294306,0.0,0.0,248.0
-13.45622716760696,42.22388896709428,-5.653823837849516,57.76530518212652,117.92052363804326,3.1434950760292435,8.02277904473536,35.062815987156306,14.79086243630296,-28.383794134065628,9.338023102641001,-56.955245784173556,-122.93164547578407,-5.868084856488056,-7.673204350515361,34.91867735801947,-23.748203804081193,5.918430744341677,5.384002081507033,0.0,0.0,249.0
-9.049511649549189,40.078378980711065,-5.6988001832821675,56.11924092520227,115.60325516701452,2.9135857428264207,7.958785616850076,34.71335964121204,13.48513832792559,-29.059113431994028,7.169056498124873,-53.64671354581604,-122.22151938645322,-5.718289808126677,-7.889717475323534,34.31611816543785,-29.77744505819658,8.483601051004975,7.5374326638679126,0.0,0.0,250.0
-7.326575391864092,39.42332042005436,-5.832361739572112,55.45255548407283,115.27280559421823,2.946044817478302,8.20125966958704,34.710368523115,13.289043424806827,-28.413936735269402,7.317865153254592,-52.64182015686254,-122.81610020082375,-5.841571762390134,-8.138446385969678,34.05919564463235,-35.16118206086234,11.014439774257715,9.08252147571712,0.0,0.0,251.0
-10.360761336544332,36.524643026635374,-5.52034461674544,53.598482158246554,106.45665184482446,1.854616541392505,8.69065010307462,34.18475430215697,28.98534108570573,-24.263295440916473,3.4855971512424637,-48.17747204640935,-121.78350517328634,-6.715100125204965,-8.545982888474063,33.874424637590025,-44.30381300323209,14.790735548717425,10.737507854718686,0.0,0.0,252.0
-9.742414705985546,36.943129880194206,-3.212629894475353,50.48738002851686,90.70355328311929,-0.7613864464257821,8.93476325876995,32.66398801705889,36.40214820377956,-26.86681656452308,-1.3038726549229502,-44.91427090123785,-118.54535131145596,-6.596222465621129,-8.486401782138763,32.98950665589591,-51.5391453138152,19.366081433550164,12.057212139139383,0.0,0.0,253.0
-7.011646364353074,33.64163600404061,-5.16350158503038,52.121030662670414,74.17440624911713,-3.5146042491814025,8.647084171859598,31.352562836792107,36.296909462569175,-27.654533426356647,-1.5495124161725284,-45.784288006391364,-116.50132708748411,-6.155557789502958,-8.052101494515856,32.27342569696919,-56.501324587627174,24.19766434748558,13.619801188083928,0.0,0.0,254.0
-4.4053785278347934,32.47541922947221,-5.3742675698913756,50.89667420678509,63.37341916246708,-6.219454624432399,8.872836243339048,30.103563904531903,39.4932057477295,-29.43236422642541,-4.87799882648525,-42.0703226364506,-112.18161091880317,-5.47511181861972,-8.193636978268508,31.225511417670024,-59.09656837160047,28.264016093332753,14.836552685816352,0.0,0.0,255.0
-1.3799589698310017,30.478728289687155,-5.630974609829209,52.401122139068725,64.63424023415784,-6.574232937799113,8.991381324309243,29.55262624601658,41.878054925211345,-28.11365859065183,-4.606823928440623,-44.6435661277614,-110.54994603327657,-4.692977295776111,-8.341721182121743,30.805182565610004,-59.852477062230854,30.7844037861513,15.3938330960787,0.0,0.0,256.0
0.6626468785890416,29.293097183859405,-5.8691885697028585,54.681258818463554,57.17709160840194,-7.422004649863887,8.424180064730903,29.066956432083185,45.05881990224354,-29.285996058470577,-7.042290030761312,-42.9882504035794,-96.0370802038504,-2.5221751412578723,-7.762490670634903,30.328776585734783,-55.725415354652746,32.19649835915574,15.350322127027033,0.0,0.0,257.0
2.8466499673512846,26.49864870221903,-6.707321770730543,59.5611936283245,57.79520977657172,-6.9872393055854864,8.087372300840075,29.042714743834967,45.868225942628065,-30.138292109942796,-6.916425800566264,-46.39726175428208,-85.82280638050204,-0.8967958317344347,-7.314782352877358,30.294303162408184,-51.343891169332835,33.16144627210263,14.746210725145882,0.0,0.0,258.0
3.393004219975395,25.46482427879308,-6.036793350649158,59.73006804166889,61.52710731693529,-6.296496266971338,7.971774913384001,29.381584776008264,46.67474326329326,-31.308101245202963,-6.670213028663761,-49.99257936707996,-78.73794102250241,0.21003893067775728,-7.041430649311333,30.441003045614508,-47.83226336210224,33.50581434674248,13.583083521835242,0.0,0.0,259.0
0.49801697687231117,24.247583116482655,-4.54522806731776,57.19495709237249,69.67923870379437,-4.79009497213805,7.95520987265043,30.025534222703083,44.9136336763004,-30.828598500529875,-6.428406057532557,-51.75316111091998,-82.48546510774136,-0.05656465700329155,-7.190025886869933,30.5289317549903,-45.88349655941269,32.9627969042694,11.774075846787458,0.0,0.0,260.0
-0.7199666460872227,23.819167309694357,-4.184126392689691,56.136556718575505,72.35226072978134,-4.37193738341745,7.937753151801359,30.463348288619773,42.845177116241544,-29.843371920931602,-5.310973437171375,-52.377239152470786,-83.89550628340008,-0.11193130794507458,-7.33701281011213,30.576498528947464,-43.17437101176996,32.46787630329705,10.530107033256115,0.0,0.0,261.0
-6.777573112929931,26.662487783201488,-3.3145768048004283,55.239604020873564,84.4093316097912,-1.786282062984228,7.643511154850379,31.624673945417467,40.58854172887989,-30.597055230184232,-4.084867556271502,-55.25553365743771,-90.51343391282754,-0.9617601645762156,-7.404020996279686,30.63045029954271,-38.779421684117395,29.61234604288603,8.372617907656538,0.0,0.0,262.0
-12.45768656225943,30.13393557891724,-5.2264071532636,58.742877444943964,97.43013028508747,0.8017438121129352,7.31747903685718,33.4805809678981,40.36657740168229,-33.540918114191115,-5.228989819056812,-54.276565448476404,-94.88465819253116,-1.868173115014834,-7.5751829927876955,30.740538003843444,-35.524529554693906,26.65757988340582,6.709675788089985,0.0,0.0,263.0
-14.032949967072133,36.15236340508356,-5.387266868422789,59.72201446473326,107.75742205142247,2.743213767925545,6.905651949746458,34.93664677969626,38.619954494745365,-33.48544293175198,-3.9915956674524407,-54.54101983190342,-94.95132153671707,-2.311141927281167,-7.808255054440772,30.3957765731426,-30.750776456678874,23.62681513811777,4.889976084986493,0.0,0.0,264.0
-16.495481786745284,42.14379164237973,-6.494006683363594,62.48998155348268,112.83878686537118,3.3355542240983285,6.8269863404038755,35.47202963756254,37.61205885317955,-36.39182911600788,-3.5928473900031674,-56.54113194408208,-97.12547304240601,-3.0041789259719414,-7.506466786756687,30.95078616710867,-25.99792798316561,19.935654538069166,3.8188377511226115,0.0,0.0,265.0
-15.910981090942617,44.58942457644987,-6.949915846826881,63.531350176135135,112.9414263949717,3.4548662340634335,6.841726702432995,35.81085225192746,36.827116857229065,-36.79668522415439,-1.233665934325633,-59.87820319250246,-97.2971799830488,-3.415439359185722,-7.327982426921466,31.4279928783388,-22.797088484184357,18.03579851415974,3.097060807353961,0.0,0.0,266.0
-16.637764957372227,49.314091337051295,-6.473303165827574,66.4845835466032,110.18909736070228,3.7641521975930097,5.909608157497764,36.11913327951919,29.922165576231944,-42.68599625168414,1.3249913777206128,-65.58135840701998,-101.5905952779199,-3.7981112353565503,-6.498812831550182,32.717996485221605,-20.158797159331847,14.854819353398264,3.1950877020522257,0.0,0.0,267.0
