JMW9912/AVATAR/install/dynamixel_control/share/dynamixel_control/data/csv/.data/0715_1641_WMCA_Dance_HalfMethod_shoulder_estimation_version_Fixed_wrist_shpere_radius_Arm.mp4_motor_degree.csv
theta1,theta2,theta3,theta4,theta5,theta6,theta7,theta8,theta9,theta10,theta11,theta12,theta13,theta14,theta15,theta16,theta17,theta18,theta19,theta20,theta21,frame
0.0,0.0,0.0,0.0,0.0,0.0,0.0,0.0,0.0,0.0,0.0,0.0,0.0,0.0,0.0,0.0,0.0,0.0,0.0,0.0,0.0,0.0
13.955218823474738,10.124735860189839,45.866298384966925,137.2205416871037,140.54775468207123,0.0,10.846455991383456,-4.5301243028558815,-11.797309347668417,-12.497283379226971,-55.41229595900225,-127.09815394387681,-140.17322330035864,0.0,-7.4793267476493375,-7.057227271771136,-4.139992772558148,7.6767637577301615,-2.4052022056058338,0.0,0.0,0.0
10.901285004984768,2.076147801759125,48.66124621679908,152.4010734144428,132.91899255503543,0.0,11.61067552588899,-1.7126352393529107,-9.78973916568325,-6.263574127227879,-57.20436332101249,-142.32900883717593,-131.8689597245646,0.0,-8.75381402818091,-5.311178088202155,-4.246485876783475,8.930110898200201,-2.1265245378368927,0.0,0.0,1.0
10.912220137845958,1.8003931936978388,47.299582718953744,154.19321623884537,132.86452722684442,0.0,11.652978576007767,-1.5200730123422792,-10.021049498341254,-6.471345349571727,-56.13406827300791,-143.62131673373864,-130.02539300145108,0.0,-8.80140224246489,-5.234711263267783,-3.179002799707754,9.444620435259795,-2.2566627715187972,0.0,0.0,2.0
11.893833581019036,2.3376174990021306,36.67110540252166,158.4842579366765,138.0111324995853,0.0,11.642102399125502,-1.5816573720455092,-11.212146550905912,-3.3593949453007634,-46.58079970349036,-152.32898797016557,-132.4411620601946,0.0,-8.956477606037584,-5.043628457806898,-2.202894314789281,8.822300518402065,-2.4441157149322454,0.0,0.0,3.0
12.48670680758084,3.513257362227964,22.44859879302455,161.90325814878426,144.80434680112756,0.0,11.481908767011145,-1.8109790328853543,-12.160897392661116,-2.068878932377447,-36.81181099323395,-158.19407017189047,-137.45846319678282,0.0,-9.032552444682555,-4.931999279690004,-1.442970011955779,9.549432402681884,-2.686482736307858,0.0,0.0,4.0
23.505442281110255,-0.09260333317186659,14.495143567840064,-179.6300324088154,151.00913394226083,0.0,11.416731327429169,-0.7935523945993371,-13.280230501390104,-2.9708319007065818,-27.856387193631615,-161.04605973502177,-141.92884097517876,0.0,-8.940327728618238,-5.074252310178978,-1.4446573550377322,10.480202646285003,-2.7271785942499185,0.0,0.0,5.0
25.207245844690423,-0.005831368020644555,12.961148053160382,-179.97400080182803,154.07770131498648,0.0,11.404742334197525,-1.1187942268075637,-14.128758562359124,-3.617325436842268,-24.76393993989519,-161.1508201208351,-143.64394563770185,0.0,-8.802518931626782,-5.298965285891103,-1.4704747642108276,11.387547625952957,-2.588486945130326,0.0,0.0,6.0
25.221924914852917,-0.21859407584489068,13.773253719769823,-179.0819206153972,152.45009056867863,0.0,11.411670020463138,-0.9907689039168665,-13.991921698753448,-2.633776928082737,-26.140097375594486,-165.33455121581397,-141.49046662108265,0.0,-9.127293887812678,-4.698692893121964,-1.0292918185687656,11.504234069456212,-2.4619471689537535,0.0,0.0,7.0
23.691685993443386,0.0196538473328408,15.321765754710091,179.92562110996522,149.35644388363988,0.0,11.415966591564473,-0.9546608854149204,-13.527517500290413,-1.2905982017206923,-30.091833185344345,-167.14323558231465,-138.5511105490483,0.0,-9.341846946144113,-4.26500113449364,-0.19340513202879814,10.92116806722308,-2.1872819616173023,0.0,0.0,8.0
23.784153288777137,-0.31627520511637874,16.89358681099462,-178.9117490637129,146.20707827539147,0.0,11.419732667515332,-0.8317900639943836,-13.493030167623722,-0.8864798122156148,-30.590321225480167,-169.2982367001494,-136.64447129102058,0.0,-9.458581532373106,-3.9884300641787482,1.1674858269626867,10.136477789874503,-1.9638044871919023,0.0,0.0,9.0
24.287753161484716,0.12413433585730062,18.29350827060755,179.6045283929231,143.4121699483314,0.0,11.413787363929217,-1.2718064148527382,-13.759807111320667,-1.1758900650365176,-31.431957563723447,-168.5307218060385,-135.2894616108554,0.0,-9.406686618864489,-4.126630075640427,2.1917542101667995,9.671170221553691,-1.7118763757454387,0.0,0.0,10.0
26.51118657636339,-0.24384594679286128,20.163149158405602,-179.29260543536284,139.67087555048516,0.0,11.403863843122386,-1.5863085947638997,-13.884351341967616,-1.7883142444086388,-33.71479234118654,-166.25232953806218,-133.18772674108536,0.0,-9.301983502377702,-4.382901754275458,2.7086443651745924,8.856724378975985,-1.589369728281162,0.0,0.0,11.0
15.292255674261414,6.7174792863937025,22.312818791549116,159.55796741096677,137.88001885548508,0.0,11.236427070829853,-3.0616876271071773,-14.335566445143357,-2.668236171392107,-33.81129259252625,-163.82938539364977,-132.79060492058244,0.0,-9.122617603605622,-4.758037098830101,2.985213710378096,8.680634426185557,-1.485370514445888,0.0,0.0,12.0
15.474100923176545,7.022543241560315,24.205928105964734,157.75812493463363,137.44305083202153,0.0,11.210834662891001,-3.260976680090655,-14.600147483022141,-3.63723957052754,-33.30900959879497,-161.20757687978426,-133.07848311898454,0.0,-8.917649866574173,-5.137744389389548,2.810131387230324,8.441376169193898,-1.5152068907685716,0.0,0.0,13.0
15.530381681937444,7.278173439513035,25.328194204142452,156.91057226552468,136.68596611450852,0.0,11.199282788680597,-3.349116693236956,-14.814871555054413,-4.54583898564374,-33.133783623614555,-158.92482730004915,-132.7826576324376,0.0,-8.72860712746367,-5.453954016230765,2.5433287284876718,8.499170316039473,-1.5947436871232523,0.0,0.0,14.0
14.899596636613843,6.272229520478161,28.705634577563487,158.44923195594762,135.21713288373545,0.0,11.360774162320341,-2.765776752122786,-14.45336671775857,-4.6109340076495595,-34.127033824699794,-158.76666920924401,-132.00182334219082,0.0,-8.773464799916896,-5.380779168832203,2.2098003180892984,8.494244083227883,-1.6364483179051659,0.0,0.0,15.0
14.202560463888409,5.537944371383272,32.0810900385821,160.41495121366083,133.17879086776696,0.0,11.48779045093865,-2.13481236382817,-13.864811878299507,-4.373463133614979,-35.90638081466426,-159.42449338152156,-130.66813561297212,0.0,-8.912863865790426,-5.145647783939915,1.8800627269864707,8.484153687196423,-1.6303585017000217,0.0,0.0,16.0
13.80604919954895,4.493614334631314,33.63516854503572,162.09421640253385,131.92984944658735,0.0,11.556991320745354,-1.7146843010057804,-13.591717009620305,-4.226920569169657,-37.178722738772585,-159.90363849727734,-129.5202420316696,0.0,-8.995037618725537,-4.999762976488596,1.6526648837040023,8.515376335097862,-1.6112769188716445,0.0,0.0,17.0
13.033479672339636,2.47058259382301,38.41622269784471,167.12706133963047,127.96062961523882,0.0,11.631569119825713,-0.6001174659125715,-12.491069590913181,-1.2874389409408094,-40.530063795482945,-165.4852385763429,-126.73868220478629,0.0,-9.460260261299123,-4.044475160455679,1.5809350976360819,9.7662787281866,-1.8378043085700608,0.0,0.0,18.0
12.11749410180663,-0.7769848740593447,42.16892636821985,173.17966822590037,123.60641092510305,0.0,11.58330332035469,0.5417885878247428,-11.55421181605026,1.07375534220723,-42.9399626206983,-171.17852249651165,-123.74782640957866,0.0,-9.777368470374693,-3.1716467857344077,1.6734986554779954,10.764810321948445,-1.8538367304150125,0.0,0.0,19.0
11.577337129032633,-2.3874384914523894,44.2513672240372,176.6174752705331,120.62603977116254,0.0,11.488699049943854,1.1130140195549665,-11.034082665470034,3.1337454249756287,-43.998987345584844,-174.26446507582875,-121.68783892415502,0.0,-9.913630230421655,-2.7042099728910864,1.299211407243883,11.307633324071716,-1.88831104360851,0.0,0.0,20.0
11.333995418151646,-4.426967238087691,43.370778453666446,179.74068488283612,120.81591999101968,0.0,11.400390943354886,1.5648021678843567,-10.760188664657939,3.8273940834955766,-43.22814768475741,-176.14772907540743,-122.32325033215449,0.0,-9.969128130042765,-2.453735077389961,1.3656217001568713,11.9410340377011,-2.0184084096027086,0.0,0.0,21.0
11.189016969055313,-5.088303328128157,42.320387155922134,-178.3316226289563,121.23027702545997,0.0,11.312106821321736,1.818936459110361,-10.707074552350985,3.253103033553938,-42.71372659017253,-176.75716885851244,-122.7945144484419,0.0,-9.968368879703142,-2.40136124375035,1.1977553366157916,12.44149624006832,-2.059456376633137,0.0,0.0,22.0
11.893804552715068,-2.4223261373999914,36.252061891848044,178.69250843719453,128.53947058577867,0.0,11.396560958006095,1.2654047100146872,-11.277099088591795,1.3294655616780966,-38.07512905167441,-172.51250034557282,-129.84639822126715,0.0,-9.803262284298318,-3.039086302863081,0.6761255538552975,11.689015390382538,-1.9988642195914261,0.0,0.0,23.0
12.89365289342478,0.7441061569743037,28.317874490234022,171.69553404081483,139.88302659858593,0.0,11.54383076503782,-0.016158039044076807,-12.171562733050099,-1.6943391155034448,-33.39675902145843,-161.5578165146903,-141.01771530828916,0.0,-9.18671128045731,-4.610918404332495,0.292860711394031,10.941840339543784,-1.9981464685220736,0.0,0.0,24.0
14.054629665523331,3.558022782576151,21.33494310012514,151.75146760771383,155.27705484330366,0.0,11.101741219835732,-3.673798705104478,-13.472807685038614,-5.199817066403034,-29.08694099244217,-138.58203488545044,-154.21710472746346,0.0,-6.932683073006799,-7.583523432374781,0.12515634315623472,10.297848606861612,-1.745708542986198,0.0,0.0,25.0
14.973820302324366,6.451843360857362,21.315332514050258,111.96074806702954,161.0385196699202,0.0,6.672374982509844,-9.70774053035926,-14.583691849764291,-7.369557039892664,-28.25388004079313,-107.31820276967764,-158.66016312617566,0.0,-2.4107277834207186,-9.97242236318763,0.5619751974998581,9.677536148321005,-1.4654387096562917,0.0,0.0,26.0
15.454322402887474,7.758679785279018,21.165213304076836,94.37037979233594,161.03795256910809,0.0,3.5540399735489427,-11.221906411943456,-14.97724564219313,-8.441045844206227,-28.170446150686395,-94.92275083661666,-159.5674576932604,0.0,-0.42807429232133465,-10.22670460509363,1.280721714184021,9.498014807671739,-1.3667132399325836,0.0,0.0,27.0
15.819964627273059,10.46712826839843,19.22564031913979,59.34819548203719,155.1366850488233,0.0,-3.227054774928092,-11.306656856139394,-15.268471248024131,-10.821653570497801,-26.318974246964693,-61.24505847291781,-156.12888580137277,0.0,4.719109782152293,-9.053313833144472,1.583614439129792,8.697940501126862,-0.9887663608009113,0.0,0.0,28.0
15.303479382615041,11.450372074656702,19.447131427433145,42.054899534780795,148.62158084761256,0.0,-6.076569566826539,-10.041795153147879,-14.526261911675528,-12.295135592587286,-26.150587588164797,-39.611707090912,-152.06533027152432,0.0,7.023535967151346,-7.303647011294728,2.384877780066823,7.0061947988370425,-0.7014405223002045,0.0,0.0,29.0
14.997358841751522,12.62579115212977,20.359703646595786,32.33906184256402,144.605581989443,0.0,-7.327370139856153,-9.172941340680522,-14.144269921964229,-12.365836828856397,-25.945922470805304,-26.86876928278165,-148.43176154433957,0.0,8.04570093002798,-6.027339348262007,2.916156324645902,6.654945368695692,-0.535397058395976,0.0,0.0,30.0
14.246943033115151,12.195504139713597,22.769695304033462,28.009771947429805,145.2274591627985,0.0,-7.794335594119215,-8.786478984943445,-13.176857295849251,-10.49992133032324,-28.807555857288225,-24.300486361553222,-149.75565163491453,0.0,8.275420965173241,-5.74995465807581,2.997427968725074,7.37441334886379,-0.40296869533510576,0.0,0.0,31.0
13.797019689466195,11.588400022505414,24.113180552898427,27.002162165970752,147.58348954087347,0.0,-7.894408775269572,-8.714926043012078,-12.489919557811684,-10.00317946339757,-30.44083142426959,-22.437500787164964,-152.14837650392695,0.0,8.370622837520795,-5.549699700858679,2.889473713118837,7.989152937973429,-0.486351782249318,0.0,0.0,32.0
12.344883905881046,8.090127194033812,28.41596912302328,32.449866932740534,157.36684129298197,0.0,-7.191240760512431,-9.316987080487769,-11.139597135315686,-7.07287230271406,-36.332978870191376,-31.546588755178842,-163.42987109330602,0.0,7.673426747491123,-6.488909152544278,2.6070061972606307,10.279942888740406,-0.2852479093352728,0.0,0.0,33.0
10.702439415225479,4.238616093087599,31.719629745456285,36.848287526243915,166.45585002568478,0.0,-6.603738456106262,-9.754866401184437,-9.163318611239285,-3.904151349579578,-43.16114754300637,-59.759491697408805,-173.57803209545838,0.0,3.9319687949130655,-9.242947003735383,1.9328151777528746,11.5693100272808,0.051366892623162415,0.0,0.0,34.0
10.40965738003736,2.5099368070564165,31.123380544661558,46.99437849781322,172.48361571791094,0.0,-4.923055496388435,-10.690912853348138,-8.461106862670274,-4.778134084804623,-50.730845924519116,-142.14284096985372,-167.88585368965843,0.0,-8.714278362428091,-5.085641640399564,1.4770224846435454,11.944704569338455,0.938283678609163,0.0,0.0,35.0
10.395282393155423,-0.8703979130628279,27.859121045343482,42.99529423153936,176.09564660792327,0.0,-6.037634099407495,-10.089963627542424,-8.005191735571922,-12.26013292595554,-60.48279806230561,-145.7483523472607,-152.7949924485316,0.0,-9.459674735796284,-3.629708398354398,0.8435010090224688,11.271264883872288,2.5277752025429665,0.0,0.0,36.0
10.801861356331479,-1.162420349425581,24.838300902195964,33.92559826768099,176.21677908756,0.0,-7.647078320951706,-8.91391371086679,-8.227104581705635,-19.88810729940408,-65.24426555825363,-136.6387744422087,-146.34349279820796,0.0,-9.355528465895844,-3.996050660270262,-0.3456230645834707,11.591381977024295,3.946920040646451,0.0,0.0,37.0
12.568251582307973,0.5710946532546605,19.513587509519876,122.14706917397484,175.71321589525152,0.0,8.397168944944996,-8.10138668774954,-8.28177512336971,-58.84564747992175,-73.28592106227468,-99.90234620245002,-124.04965436026428,0.0,-9.351994686673219,-4.16972352738622,-2.788394649053726,10.618241848412953,5.547950310629853,0.0,0.0,38.0
13.972335277534793,2.7813446076535806,16.02174961154237,120.83108981291572,170.91889657405255,0.0,7.920039471979554,-8.586192012263696,-6.813326286725636,-71.58334856462987,-72.67708915669995,-83.67441099924828,-116.33227953815066,0.0,-9.246711304188057,-4.51466180366455,-6.668855270113526,9.976889957527147,6.880385881404185,0.0,0.0,39.0
14.93136896908544,6.6704011833225385,17.561657566493384,108.47650235535667,165.74313835572693,0.0,5.979743825423309,-10.083744485728896,-5.853083651691882,-45.73170305406166,-62.569613457825625,-104.00523757050901,-122.41473810570747,0.0,-8.424192891509831,-5.91200739870974,-9.9091798740014,9.66356637394522,7.822462709960069,0.0,0.0,40.0
14.607766559041291,9.096420256161066,20.419010165380286,90.83641445957886,162.49601752035093,0.0,3.1287997907810587,-11.335091402419149,-3.9069394953467556,-34.17990076231065,-54.17434334374908,-111.47769792586631,-128.36158208811196,0.0,-7.921340213663951,-6.565065978947646,-12.799963305485928,8.802843112134406,8.172021884826695,0.0,0.0,41.0
14.34223441732058,9.807380144261742,20.762518272346263,88.97454171719944,161.44355356819457,0.0,2.884453985573248,-11.40416340779642,-3.0423333825149323,-32.711130685693185,-51.44949796705151,-113.73706125357548,-130.57902519636536,0.0,-7.923957821680601,-6.572051504064006,-14.60136732876701,8.021218180659366,8.402797484139887,0.0,0.0,42.0
13.110304786350296,11.185663162642502,22.21206292738986,60.55958316849856,158.9973177969108,0.0,-2.226397622451621,-11.55429078846636,-1.7927402420207577,-24.6659076476491,-44.47749784539683,-115.3286162174372,-133.89266761840045,0.0,-7.299474247463207,-7.221545122989378,-15.037510990537175,7.93299366998736,8.314816971686637,0.0,0.0,43.0
12.11753849803623,10.071997180202498,22.496449101117957,48.82220245102006,157.61770114966444,0.0,-4.3916261112853405,-10.9157963336797,-0.886290149177615,-21.74816792567026,-38.551114741021095,-115.73434117448461,-136.9141753190071,0.0,-6.896061947704734,-7.609687046071777,-14.637728788488992,8.22095802693685,8.126778791797271,0.0,0.0,44.0
11.458624172389579,7.776955003751303,21.84839345820369,41.68667915309912,157.99071037231687,0.0,-5.8276853411574185,-10.223216888670832,-1.1700916595459316,-25.296609931410284,-42.48950026949889,-116.29959089809208,-138.7578998787066,0.0,-7.3933201899533705,-7.164362765791757,-13.500350710760355,9.901813832457238,7.791925678938389,0.0,0.0,45.0
11.787344101669367,5.42472895873892,20.94158065886053,40.514460716520894,159.27304050276913,0.0,-6.3418320494663725,-9.91391946367199,-2.7359432626226203,-37.54252175726195,-54.792900901112404,-114.71512056090138,-137.72861560000845,0.0,-8.505713711288763,-5.61891156556322,-11.842652547155529,11.76408019868908,6.972512808585022,0.0,0.0,46.0
11.902666723163158,4.908060225356469,20.234357631299613,34.244517332654745,159.40625695516528,0.0,-7.4032360848599925,-9.16405865194034,-3.484300196111059,-41.43806066626551,-59.18123135280535,-113.83170490706894,-135.98407708146433,0.0,-8.819280784061998,-5.064432085157972,-10.993546779272938,12.708727367837666,6.381433918817291,0.0,0.0,47.0
13.094603035222082,4.777443650349058,20.202037440376728,45.03504389137778,160.84398190054262,0.0,-5.842725064520561,-10.222633257994245,-6.009203419984979,-85.6839203119008,-73.0192430105185,-79.48361397105613,-127.76704242139871,0.0,-9.585292421398911,-2.9692222568888345,-8.919528744782582,13.364931084644944,4.9337039022227245,0.0,0.0,48.0
14.71103731174459,5.615482137011749,18.835567450180058,45.980918283593894,160.2651634284817,0.0,-5.87821641808686,-10.208068883140097,-8.66789425488699,-40.50396597086383,-69.67832833335387,-117.16475561983633,-145.44040544332648,0.0,-9.247424602953139,-3.8828392043109887,-8.521194883332877,13.231874772527938,3.6081821302537196,0.0,0.0,49.0
16.639846874863046,7.046737743665395,16.88436503638744,48.098066360238526,158.3075796863786,0.0,-5.760397641690561,-10.27503430569964,-12.262820890550634,-25.00057575770349,-56.54580592670771,-114.39055281758114,-157.7825561095049,0.0,-7.180909915221651,-6.860491690990259,-8.28441637424444,12.268693735665005,2.4985544179607344,0.0,0.0,50.0
19.175704868392025,9.297793551491814,13.134123882814617,47.63492976525434,153.4550786996803,0.0,-6.219381858392582,-10.005780826595592,-15.524669936244026,-18.485621598973545,-43.57193331524669,-81.02674443153991,-161.61527229484085,0.0,-0.6465289506588302,-9.918397943133302,-7.879773468965624,11.740252737647115,1.5627156747466717,0.0,0.0,51.0
20.039394241771188,10.046389810805694,12.866554161339765,45.10130271036619,152.08908310245687,0.0,-6.6705263473164065,-9.711668136379341,-16.926298178464208,-19.873073108992052,-39.10577586891649,-70.12346708995089,-159.2713266245088,0.0,1.4160106336543672,-9.80431682120699,-7.6786270540836306,11.97100977697035,1.3627272894715714,0.0,0.0,52.0
23.450108967972287,14.795152349683772,8.24200686939187,44.240986258553015,142.84139521611775,0.0,-7.134782644577941,-9.378178746397381,-21.093388053352527,-19.100746125961436,-25.848557881955845,-46.24318432512944,-152.15009301754225,0.0,6.059054131008602,-7.712617782218327,-6.48703015676811,11.38185183104373,0.9180044911220963,0.0,0.0,53.0
26.265506113662376,20.804681505190356,7.1924601183213355,43.83240678949025,134.94758923707118,0.0,-7.048838540370403,-9.441098232911902,-24.883540278515355,-22.177179532691717,-18.144929007782647,-44.580573485968195,-142.74907038083532,0.0,6.773246235334592,-7.143370422083707,-4.9920680470607985,10.41662109623315,0.6169771949997435,0.0,0.0,54.0
28.765170934779444,24.66323629607845,6.391833479348298,44.83330545701993,128.97606985874418,0.0,-6.935086979512067,-9.52592746027631,-27.8598413131253,-26.002975243633795,-13.870132307177801,-45.90799153598711,-136.8242378725904,0.0,6.877023313046247,-7.010231449852586,-3.1647237821058978,9.665784622125075,0.369967141967063,0.0,0.0,55.0
29.502028817913345,27.4712169928457,9.049856705684617,47.96160016170075,129.91520688927986,0.0,-6.115349104162566,-10.063372083126655,-29.71980256941003,-29.07382832485673,-14.0779949105857,-50.737875363722026,-134.88778804516906,0.0,6.449104724149456,-7.427440935518802,-0.9415613479656633,8.913423587663383,0.3018436334830927,0.0,0.0,56.0
29.941869094800076,29.000328809894164,10.093956955330043,50.22842028313121,129.98956288559577,0.0,-5.639149482773327,-10.333283624563455,-30.405772128132757,-30.213286762323285,-14.778184320541149,-52.97463826076816,-135.2571220162574,0.0,6.200375320245314,-7.605733544938832,0.060554327422558965,7.734192479939443,0.01006507601578537,0.0,0.0,57.0
29.745723137310236,30.19452238607155,12.67022554304693,48.91828381481157,130.11681748464957,0.0,-5.328082765754456,-10.491226434049423,-30.498399738561872,-31.308601840472136,-17.253818698272305,-53.773886251844594,-135.71170306117898,0.0,5.7861532241327405,-7.88287264530588,1.2974568119074268,7.981351658714272,-0.27318850232105385,0.0,0.0,58.0
29.184903134749653,29.97329716624002,14.82448184345337,48.73040769596852,130.64304229863532,0.0,-5.080741151515015,-10.618944482155156,-30.764848833178657,-31.976147280456402,-18.878220901919743,-54.68438706999569,-135.9098884866768,0.0,5.505890155286322,-8.064129757346915,2.9877896888785096,8.85624184946947,-0.5876894786796378,0.0,0.0,59.0
29.09962822296205,29.66313304860828,15.898147774470784,50.14184283603061,129.95394892645427,0.0,-4.855250391203713,-10.728683760189114,-31.467285977990283,-33.69355872408812,-20.347028449587267,-59.74014015549338,-134.2240295142249,0.0,4.93252449382819,-8.541915961699079,4.59186060075376,10.251114495084915,-1.0201604955134878,0.0,0.0,60.0
28.377197406902507,31.547319706740033,18.92261434926471,49.70036639097862,129.85036781340463,0.0,-4.241623899068735,-10.982981016599945,-32.98045974709325,-37.65258931688641,-21.9788407804394,-61.38407258522401,-128.5656428844492,0.0,4.4374125375237945,-8.913209345012366,6.3076989232326754,10.02483716705388,-1.0609404228366635,0.0,0.0,61.0
28.10527220811867,31.879223558711587,20.720984366678056,48.95769345252858,127.51829490628732,0.0,-4.108514191610086,-11.014603013800102,-33.94379304272643,-41.21456394950899,-23.045754474357167,-62.48187831900766,-123.37888904158662,0.0,4.04086911832782,-9.195888893904899,8.130927516405395,9.682344400777321,-1.2966084566438132,0.0,0.0,62.0
27.452910595206998,36.10354146695068,25.811248236129654,50.88139055967681,124.77282604111434,0.0,-2.658066445630612,-11.3919100995399,-35.418437714721364,-49.92392481435741,-25.360497092381912,-63.76898568556409,-113.26915309636543,0.0,3.1032135773120744,-9.670541324428118,12.492932516428322,10.464054770978132,-2.5405486234675894,0.0,0.0,63.0
25.70283854493131,43.01703209562382,32.51686966710078,48.00274987002198,122.5634112494791,0.0,-1.0280092338167306,-11.578036826117282,-35.506967211648465,-61.06933888666443,-28.32375944401023,-58.24447319230236,-103.31501570412036,0.0,1.8754737142542721,-10.02621191503139,14.4624972613797,10.407233855877267,-3.404515254357558,0.0,0.0,64.0
24.028028349119992,52.5050487190896,38.1400342871222,44.35953494457037,121.5654176042167,0.0,0.8792910868849647,-11.56861305765903,-35.88926655987244,-72.58348541041904,-29.03191947315668,-51.299111862165354,-92.21453650198654,0.0,0.8208101562395189,-10.214930597374586,16.747875437373885,9.305779317034938,-4.748153221372275,0.0,0.0,65.0
22.489217464967385,72.7132899671578,41.93350349637444,39.271749381387906,117.98660827831193,0.0,4.304257351794951,-10.865649256602675,-36.13871531364506,-88.03192351695223,-25.74196938322086,-42.35920788169886,-79.56884783912669,0.0,-0.4475501158144906,-10.240383088923787,18.064188361288767,8.431892077721534,-6.21539487366578,0.0,0.0,66.0
21.296063671688906,81.79223881853554,41.164611380239705,36.66445643144141,116.90699478589069,0.0,5.586099327622412,-10.333356331353952,-36.28919462634419,-88.5359178983381,-23.422500211831412,-39.99313816732293,-77.50494618940091,0.0,-0.3325966001302003,-10.244347685165366,19.691077461256274,6.316328227585034,-7.513363070552953,0.0,0.0,67.0
20.869506405190556,89.74608957719349,39.685527914305496,35.43373463766288,112.90317303398122,0.0,6.60593073227149,-9.73720556828981,-36.949048956775364,-85.61471965097124,-19.43100855440464,-41.91666916535139,-76.34328885524043,0.0,0.582570129604787,-10.22451344882209,20.595255866653183,4.84350277239821,-8.459552508885949,0.0,0.0,68.0
20.47393258431469,83.35109859878742,36.60170466024361,38.93778378368999,115.80506363778709,0.0,5.732181531486807,-10.290559463792325,-36.72481384632385,-84.94118886577374,-16.84851755681513,-39.2170821584051,-78.7048093141957,0.0,0.6900868060765176,-10.12997416842495,21.858324198489612,3.345411262612909,-9.531337265324789,0.0,0.0,69.0
19.304272934233754,77.01205412649011,33.73634780038186,44.019457720968035,119.10566435484787,0.0,5.07069512641175,-10.618004832415068,-35.942159544805016,-84.25594276032791,-14.874863901688027,-39.094791948971306,-81.09670320139976,0.0,0.8471321975017654,-10.022045384774364,23.46748547009086,1.5416181232570194,-10.547953979915144,0.0,0.0,70.0
19.284352687519412,71.17085864388757,31.74363158101746,48.786879910312116,119.76652536886661,0.0,4.393365980146221,-10.912233905169007,-35.49598768255768,-82.87735987016623,-15.43207239755469,-38.920739342485554,-82.2802284557794,0.0,0.8928465912454596,-10.03217314592979,24.406267402971547,2.391861658993853,-11.14893163193824,0.0,0.0,71.0
19.32360578467948,69.94278384590437,31.143636014713096,48.41845436902727,120.23598544875385,0.0,4.102178508256993,-11.02386154487518,-35.167237017426636,-82.98764323952827,-16.607640549776814,-36.50607919675902,-83.34365071108678,0.0,0.5835033425222764,-10.049830774354875,25.987945176162015,2.7958720319423533,-11.578045056833735,0.0,0.0,72.0
20.231430132927965,68.66469572534673,28.943182163557516,50.27911420793154,119.6261415401894,0.0,3.6988813244797507,-11.147898286729351,-34.99028730659911,-82.30617667531199,-18.024004159419245,-36.63715196323816,-84.42575681877157,0.0,0.5169976933151926,-10.074355923131915,25.87607121607242,4.900195578319719,-11.186896272931211,0.0,0.0,73.0
21.116308460659802,69.72059092109635,29.092064510174747,50.47525543480425,119.37912018951502,0.0,3.785038074929402,-11.101802738210605,-34.29656889826301,-81.09211522207325,-20.360077092309513,-37.014698589577755,-87.49283745126763,0.0,0.3698403582107867,-10.083100758202903,24.50780323871247,6.6368674141920945,-10.229294400814261,0.0,0.0,74.0
22.07516798238663,69.75630285081655,28.906072022674262,50.3103938963929,118.23580476158865,0.0,3.6154844204938072,-11.162919552058762,-33.172794459026235,-80.14005505719908,-23.948975077138332,-37.80198987227044,-90.76439295633419,0.0,0.0346527828635169,-10.124635221276051,24.237116123217433,7.729079066541262,-9.350752961629778,0.0,0.0,75.0
22.788098005310676,71.44780023074918,25.592221478921896,49.22847889132202,118.7760082056992,0.0,3.2927018020033394,-11.15257628857002,-29.239985195311228,-77.40781791186181,-28.53600326988137,-39.37579504926095,-101.27387410421674,0.0,-0.53782634213008,-10.035286056785935,19.802587716516012,5.592564123727299,-7.441405080779837,0.0,0.0,76.0
23.744903347644623,72.24409403276954,22.346071904010337,48.04007723681082,117.50537283405822,0.0,2.774286530135298,-11.214119331926032,-27.670738988217046,-76.2043878853786,-30.02398366775871,-40.0765067545561,-106.43936735610697,0.0,-0.7468829676317248,-9.93672934954043,17.081909544947678,4.4214291147533125,-6.025129004043187,0.0,0.0,77.0
26.29088538907085,74.09919200668247,19.16392339263072,47.025484873126224,112.45387130631107,0.0,2.177058061783176,-11.333202160725492,-26.70331611681831,-76.30117923069002,-29.685554132997584,-40.46530620872892,-111.82292273500917,0.0,-0.8837438490576692,-9.669957561181578,12.740578085793006,4.476240581818696,-4.254921447891261,0.0,0.0,78.0
28.230978424698176,73.49841275109681,16.981970582290398,45.53955590419699,105.94694381394251,0.0,1.3695545789742414,-11.593175317489752,-24.778459525682,-72.03312072210194,-31.257763759097724,-43.695967030738835,-115.2852323235529,0.0,-0.7735504621172063,-9.771846569355663,8.99060479939616,2.458169274041857,-2.562492507114346,0.0,0.0,79.0
31.290510436986597,74.89629486306872,16.648516853017085,44.942299526318706,94.19945059432308,0.0,0.91798119216409,-11.726456299038235,-23.314215524245707,-71.82955703201947,-35.05301439522427,-45.389611593521636,-117.25024616154217,0.0,-1.398947974550683,-9.806040407484579,4.386761418107923,1.7393333983655195,-0.4167349292361579,0.0,0.0,80.0
33.26899425839128,76.10308006415157,13.693722524419465,43.860583291802335,86.27558912597532,0.0,0.31133535543548846,-11.718856391917651,-19.83124934945692,-68.03245040248108,-38.25758965060022,-50.37695422343111,-123.17496704121174,0.0,-1.9495277739333627,-9.755826076616342,-2.0067858824012554,0.8530673512272547,2.336808654518119,0.0,0.0,81.0
34.5762753900588,77.33155088081399,12.739207956533807,40.85621909600396,80.8394416178039,0.0,0.13143649031835997,-11.653528639597326,-17.859486434195542,-67.43770846395432,-39.51770580767804,-51.35127440826021,-127.79523786674683,0.0,-2.3458239931584717,-9.574560486093828,-5.957578332051143,-0.055732904884972116,4.143758940092906,0.0,0.0,82.0
34.44761170156867,76.10349448376257,10.198490367078875,39.83895213996443,81.09388674835276,0.0,-0.3503689128522021,-11.682723656295877,-16.498904213792546,-64.13551591514536,-37.87763410896586,-53.928166878771734,-130.97356057036112,0.0,-2.0835023432519515,-9.553625006385085,-6.700732839520094,-1.4940623795070944,4.938292204714898,0.0,0.0,83.0
34.16881362493251,74.4381535273497,7.927780134063522,38.621932032725205,81.82654028524153,0.0,-0.8387569620017304,-11.685769606286078,-15.813472532466964,-59.574502658049425,-33.357844153355536,-57.60550661736449,-132.51154137434173,0.0,-1.2951366993251099,-9.623221011064583,-6.53382262651629,-3.136253580167983,5.206441620962213,0.0,0.0,84.0
33.770808256712115,72.62568194902151,6.115509127021789,37.342314537527976,83.39579749986281,0.0,-1.2657774309585634,-11.674790540605942,-15.775868925991453,-57.62777336773189,-29.876962525453397,-58.330569888633526,-133.31929460155246,0.0,-0.6607484277705828,-9.601943029412155,-6.542974512672068,-3.6196799960858166,5.562355854884804,0.0,0.0,85.0
33.362000944319334,70.45843418617218,5.516403757301866,39.066164010294784,84.68107326736703,0.0,-1.6598306073121487,-11.625236347929139,-16.09447505265775,-56.275867983747595,-26.392542211823603,-58.89343071526749,-133.71983239761067,0.0,-0.02868798049325684,-9.532160947072443,-6.922180905757912,-2.6112790841558833,5.5198850107132635,0.0,0.0,86.0
32.830280962717595,70.1166986392551,6.067484190936287,39.14853935563899,85.95169271229383,0.0,-1.577271738387119,-11.639007530690455,-16.27852474512749,-56.51528205801223,-25.244796450580854,-58.02437375003095,-133.6285150875625,0.0,0.18241205223299126,-9.475137258312847,-6.919890786980599,-1.9993808482921833,5.234013446578633,0.0,0.0,87.0
31.605245553940797,68.80761983262948,8.164857001228667,39.493096132383094,90.30267760063722,0.0,-1.3473786758052395,-11.677013995899658,-17.83610840421389,-57.32630971848082,-22.65417528765139,-56.166728741072895,-132.6228499827415,0.0,0.7555259102267881,-9.301248226877146,-6.28279650749309,1.294958157641389,4.620932201289038,0.0,0.0,88.0
31.71532088260471,71.4866763850639,13.39826535742174,39.650493641525905,89.54408464194218,0.0,-0.3050548085745034,-11.705416808510455,-20.464798913847087,-59.60092256310081,-23.424114453448226,-53.74309660089006,-127.36321382235015,0.0,0.863361032212535,-9.434800526347827,-5.768584370583448,3.854165153388148,3.7392417537656018,0.0,0.0,89.0
29.844764295370013,71.57061568608358,16.31626638936865,38.03422517167581,95.59969880701317,0.0,0.31576602641286605,-11.741931235611306,-21.937783849873703,-59.219159512207085,-21.858118408984136,-52.41287172352056,-123.51250004058694,0.0,1.382512423952336,-9.515577121563647,-3.1474192398060246,3.78882669073309,2.466817561063575,0.0,0.0,90.0
28.528750766848624,71.34533034000079,17.815043311416854,38.79054085241093,101.32405084008037,0.0,0.7230251238365215,-11.742438066924201,-24.61905315573766,-60.393558672071755,-20.10619272938966,-51.321285986537745,-116.75280743493155,0.0,1.8726510481112888,-9.604079646152432,1.1164245494542446,3.1441345382616483,1.0620688062654506,0.0,0.0,91.0
28.09712891508072,73.33425603105036,20.01160056286594,37.379296552274994,103.81919879890793,0.0,1.3481361600833586,-11.682997803905009,-26.190428674305593,-60.23288921353806,-20.737162985764844,-51.50985519350239,-110.53778411530945,0.0,2.0512456994848884,-9.829904087530958,4.39113711599565,3.3240531951316914,-0.061833471157273286,0.0,0.0,92.0
26.105455998388756,71.23608052418847,25.811546518871367,42.20916976281176,105.49175482334087,0.0,2.138836447255732,-11.550244050614623,-28.579251478024418,-61.314649092418286,-23.1186968674993,-52.94201545062272,-99.21465347592243,0.0,1.9957191097942257,-10.080271453778462,8.281266359074765,3.092333789903541,-1.6416607645952463,0.0,0.0,93.0
23.86107803523737,66.96470479874282,28.723291475045254,46.196072416976435,109.83349929038306,0.0,2.409354408930305,-11.472606323459758,-30.585433424060774,-61.76891473321565,-21.862294558682247,-55.13585413845975,-91.32997681626247,0.0,2.408239258625925,-9.97879215216783,13.036078405005085,3.56797276207481,-3.5855705137234324,0.0,0.0,94.0
22.065397396778923,64.8521895411142,29.576002624808705,46.60639434570664,115.05426536848157,0.0,2.501766210309831,-11.480719334770598,-31.877927196175225,-63.451062556631726,-19.682958411025812,-53.955954384219105,-87.51765791399819,0.0,2.714584481079998,-9.899000274220828,15.39684433573131,3.530673692612624,-4.867107977417738,0.0,0.0,95.0
20.85615509291048,60.62128360993617,27.797099699231985,48.21545587516487,117.75919028906141,0.0,1.9479465491302572,-11.591760323692284,-32.82004250915175,-64.31767150815476,-17.164889917300144,-52.6491809325668,-83.95771770474848,0.0,3.0876985922704354,-9.786028174952548,16.552049214186173,2.668330900238521,-5.946139151988862,0.0,0.0,96.0
20.135262776961486,59.203577979737126,27.062174692286362,47.43146480266278,119.2002121969864,0.0,1.6546512645858205,-11.639982831971581,-33.05673588464938,-64.97121756097812,-15.64910457288163,-51.94548715837328,-82.73614460302674,0.0,3.240463780378397,-9.743698931722836,16.584124084529133,0.9580047064227457,-6.5077369928002415,0.0,0.0,97.0
19.096940834430722,48.970471590056405,23.03537865132065,52.50566358581699,116.18752000563188,0.0,0.16517711754939518,-11.582964435521552,-31.67225995498238,-60.55044281999126,-14.554478225186186,-53.61422382184257,-80.0607056264559,0.0,3.773783231386871,-9.416361262049739,15.315449206143951,-2.43613948941284,-6.573298743070324,0.0,0.0,98.0
18.647604887050385,42.57840036840879,18.05596097237789,57.13411175453281,113.51159867047195,0.0,-0.8038996009326815,-11.332261284634972,-30.66875831684034,-55.995078201986125,-12.718711337075325,-54.73778857623298,-79.07215859532793,0.0,4.393061322135346,-8.996588894447006,14.091783500896765,-4.35971641507963,-6.280604849983185,0.0,0.0,99.0
17.757856634440348,36.46899872797924,13.480076019023286,61.836329101358245,112.62494480907938,0.0,-1.4159638234689504,-10.997066724441733,-29.435530096154114,-53.088189132957034,-11.564172991880445,-56.3962776289277,-81.28824747179836,0.0,4.668807077375633,-8.820822312642042,13.57545627355437,-3.296734915164634,-6.0431855425017815,0.0,0.0,100.0
14.259085401912138,28.962440538170707,10.1556780021126,67.6044859306952,117.70001063618851,0.0,-1.0721023863061094,-10.878861057915005,-25.794808749652816,-49.04138639083284,-9.99219472541077,-56.92992291069804,-92.18794869361487,0.0,4.7673676182276274,-8.972352745217941,13.90451287605882,-0.9880215965805613,-5.843245217539362,0.0,0.0,101.0
13.087279364884537,25.988282512038268,7.063540052058249,70.82171308815226,119.51069051407687,0.0,-0.9304550023828924,-10.857644415681403,-24.601432975226317,-47.84962531755209,-9.847361030362975,-56.24849262838763,-96.22120785661616,0.0,4.7554463171191985,-9.043617728065167,14.139945331617342,1.1923280643144505,-5.207094042231246,0.0,0.0,102.0
10.874175130395344,28.978771724836477,10.722134612558383,73.50487472053065,126.55469320463592,0.0,0.7187391034126033,-11.393557529446447,-17.716011480490263,-40.15551697253876,-18.224864416707717,-58.95756139194501,-110.30302087059773,0.0,3.447022659303442,-9.567101643987302,14.096611168431775,4.66883453324878,-4.4019150009775085,0.0,0.0,103.0
11.18537306313311,42.14332037816086,27.060323447096096,75.59074562682,129.41061892613865,0.0,4.369162933611102,-10.88118812544016,-13.005347830695644,-37.69505021166056,-34.93885861375256,-63.391077882179225,-121.28556494173283,0.0,0.5890167000907206,-10.093447679406967,13.34678112267215,7.136669669043186,-3.6702042729577076,0.0,0.0,104.0
13.331108580517524,58.996385880777126,44.72481904215853,73.87556752777384,123.84513718950937,0.0,7.705291391666827,-8.867704374269383,-11.39235682328847,-44.12274705027363,-52.531549702891176,-67.48866914194834,-125.53191905674423,0.0,-2.960897630793568,-9.657914465812986,10.239831435826678,7.170019541079917,-2.858086098171801,0.0,0.0,105.0
14.691385149955172,87.72242711339099,65.31231084109699,53.97153233058806,108.85700999000555,0.0,10.180857002960936,-5.06384460969083,-11.050515246839439,-66.14468060598598,-74.86316036368136,-59.20767918854705,-117.9234007198083,0.0,-6.710764356073883,-6.9877781442872156,7.584386694346728,3.9338739023996263,-2.2093372966931004,0.0,0.0,106.0
15.465964460327758,67.92131411648042,66.43725614169846,70.95568073352122,114.65885840628034,0.0,9.859106962835,-5.614842450317507,-11.450678101063918,-89.96107602893787,-77.55935309466393,-46.05855229655892,-113.13879111790023,0.0,-8.121056074514264,-5.691702096329166,5.616941464856163,2.844399606354739,-1.5308251219066844,0.0,0.0,107.0
14.432041159622498,37.56844829994548,65.61267466095542,100.27953024161381,121.98364951871017,0.0,9.966750674066658,-5.328657266510199,-10.742138182228887,-32.60355097124514,-77.57038762109985,-105.07287823572686,-120.19208338494373,0.0,-8.213295844883012,-5.5845188519259565,6.105083073637834,-0.0298018022870943,-1.498802044780573,0.0,0.0,108.0
13.871297142916431,14.591119494815967,59.748503974801416,126.51348216537721,126.95516937328259,0.0,10.512375109374329,-4.4132506731067505,-10.487740956402591,-11.427225739530334,-70.20070463825785,-131.45580169289548,-125.8206253680835,0.0,-8.571477453758291,-5.34822875688021,5.5285786835060176,-1.4913626956045731,-1.4155677738131283,0.0,0.0,109.0
13.947931865403978,5.203490380718857,53.065515508177654,146.93293487201683,126.96863120092922,0.0,11.381189868377927,-2.64715601339925,-10.972232741214631,-3.1244306462693756,-63.12219274761456,-146.4621572715727,-125.65364540898167,0.0,-9.000928721794995,-4.765101786024119,4.739009662880071,-2.527840119450582,-1.1598864417719263,0.0,0.0,110.0
14.461009699439812,-0.010934556642374091,40.85817170241313,160.43319915093613,130.74824921179405,0.0,11.651662138819207,-1.6348499327076662,-12.681056425318966,1.4301492173545476,-51.66829752843173,-161.15954160327192,-124.94546742718536,0.0,-9.407791394869841,-4.113967136098076,5.750142715256551,-4.211505346367483,-1.2832687847888355,0.0,0.0,111.0
14.096479942115288,-0.43273922456378583,33.69289067361023,167.48740836203135,134.20731754942494,0.0,11.67008068321654,-0.8050670715678097,-12.857478504033105,2.52229847486251,-44.8755893616189,-167.0050365585895,-128.34909207108618,0.0,-9.585955917113212,-3.733682114629544,6.385559848100501,-3.5056324996407175,-1.5663974609160787,0.0,0.0,112.0
14.105552140880365,1.299465777926798,25.86176670725676,170.88607186264898,135.8039889923764,0.0,11.537455013342239,-0.7021706948362761,-13.25860868379878,2.154925513612664,-39.362358849264275,-170.39812127085926,-129.66447953810496,0.0,-9.645998910970736,-3.567040358191514,7.02767321179705,-3.9308276984135984,-1.7229140521360944,0.0,0.0,113.0
17.02204249115261,0.25813786535552125,22.382425170211704,179.3221204324126,135.23232563387043,0.0,11.382292615740042,-0.12689459986950144,-13.570908838313859,2.0920634873395256,-35.744861011394384,-172.39520068536177,-129.7050543397127,0.0,-9.672420148901328,-3.485726761564759,7.72449812078511,-3.3907488811325472,-1.6357972718170717,0.0,0.0,114.0
18.619058483118124,-0.15264004622241492,21.30352694070578,-179.57986769569632,137.3919033331761,0.0,11.390488597679337,-0.180877341491169,-14.425651517653948,0.21146133585201213,-32.189571803585025,-171.7599339125163,-131.0838831205289,0.0,-9.533843072627935,-3.8392314945462203,7.7734152636385705,-2.3813020105608795,-1.5094057436356427,0.0,0.0,115.0
14.646424552492833,0.26737387546630115,20.40090069340894,179.23301783196945,139.19484390886578,0.0,11.329592024631577,0.4123706291529912,-14.258081364104147,0.08949643300853038,-27.565423892685562,-175.44881791992373,-134.03562994410547,0.0,-9.649928691427093,-3.4499127787201984,8.021872083416858,-0.40460206571303725,-1.280304146444805,0.0,0.0,116.0
12.5850175766227,0.25112299744212274,20.443310611050308,179.2810607498584,139.11042615218665,0.0,11.266932756304154,0.8099975990282275,-15.661896096569501,0.46124135246885706,-23.075710863094447,178.82334525012013,-133.8398636776092,0.0,-9.749303114261464,-3.0555574256650266,8.504735660057403,0.26243554905827066,-1.38404647491102,0.0,0.0,117.0
10.582930618288906,0.29767755735953766,20.67098010675421,179.156776492411,138.65394083371953,0.0,11.19764432494623,1.1527755948629992,-13.695165881508906,0.31348082624593543,-23.4990036735687,179.2138494039035,-132.99804808152098,0.0,-9.812345992330444,-2.806967764876211,8.826504383170306,1.338081382517844,-1.3451235959547625,0.0,0.0,118.0
10.26691888123844,-0.3634724058072684,22.019512330291985,-179.0306189521928,135.955274263026,0.0,11.111846361957078,1.4467606027200755,-11.904271145381067,0.05853035481751809,-24.797049400016213,179.86044464683067,-130.4057717819029,0.0,-9.853560424162062,-2.647872037473412,9.020045105149073,2.2861832421981383,-1.300027840929766,0.0,0.0,119.0
8.33487507955295,-0.3761101915039754,23.906626035263027,-179.07196744059442,132.18117855209223,0.0,11.019273974944808,1.6753698516008577,-12.999893924643391,4.392955325957824,-33.454421013487334,177.71093884644822,-126.65197785269179,0.0,-9.978382779374488,-2.2499574692781565,9.436132249991747,2.7733540365662757,-1.258788805769103,0.0,0.0,120.0
8.691892229662976,-0.03260529372979523,25.0345916836628,-179.92294908600059,129.93077690467732,0.0,11.080213109632405,1.3989530494886036,-13.261323683993862,4.475306326577475,-36.29293922121985,179.49838043623186,-124.31519315493378,0.0,-9.945551802859908,-2.490020956167437,9.16805487869329,3.0377427663437904,-1.1837368191331301,0.0,0.0,121.0
11.251467949957673,-2.211586806858756,26.356091233205458,-175.51586129195644,128.20214515963855,0.0,11.018803578582213,1.643505073704365,-13.383179381428764,4.498696397805826,-38.681102943262616,-179.0050278943723,-122.34634895438124,0.0,-9.916377225890345,-2.661385808359886,8.636857660238142,3.1571385050672625,-1.0577663257372616,0.0,0.0,122.0
11.07245125313258,-3.877641195204604,30.935897022421415,-176.24268558124305,127.18164141940706,0.0,11.129353829359776,1.8531752570143476,-13.387857207236578,4.933140109711895,-41.215741272406156,-177.25406494751007,-119.86441769014274,0.0,-9.890541515738255,-2.8097733990268248,7.630692449783379,2.5530276347089265,-0.9796384813337088,0.0,0.0,123.0
10.877266644768424,-4.020917835248979,32.84721326608704,-177.53663913833847,126.41781311057282,0.0,11.209266629965098,1.7749214750539508,-13.50854921119164,3.9533971717256957,-42.37604717564334,-174.5088519962237,-118.9869513909099,0.0,-9.801175889973138,-3.121308756284799,6.525562017324917,1.656969010853412,-0.9396228587638275,0.0,0.0,124.0
10.931215747701414,-3.337124039462008,33.86943618263857,-179.21911886343065,126.34517056704208,0.0,11.285563164353986,1.5536317897265215,-13.670334194514439,2.8182552547396527,-42.628283732028564,-171.90101152256122,-118.98986400518736,0.0,-9.695470464855559,-3.433788250092394,5.578850132175215,0.7731099068948062,-0.9012546084216887,0.0,0.0,125.0
11.08967272135112,-2.3992322323200836,34.897188121982296,177.69728474007027,126.3887650452412,0.0,11.420870261109357,1.1250188476079575,-13.495484766856702,0.7443679540130527,-42.49080290855887,-168.9446305823886,-119.70232113784819,0.0,-9.57261189125464,-3.763121815663821,4.812070588444748,-0.789863559935412,-1.18815375626376,0.0,0.0,126.0
11.240939213352101,-1.6248374452413754,36.31675089128304,175.97035051151894,125.83960465507968,0.0,11.477604721313043,0.8831790622574293,-13.567906116399993,-0.15613411304921423,-42.92440465836888,-166.73509338059137,-119.50672264217538,0.0,-9.471464712465371,-4.000462907750237,4.496875774193266,-1.8315662771840524,-1.2061069265016335,0.0,0.0,127.0
11.36762043943562,-1.505489224576136,37.77223008079084,174.78581351437583,125.16666365852292,0.0,11.527791255937627,0.7466795049227848,-13.409789798435135,-1.2324601889564155,-43.402094186142,-165.5342364694869,-119.74795120775602,0.0,-9.428198259825118,-4.106952212008402,4.524102936614095,-2.1701666355772007,-1.5068805762872068,0.0,0.0,128.0
11.727585069073639,-1.7065090614692118,40.58025816241925,173.8098177456789,123.0352100424017,0.0,11.582208017486632,0.6254874532705372,-13.256141277961111,-1.4499447600684359,-44.96245466904077,-166.13808655546023,-118.73545678474115,0.0,-9.485448102529269,-3.9806857466348204,4.567541079875288,-1.6533591794571987,-1.542415481419759,0.0,0.0,129.0
11.642585926173764,-3.4347606053863875,44.24455781714587,176.17098548180135,119.25997345180986,0.0,11.544968994775493,1.034784425204217,-12.565485355694117,1.4413698247201994,-46.22481683292387,-170.42115765798113,-117.33270659602022,0.0,-9.724316152068523,-3.3547576514239945,4.5938744626906285,-0.5811847357681104,-1.5849707259358037,0.0,0.0,130.0
11.17490323690913,-6.586774086680731,47.28206638241683,179.97048981710282,115.16422412259637,0.0,11.454720399776475,1.6403235110966694,-11.378915864775536,4.891796639170727,-48.129177805285146,-175.64362955512604,-114.5284017706721,0.0,-9.961979384691237,-2.5511996381803996,4.630875859876195,-0.05118144050828395,-1.558496931683735,0.0,0.0,131.0
11.079749310260743,-8.783463514827828,48.23633229849136,-177.79501596838614,113.2399871327172,0.0,11.4042745301557,1.938149560822773,-10.853973138377736,6.453477249156547,-48.98514099797874,-178.59349924072754,-112.9760772021091,0.0,-10.048716818216091,-2.1558239848949743,4.267283512637937,0.36182888264086144,-1.6053175970625528,0.0,0.0,132.0
11.108034831161056,-10.278469205802848,47.686553370827355,-176.22028814963147,113.03390042808141,0.0,11.365295578161337,2.1318716669608504,-10.49657495232036,8.184684167600272,-48.36430963350242,179.29034961224454,-113.00434652034254,0.0,-10.105544942037575,-1.857674346142089,3.5836686592860083,0.7903163119367724,-1.7192965018636273,0.0,0.0,133.0
11.396043417892983,-9.780298643702737,45.857865683580506,-176.09387389425964,114.80277438215933,0.0,11.356253826209738,2.085392594738901,-10.76908498605188,7.0265337197394455,-47.143826756499976,179.48983757054944,-114.65227678393146,0.0,-10.078292260060877,-1.9607991444555135,2.695705355864779,1.4844612600392146,-1.7348348349885359,0.0,0.0,134.0
11.995967107225532,-6.344321343322087,43.22968031534559,-178.77968933889406,118.55400666259551,0.0,11.416567981373383,1.59039535812721,-11.362012854127046,4.746269475498484,-44.929202144904266,-178.0667212967147,-117.97759686278775,0.0,-9.992651651609147,-2.358748612318288,1.7410495972570594,1.3038672153034825,-1.619132588041743,0.0,0.0,135.0
13.036188696119197,-0.49491711720445414,33.540810633188066,175.01805135907546,129.98394893131734,0.0,11.509954244141015,0.38823832054299123,-12.390223555365239,-0.1772905595327634,-37.364318013154765,-170.42162834392266,-129.75276143719262,0.0,-9.645364479120795,-3.5273076271121786,0.9850607092395723,0.7035072066354793,-1.3008981224878184,0.0,0.0,136.0
13.98087386777095,2.8373827211591314,24.138242035996086,169.18504187756398,138.37337830456582,0.0,11.489786359975046,-1.0033359901613943,-13.247578782062854,-2.6493853795595173,-32.86129716107114,-162.9530703185186,-137.88911274651736,0.0,-9.156166355015461,-4.669545404913804,1.0408069420013566,0.6332765629409156,-1.1143986609797556,0.0,0.0,137.0
15.186449213828741,6.036124802135396,17.623350808375754,154.2469884765274,148.73137719915738,0.0,10.995242868487502,-3.8645748373484765,-14.524204317188062,-6.4220977812052205,-29.623176838102612,-148.35451931668268,-146.68384396046287,0.0,-7.830766159008913,-6.658544869555012,0.5439321796389845,0.5106652819702584,-0.7552982847263643,0.0,0.0,138.0
16.439809417093592,9.292235870087884,18.608410007855813,120.60696513326492,154.80258026080793,0.0,7.646357692596992,-8.960925843786452,-15.606439253440117,-10.408696534284935,-29.495394616923978,-124.46438838517,-151.34195505478127,0.0,-4.980841837408271,-8.988899385003297,0.17148887318733305,-0.05970507825885861,-0.4632577196348008,0.0,0.0,139.0
17.70584815900528,12.63988303904196,18.397688120413385,88.72287133091494,152.44699994406076,0.0,2.10504595646631,-11.562118060624268,-16.7673869972347,-13.692885325543948,-28.80714068136731,-101.24546635678097,-151.87042680917733,0.0,-1.5071440298555785,-10.152486625217424,0.05148174299455056,-0.012292515572459431,-0.0692731342963233,0.0,0.0,140.0
16.765780195232452,13.81541501397771,18.84922492837895,55.05879865802795,147.17562200809473,0.0,-3.9196831951328175,-11.028170861921074,-15.845465138539298,-14.904765202946168,-28.594598099346328,-65.56046140470943,-152.3858760365915,0.0,3.6128803938248084,-9.563096250726222,-0.08291183948404342,-1.1495068720987536,0.20139309023626392,0.0,0.0,141.0
17.109685342584473,16.119277545051972,19.027344657591232,45.344974762094324,142.23111459014865,0.0,-5.34544535585741,-10.406144575545547,-15.960581146810696,-14.963596513658262,-28.10899095139494,-51.09152131019754,-150.03472993895696,0.0,5.5142824495783,-8.580664591860273,0.2712755701472877,-1.3958268471444022,0.14142592433810677,0.0,0.0,142.0
16.32568890889373,14.766064454298656,20.1553280830886,36.92972142823278,140.45229651620062,0.0,-6.633662696562915,-9.615072605940014,-15.268700059361326,-13.781171824662387,-28.80968863771619,-40.46502141998634,-150.0747928643081,0.0,6.68341902599942,-7.642390455853515,0.8584796670539143,-1.0088876530528623,0.09988790965221864,0.0,0.0,143.0
15.926510455683387,13.49143184914252,20.961645409557832,33.87911011928327,142.37077428465923,0.0,-7.114601611304101,-9.304089544665471,-14.807165394123347,-12.150478900528391,-29.82189667462569,-37.70417637159268,-152.6511364821548,0.0,7.03435846432511,-7.268625729085585,1.0920698077699929,0.2773284995884406,0.01529442397584813,0.0,0.0,144.0
15.299616910639395,12.133756766083197,22.227470760086423,35.7590860362682,148.1421045913415,0.0,-6.826696271988616,-9.567320060486425,-14.135067949604931,-10.734447854014425,-32.11724257250628,-44.83960907636247,-158.64268686610134,0.0,6.246719414601229,-7.925073163777742,1.0679508788815317,1.4859899361506883,0.009531533711081131,0.0,0.0,145.0
14.340257077555867,8.710332177264798,24.431980884617968,48.0607211168841,157.89356597891492,0.0,-4.928244872754736,-10.685238763276496,-13.374483696841693,-9.409624984769453,-37.04085992140443,-82.95447962931178,-165.84441491838987,0.0,0.4041633016731192,-10.062268119179528,0.5559904933369455,3.0591365406547997,0.32767374673360533,0.0,0.0,146.0
13.913981556360781,6.112321893628576,24.213562501176646,54.55978486543436,162.09171377741413,0.0,-3.9520123475204585,-11.085413770248284,-12.980896607240645,-6.79914751055431,-39.84022341458267,-113.57713147979686,-165.62238471892664,0.0,-4.462992622699334,-9.08480253887799,0.39091364887116953,4.159133237964969,0.6056789859268309,0.0,0.0,147.0
14.338375360439528,4.990278756265107,21.409776675406814,61.79170189259534,165.18786009908598,0.0,-2.8365076755203664,-11.420499435101176,-13.621862903295803,-9.029837698751841,-43.11013284453735,-132.49189008834807,-158.38041994299311,0.0,-7.107604981743809,-7.230882739532201,0.09478363826913755,4.746923770327754,1.1134268370796692,0.0,0.0,148.0
14.667797091656533,3.9339418366917274,18.60017915551212,73.68293474844165,168.44742943576443,0.0,-0.7196251416526686,-11.720120402949492,-13.697101705871725,-9.933196579956613,-49.10443207992514,-141.94379975835977,-148.08531491556738,0.0,-8.266946829149443,-5.989385908667118,-0.34239732508525106,5.190866193453037,1.749190258916264,0.0,0.0,149.0
15.68337621179844,4.667346673065428,14.201614064809648,89.4102966867774,168.9290327823806,0.0,2.0682963579019074,-11.517882497798295,-14.617859871087271,-23.63458868186849,-58.926020930149335,-132.1532020146395,-129.74390966888387,0.0,-8.302133763708099,-6.03140077204174,-1.5101079823899435,5.3130090840109325,3.07977794831793,0.0,0.0,150.0
17.64677556042113,8.503580955690445,13.401143135996412,88.99380319845369,161.83209877869058,0.0,1.674484748610019,-11.627335380855278,-14.621056399618842,-73.24659494901012,-70.05609372431799,-83.40007272662827,-101.47493632038002,0.0,-8.420789762514751,-5.90893430318195,-4.441448875433545,5.149849690064173,4.886278752539919,0.0,0.0,151.0
18.530772793750028,10.53346069298094,14.076882014957752,94.16620124449508,157.41926454560297,0.0,2.5777470276731864,-11.479487399617671,-14.68922851772474,-79.80252817779613,-67.09068206428279,-75.40521631128698,-98.08348764882403,0.0,-8.095594256694525,-6.32811804584074,-7.214806117146604,5.439101055016103,6.580782602838783,0.0,0.0,152.0
18.170579352774823,12.948548985902477,18.87768032250625,89.19442181871905,153.03871342070065,0.0,2.1843116148179598,-11.55595568936188,-14.005896265795293,-59.66324788127298,-58.77005108765107,-94.70505242340863,-104.89714582695791,0.0,-7.195701385207223,-7.349746848433396,-9.514016635869405,5.390309819739405,7.430529717927496,0.0,0.0,153.0
17.732298066566162,15.680445716301325,21.635876414381265,82.06073502924137,150.42942916229075,0.0,1.3563745470478428,-11.669019232812213,-12.182680573471584,-46.43249418610413,-51.575774496579776,-104.43676611527881,-112.46651182386432,0.0,-6.644603008408401,-7.84289056054984,-11.342158811579333,4.927992095018916,7.894777963330165,0.0,0.0,154.0
17.700976526579765,16.98422265706958,20.824025877314423,68.63337965381419,147.72134087902734,0.0,-1.1135253997284318,-11.674324106476423,-11.207117824129497,-36.82057248596738,-42.88113497479885,-109.25138352281047,-117.02962242844151,0.0,-5.782880078260748,-8.439921968451733,-12.419848223228687,4.359767919711459,8.522786412700995,0.0,0.0,155.0
16.673323339532573,16.33273238801902,21.36034609975719,60.45883655423049,148.9518709048416,0.0,-2.4377764651502125,-11.483327291571097,-9.902600357754894,-32.93977989600988,-35.30473733788609,-109.13132168718141,-123.51626450195116,0.0,-4.998266166635698,-8.950180527128248,-13.171127795870133,4.802779880244795,8.757424508018257,0.0,0.0,156.0
16.0082063483459,14.329548505694305,19.996883093079045,55.04627814395924,149.41455977765258,0.0,-3.627887498230958,-11.161977617668581,-9.362470705737577,-31.492905900818748,-33.83484477167958,-108.86053578230408,-126.35204569137002,0.0,-4.85896159332875,-9.040043234915176,-12.405396518308667,4.415398571704667,8.771564083024664,0.0,0.0,157.0
15.539781729782673,13.299659923216499,20.61782289419089,57.43467970923764,152.2624675917485,0.0,-3.1644001904992662,-11.316407031806902,-9.289400488223139,-32.495962736272105,-34.953089543205614,-109.18772135333555,-128.33617179577416,0.0,-5.09655930674283,-8.93784466914892,-11.33056283153194,5.32157132110729,8.627153234345945,0.0,0.0,158.0
15.740910310272035,11.37101428124396,20.3510246847757,60.61604635817225,153.89711645434443,0.0,-2.833184849714126,-11.400013379125275,-9.800950067432177,-38.82232588739986,-40.13006607630118,-108.74664660859406,-129.49686245464176,0.0,-5.8248067941760695,-8.42948408120373,-9.42144972976378,6.64565263269403,8.020410960137365,0.0,0.0,159.0
15.879218225870208,11.015396134799602,19.973187104593443,62.23515248868927,154.67276811166883,0.0,-2.605269725554599,-11.459224343758653,-9.717967537884755,-46.49967600134663,-51.22217538077524,-107.39408642968097,-128.02819869128794,0.0,-7.230590938628331,-7.128174206454192,-7.619139058765109,7.622466964446773,7.150027666088585,0.0,0.0,160.0
17.69591535640479,10.399900809311424,16.26469252024164,60.71146360633874,151.9569990228789,0.0,-3.5386626189494925,-11.192826721703767,-11.2314529343686,-88.0216682977023,-67.8340296541139,-75.63475410420017,-120.161070098824,0.0,-8.823699046000305,-4.604243062580116,-6.335656781435011,7.702157588354701,5.32583086658752,0.0,0.0,161.0
18.578628514169726,9.777545829757276,14.5397424263405,54.39965174009917,152.7649970551564,0.0,-4.930252312751501,-10.685160821208425,-12.443285587479775,-60.89942123659232,-69.1794239307937,-95.54603478151985,-130.9908910397752,0.0,-8.660768296535919,-5.145018673780495,-6.136481645146878,7.793921293894633,4.485763225999688,0.0,0.0,162.0
19.79485297891722,9.836084462544463,11.488016969536435,50.4818275000741,152.64102894482326,0.0,-5.92140716816219,-10.183677641040333,-14.370779485409354,-37.41702684004829,-61.28539634256639,-109.74373008162276,-144.2399674334212,0.0,-7.610562898014291,-6.502848034009542,-6.183917935654408,6.690900118564005,3.7159414540124716,0.0,0.0,163.0
21.68508221850886,11.281654437685564,7.943800356114699,47.9308167460055,150.28404204696253,0.0,-6.678453301193938,-9.703637093935614,-17.225284586739647,-27.264970431895666,-50.22385220421056,-100.08600674444183,-152.80639423231145,0.0,-4.608641443837937,-8.83602269642122,-6.270234859761202,6.155979080158008,3.050484222467792,0.0,0.0,164.0
23.91042102934884,13.570215555215334,4.430398855062589,45.237233989250875,144.75134596788956,0.0,-7.4142659820123935,-9.155333839560717,-20.50576980358341,-24.372112470384018,-39.14537863032238,-80.01740660571583,-153.49786714573858,0.0,-0.023251972290228014,-9.923347983931253,-5.755641721297052,6.16423622130646,2.4050447508878268,0.0,0.0,165.0
26.608789713799922,18.26813414192712,2.092099154601571,42.069147538525286,134.5484204749062,0.0,-7.918809142007339,-8.72647605946472,-24.547756226086484,-22.945465897898163,-25.879325612813517,-56.1043051351941,-146.80874276176482,0.0,5.0045859434412865,-8.559180918820703,-4.434556276524616,6.5255938475125514,1.5905989066706834,0.0,0.0,166.0
28.154703994689353,20.053253056047218,2.024188816642222,41.307819339424654,130.83160501367917,0.0,-8.023448196734304,-8.630511843638947,-26.74369790273872,-24.1979868487366,-20.45512495198875,-52.25146104178299,-141.37611720846846,0.0,5.960815698258727,-7.939065395530469,-3.540474773133373,7.000675560071183,1.063489434412759,0.0,0.0,167.0
29.635849299226834,22.749802461333324,1.1901349626038942,42.172654955501535,127.59972988284481,0.0,-7.923107321343622,-8.720465718811381,-28.677058079391696,-26.181866183662702,-16.815974528381794,-51.89932322905065,-136.71549771797908,0.0,6.317096358647237,-7.683018500269636,-2.8170896744134573,7.277317627602997,0.9707445167763548,0.0,0.0,168.0
30.33384340598336,24.857730094986824,2.761041788168392,45.80564781135097,127.07703874996155,0.0,-7.343120776548793,-9.215704133998875,-30.044895668240557,-29.013861209771623,-15.727149763235987,-54.45015742841797,-134.14572326481695,0.0,6.1207076340893884,-7.844237496035503,-1.8664157098236107,6.801786385646413,0.8922635348451217,0.0,0.0,169.0
30.895868936932427,27.034711103869796,4.419225745941438,49.77026661724261,126.44975921105856,0.0,-6.6659153214480815,-9.715666501365767,-31.15814478596633,-30.67274647286654,-15.039366656534352,-58.31471271938659,-131.72507821548194,0.0,5.930189510816085,-8.079668919261435,-0.6833299917330173,5.864805405668576,0.6808907125914551,0.0,0.0,170.0
30.56466964898393,29.029375674348344,9.840790871217253,50.50243821571165,127.14123982264132,0.0,-5.757113421280329,-10.276853497627343,-31.73607441239781,-33.47572789673002,-17.808998105984017,-59.21778777143447,-130.10999173048313,0.0,5.359189472207122,-8.446551924195559,0.5851560728228085,6.8312344491152635,0.5490361711439891,0.0,0.0,171.0
30.333293575755167,30.42509113844169,12.034072779546085,51.176891184436705,126.55711540544742,0.0,-5.259469976297249,-10.537214869110777,-31.80484417205609,-34.956064043235315,-19.40122268710578,-59.87045482077082,-129.22146853839047,0.0,4.999713209996621,-8.669034609293055,1.2465770240771015,6.6687822212733625,0.19129327081470893,0.0,0.0,172.0
29.803018179162894,29.762985077703835,13.509222455928358,48.50580933297164,126.79523609242155,0.0,-5.406287188065236,-10.462539310388475,-31.921442331377364,-35.49792904221896,-21.120442621605505,-59.85493119040953,-129.8780465183223,0.0,4.736941340642023,-8.776978255000502,2.4770068284765334,7.330671253556424,0.07955711544861753,0.0,0.0,173.0
29.375701054119368,30.031146078165897,14.751558451700593,47.002124471819215,127.49459467368739,0.0,-5.344036906426057,-10.495659723566702,-32.52369767653783,-36.780873471522554,-22.181884377751924,-61.2012655698947,-130.42914143121752,0.0,4.443522862440649,-8.870354774988803,3.8339877468256827,8.730745058772959,-0.33779396157344405,0.0,0.0,174.0
28.42177805161517,29.958510280661475,16.85843903726929,45.109879768113416,127.44092450130137,0.0,-5.251470329257122,-10.53849505401993,-32.87742634346362,-39.833711615283555,-25.332309540668522,-63.606055270072744,-128.24858006139468,0.0,3.633182243115501,-9.27520256878284,4.880829709190402,9.08031154564921,-0.496755730754519,0.0,0.0,175.0
27.96042097129562,32.84307312800395,20.70659164882231,48.17439970186326,126.38806632953334,0.0,-4.064315800347803,-11.027273842603861,-34.90668237606357,-46.43003918032523,-25.69230201382454,-64.69815598268015,-118.98445949089198,0.0,3.213785807706084,-9.558192941150233,7.416527864005433,9.050132191067494,-1.244038606991932,0.0,0.0,176.0
27.34765396500251,35.6736049102566,24.21357471990393,48.68143273448555,124.18851230358659,0.0,-3.175065308763135,-11.268016298591215,-36.088103611895264,-52.77315270205215,-26.149473768954223,-65.35477460382931,-110.49286676422328,0.0,2.7824835819048697,-9.792452339273543,10.734785807708127,9.014881340026434,-2.169743043577124,0.0,0.0,177.0
25.521117946968527,39.733827452613184,29.330913323737306,46.018582440381124,123.66157645440862,0.0,-2.1401142939368523,-11.461673115700703,-36.12268144456844,-59.652577629959985,-27.224854332411113,-61.19919446708788,-103.79180547888477,0.0,2.1875978498512025,-9.967381970663801,13.342226359948283,8.009050130676442,-3.0805657557190638,0.0,0.0,178.0
23.931490455391035,46.96133997276252,33.72726442348467,44.53550030674337,125.0737458622436,0.0,-0.44587694683854,-11.689774890081736,-36.2235496782312,-68.72229662776263,-26.818877607093317,-56.177164052435536,-96.33949249653348,0.0,1.5218418011657904,-10.08854396986167,14.68609299931668,6.475430020320716,-4.024992569500855,0.0,0.0,179.0
23.244788358879823,55.5958375744178,36.760640182954354,43.63703404067326,124.15180621605585,0.0,1.3452821108009603,-11.645820498283674,-36.41533455993599,-77.3906701117185,-25.29977970265406,-51.60932950685985,-88.72960267183863,0.0,0.9339314819634225,-10.162903907012856,15.64532958159841,5.165494824004943,-5.033007636044147,0.0,0.0,180.0
22.313362291954363,74.84455459274004,38.66681215460544,40.750439513223526,117.90704411744815,0.0,4.567030696978454,-10.838302817832776,-36.190819411728484,-89.35716596691874,-21.216546010871806,-43.47500762554024,-79.56359190280115,0.0,-0.04103134598173587,-10.163626259381912,16.528630188991933,4.174039578367697,-6.547972645600792,0.0,0.0,181.0
21.203364344273496,84.84746035714467,37.158077503464256,38.276297224261256,114.96931134552854,0.0,5.885355137824367,-10.20431759505348,-35.85488680268518,-86.48120958457457,-18.267808603334608,-42.46618583827791,-80.86467190399992,0.0,0.46381975288945776,-10.110453321012242,17.621088459646245,2.2060608193561344,-7.687653147677352,0.0,0.0,182.0
20.053891318284535,83.57214094061305,33.59095444287098,41.34803918181292,115.03903316909991,0.0,5.71514622685683,-10.288892933710535,-34.697135587422174,-80.70641531487036,-16.18376632525752,-44.03363603811417,-84.0948182182694,0.0,1.2655474885269966,-10.037072932558091,17.92988512058035,0.07793087541720971,-8.368610589688293,0.0,0.0,183.0
19.658985148400024,74.72026550569166,30.04862686525155,45.418719197098376,117.85064623351076,0.0,4.382179572078646,-10.905110107030096,-34.51762455565589,-76.73266532766422,-13.339190740263305,-42.534832227167804,-85.8078368417872,0.0,1.9154135628700562,-9.882125459967092,19.046259335867603,-0.3268282097015468,-9.063357374399471,0.0,0.0,184.0
18.829255475574175,68.61446660059391,27.99301602673199,49.83300921811595,119.8451504621248,0.0,3.7079364316425356,-11.148263396717235,-33.24326152069325,-73.0829081358507,-13.014902205663809,-41.48120317001012,-88.8611403949467,0.0,2.1979327749425983,-9.811596140128751,20.382509929953976,-0.7165600696753089,-9.374535289095183,0.0,0.0,185.0
19.594940172100113,61.07681253022991,21.326626917159498,57.26734820134201,120.54947448060538,0.0,2.291797726193001,-11.490148757189617,-32.36460891038988,-70.00615742137057,-14.675379913800148,-44.13201263955407,-91.21182975350695,0.0,2.3987510113525685,-9.837458533755733,21.18323973424578,1.3384294721430017,-9.073003804819674,0.0,0.0,186.0
20.213075707080854,58.95504937417824,18.71514598074849,58.260452008916715,120.22440242603118,0.0,1.608292371536861,-11.603211596365574,-32.030482886382025,-69.41615804073447,-15.584490214789648,-44.380170582901215,-92.33717961462625,0.0,2.3334474895630777,-9.859760618916399,22.57261069189967,2.0661605487802,-8.908655885028885,0.0,0.0,187.0
20.741302046922133,57.96241789973108,17.02751594033372,60.04719424556319,119.8650780272915,0.0,1.2900389764919844,-11.637494193289184,-31.179724768648992,-69.90926891478391,-18.936418836106913,-45.93018247511608,-93.06180683562877,0.0,1.8399136967873926,-10.025873920448074,23.521017299844466,3.536570467550516,-8.599460996196107,0.0,0.0,188.0
21.753877591376522,58.73701157854498,15.683782950074042,59.28557452311797,119.10205522679269,0.0,0.950120403494531,-11.645275665807352,-29.949802359521048,-69.6130339224206,-22.363043692638087,-44.487202413792474,-95.86426812201736,0.0,1.309426191180368,-10.119431158155537,22.67614011998227,3.3536143120448156,-7.94815534335641,0.0,0.0,189.0
22.60766660555375,61.033087276539284,15.343261832584476,56.568314034427026,119.04676503239978,0.0,0.8716034675678466,-11.585106713942363,-27.745338314331924,-69.0916668803429,-25.328885875462333,-42.97126770097185,-102.58037577059295,0.0,0.7462616011956755,-10.104977240426626,20.892276898975606,3.8458900044312228,-7.016275371463771,0.0,0.0,190.0
25.804744967347894,67.88725729979053,16.367904840526137,52.73935505807904,112.08678387528376,0.0,1.1648893119119716,-11.574870253976574,-25.986921480437772,-70.41578967277862,-29.46686460516117,-42.23027394016838,-108.35836811383042,0.0,-0.11882021489271913,-10.058495653892514,14.942849727788529,2.5523194146199994,-4.997164686521206,0.0,0.0,191.0
28.051477638215648,71.61303936102402,15.035921065353916,50.06251005005401,106.80135003984707,0.0,0.9974465316248821,-11.600463854536345,-25.428283723317016,-71.48578602032607,-29.999893640065817,-42.826870990645205,-111.57092588448309,0.0,-0.4292840109193281,-9.924651367004811,11.613534262148855,1.8492196067467097,-3.5528465191046648,0.0,0.0,192.0
29.262480423342662,72.05248167099587,13.901926213043456,49.31888820758193,100.5268851041179,0.0,0.5881020607803787,-11.723844558413443,-24.163918377751987,-70.52604883349196,-31.47356443732327,-43.4890177687564,-114.06710031534855,0.0,-0.6321111663192264,-9.921160101476802,7.864816518521016,-0.9002503332628489,-1.9364879243864292,0.0,0.0,193.0
31.641001594245804,76.14118505507089,15.506057058384927,47.42902733719268,90.64954077169483,0.0,0.8844375236895986,-11.719193672281211,-23.47047317698268,-71.81028632930139,-33.56027483758499,-44.62243515589549,-115.36763472362698,0.0,-1.1573579356904624,-9.871958022142714,3.9475127040196947,-1.818848806083774,-0.3016474400870471,0.0,0.0,194.0
33.25015318156579,78.24930504683255,16.089044178243167,47.38004073112266,82.58896131140428,0.0,0.912099244981692,-11.602112016005847,-22.41794785607288,-72.41626361448384,-35.148382635200974,-48.519781659674415,-117.1358761873689,0.0,-1.6899615864206128,-9.767723055657845,0.36550793501324347,-2.538387079635393,1.3633173226584907,0.0,0.0,195.0
34.68313369962364,80.14791416935506,15.846460028731812,44.386878105515926,74.37861391223566,0.0,0.8245015823865334,-11.367481045464237,-20.40661423985505,-63.620794292873434,-33.43206053371734,-57.04209738541487,-119.9997109425147,0.0,-1.0513724477143835,-9.973353476442753,-4.804178659844556,-3.757567813638029,3.650675698392709,0.0,0.0,196.0
35.48356015336284,80.26706177588522,15.08198419163685,43.93679055084102,69.679880728567,0.0,0.5617426020298268,-11.180906297132262,-19.05323103883723,-58.320814632502646,-30.85715801104446,-61.95012099131305,-122.41421389862212,0.0,-0.5692415571451246,-10.042671718789183,-8.555374981675897,-4.515947487760047,5.451612257415233,0.0,0.0,197.0
35.49887002238743,77.59879152533416,12.1084432682995,42.89097688996163,70.45474981749012,0.0,-0.22257659481550357,-11.255848253226437,-17.727761113409972,-52.64557297252506,-25.88852033793235,-64.79785363926037,-126.41521976731818,0.0,0.34689060547248013,-10.01732094095119,-10.301185144437943,-4.95827199090104,6.559661722145521,0.0,0.0,198.0
34.98034255116757,74.49932157069522,8.779549952019192,41.375883184631824,74.2033002107255,0.0,-0.9976220298457609,-11.419808995890309,-17.09483480378157,-49.71518399591054,-20.617331573106764,-66.8249133079139,-129.56960477877686,0.0,1.1385299549363213,-9.868540561571164,-10.045909746636715,-5.24410656598975,6.940090682433925,0.0,0.0,199.0
34.41816334096217,70.98146463726054,7.177186141667725,42.54641524648331,76.50480917009006,0.0,-1.6749701215825241,-11.375238782483718,-17.166230771175712,-45.768638431160376,-16.20893331006173,-69.11531335010694,-129.76558083112093,0.0,1.9877157857722145,-9.83590219720481,-10.15999989313453,-3.9967286071795107,7.179238780737476,0.0,0.0,200.0
32.49688576895094,66.32681788800029,8.172203845208974,44.2689042774005,81.92792306736492,0.0,-1.9745724752810965,-11.326095830004299,-18.41340623814712,-44.01396917417108,-12.578591869534655,-68.5746282768831,-127.473646705859,0.0,2.9118168136328357,-9.693296659381812,-7.74690209556861,-1.1764606363868306,5.741496182922449,0.0,0.0,201.0
31.512320830282775,65.1408428777835,9.404688586304113,44.45756945165182,84.77150598039032,0.0,-1.8351587224220607,-11.366072622377228,-19.1153055055616,-44.109349042331964,-11.78789696452361,-67.71646740450973,-125.18533206955458,0.0,3.20708733667416,-9.644958542494399,-6.0804083573532175,0.9030219239916872,4.334121311001239,0.0,0.0,202.0
30.44127545143848,63.83281272753351,9.271409710831307,43.919075627894834,89.29050610386706,0.0,-1.8658214252927579,-11.473552865392856,-19.716819775197113,-44.4972466035494,-10.44993974974321,-66.35034580072201,-124.24734327535124,0.0,3.5484848214341653,-9.514602809274477,-4.153527620815972,2.688176556966064,3.1341329773650375,0.0,0.0,203.0
29.815076878142545,63.9958083701208,10.48561447110959,41.55551623104929,91.62130943721056,0.0,-1.6406325920372444,-11.54822556618375,-20.047709997085676,-45.87568955300164,-11.07559997919853,-63.70187210923506,-123.66259382416366,0.0,3.556115170566707,-9.463368127915828,-3.353639811835172,3.2418134419603195,2.3726119213096233,0.0,0.0,204.0
28.971254817511646,64.55615059874002,12.36717536378211,39.666409197580414,94.34453060652734,0.0,-1.2434618558784654,-11.626792979657791,-20.58179151659294,-48.057971530815905,-13.85735795770207,-59.84105947031096,-122.03802651177814,0.0,3.2687690132849716,-9.530643195308299,-1.8880237173291128,3.1522045405992682,1.6480109561654823,0.0,0.0,205.0
28.563012703272708,65.72857922277782,13.45787885995593,37.57720186204576,96.30631409460854,0.0,-0.912406222764612,-11.689839484639702,-20.80394000425302,-48.2817171881445,-13.75285988148581,-59.809416989536295,-121.14366680391142,0.0,3.3000475537592164,-9.538402522891822,-0.9397301676131149,3.1287290716596106,1.2548180871618828,0.0,0.0,206.0
27.361222135788744,66.67458658523742,17.52883425308173,36.85253918799837,98.75789811428666,0.0,-0.17695595122981947,-11.701314069336123,-22.524070212754662,-52.3188114105851,-19.052456860164238,-55.1068396010633,-114.47534808839254,0.0,2.6616468593406015,-9.826938649765447,2.1262428524588883,1.2118700827758855,0.17566848209278543,0.0,0.0,207.0
25.441266205381922,69.46140763402698,21.473362187439303,36.63554176018818,103.90208784627046,0.0,1.012027572643952,-11.694379877711471,-23.495225782534806,-55.19134957167077,-19.878004977477655,-53.02379198380579,-111.41432999561376,0.0,2.4426072055372257,-9.886679013566752,5.035038641957642,-0.11482702992666174,-0.9726781005758429,0.0,0.0,208.0
23.744718932537044,70.49992656134499,22.772140586627025,37.75640917205536,108.85053201143805,0.0,1.6747562406362728,-11.645520288290971,-24.27345241392418,-57.15545326540775,-19.869942873413894,-50.08678006597298,-108.3706526497683,0.0,2.419147139975214,-9.901337850385874,8.069077391854266,-1.402480233391328,-2.437692523744201,0.0,0.0,209.0
22.41034585552666,68.77215346277369,25.23012637031596,38.414094408244075,110.67989192383835,0.0,1.8294664478605813,-11.609063643340336,-25.216494925080546,-56.91097009351735,-19.393481946749624,-49.66682232283858,-102.77147453869355,0.0,2.693023043775642,-9.910018490870023,10.705314993442963,-2.5298216242453044,-3.737775541982054,0.0,0.0,210.0
21.27797050057754,67.71422027517659,25.884589362042796,38.522092408376444,113.35724860033599,0.0,1.8773928310152095,-11.607136905146538,-25.444462733913472,-57.84949298190245,-20.39211390091482,-47.295015818260275,-100.52874876114565,0.0,2.56481855641502,-9.954865415410577,12.348465035976472,-3.1098436549911925,-4.638081607485487,0.0,0.0,211.0
20.05286678990903,57.38295899505097,25.582648303975425,45.841291634734354,111.13187667587793,0.0,0.8442291412807743,-11.531540598821177,-25.438358252342784,-54.876283329235314,-19.107734624983546,-49.10866690656987,-95.36460227573761,0.0,3.126139146156684,-9.76287639251852,12.410091402259237,-3.889753381855006,-5.100227497669441,0.0,0.0,212.0
17.578350725315946,45.892164738809825,22.240225854914897,54.93174354296027,112.9545415192092,0.0,0.05577458535626877,-11.30871311940586,-24.741303296597135,-50.4907881722226,-15.20190153352558,-51.63476595445869,-93.70336926421093,0.0,4.00747581271107,-9.364409368009381,12.021401921030403,-3.4937691342531254,-5.207867469317674,0.0,0.0,213.0
13.63622679112034,33.536607823293004,16.14570004177088,64.90442298240079,117.3610261575022,0.0,-0.1982711939632433,-11.01653503160168,-22.26288377889338,-42.447071402447314,-10.766141146722797,-55.34782031720114,-95.15757475009246,0.0,5.0024928535244895,-8.685524640740033,11.289368359284842,-0.7356574712844607,-4.821795527336456,0.0,0.0,214.0
8.709684767323722,23.282999318417815,11.045859599888475,72.25210511362502,123.1817761557299,0.0,0.4230938563754065,-10.787895558866587,-17.20533531172133,-31.933641310865244,-8.311611347390352,-59.41005318300782,-101.42052844004844,0.0,5.378402117374607,-8.070758681098171,10.340140831043353,4.4942761050716085,-3.7270332111697253,0.0,0.0,215.0
6.685227369502516,19.649756083383647,8.191563652319521,75.4552372757913,126.17450642388845,0.0,0.8695276416612875,-10.791966006149465,-15.215781461219366,-28.05127010513281,-5.700974524243446,-61.928071284777204,-105.40627188328138,0.0,5.460922380504906,-7.915784726849858,9.53588012242921,8.187705868346981,-2.839037928052405,0.0,0.0,216.0
5.563394411537308,26.73417735286235,5.4813256118678755,84.9939033208509,136.32430648218934,0.0,3.006795188251311,-11.345893500467783,-9.16879130031176,-19.721833456876755,-6.30407826885508,-75.70128546595836,-116.7334002758739,0.0,3.358774989822837,-8.547252760975022,6.391872396857015,12.258776027517404,-2.336952982003711,0.0,0.0,217.0
6.686612190356734,38.02289656675496,10.775193756765718,87.1021423223405,140.35091464981147,0.0,4.412690016202559,-10.746950733452854,-5.4755983061723175,-18.857691519167805,-11.131354818382196,-89.4483319935804,-127.18210756985908,0.0,0.20736791228921972,-9.629540712906218,2.801883848939447,14.225416693763894,-1.5505906574044124,0.0,0.0,218.0
9.727480283851289,48.82359929664407,15.089495614129458,80.78405618683571,138.57888861109248,0.0,4.351910980374091,-10.481484797158817,-5.425075396881735,-25.13120999711651,-16.726801761331004,-91.95653685700937,-134.49505997267738,0.0,-1.162582209757109,-10.13733143059513,-1.927385851467486,14.61760907857323,-0.3755777517960355,0.0,0.0,219.0
12.061339701545368,53.13519661144772,15.623332424215615,71.25798125907514,134.11143438382715,0.0,3.3048195190768177,-10.95051473247826,-6.404870302188296,-32.85950810214531,-17.036083518031376,-87.24178492111989,-138.63375956910622,0.0,-0.8948567774288099,-10.212077162146851,-7.4962762233444264,13.271115276379689,1.2861295167233844,0.0,0.0,220.0
12.378594304529646,52.60757108475361,16.25198061913525,68.44211512623654,131.8422570302832,0.0,2.956257354387257,-11.196097748211807,-6.877754180505897,-37.45275268994551,-16.077725834850252,-84.13801231864379,-140.6224750994306,0.0,-0.6159004916031633,-10.075176948394207,-10.487469795825163,12.49368995158642,2.272860710559081,0.0,0.0,221.0
13.973849871983234,46.80547548441608,10.99343559214587,62.08268104958992,126.05919063297242,0.0,0.41551037831046134,-11.748627992031317,-6.781842956633285,-34.37634776613929,-10.850075452749818,-76.82624840888836,-140.43304417811456,0.0,1.1258750558365689,-10.101567411914704,-15.717766602392881,11.022666461711221,4.376318891116998,0.0,0.0,222.0
17.143730420502397,44.72360643614097,10.461083869581437,60.83538819470234,113.2208786839829,0.0,-0.857575253093444,-11.527030597189391,-6.55494791438687,-27.1976138890393,-7.61435632074745,-74.63475315218626,-136.71667069301927,0.0,2.2848655502071256,-10.024543568966939,-24.672138500129847,10.465038626581023,7.5755893900376075,0.0,0.0,223.0
19.94688274455794,43.68145607462321,11.720078221642735,62.26567678263429,100.67980567629121,0.0,-1.3201373598950303,-10.711371895710476,-6.526397296769393,-22.949892753360192,-6.931213592249142,-76.56773432971582,-132.51783701302398,0.0,2.4135104994340755,-9.846380835109809,-32.4285056446956,11.015783982227363,10.615900882125322,0.0,0.0,224.0
20.72705768740807,41.43080581293405,9.099077310747399,62.624365951421986,96.053566230257,0.0,-2.0905881537571083,-10.130617904951686,-3.709270405672001,-16.15466104554948,-7.741708706181577,-76.83739508225317,-134.127817333784,0.0,2.1899035798730204,-9.662664871386568,-41.20180586935663,14.1233764328179,12.928168585459769,0.0,0.0,225.0
20.576545931310374,39.37021461219,9.148879464919224,62.15350993694375,94.5152689852966,0.0,-2.3383706574358336,-9.729510921430796,-2.3187305486825,-12.938982891338567,-10.217700243760271,-75.35501981827893,-135.08346821199996,0.0,2.163839897083402,-9.529606728224646,-45.46696477293746,16.03447531862922,14.16222138395141,0.0,0.0,226.0
21.77696875341303,33.31679445437626,8.996733515988911,65.56199492732868,82.03436686563941,0.0,-2.6995726548222567,-7.241646702013105,-2.635961886334916,-7.70442019190024,-11.88519720844174,-74.35359545482291,-128.68407348979488,0.0,2.629150684657937,-8.585508489088092,-49.65828145570275,19.283471918519783,15.423515525132023,0.0,0.0,227.0
22.782644099258427,28.86036312366088,6.363859854277681,70.72243305272627,71.89928648166011,0.0,-2.7067408378366076,-4.8169104370088744,-1.9683089739754656,-1.4197160623122886,-12.9082389165944,-79.06008782340251,-123.45179670465414,0.0,2.038193512338982,-7.455787997772269,-52.38316152999635,23.083262651704203,16.11578840984843,0.0,0.0,228.0
23.540583361265572,25.669998542539517,4.567984948783444,70.27236821834927,64.67757427024932,0.0,-3.170436105901009,-2.8889721013176217,-3.2352106676000987,0.5498117249705786,-14.802541744328394,-82.55331789630445,-114.98484806924681,0.0,1.6486954666507025,-6.174339384344522,-49.75949652799196,25.76695562029674,16.24982513989651,0.0,0.0,229.0
23.099503405044487,23.936090626804354,1.9368012926089482,71.75100750860746,66.01945148827946,0.0,-3.2672120549873127,-2.7987650686864605,-4.37932946561,0.34889506497404127,-14.085357208175385,-86.3759050279567,-109.55586650895042,0.0,1.1704662855699417,-5.500178285211603,-47.343922822554156,27.89761559671247,15.84729959268502,0.0,0.0,230.0
22.9597184610383,23.839377582762694,1.8971477322586878,68.90977514525234,68.07147885260851,0.0,-3.713400634887576,-3.1911258808085883,-4.952660667182748,0.19312367969442834,-14.51331871368199,-87.28201757570623,-106.60154463493545,0.0,1.0646562979986236,-5.102945576920856,-46.65549256527109,29.068078671408063,15.257858755995105,0.0,0.0,231.0
20.521545833018852,21.670938012292883,2.529828726651872,69.50237658542397,73.70776521525944,0.0,-3.257369346800367,-3.7755118041506375,-3.4629545742942995,4.037537192842852,-16.560980264116203,-94.711189805886,-102.005493796692,0.0,-0.46811318223794224,-3.824145342116333,-43.57802672666522,27.924751829238836,13.376199621842883,0.0,0.0,232.0
19.737313757801736,22.57218239263601,3.1759854064127913,72.8597220133289,80.89629285890204,0.0,-2.5739815602716822,-5.266614696384603,-4.016103847530132,2.425987145855594,-18.06674205263284,-103.35145951392494,-100.00430905816458,0.0,-2.015467887364536,-3.857960365029903,-40.36000336760062,27.422256314087015,11.667863157264625,0.0,0.0,233.0
18.15856334247748,23.219165303314558,6.484193054055088,72.21908197060112,89.14047768826805,0.0,-2.0415235250475408,-6.7450331746308825,-3.7305519944652925,0.501410872475416,-18.432401419461005,-107.31872951854368,-103.11543776873648,0.0,-2.7919144669917184,-4.635405217766322,-38.85142276918384,25.802669995281388,10.2390028275591,0.0,0.0,234.0
17.114285474990474,24.665278445971406,6.540328251107632,75.71666110668187,95.7135561282609,0.0,-1.2293968600591665,-8.048243030646018,-4.159078489878715,-2.7682170847578202,-18.947633527331185,-108.73226818606342,-106.20497863935478,0.0,-3.069165302401533,-5.566034038317448,-34.69285000605765,23.69326277281039,8.788471252708487,0.0,0.0,235.0
17.282190307809607,26.110880485870002,6.9998108284843035,75.61975280885035,96.02820157066242,0.0,-1.1488480397246525,-8.301206242948641,-5.138329968259436,-5.028659438576634,-19.186785495359675,-106.12803546737426,-105.85672787677767,0.0,-2.56579452319232,-5.891899009835682,-32.385122645033114,22.662306650524155,7.900476204748792,0.0,0.0,236.0
15.853500856097828,28.957822919525697,8.960545270833666,77.36530646356844,103.63392491531216,0.0,-0.158280295681433,-9.630470560672483,-4.890727073110013,-9.0328883057967,-19.039593909482107,-109.82758151235011,-110.8574615681023,0.0,-3.3185318538775244,-6.977156476577906,-28.603081998207788,19.893654450897152,6.869560468923863,0.0,0.0,237.0
15.374894133029395,32.01952258081318,9.626482411794948,77.54658210426628,108.1457405311632,0.0,0.2919423155586364,-10.40110183749497,-5.8950807773510014,-14.602145233569898,-19.853175056091477,-107.9391241169653,-114.79090568905157,0.0,-3.103133393409852,-8.044490874942978,-24.31082202668514,16.72457086013876,5.724723549070351,0.0,0.0,238.0
13.830897427749456,32.601135257075214,9.189368700000541,76.68046351605804,113.77367302718756,0.0,0.5169767794954968,-10.902662984491233,-6.0966686880620475,-18.263816449987377,-19.375032790867312,-103.59358632981143,-118.14928055855073,0.0,-2.5189418789874045,-8.749987767861374,-21.424091709305475,13.611470370060848,4.9406140270513434,0.0,0.0,239.0
12.625596996805754,34.93459206881918,10.205240060723781,78.32171544896462,118.63106816618114,0.0,1.3832888223243507,-11.271215088745342,-6.47400889206175,-22.382041384337114,-17.31928696724701,-100.74875500397583,-121.18530595871412,0.0,-2.0095362312367198,-9.354812535662699,-19.356058909061606,10.809617711599024,4.191076110453623,0.0,0.0,240.0
12.08336108520313,35.72590090463924,8.779117502910179,80.52176737447135,120.2984273460642,0.0,1.6865640962127693,-11.377150772722025,-6.76867264436621,-24.047289620606612,-15.852356347812671,-98.73565491785243,-121.70719044298379,0.0,-1.5762807373504382,-9.548078574564839,-17.983899242441215,8.695434374303469,3.539303014243194,0.0,0.0,241.0
10.25817744462482,38.08954984051341,11.164847657082031,83.66914357969682,126.09218819798052,0.0,3.0842250353767815,-11.320655112711393,-6.2505080269460045,-25.835118925521737,-12.057576386583255,-97.49685679694929,-124.89149865999575,0.0,-1.1616761947833163,-9.852553636160177,-16.851908049566095,6.268651682951284,3.1370145243213283,0.0,0.0,242.0
8.076760165242609,40.72743660598169,12.96781389563176,88.27379128160784,131.52617207344872,0.0,4.597039265928405,-10.816034926251135,-4.350839465921408,-24.70518573447797,-11.21903716249601,-96.13795342861447,-129.32297073982434,0.0,-1.234220028837057,-9.971025581753446,-15.664039487841574,3.4543437809770206,2.2458441107948777,0.0,0.0,243.0
6.305296816260087,42.00526879704489,14.292952415694351,89.94458454326532,136.23951159198413,0.0,5.438745523616445,-10.28652325723398,-2.4791516286054116,-21.640574349474193,-7.976453874748969,-95.53124823462646,-133.06608825837532,0.0,-1.0927453943284666,-10.004043417207207,-14.638512025498137,1.6449090605290049,1.3600083827434193,0.0,0.0,244.0
5.50876271657414,43.041917783136206,12.957023649165466,92.18416021501794,139.364385177491,0.0,5.715299185092825,-9.915642359410958,-1.8202172392780727,-19.235739568708947,-4.435078186622034,-94.72586598867228,-134.81804201240902,0.0,-0.7043207204356443,-10.008287070547725,-13.77930025385014,1.0290931849171574,0.8423001513156002,0.0,0.0,245.0
5.080365994754945,42.80120820469202,13.217583763794067,92.67165980248858,140.60912389519183,0.0,5.886481397224417,-9.764955514170385,-1.8172211341099633,-18.358996684206385,-3.5965881912733364,-93.67680499965779,-135.0942362840836,0.0,-0.4504358834026012,-9.995569837809787,-13.224370621235565,0.4787244729239283,0.855398402191451,0.0,0.0,246.0
7.8029037304709465,43.64702181550494,11.116147674781814,85.22918515871929,137.99651023712752,0.0,4.268037788962664,-10.691077525083964,-5.166454979714258,-24.751431004913513,-1.5217170616256568,-84.00856551740581,-135.68347072290004,0.0,1.612922473948616,-10.101403668633555,-14.235321170792417,1.6468652353674404,1.217910902212511,0.0,0.0,247.0
10.638630080451929,41.81208489598033,10.654779315439534,79.19973868611625,131.48795906359837,0.0,2.7066318781378675,-11.42842106067947,-8.27483479739933,-28.0594144507603,-0.19439012892311525,-76.37589024030673,-132.16798756894443,0.0,3.2087119144568517,-9.743594608031016,-17.46752248573604,3.2894366646957214,2.9697162666294306,0.0,0.0,248.0
11.17749273237821,38.74535200155129,10.027662207624774,74.23526579995246,128.51203925865516,0.0,1.5521844276555556,-11.651790235643487,-7.4388998977125205,-26.244140400117058,-1.3643881976355792,-72.49692074937118,-131.8308991375865,0.0,3.50991635708235,-9.616578019589307,-23.748203804081193,5.918430744341677,5.384002081507033,0.0,0.0,249.0
12.570013771113835,36.27146264267333,5.91288320671237,72.27005041518424,124.86230755939026,0.0,0.1504007483570042,-11.679264224570032,-7.666697805589844,-25.457110742550025,-0.5927911957542171,-70.446964611341,-130.58445292510334,0.0,3.9333791020077684,-9.425875242798627,-29.77744505819658,8.483601051004975,7.5374326638679126,0.0,0.0,250.0
13.046986371423335,35.83551375707407,4.9088413877346255,70.70986726517488,123.95089575256395,0.0,-0.3518705326645029,-11.651857909679137,-7.4431337612242805,-24.934046852607413,-0.08346472496453389,-68.99852625153667,-130.90408072031892,0.0,4.148446115876683,-9.338413771714018,-35.16118206086234,11.014439774257715,9.08252147571712,0.0,0.0,251.0
12.739907042755084,31.759526532611908,8.221247253807952,70.13256939653257,116.5655277333866,0.0,-0.41284778750997303,-11.03707404125444,-2.3784264020284116,-16.331768352450485,-7.995062198884504,-72.60703438016903,-133.67984276474283,0.0,2.5845034768088584,-9.562973659592982,-44.30381300323209,14.790735548717425,10.737507854718686,0.0,0.0,252.0
15.295701504697686,29.04322391632113,11.579252788633388,70.43968850275118,102.54100181382263,0.0,-0.8001700939826045,-9.359981283522192,-1.0791041482912531,-12.354028763833819,-13.208946528402944,-78.18108157071829,-132.9612489003974,0.0,1.3524983537632767,-9.445171747945508,-51.5391453138152,19.366081433550164,12.057212139139383,0.0,0.0,253.0
18.079065063180405,25.148572663562263,8.761790804439837,73.2688501720483,87.0564942538681,0.0,-1.4725881865265185,-6.689693644718853,-1.863484780122811,-12.792318119839473,-16.15860439691859,-78.5170540844745,-131.4306109747589,0.0,1.1966836054141083,-9.378007794166935,-56.501324587627174,24.19766434748558,13.619801188083928,0.0,0.0,254.0
19.933734630405667,23.49384783925981,7.430428231146415,72.96675715646491,76.68083101467762,0.0,-2.0007482332618376,-4.616198234305976,-1.8546648714702076,-9.050334239022684,-18.5316300653192,-81.63665366610651,-128.3697294143526,0.0,0.807772870381158,-8.85288539433465,-59.09656837160047,28.264016093332753,14.836552685816352,0.0,0.0,255.0
20.126400606513386,22.957239020190208,5.000147359616836,72.1247425677558,76.15385006546208,0.0,-2.474428226616592,-4.452649876924042,-1.3346932421277151,-6.876030617295269,-20.88817022385301,-84.31652160619741,-127.55765861111216,0.0,0.2864446821681227,-8.570219809746916,-59.852477062230854,30.7844037861513,15.3938330960787,0.0,0.0,256.0
21.062998834187862,21.897119109945187,4.000984097514117,73.73579765143245,68.74521161680414,0.0,-2.4256880445364075,-2.8671060426888064,-2.4692937446423793,-0.8206958150071703,-21.282339058951596,-93.1305325362909,-115.20818480353877,0.0,-0.6611280525821988,-6.4923227135579165,-55.725415354652746,32.19649835915574,15.350322127027033,0.0,0.0,257.0
20.87523693390421,20.870731620485458,2.759241005754696,73.49207176599026,67.83027026593548,0.0,-2.5810087910755968,-2.4926153764920764,-3.5715025019050812,1.0248333858070824,-23.001708633848725,-99.05875754423569,-106.65891528413643,0.0,-1.527318979606004,-5.0626458033521535,-51.343891169332835,33.16144627210263,14.746210725145882,0.0,0.0,258.0
20.30385233624491,20.32434110482802,2.659123024374139,72.75932019100573,70.57429782191727,0.0,-2.6643777175688714,-2.910558522246417,-4.28719192125382,1.6947444870645936,-22.915199542286302,-105.81672623834412,-101.02730778872126,0.0,-2.5856465330722243,-4.15584359667056,-47.83226336210224,33.50581434674248,13.583083521835242,0.0,0.0,259.0
18.350216743040743,18.409020704543597,2.9100178428155083,73.29196456142252,78.45971062022387,0.0,-2.3507610024952794,-4.027220752262563,-4.049731857021866,-0.22510219979026957,-22.092871876084804,-105.04904702373169,-103.83928584247833,0.0,-2.5271970086457496,-4.856326668551246,-45.88349655941269,32.9627969042694,11.774075846787458,0.0,0.0,260.0
17.656059495050474,17.805927619761214,3.3070019213632924,72.73928585594582,81.14574653035918,0.0,-2.3249334348285635,-4.401282279410421,-4.374156451087363,-2.0637204617217617,-20.199558773828404,-103.09772026375822,-104.48479883260211,0.0,-2.132620746499511,-5.243632480306025,-43.17437101176996,32.46787630329705,10.530107033256115,0.0,0.0,261.0
15.2115826024271,19.201584384261366,5.508151488965586,75.56876670918784,94.52693191522798,0.0,-1.2327090311606956,-6.999765638495255,-4.3362313988340455,-5.816728225462527,-21.020528566239246,-101.08313422158619,-110.22228939673445,0.0,-1.9832193032955272,-6.548344337578788,-38.779421684117395,29.61234604288603,8.372617907656538,0.0,0.0,262.0
13.022531732873752,23.18739987052747,7.75023912994894,79.21727438355964,108.93775254782328,0.0,0.2570582372346282,-9.578987438591115,-4.0081159412958,-8.485032960036467,-23.205623832317887,-100.29174108036771,-114.49339389928681,0.0,-2.1772255532248628,-7.351564377839479,-35.524529554693906,26.65757988340582,6.709675788089985,0.0,0.0,263.0
12.302496605665596,29.989939234305584,8.92954789944617,80.53561877695284,119.53603547481836,0.0,1.285949966425659,-11.082497152131108,-4.867706347399309,-9.978430545711923,-23.60426207628856,-97.40744119336576,-114.29016494019302,0.0,-1.6726887097186076,-7.554533514414857,-30.750776456678874,23.62681513811777,4.889976084986493,0.0,0.0,264.0
11.74998723577763,37.11544478805278,10.865493220092215,83.33718600886716,125.44709770846548,0.0,2.6388934622487503,-11.40557177971061,-5.252906391586399,-13.987125413285451,-24.51625010079541,-98.7141378191172,-116.53262541695823,0.0,-2.137341133539815,-8.182308900165724,-25.99792798316561,19.935654538069166,3.8188377511226115,0.0,0.0,265.0
12.102980803593995,40.16216099774543,11.123750309643652,83.4928490290744,125.47258497406317,0.0,2.8212773291479945,-11.410650250965755,-5.635208728018115,-16.370255790401675,-24.691771896880866,-98.86540453463087,-116.73946664127439,0.0,-2.2554181124951573,-8.421936924006433,-22.797088484184357,18.03579851415974,3.097060807353961,0.0,0.0,266.0
12.948175732248059,44.52443759933972,14.556902327132402,86.7398142478607,123.64364679524316,0.0,3.8161431830497823,-11.136362012807538,-8.440454931941092,-28.352970864187103,-23.38845365588486,-98.19550874332441,-119.53593794517501,0.0,-2.2380913409524923,-9.561614230414166,-20.158797159331847,14.854819353398264,3.1950877020522257,0.0,0.0,267.0
13.140685467778507,46.4473492432781,13.883044828438813,87.24591226432706,123.4412537387738,0.0,3.82945190935029,-11.126734150448076,-9.776111230741781,-35.47616928842395,-19.001255317896593,-96.39436184962686,-123.0732875627232,0.0,-1.5898304223715143,-10.081497770428557,-16.418176461292862,12.175719486057174,2.6062004300745474,0.0,0.0,268.0
13.098924837419403,45.5334978811557,11.896051936105447,83.95719606562638,122.88239838136353,0.0,3.0866488464185413,-11.357791141696072,-10.751120734761098,-37.26405531770324,-14.495047132296314,-91.03348409428109,-124.46384995997825,0.0,-0.2685029981162793,-10.25050871396879,-12.521992945051387,10.458734058583685,1.7679967673410648,0.0,0.0,269.0
13.579173367209574,44.10477178909633,9.878676824731263,78.42581885796548,121.23011055719091,0.0,1.8936391021181371,-11.591252573467854,-12.168306440363288,-38.25075804672471,-10.351690723871686,-84.59084759447347,-123.48203263624106,0.0,1.2459005895603124,-10.185645703701624,-7.7742103952761195,10.043980824496245,0.6520545912470515,0.0,0.0,270.0
13.847500763848116,43.741597224841875,8.054853350415247,76.44551145651964,120.09041312966319,0.0,1.263286047115533,-11.659057665109199,-12.195085050777973,-37.2269548058615,-9.055806168963295,-82.95224492041822,-122.93763777720676,0.0,1.6678655166618324,-10.108192492246948,-4.610542144729786,9.593832947857457,-0.36558714969523914,0.0,0.0,271.0
16.214913485839876,41.10925809084159,1.2596963080626005,64.27540900717129,116.90680401140065,0.0,-1.9456163112358464,-11.51221676075318,-15.150879296178612,-36.42412170025915,-1.601084492407239,-68.50056649447872,-120.41623589482386,0.0,4.599049784362423,-9.191694028961038,-0.3449449128783896,11.288011712060529,-1.4531468954353084,0.0,0.0,272.0
17.760472596892455,36.402712909968855,0.0019595023236388892,60.0995353706222,111.20920502656429,0.0,-3.416384265483503,-10.84073806592428,-17.870792104819202,-34.75855171857696,-0.25721646262021536,-61.46182013950399,-114.0042001651559,0.0,5.834296067241709,-8.4291989533899,3.958855502545072,14.46097112226551,-2.2061062709867967,0.0,0.0,273.0
16.872290165149632,34.69159857765783,-1.2599587173144309,56.941262762699644,115.53117910572972,0.0,-3.880991437620399,-10.864947732996846,-17.625699304189766,-34.80125859144206,1.5215825081715466,-58.809654477920105,-118.95986669694827,0.0,6.115457881235976,-8.280448429247272,6.9453285448935915,17.11306644921806,-2.2436338171647208,0.0,0.0,274.0
15.368091264616062,34.48598879772092,0.73355082188851,59.5437635042548,119.21993048981595,0.0,-3.0223739884821397,-11.183058890773141,-15.823012599190184,-33.447623941745256,-0.6140696762004053,-60.782794792752405,-124.40445012648169,0.0,5.578095958022708,-8.645628702876378,8.269169718618574,18.959710342066764,-2.058531053816432,0.0,0.0,275.0
14.826771452135874,35.0008162045626,0.854851606950382,60.0246213951679,121.67237372055976,0.0,-2.756758903004572,-11.332600510491153,-14.914744288645633,-32.29400127820373,0.633281759840924,-62.66438862964665,-127.75975830803453,0.0,5.497941361221823,-8.691075433423027,9.135304510606508,20.86431188990963,-2.2166612621823054,0.0,0.0,276.0
12.577094115962197,33.39885116885389,6.057381062870312,67.02347833621546,121.3262510362687,0.0,-0.8933266079149685,-11.42515202488451,-13.317971565422651,-34.01769918467295,-5.642023538983883,-68.7783268150958,-129.8225737172926,0.0,3.853707267722593,-9.53013611095852,10.864265419092423,19.551921159573155,-2.2875976520372787,0.0,0.0,277.0
10.881678093198602,32.33678777668849,9.380620697474724,72.05527493012939,122.16785246472412,0.0,0.5246844477724285,-11.359419202599982,-12.721200862165713,-38.85002598806567,-11.493847934693212,-74.12406077740478,-131.3017246394163,0.0,2.097743132596487,-10.008723944043675,15.85668655334304,19.20561418324481,-3.627801384047672,0.0,0.0,278.0
9.779168594169008,31.153209611606,10.286474521136471,73.32287157600717,122.24690579857008,0.0,0.9456334991543216,-11.248178746675304,-12.385174338021304,-39.61846472957383,-18.08401996871362,-78.57808708323786,-129.23711142741323,0.0,0.6435494583902589,-10.245811153061025,23.428674551072696,18.470762911973083,-5.584809676714674,0.0,0.0,279.0
7.888375863970841,30.44292732760535,10.836987614553683,69.02077434278459,125.73441332462805,0.0,0.6805260899625889,-11.363519776410683,-11.305388024586698,-38.37335733681011,-19.905052646650038,-81.0112931397502,-129.36580620174644,0.0,0.04550519008347753,-10.278390977562879,31.438301895065372,18.290333048551524,-7.330466255200335,0.0,0.0,280.0
7.401701833718983,30.92146650129749,8.947515968339829,65.69066651685296,127.5232599626078,0.0,0.09907654561182704,-11.510619173218094,-10.52779916211107,-37.3838252059901,-22.953130850292208,-81.15419120585273,-129.86159399600004,0.0,-0.441800720118018,-10.272126753086798,36.534996748590885,18.52079702661758,-8.541431641607462,0.0,0.0,281.0
3.5922107816949156,22.198441856938604,9.17746620038163,67.32647336782675,129.87890914356402,0.0,0.35702421781482724,-11.148308734473634,-10.028798347954632,-33.28282339718638,-20.595281755241256,-80.52811415739929,-127.7436982904801,0.0,0.225970034937081,-10.231561193172958,43.622866029573075,19.276704339573246,-9.693265811376754,0.0,0.0,282.0
0.6491087353194545,15.604102009281222,9.20176524168071,69.3686812379006,131.50551793292115,0.0,0.7997677332214111,-10.769393384040868,-10.083228979224112,-26.945755499148603,-17.844029738005595,-79.22875416348077,-122.83265364429171,0.0,1.2995963359157239,-9.810013626069077,51.956097867561155,21.021325322549746,-10.725751831797673,0.0,0.0,283.0
-2.335615416641007,6.8063841911557805,14.364841122654264,72.88818615307127,130.56684958156637,0.0,1.7338091347036506,-9.551833831949443,-10.06109916631327,-22.054958623347055,-15.20740888896975,-81.34597894179177,-117.01355368846106,0.0,1.6967612081389298,-9.08619911571349,57.787061639746746,22.97562770290248,-11.24376427806587,0.0,0.0,284.0
-3.2057006218476483,-1.6763725718577767,16.976944262216023,78.46281685107955,124.23185387102959,0.0,2.5454478183257745,-7.4709738138225115,-11.204033993719229,-20.319288378220637,-11.779170657504666,-79.31888454108932,-110.65075727041906,0.0,2.659100773492812,-8.239535198871142,58.260637585310356,24.665133394867222,-11.885526952194402,0.0,0.0,285.0
-4.000867829925949,-5.8314475344819385,18.169786644791895,82.48087611126597,121.56169082941531,0.0,3.2943544771571855,-6.3016487892690245,-11.273889753455537,-19.143343591705932,-10.930460689571344,-75.80083575347426,-108.53165551199544,0.0,3.31021023008481,-7.792695191505158,59.15795542347909,26.094622929733216,-12.386183368944714,0.0,0.0,286.0
-0.9781216156816133,-4.954847890797098,15.760245401287525,86.30712746400123,111.96600125955959,0.0,3.578450151936598,-5.12677705468699,-14.073571487639072,-16.27237999992665,-7.259081101428215,-76.81680911172323,-94.36407806720504,0.0,4.044887739628794,-5.560961466958446,55.31315049833841,27.474680989186147,-12.665557991637298,0.0,0.0,287.0
0.5991462217059284,-4.358922113877923,11.960142452097507,90.58086409254484,105.03998442516793,0.0,4.1304391092424595,-4.337528757687017,-15.369187509977847,-14.813999306526561,-5.162028858442022,-77.58751421913637,-86.4161196598271,0.0,4.297543267857703,-4.119673212866129,54.6602417197408,28.175589490363436,-12.591903287788126,0.0,0.0,288.0
