JMW9912/AVATAR/install/dynamixel_control/share/dynamixel_control/data/csv/.data/H1_0511_2228_Anysong_2_animation_semina_preprocessing.mp4_motor_degree_H1.csv
theta1,theta2,theta3,theta4,theta5,theta6,theta7,theta8,theta9,theta10,theta11,theta12,theta13,theta14,frame
-9.474727793309443,-12.503044879325296,36.23802071907337,42.42862743735394,-0.9804007735948221,-2.50728406292344,-2.154594668250981,-5.800034629455311,16.687177292197138,-20.02264055641448,23.942730210626273,-5.119682740587686,-4.51864468709003,2.4338538561748466,0
-7.376336846011217,-14.876544829009347,37.46541250675653,44.96439732967834,-3.7501986735134336,-3.6275907902396143,-3.627096545009691,-7.331303101650466,18.710595084767903,-21.980532462653017,21.676946259471457,-4.2725984260233405,-6.146425575911876,4.298586760138313,1
-4.2407641055871785,-17.70614204798332,34.162444427013455,45.419117505439196,-4.391485954118372,-4.034698044790192,-3.209972129825854,-9.52651475297548,22.77854367361535,-19.91101294952875,11.54723569533527,-5.332229700240517,-7.481378259351967,4.9009891094952165,2
-1.3395844139732243,-21.74981231686315,27.80861066705226,41.99764888943356,-4.944682143012288,-4.641776658722546,-3.303191488793559,-12.437910170183878,27.946976994199673,-15.089642282183535,-3.4632918303546103,-7.382314001452459,-8.91730453373619,6.233764915178209,3
1.9149723764199242,-26.984460506081742,27.153476168253206,35.4233932102393,-5.120339993647848,-5.56851641700332,-2.7182968037785953,-17.91478688994778,31.467286211724158,-10.955238913366399,-17.527810679925185,-9.125317327446059,-9.830181982577576,7.419343691483128,4
6.74414622201047,-31.447630062450955,26.765569923875116,28.045120669948783,-4.764430922233483,-6.855218580926967,-1.3750305309603181,-25.67600517272319,35.490420635659014,-7.081771669754341,-27.74432206071358,-10.284050012365269,-10.314003638396022,8.421114018798765,5
10.210552260364809,-36.95293108186886,29.576360012691953,19.339218996164007,-4.0956966803900645,-8.180297231513787,-0.1972479586540092,-36.17454404944159,38.64477065065767,-1.5579783201070811,-33.10601427406607,-10.247111379326006,-10.244213689632653,9.655501966346566,6
15.56853224690696,-40.97092924318912,29.043704118335377,11.870713248445105,-3.3258055743508246,-9.66218420130132,0.6319048785898532,-42.71410284612119,42.22662209250022,6.391862154852807,-35.73713189662075,-9.841627073978216,-10.264529438866248,11.047997456804222,7
20.04257375081086,-44.79395971355407,29.033773833107453,6.090434919890255,-2.7682761474044733,-10.822535819740107,1.327172091313867,-47.492238321276275,50.07542920204946,10.933403415625968,-36.26800294211319,-8.773869400303427,-10.258719934066225,12.036598131072315,8
22.57742326082839,-46.610869290121485,30.615222574750412,1.828145970273071,-2.3450103936806572,-11.5479570669809,1.8144572306696303,-54.974274547613945,51.036030312174745,16.481513331177226,-36.419536236076695,-7.846462220547957,-9.866502072858081,13.551041296463815,9
23.821980155270847,-46.600948708250726,29.624814828547464,-0.8005797609093506,-1.9550381782581143,-11.996966444328773,1.6784153367390164,-58.86599377903565,52.11965360240032,19.890309157250922,-35.64907308958561,-7.219200953838037,-9.652450669241786,14.88970766404234,10
23.533633494754717,-44.80577422085395,30.024024587444675,-2.756593464470797,-1.6358754116798904,-12.215527613004005,1.577827371264278,-60.845497360050594,50.20997568153395,22.727746761183173,-35.38884117685173,-6.807069376875101,-9.453603237596603,15.813638259616715,11
20.849941825836133,-41.99770281962601,31.013695014789143,-5.516674883086698,-1.058345704033149,-12.427102958220118,1.0497384110910044,-59.385115035868075,46.80787135618791,24.399840878271046,-36.41975054091686,-6.8219071221938785,-9.452198945883971,16.346508511997044,12
17.434948234323457,-38.914782996902815,31.9737480326393,-7.599220212966753,-0.4016312617693229,-12.455941726530105,0.01797028606084133,-54.773750355742244,43.63733937216131,24.7154052646954,-37.2203898924505,-6.958796585715501,-9.47054968060933,16.40973359512142,13
11.391853402128202,-36.488882083569216,34.84630695869672,-9.633827331111522,0.178845203050077,-12.06921710214146,-2.101268668621888,-47.82659013987761,38.30524437401067,24.918467226291497,-37.22912180388376,-7.109572142815916,-9.321374419560307,16.485831083143925,14
6.646775205420492,-31.395442954072372,31.484813851970177,-9.702455911550809,0.47091669752532317,-11.713166549029724,-4.467968697054182,-39.744765165379526,32.04001427682237,23.60489481981292,-36.64130200280232,-7.458442868819518,-9.46835405322418,16.487888320744297,15
3.291594611388038,-27.299550417100285,27.31077697731885,-12.869829411688197,1.3240206475024312,-11.673983006051754,-7.248790038631357,-28.76630164699689,26.12416309957903,22.036330671721448,-35.206750204544214,-7.9567969750651235,-9.62402829554266,16.369043908165875,16
-1.8784389943853597,-23.950746701626592,21.981770255861573,-17.0976289603382,2.5411514218357634,-11.398957304967398,-10.1995201516859,-17.60977920651313,20.93485252146197,17.26885570533525,-33.07073100243457,-8.149347866254734,-9.71697439672654,16.254434599294466,17
-7.4341342232613465,-20.58661846564394,16.739688147109447,-21.63883309604235,3.7079439134723593,-10.910503412825642,-12.889124885912063,-7.142424826433784,17.68050116564607,10.543667161728195,-31.03363479302113,-8.03239369858952,-9.908779359778482,16.160008728902543,18
-14.090005342866109,-16.038608491789226,6.978129751490638,-27.515502419365085,5.130323567792193,-10.492870509983174,-15.585493054965275,0.8299772023212363,13.627411154299114,8.49885190641395,-28.47878325175012,-8.314451533341789,-9.971329986377386,16.55411259372112,19
-19.27246008318716,-12.967487542422194,1.942588850040107,-32.30669358982794,6.30573528476484,-10.23607643019019,-17.282962470944266,7.366070506810208,10.423880593391448,7.362537227459513,-25.218709761258836,-8.391651812692068,-10.1977912223821,16.610738762318025,20
-29.991172644513995,-10.402926935637824,0.6300506756450677,-37.89714818663091,6.462296506125633,-10.239799172422977,-18.45271196738308,10.371408478638216,8.966076268595652,3.7653508184123656,-21.739312361243353,-7.866369906645181,-10.512183639319723,16.504665419705486,21
-41.29387554390682,-9.10810338058384,-3.776199245939094,-43.56467573094498,7.091945238102762,-10.519728710193675,-19.885261404606673,14.4385916927328,9.477954456513238,1.8788972050788135,-18.727225180162165,-8.042118041977377,-10.907948283716278,15.774778631899355,22
-54.29991857554058,-10.582524124880173,-6.953068874865155,-49.493403906616116,7.990808448508321,-10.790303814889805,-21.590103215383436,18.726835370138694,10.167009764221781,-0.5967706129906716,-13.852092657403535,-8.079701917482343,-11.342986058703556,14.722149003540503,23
-64.12874917076837,-9.852672190123709,-12.738920988036265,-52.461729239244846,8.171165034989405,-10.78203322937621,-22.898594672658888,20.266364870148422,10.091527652050814,-2.2526710727424977,-10.621734350786646,-8.038764337866429,-11.573075840537731,13.835608991923,24
-70.77801302213886,-11.934350651537278,-15.151110960810891,-53.89370160384417,7.5725468247185015,-10.404925700077575,-24.150866527432008,21.49054225198739,10.5250135917002,-3.3431274302942353,-7.49061854625755,-7.892473194749597,-11.373045767508655,13.087815224045647,25
-72.41994250183119,-11.677706029151603,-19.838480359203995,-53.91992637492319,8.090563065967316,-10.263899804226936,-24.829515842324692,22.414175800567453,10.570670799254957,-4.390961848129289,-5.126682689035007,-7.63025771237755,-11.279048718649829,12.37381315857674,26
-73.77513826845791,-11.634450069711631,-19.21448714932582,-53.497012800177,7.810377186541373,-9.814590941650803,-25.288058704333515,21.087915793721816,9.820906659512959,-5.210765031922517,-2.987191931419209,-7.270517637880813,-11.059379697613053,11.740030371011663,27
-71.09436508478808,-7.5200500574483655,-19.873301727808833,-52.28896080294229,8.034335543155965,-9.732743563275418,-25.154974397520906,17.589156681841565,9.131174020948187,-4.4250942222404985,-3.5055715253187736,-7.2594360068553225,-10.919352648459556,12.073700946673856,28
-61.819824833818195,-3.9265402590162717,-14.661157696078792,-50.832182894676315,8.69074478063484,-9.898323531163044,-23.785099964813828,13.890079500310657,9.187920307038752,-2.578745413992717,-5.457525373552154,-6.917783260513586,-10.78119025371295,12.805247425723307,29
-46.51352176961783,-1.959357559967787,-4.1115387301526605,-45.73726917901497,8.494157836565808,-10.229973330252356,-21.64716536278119,8.502290060787566,8.724032960501933,0.12441618494476978,-9.815545160257939,-6.877152248309896,-10.595341763186006,14.240290938397651,30
-33.091577000735036,-1.290214418875026,7.82414626126417,-38.38973270475836,7.706886838223095,-10.710416856983473,-19.85119106399696,-0.11985338571295492,10.644961516726347,1.5415277027241219,-16.552941040562214,-7.13043473433686,-10.517664034030364,16.227287401785777,31
-20.93702742711073,-2.830020755612068,16.085768747238294,-30.899350171260743,6.625414517432783,-11.174298467057422,-18.046869508534318,-9.149495157137686,11.349276518912788,6.690095484565482,-22.897254771758625,-7.187982571856029,-10.37511019650596,17.889099026145598,32
-11.032609328148602,-5.763634419284283,22.4574749464397,-22.057767174364866,4.502640423314787,-11.541920096667544,-16.00100736856451,-16.375537614904108,14.291521163922381,13.007058367415194,-27.84549298885278,-7.072583666147798,-10.247710962794896,18.943101080185002,33
-5.120655033633322,-9.398751556554338,27.94994994874602,-11.028855513787367,1.541940176888676,-11.618685429747892,-13.492483253036266,-25.44418218753419,21.21774983086058,17.81182204314282,-30.876873165426872,-6.231236195307644,-10.106214312630865,19.392368793319076,34
0.7281893559127991,-13.106829340983914,32.698317254938516,-5.233151239957199,0.064282233362201,-12.128542892732256,-11.172317084829194,-34.674979054359824,29.347241709323132,22.94564819553729,-35.556815148047086,-5.60008855964561,-10.396877800543928,19.71556308304254,35
4.198677181728678,-18.028735044455132,36.159772224013416,-1.0012256613684567,-1.4757718794666144,-12.3681745132227,-8.81778153575367,-42.142441737363356,42.71690750433956,21.596851447900985,-36.192558385211406,-4.008583842020672,-10.50595342507823,18.967083662039112,36
7.520885078152956,-21.959374897792188,39.235563761717906,-2.141023697209741,-1.456521841451392,-13.114841547124442,-7.141076963582308,-54.72252487689853,52.1927756828196,18.17770013564292,-38.6815355603016,-2.2535579464394933,-10.833217797722336,18.85212070609276,37
11.30166627907118,-25.213952990331606,38.47003441112915,-3.2095018956633736,-0.9312039848601347,-13.773025903942735,-5.979490234248239,-65.94560845236352,56.85577533176773,12.857492435659667,-37.28042227451387,-0.6730469207733351,-11.061169194279262,18.423637451307165,38
12.978104784565485,-30.23141476956781,40.42864216535652,-5.479210231773123,-0.5881498758783894,-14.372788872996743,-5.1772664738074425,-76.37196650115715,65.54928575785156,2.511296228162631,-37.1398472890862,0.33020506506595537,-11.423779427786712,17.843484862552252,39
16.180070245910127,-31.84766471605121,39.77733698039255,-8.8449273681962,0.3656899748189917,-15.069145078756444,-4.5837028466820895,-87.64139729245974,71.17224800427303,-6.541409422356957,-39.31157666335686,0.8121268816803313,-11.677034135378427,17.506653300884334,40
17.047202571716284,-34.13504042589248,37.64815155540448,-12.7804996678776,1.6318430727851148,-15.636648743298196,-4.593284346610309,-86.22916241652234,74.61970174710805,-3.7836243871955384,-42.16736723797772,1.0774042312106136,-11.899858273286778,17.2904776536379,41
19.041461476146225,-34.20324178716384,35.66430475933727,-16.56201294511137,2.923212346326259,-16.310756215007256,-4.839420405009445,-86.22626171391686,77.78318139006709,-5.773848400721819,-42.65200930517615,1.0755418962199346,-12.248920253583277,16.928281297442815,42
19.947998256471408,-32.6381761692076,32.63411393371722,-19.324352159239623,3.80646330976281,-16.721554062409876,-5.176322459973876,-83.55422664533334,76.02206873780892,-3.7992937190343135,-38.85216888452823,1.2033693722214682,-12.560467858960504,16.450650572344667,43
18.20901896038297,-31.015078602433164,32.06968616848522,-23.207544670265225,4.668999234334215,-16.97873599053812,-5.846707533741668,-73.22049742603457,73.41921112577776,4.322318232174315,-38.67846019921565,0.8726401104548993,-12.806414182208034,16.46002545590659,44
14.199347474012631,-29.350088342998724,31.011665831788765,-26.11288382403872,5.083832497422116,-16.771472012604864,-7.172930027350906,-59.7685735540846,67.78308177651367,15.168680182409148,-39.17232008199762,-0.2497154004268244,-13.156534237391886,16.90559130044317,45
9.482888937941906,-27.653796856227135,29.824199749118343,-28.901697869650874,5.201367876747743,-16.4578035566421,-8.466330343029663,-49.02257372540623,61.6536986709906,18.929593714310652,-40.071743199606956,-1.2129944529176815,-13.417655542388127,16.790938620623503,46
5.374142138639516,-23.777057399259412,25.34553198979146,-31.646827769256248,5.270237020868023,-15.948286558897136,-9.894265840043076,-41.76624430226079,51.92419976168902,21.179299970470222,-39.77394405003289,-1.9514933513075103,-13.574774701363062,16.604733953023125,47
1.2406402051396372,-20.34822654632025,20.645859019000245,-34.54435582630809,5.312097906702419,-15.421242342518255,-11.554993929874525,-34.93070744995567,45.00221915973347,19.731610605510422,-40.236895970515526,-3.058022149011203,-13.642840716324475,16.528164542121655,48
-5.66517998396937,-20.34706949782115,17.38532979463485,-37.94011658961726,5.121262845170623,-14.636837600307945,-13.501382237341113,-28.727430471093307,36.16125651669581,18.88730979309873,-39.39538797083121,-4.1915382884659085,-13.317587253390236,16.654124047574527,49
-10.456382518636094,-15.654356106699707,8.567520776571524,-40.69121819334026,5.160612571461803,-13.871311608361342,-16.044198664278284,-25.173751775700467,26.463462228274096,16.567384926472442,-39.260046773107405,-5.334167892744757,-13.00734213275091,17.262017797438098,50
-16.293211067478886,-12.94898430557282,2.7959662840120907,-44.23959751801743,5.0839450441431735,-13.271308636078325,-18.428307759183554,-19.5432299956075,19.127258382490893,12.49727461046783,-38.53871582681875,-6.202258858016377,-12.787553058443303,17.745491891249962,51
-25.65979598011557,-10.112341042242981,-3.113157146603562,-47.25121263294127,4.409632610721429,-12.566324849409735,-20.78863058442016,-14.744872954791544,11.615693416041708,7.7261149658871515,-35.52220693503,-6.571631523053654,-12.346005647984837,17.87482165432323,52
-36.436585110897134,-7.968486888526505,-9.117076814506685,-49.70107700910529,4.135600704044968,-11.849419984266392,-23.516160107264685,-11.579306357358167,5.6362397972376,5.42603976691247,-33.19113893756851,-7.39804829152417,-11.704072769079207,18.29214209975425,53
-47.67675375751069,-7.442962105100509,-14.456196859134106,-51.90978853659174,4.502911989041881,-11.432819283356167,-25.88191912462511,-9.416416087946928,2.7429126964310897,1.7914750239794128,-32.28776407999122,-8.425588089280781,-11.446029611260128,18.540283753651774,54
-59.111653364462775,-7.950097085405528,-21.50702091974894,-52.27965322008022,4.29121490275112,-11.107812540404733,-27.621767689541006,-5.653297363508179,2.96734174940462,0.8323290660371181,-31.50254696486568,-9.592935210380455,-11.381481766347903,18.054463271667913,55
-65.64318444766853,-10.19504711903573,-23.660290027024946,-53.08653988762959,4.786238968795847,-10.829237370098527,-28.874167825238732,-2.8533174924279043,0.5578366955986597,2.4950547981001243,-30.124995338578,-10.52061797735612,-11.435378218532549,17.731662644457657,56
-68.86852680601395,-7.918126174404171,-26.461482216986767,-53.36744853242279,5.1751720192810415,-10.996172267690755,-28.932229285749575,-0.7476310413148846,0.8159854272459923,2.402949489758237,-30.748023028531883,-11.017610231766659,-11.86211433944223,17.38838153788468,57
-70.73330637543538,-6.897166134724895,-26.2817201115069,-54.420283114148276,5.304624295042564,-11.416846824436833,-28.608700809504075,-0.322959393967909,1.0395434337737737,2.889453056320896,-31.836651963783353,-11.16596002890404,-12.197144723791688,17.24386276059946,58
-69.06634706775597,-4.863155466645128,-25.096453858958892,-54.83741011743724,5.542865011082192,-11.741163348535233,-27.926663993078375,-0.37815476069171766,1.3806906874589395,3.5335023982267795,-32.6508747312109,-11.08928741381799,-12.351176529729411,17.170339335602158,59
-66.008097067051,-1.9991982003760291,-22.729240031197747,-54.71030748724706,5.770661524922207,-12.050585385437147,-27.135464948009403,-3.2265330376402077,1.5948442182284905,5.000889321933699,-33.99348836952979,-10.980702912270548,-12.344939243191275,17.59238339442538,60
-62.280334546784836,-2.771594323079183,-16.81823193216305,-54.441484544132464,5.5788748276484625,-12.21611952705576,-26.23456982231059,-6.279000842761019,4.605580679721024,3.8130503896543364,-34.807599005253074,-10.563745632392662,-12.187568817762255,17.814280697370233,61
-55.73517102702099,-2.691879482885863,-12.815501451943131,-52.3532491672799,5.647398457030838,-12.196714770453497,-25.345348426096102,-8.985462067285734,6.046677054055665,5.905341879319467,-34.856311219482485,-10.116127675853441,-11.943402518268623,18.234730536102646,62
-48.380187032981894,-1.007417144002748,-6.810296274304305,-50.41995641835845,5.771314142208189,-12.37689239798401,-24.304538813791396,-13.310426971319398,7.463057793636016,8.932120754127961,-36.463877610884055,-9.740147947680644,-11.854870108200137,18.976114010901668,63
-41.27264712676845,-0.45288144545556863,-0.056799133412973546,-46.63681822100521,5.280135257520458,-12.440657169703334,-22.990519355322256,-20.151337025896076,12.101128994219915,10.301732190158111,-38.03018516907699,-8.901141994693562,-11.595360779634397,19.52376932615635,64
-34.49869984043193,-4.045191317215671,7.891952579697926,-42.06609225763292,4.660404553189948,-12.497637799220778,-21.407725477988716,-27.201752603479928,18.889814323456278,13.525998317041813,-38.98826415894394,-7.7523079263213495,-11.295851853619393,19.90140555337869,65
-27.667518736039533,-4.898005156440868,12.399348924100396,-33.85624854602822,3.547839831771644,-12.23352640454933,-19.905263000563924,-33.90891142264593,22.38491220016684,16.4937498376174,-39.10430009081129,-6.386521212458064,-10.965362086934011,20.027125149006125,66
-26.022648803210007,-9.555196585205417,16.09873725146199,-24.349246586018428,1.66153393025424,-11.719744437295775,-18.802873293694027,-42.23699485410956,27.691323017844184,14.715461298755558,-39.19711967885247,-4.420933055132819,-10.446871863273078,20.10212330362574,67
-21.99600036547798,-12.766535293243782,14.954135148092275,-21.55282424554768,1.7876141271506623,-11.961290589548588,-17.720360567324818,-48.50074180150125,33.73333755625914,18.739531206276194,-40.62901239956701,-3.388431803723347,-10.73472872412883,20.321638839281952,68
-19.264850012531927,-12.968179695332799,10.981073409147243,-19.588378866900076,2.316560949175642,-12.003902876497081,-17.303457726782618,-55.07485492591158,40.47321921263341,18.476047432208524,-42.37948464600364,-2.304662127268247,-10.943041249288296,20.441838222103176,69
-19.359470088765608,-16.96844167910135,8.38562808512589,-16.897807191754865,2.8708328550306783,-11.917960831742601,-17.450864546447836,-65.40776343456997,43.44843109190371,16.551897257006843,-45.98536476978372,-1.284450181193338,-11.264452265440704,20.920200080219946,70
-19.732956327872827,-19.268681271749273,-3.0886672550215417,-14.273333961237466,3.8092928250958247,-11.919182901220964,-18.504800951323286,-71.12049229712105,46.81787283016811,14.815810549173506,-47.98397872715833,-0.6021615469913975,-11.884857681671129,21.159614562907393,71
-24.76295895213507,-29.16233342077666,-10.42581126213255,-0.15457251287678575,3.328246772435026,-10.699616445200817,-20.173472622537,-77.42447094918386,47.71665293133563,9.653312644967162,-50.148957629488905,-0.387177833347777,-12.213753648471128,20.99622856240179,72
-25.99934332070865,-30.846276896549483,-16.190987037579863,6.867375187161147,3.983925649292927,-9.980324401070693,-21.15611205422551,-83.83519395708336,44.73505704461261,6.875231658218668,-53.50742745622994,-0.43422888220901296,-12.42711790128036,21.487710536380607,73
-27.06612545091178,-30.606375509707167,-22.047326209572546,0.3723353211072218,5.878012456632808,-9.769172739192445,-22.619208750359576,-85.17995358631865,41.57888627344929,5.100026171898898,-55.87303657489704,-0.4425941260301733,-12.814693065873778,21.39571246800298,74
-28.164028932793745,-30.592236093705278,-27.514734051251043,-3.2422739428596166,6.9288077775909915,-9.693533194299457,-23.56018113864511,-84.38559531791884,40.30635057395324,4.769405398017507,-56.73624915585912,-0.3678931870412356,-13.072216837315368,21.29339279027434,75
-26.73042283524867,-29.398026316714414,-29.191490407909704,-11.116007927602865,8.370823553935368,-9.85970427127943,-23.78252703200255,-81.61934817714909,39.897841242091516,5.583673529589981,-57.35922367813278,-0.4033606724520631,-13.255683670619426,20.856954323585633,76
-26.916452523550113,-30.16349451681256,-30.2219628026219,-12.662169166706894,8.673876810289144,-9.728645813369079,-24.014537578489147,-74.2363005672712,38.89988359285277,4.618192436509179,-55.78912909099987,-0.17743950128354566,-13.299336687788303,19.73962047530539,77
-27.413154764871155,-29.395786546205187,-29.29077743341005,-13.97142760705133,8.807641346294558,-9.512709465292344,-23.942951255436707,-67.48098495265677,35.43764828936748,-4.170236672880174,-55.1502150469851,0.13599720160058698,-13.376780829101522,18.026956180158496,78
-30.8053730231048,-29.450567612535345,-27.334749527679403,-16.280252409817138,8.849731456615041,-9.14474426931326,-23.948206764340327,-62.11375949184317,26.905592161236065,-19.52618467576689,-55.018529459788155,0.6780871273379737,-13.580506640412597,15.555085108836407,79
-31.049560153414543,-27.558100693993882,-21.206065325994864,-22.431727757104923,8.972527729416056,-9.352764332585531,-23.356988359985625,-59.622461735602926,19.239052937281787,-35.1915960686343,-54.85553092798452,1.633095138508624,-13.651733657899605,13.933672916606367,80
-34.07286705357993,-28.66567801007717,-21.664734868531873,-25.491081273742218,8.815533964020451,-9.399157540187952,-23.355917725200204,-57.81168918863756,17.32925060643771,-39.261923963011924,-54.22565370251168,1.3430073991430451,-13.259860344017302,13.38735224078215,81
-37.074076182437146,-30.01313650463269,-21.591654101928402,-25.877396691431727,8.53302088275466,-9.165824485289304,-23.467239076264573,-56.52934864674829,15.474879931333588,-36.182252919851145,-52.80440764760825,0.8159026848160142,-12.5708479605634,13.775720071856101,82
-38.853323817676745,-30.587769641961454,-20.530407384771838,-23.596014806907228,8.22661033095969,-8.889484827869214,-23.337474717091865,-54.97284139200957,13.899521315415054,-33.0758104629124,-51.52588791377961,0.1554430437387087,-11.924956143467341,14.370341009873336,83
-39.73983786365505,-29.85339050668654,-17.45834345457595,-16.90930419131824,7.658376393406053,-8.143790979320853,-22.99800344155201,-53.08185373531691,11.18253482980683,-32.95905943236771,-47.41354526285714,0.0767732930318505,-10.845675407799064,14.733365770952318,84
-40.3263907503112,-25.869827843661408,-10.27485444986133,-23.961193291884843,8.221396893856177,-8.45791535252372,-23.067719907651096,-51.03794848615714,8.247617122332775,-31.979113769756786,-46.50416468418401,-0.30009928903759386,-10.659654586843372,15.707350629070703,85
-42.131526073465764,-19.64452897617032,-5.541617862308476,-28.111016937599942,7.6482577185034915,-8.867693581167702,-22.762321061403707,-48.69066125174424,3.8239585199413844,-33.528566923015504,-45.19599910663117,-0.028141494574445907,-10.383928953659476,16.063555745254956,86
-43.38316656539643,-16.894524973965073,-2.8756533802772113,-27.98592283612841,6.532932261539325,-8.914220562691215,-22.436728462503186,-46.55319891509089,2.61957426585212,-31.86834415008292,-41.13093786016229,0.38391211989659185,-9.702742388546316,16.187207832549305,87
-43.17660507431171,-15.16893800916836,-0.6038956405271109,-25.96901647456091,5.95281712816152,-8.696424243333883,-22.038498050131565,-45.50864594746283,1.6696421146013416,-27.800444905371283,-39.8428793135474,-0.31376676906413564,-9.150161083179167,16.758371399023773,88
-43.07155675374878,-13.370254672094259,1.4550169437918683,-24.51137095850229,5.649477032698893,-8.645316819946386,-21.83756392445011,-43.927273440553215,0.19688343041817738,-24.47076194608235,-40.071405421351265,-1.0687733339378294,-8.98825210886303,17.3754695833878,89
-42.78732572265383,-11.392349627602144,3.5567595908038196,-23.174822317348116,5.351416652909264,-8.607489208380853,-21.741778911923763,-42.45951631242649,-2.168354374544652,-22.493234579118187,-39.61232948864701,-1.3363844984925954,-8.859080561368204,17.801654190604136,90
-42.985215354376905,-11.815288423649928,8.209247924754381,-22.368102166912188,4.986012269631782,-8.563776063644028,-21.513160573364736,-42.745108524953274,-2.5403278947331853,-22.943175292127687,-38.95889586584251,-1.3033973098825626,-8.644272248543256,18.167232237798242,91
-42.3787825210584,-9.727736257213381,9.251900857818908,-21.74131337534326,4.648462770386013,-8.639555166194636,-21.398864467842877,-42.473321817440464,-2.414751705910544,-23.192646125791402,-38.543464093524086,-1.253425808076335,-8.65029921917464,18.340101364329996,92
-41.990539807940664,-8.714402388983142,10.415810879888662,-22.652442597557602,4.443160816161537,-8.875757774578762,-21.419929131918586,-43.01402499907161,-2.406247983002036,-22.44728955747171,-39.098953422422134,-1.1054700900961312,-8.83743300236539,18.493105819285333,93
-41.866745649739165,-8.148196903761098,11.14793173075063,-22.806702497202405,4.0794460964704395,-9.065492426967884,-21.364114975482543,-43.38836148343656,-2.386062410575382,-22.314652460085636,-38.367638192361504,-0.701660769396533,-8.961835616422787,18.451218077734534,94
-41.479022453134064,-7.7771293112835,11.406207652437498,-24.19449397570305,4.079361720941046,-9.321295042090187,-21.473073452222074,-42.985387827822684,-1.7889672347005876,-22.287216270937954,-37.294960684767,-0.34559066207884287,-9.10330724419934,18.497268123198435,95
-41.50225032677986,-7.361500185227707,11.241295749474288,-26.668715942999658,3.9608030244996484,-9.763504119295854,-21.72447573652238,-44.08568923063246,0.4706112333666713,-24.659409991775178,-38.028228447667004,0.12794867494492676,-9.526396533005157,18.49535416328744,96
-41.574603851308204,-7.277282377221707,10.75376299592536,-28.563615191059913,3.711101569208246,-10.20198593638194,-21.93304184790317,-44.27965528789611,-0.24807451063166674,-24.965013090882223,-39.35210985335657,0.6688680387472923,-10.150177222398993,18.38370509438994,97
-41.95291774614336,-8.784406207740897,9.061977086110643,-27.100121462791865,3.1950363660033854,-10.25925179228303,-21.969837277131525,-46.957652253226115,1.594009630599774,-25.669622967598354,-42.08374710329753,1.0072041872686037,-10.657819465828911,18.17762575941494,98
-41.816925236329425,-10.126172875891557,7.3748765437472805,-27.10168564182305,3.1098031186610684,-10.346878414471428,-22.35266039435529,-49.02346187453819,3.5072793139184815,-26.959313924130544,-44.62665667966678,1.1714265709523228,-11.171673794059028,18.122012013343493,99
-41.412958757034005,-13.002447077384959,4.8299402843000685,-30.985424625181764,3.561624692791615,-10.948006613595087,-22.831114789827392,-50.716308652155334,4.571714058336094,-22.895740319956108,-47.3418906245285,1.1551433149636277,-11.846150456095721,18.36847333935046,100
-39.50133777700185,-13.568279084781487,-1.1346779739781259,-32.459780874101476,3.998755800304195,-11.24441082225236,-23.27335869487452,-55.030518438681696,8.70370087084837,-20.361064112933988,-48.78732042078902,1.3892679647734925,-12.07784005577896,18.664792163951308,101
-38.82561228712377,-18.007159689111127,-5.924152172706432,-33.806572652389846,4.385062984518222,-11.508891373153121,-23.86438305428874,-57.930457699967754,11.85426820188089,-14.263452665948831,-50.49187073545841,1.0667133192167164,-12.388520706228993,19.200806615751176,102
-38.432708202499356,-20.608133242739893,-12.825779725220462,-31.152528513393655,4.5304374835734125,-11.251473429618994,-24.585581713112457,-61.67500985491073,16.868332523878145,-8.241189184598458,-50.07023689860678,1.073801617580479,-12.199990724099013,19.76664733787882,103
-38.19993884660198,-25.782197002430763,-17.00891504570734,-26.41066034448939,4.792699614441614,-10.654251491776819,-25.167153627593713,-66.08552231979628,22.283721677274517,-3.758617551708681,-49.90368493447767,0.8091792819419761,-11.809247551649007,20.52301164950093,104
-38.74294740488526,-30.426356840102855,-20.181098328593045,-22.768671366690292,5.314287595491141,-10.177119903517037,-25.996143244436283,-68.45434697291398,25.70893775044017,-1.0160249658686942,-49.686721539517315,0.39367748112899037,-11.599356454107296,21.16019296819638,105
-40.080589658343584,-30.192955451411695,-23.710829376591594,-21.02867709146022,5.715199820278561,-10.03246877231375,-26.43725999116508,-69.96212353956938,26.524794370813424,-0.13878851800837488,-50.15043054089445,0.2222165004808544,-11.621842251733126,21.340629800064047,106
-40.88901059912121,-31.05985810052132,-24.14865382837807,-21.490674218377105,6.0744462773297885,-10.123029326860108,-26.489157531785153,-71.06274435097801,25.979358929474074,0.23930386697757314,-51.64750252872583,0.14580728429481818,-11.796394779223297,21.339585913399254,107
-42.17158388860301,-29.981074203707685,-23.913046703985714,-25.60830538550394,6.431153074140462,-10.45033558426133,-26.38416370130986,-71.07264202191631,24.55807985338975,0.33563892702236875,-53.51673192489421,0.2195799950256238,-12.054927273472696,21.077598203939246,108
-43.484547308611454,-29.765228055789816,-20.159214838748323,-30.63894360598495,6.409332213760509,-10.867493420156638,-25.996301206534117,-67.31119115519809,20.87770330675511,-5.324319879418832,-54.44909278752029,0.5776377921775597,-12.437134037204341,19.925839683925396,109
-45.45034175423527,-29.133679302206765,-19.099197801884866,-31.11949498990903,5.825646604172394,-10.865647146438844,-25.384202813610294,-61.60994748556721,15.378657374093901,-12.289180384082133,-54.2562678968503,0.9116873846098978,-12.686631961927555,18.45879671615811,110
-47.96446980510694,-28.10245381606207,-17.68212253904928,-31.641654528697032,5.542117642135753,-10.440036421222779,-25.042553295164208,-56.43419648926661,11.56518216666826,-20.911492479312,-51.84057553916121,1.2602193477067365,-12.40283235596593,17.47114197789223,111
-47.24577118882338,-24.06929002377076,-15.594153773807765,-34.19818077576031,5.607142183589882,-10.587326629304807,-24.614969967208783,-54.91428349859949,9.14799795138848,-18.021543980557798,-52.25713662694871,0.5128647760401583,-12.021885765081501,18.216033401571643,112
-48.7730029870729,-17.829007409863987,-7.3910958604057155,-37.361672533558824,5.207665952988808,-10.560988329164667,-24.527979916619504,-54.096947476943676,4.589720416844634,-24.488801334933775,-50.81904609970811,1.105925832355242,-11.565773695913338,18.719876631672324,113
-50.962931469542845,-14.607788771937301,-3.820651404001419,-38.293732875603176,4.629086668600573,-10.557502967438223,-24.235329627115497,-53.623330303675715,2.309297927957552,-21.61291287622424,-49.552875375893514,0.8941245527608718,-11.033002493148222,19.561488569450376,114
-52.72571012033503,-13.55282207419278,-2.527142964233552,-36.76647806926711,4.054419303338278,-10.105251172388705,-24.50165535236251,-53.07842649214018,1.7736407289343943,-17.20260289517808,-48.06290907039276,0.14387033571505708,-10.239304539916455,20.53817701432275,115
-53.95122260770439,-13.263089851772587,-1.9106547720086324,-35.300776371412255,3.4197069151732338,-9.864432302442484,-24.727768655153398,-51.84465342435424,1.6467104913682236,-12.783467236573205,-47.084424408144,-0.5200490672139806,-9.760074331271746,21.389285579975915,116
-54.06739985971643,-12.096343753970142,0.2401120377143841,-32.27750985391303,2.7020128831167725,-9.523256190664807,-24.751878515318833,-49.20121036054059,0.5897460035097443,-11.050061612039851,-44.841671947349916,-0.7645800953092694,-9.303409498040857,21.890391339645365,117
-53.54097621185461,-12.65284208889389,1.5889311550463723,-27.581270305713133,1.762600492160044,-9.198086632392311,-24.400055056300396,-44.538432849742904,0.6174708268645049,-9.817653742563017,-41.41693309044773,-1.016140943680066,-8.849336480293099,21.89839459936109,118
-51.894694085275056,-14.901936915405152,5.312172002554838,-26.68427707779241,1.4161705537391767,-9.123625083154788,-24.274026529557574,-40.62920784542716,0.10240358240966038,-7.265433696132436,-40.264587380219346,-1.5722771712529213,-8.74935140709658,22.16060513016179,119
-48.82019428219017,-15.467748656040873,8.036412562479246,-17.810755136235926,0.5431608569098859,-8.411424102354378,-23.43608947517049,-37.317647238659134,0.952495352997079,-10.221459408242158,-35.31856321706666,-1.5572498277483187,-8.064271779847607,21.842963675160338,120
-45.210499064243635,-15.766521692388492,11.654689692440915,-14.394203525666327,0.33073874975842554,-8.160021335254363,-22.567087432682147,-31.60809440846751,1.4867370941454041,-11.464563512738,-28.483919029918216,-1.567332238369309,-7.641766176294717,21.617884977453517,121
-40.80429512849799,-14.449413790536159,17.143989363480873,-15.965564605080646,0.08458574155096098,-8.571160654153022,-22.2562368676963,-31.83492948073323,0.8443517111283455,-7.007841312969433,-29.393781162044395,-1.999727768294606,-7.827326494481837,22.65343877939891,122
-35.477205309712474,-12.681259399461888,23.409904580458406,-15.718182912567014,-1.2707573035275062,-9.432669363893398,-21.595670362577867,-30.668339545928493,1.6248881032754126,-1.1429998277607805,-30.80254171883041,-2.0642930551803853,-8.469465048166693,23.309746385727006,123
-25.161290681929316,-12.3096673249353,29.9490239540428,-13.545022795271015,-3.1813206961468996,-10.364665195327573,-20.07399329461879,-26.755052719397227,3.6805798184312506,0.5647757239762211,-31.742410345996895,-2.0552265360991377,-9.314294527281096,22.979078500381497,124
-16.395203363507605,-14.664660817666741,36.33216337623184,-3.6946319494177504,-6.456083240171568,-10.2717696119636,-18.05690283055021,-24.991009401606398,7.733692085899313,-2.850502158160333,-25.87492494379586,-0.9341395943064963,-9.314524999039712,21.940949678979745,125
-8.108244633430031,-17.766038273851485,42.45875132813797,4.727011649768174,-10.187536729051516,-10.506634608824124,-15.63444885850988,-19.017650119647794,9.694544077309006,-7.111774955050128,-25.873306484278494,-0.8884390594422961,-10.15454771938672,19.84287821052019,126
-3.467795447732383,-20.146422549562025,45.58768967910235,18.378801456519064,-14.450921329097026,-9.411319408538699,-13.265235392734754,-16.89878991014455,13.205597828002784,-14.614722658476662,-25.245657835418065,-0.2700627409819355,-10.553490982886649,17.466642366522205,127
-3.0238669007360652,-19.45290685631078,46.34103923473577,33.077626025843415,-18.528814718823032,-7.993152103398466,-12.048651698117215,-20.107890397046354,13.454584874717652,-18.030461369024735,-27.52179823082568,0.38413310724554195,-10.902961738852394,15.909209835102192,128
-0.7008863705904734,-19.659647655371987,41.802568488323686,45.55787009860542,-20.293851625183915,-7.077665183877735,-11.986511169210564,-26.58791295765506,16.945392697202994,-17.27737500607112,-33.265904401240974,-0.10820948753946438,-11.487807471624432,15.287587894366418,129
-0.8816038480269472,-20.616872940445777,39.12563003654022,51.057208646035704,-19.33454948202638,-6.653583121665008,-12.637424727452863,-36.47239979585994,22.78566505351,-15.555794517986207,-34.83186150664893,0.020301900653369342,-11.166160846072836,15.718437928588637,130
-1.3539793624607357,-20.643511394316498,37.14423666211173,52.75576155866312,-17.33366626323168,-6.424871585305691,-12.939114810796518,-48.71991890967179,29.68963987080798,-14.948426646276609,-31.849432976392727,1.4065065909113112,-10.329432469451373,16.73801175637228,131
-1.7011229589399133,-20.49347819886599,36.498539629491376,51.88979897896267,-16.242354943330206,-6.446255028945739,-12.786321699929276,-56.301746653539524,30.570669259436514,-15.040789749954923,-29.196468939738793,2.563875075437165,-9.836814465456438,17.143127208617702,132
0.027268387626412142,-20.03358360334103,35.22137215049772,50.15330007494604,-14.650843844714302,-6.410237362869106,-12.32416151381488,-65.70252298417746,31.82979232449198,-15.850798579002413,-24.550939061942,3.6428092171218402,-9.194298429749079,18.023302137822444,133
2.2715728459190423,-20.279315282228676,35.80685005107355,45.77992099356231,-12.495128782734518,-6.572685843805335,-11.584997009233255,-73.73869820070293,32.46004850554374,-17.93660554986711,-17.718223489725972,4.753349339839471,-8.553072825262301,18.54731638091244,134
6.398369556090227,-21.649800859084074,37.16018962513586,42.130948464116706,-11.341468954588377,-6.893004315993793,-10.46483912874064,-79.66061666625095,31.20697308407067,-19.979454629221525,-15.856308519119384,5.176742300435455,-8.556277952383157,18.028531685980457,135
8.833151394861206,-22.870282861349526,38.54535564376998,37.93945503746859,-9.532227553471069,-7.134565986858396,-9.432393164794515,-86.38827452391554,32.80154592345231,-26.20555127469819,-7.132705601107581,6.744142795452268,-8.067542662613272,17.650763214596523,136
10.043845277629034,-22.25757742298716,40.18196671318053,32.861048838162986,-7.675736831811377,-7.612763305879052,-9.011718123369365,-88.89599768441644,31.0358109115442,-23.617319803974176,-5.5754485886862195,6.541046948540793,-7.886675714883658,17.889858873876737,137
12.432324858329375,-22.668911093648497,42.411457610636845,28.796057748361577,-6.584004551108437,-8.248091951347025,-8.346140262052517,-87.92879222740059,30.880937862969486,-21.68874333983906,-12.042426073473651,6.163485132219351,-7.984009824611623,17.961594244934442,138
14.69256054426625,-22.214850616327197,41.91212532073686,26.09186371305067,-5.4595609702994885,-8.741945435102485,-7.815871059442125,-85.33336037364585,27.86971196080858,-16.766850587597958,-23.444410720314874,5.024741413586199,-8.144456837284787,18.71371746784188,139
15.82121284814548,-21.69419953750393,41.099486401645805,22.19791522181021,-4.404614730329431,-9.210622762028235,-7.799377607581553,-85.19642660223579,26.007516159060792,-12.490811218386225,-30.854561862941974,3.7752124042018673,-8.203427677775299,19.52347959924335,140
17.996988701357566,-21.13462344206014,38.220876151477945,23.694954024847892,-4.775111159246803,-9.293327886822912,-7.59659341909672,-85.75856416888593,25.186109044372774,-7.518042363153322,-34.9802060165906,2.7149727621796655,-8.301175125642299,20.30199051517039,141
18.396743264143037,-21.56143665002283,38.18509068746609,23.903688549008155,-4.798851897527311,-9.455609794119125,-7.627431681662313,-88.27087370293451,24.418686342379317,-3.7169269712622346,-33.180761374958294,1.7191572512322573,-8.37598140906807,21.195551760095757,142
18.498437253128795,-20.59779425069374,34.642951532542185,23.490671292884503,-4.864205322566975,-9.662773211099312,-8.056326885072416,-87.93739265967459,23.04659538431198,0.6446914442451569,-33.39884609308578,0.5264709145651438,-8.665363074258567,22.139406757867764,143
18.241785671676222,-19.971173370748996,30.50474862289748,21.665347620066818,-4.3855744957431755,-9.902977349912144,-8.925709353743041,-84.14785022443641,23.55264946584673,2.5440723079534355,-35.079021747838404,-0.05225927545589278,-8.824096164366358,22.945625269014457,144
17.111859555360272,-19.85705752457592,29.08925306397394,17.080792799051576,-3.365637633151372,-10.235192288996808,-10.131552509262987,-78.51974435697042,20.72424135195789,6.801051862688572,-36.80373938415205,-0.9345477044319688,-8.974254530688109,23.769566204345836,145
15.66784470125324,-18.43045978903779,25.021518307703015,10.878544574240907,-1.6147724429835466,-10.609768378275543,-11.910798503893705,-72.8367863771875,19.616169934383322,7.0580521033572605,-37.537100906172334,-1.2999111886878216,-9.176619988810307,24.396273063382612,146
13.599525925367885,-15.860794202078893,19.387757457176154,4.147985058130991,0.3931431887526469,-10.788374002156631,-14.026134910234704,-66.24798584090898,17.462413732193323,6.34625824878104,-38.49026027361209,-1.825128826621583,-9.256888394356638,24.95970631682091,147
10.38433815417664,-14.827193387090995,16.582300265111446,-4.435791839017261,2.1681953630128934,-11.129587793961715,-16.217378559053156,-58.91617280556387,13.74156743966754,4.433972476418979,-40.542716565871615,-2.746822255589029,-9.591668676981719,25.094832369942967,148
6.6549640392473215,-13.360402630554058,9.602921261603079,-11.748188183274634,3.607630855893434,-11.173813086339726,-18.56406489399979,-49.46249681552509,13.344668164224746,0.18545980850106333,-39.47600747180753,-2.799451506368114,-10.0453862168886,24.983470310324197,149
-1.1968000899917228,-12.736178640394439,5.377681847758777,-19.77789732829502,4.584882270062691,-11.163870363806847,-21.019331438744867,-39.61162957070919,9.609074405915997,-1.3960979820116592,-38.94905176006181,-3.346101966064051,-10.65265508624504,25.066166689137084,150
-8.465572107013973,-11.894810238110223,2.376025592834663,-25.603769063730024,4.43606541890021,-11.148832370028918,-22.85584574763469,-30.958783110837214,9.590907280070654,-5.671312834948526,-39.7572705478612,-3.6147703611094166,-11.260465251074162,25.271511506579593,151
-14.623417109056437,-10.864361458627716,0.4544859089002851,-30.036240915065996,3.7812611492017436,-11.350611341179404,-24.003671596106628,-20.581909327417552,10.198390992266209,-7.261034580749039,-38.34225432448638,-3.5004270659678287,-11.790562619497665,25.221222049276562,152
-21.609480219912506,-9.112133673207468,-5.242771996021269,-32.47405521029598,3.143601092757146,-11.710363082892858,-24.918565373463213,-10.20017252043945,11.87491802981519,-8.928797414442059,-35.615691434777155,-3.3832213649920577,-12.545704465059044,24.623794744511834,153
-28.837293780741682,-10.923324049836785,-3.9853245889751654,-35.50494672629312,2.2855407240304006,-12.127982136696646,-25.165281204037637,-2.8331712849600343,13.86086893439014,-9.856854032087856,-33.171999511708925,-3.2890544825503025,-13.265095253924693,23.99244658708099,154
-34.42858288625846,-12.399794537414486,-6.6629890890169525,-37.103710864527834,1.7648026557865595,-12.526552362239455,-25.237502979119004,5.2706021684679065,16.342244178656976,-10.716798326628425,-30.941152146083116,-3.33062622280245,-14.004939761023362,22.997174590704876,155
-39.39800473717799,-13.878206738422051,-8.857581462343576,-38.04009063033057,1.26077447677969,-12.932313398483396,-25.13547393490804,12.495187612701036,18.01499027762302,-12.60123975523181,-27.856553581645393,-3.1278162761513286,-14.598670511240378,21.575662587099117,156
-42.83287396336377,-14.45258560285771,-9.714759063510781,-38.40985781375425,0.5656158025620898,-13.168820869201713,-24.89939713139915,16.133691644202266,18.696925399085888,-14.035506579856555,-25.490981402434315,-2.7665079044571907,-14.931127233371257,20.46075755356884,157
-44.39998843592067,-14.412378689480846,-9.818606807466978,-38.6681359244263,0.042098982994411095,-13.276290005494573,-24.60727543838812,16.997602826484137,18.325882827467392,-15.127416050189444,-24.07469094106786,-2.4408876435934315,-15.00666566159409,19.92990684029019,158
-44.349326762200256,-11.512938046178506,-10.48541770273874,-38.23339033659816,-0.39748125264499196,-13.372830332672766,-24.182119963058007,14.986109732681367,16.929531975626286,-15.654660786632805,-24.043234968312195,-2.4142076056364385,-14.882169337450776,19.983377987476977,159
-41.15981358720676,-13.062381310551126,-8.000697268291205,-37.76153356984644,-0.523133753057641,-13.522233219705617,-23.63808031224131,11.849722174223896,15.6448833797751,-15.776172754887643,-23.810236355417445,-2.1447862935138327,-14.683487040354661,20.345763774521057,160
-35.69283765160388,-12.40067407766921,-5.927128249448688,-35.0696614724332,-0.8414258442369092,-13.585566946008912,-23.01122575222258,7.194596876968646,13.763990245576435,-15.768758636550894,-24.195010599468045,-1.8426122117435855,-14.36711744761008,20.88551796075733,161
-29.198311242429853,-10.486992866671375,-1.487814924678675,-29.758923662184994,-1.490180350660909,-13.48441921556369,-22.279020032736902,-0.30401716028097364,11.313279071078414,-15.365524658875307,-25.064884063542056,-1.1038786904819828,-13.857019682189664,21.65969789299927,162
-23.21881943447243,-9.350397174913558,1.6225455058020737,-26.036255980626645,-1.8479807867459899,-13.441132563598579,-21.70297451221958,-10.034956199065453,8.694911786597698,-14.188818476166004,-28.170787420618673,-0.679723209709847,-13.332656598645634,22.80221047266036,163
-17.27476812622612,-11.714773922030512,7.09880015429849,-21.03305526243012,-2.1913486869446506,-13.150110785454974,-21.04826351043598,-20.788518426857564,6.4199653123196505,-13.158164138452484,-30.661783801498892,-0.1960895270196998,-12.711644465273203,23.739488972364505,164
-9.348987481609898,-12.420138296043879,9.371796545331412,-17.068089029489524,-2.0442853369862526,-13.068892742972622,-20.212024662713066,-32.20384069053759,5.463594889147897,-11.043922442395589,-34.71119317585367,-0.28569102417829034,-12.179674285633583,24.76478683432577,165
-3.2089650177247484,-14.266378811409755,10.272137114845009,-14.068916592334574,-1.760867044300192,-12.942127490081083,-19.298063358550774,-39.99240656949125,2.2269835544506345,-6.3404142997956905,-36.19472034522257,-0.9745508093534709,-11.413542664238884,25.54931702051364,166
1.5015438477130483,-15.505757129398017,10.966066800270905,-12.745889494959433,-1.130708647969013,-12.839853128730693,-18.75603847430157,-49.392144468132216,-0.7286140887056722,-3.6724134447150503,-38.58796462036185,-1.4482287752553826,-10.899284850398852,26.517612297782353,167
6.676087872853839,-17.222927220490988,11.532338034465699,-11.402063489313472,-0.7114160849203519,-12.854549165349697,-18.052661397726133,-57.49609297263575,-1.0875830587628117,-3.7338767631984027,-40.7174672996774,-1.401981263558648,-10.66979934468833,26.90215339705126,168
12.347766397243316,-18.46163813895492,12.847566198634032,-9.824924569071896,-0.5000014108731421,-13.107690462842967,-16.85203658871134,-65.83615656865275,-2.026997554314382,0.6666150354785495,-41.53346776906838,-1.3959436238875813,-10.301394006814387,27.635653079043657,169
16.860218781662173,-19.893961903681564,13.787830768984097,-8.099102505557935,-0.32474581032449945,-13.23505330440791,-15.867509845738194,-72.33194487593569,-3.2222892903906017,4.044384071026721,-42.47457143623899,-1.4186139770373802,-10.075051481659074,28.31471401979927,170
19.856330683414956,-18.694408698604132,11.158017926618834,-7.018509970643259,-0.014265349435860577,-13.13255075154262,-15.34748883872791,-77.45725556806167,-3.7676776866290105,6.5744593597553465,-42.40990394594294,-0.9173930490371688,-9.924030368690255,28.85228372939624,171
21.715893831864744,-19.35130328566772,11.248845855381527,-7.1259396671475015,0.19546394245822057,-13.087777261320824,-15.019387522793155,-79.79949723724036,-3.3511891299815018,6.827793477360855,-43.22283861665786,-0.6222766533014474,-10.000091865211639,29.160770953105942,172
22.847113245516415,-18.123378406241514,7.703926004440688,-6.993963298617451,0.43595254985280324,-13.048366699786943,-14.818048432696646,-80.55482237690883,-3.2713210589223083,6.739514298564496,-43.20918417492485,-0.1457731570018866,-10.040171677662848,29.330561402781367,173
22.991399613721654,-18.76232659283804,7.073744455690213,-7.44467176350844,0.6532704762153958,-13.003043600869999,-14.863511798464078,-80.2686234041818,-2.9738369588555686,7.108505975896455,-43.213268495177154,0.1661868433562616,-10.174740152559192,29.49715600276203,174
21.757566606184554,-19.12612636531389,6.04778661211744,-8.226729087853856,0.9221067543785697,-13.000872091466563,-15.213589763917163,-78.1183542268143,-3.335969360257547,7.090803144132543,-43.01926411753833,0.4030669879277849,-10.335656782751967,29.60631444333703,175
20.501370122191688,-17.337012761750216,1.7222746063857828,-9.196849265005822,1.2442409392431777,-12.956882850765613,-16.18621421964158,-71.74498195722833,-1.9147894792704545,4.866324913448954,-43.50629918218709,0.22086570947131437,-10.623369309963058,29.376192985527943,176
17.16519001021201,-19.143399275562942,2.8830919660962855,-12.29516146794342,1.625286418694601,-13.02056357303572,-17.33560863079477,-63.36612378208462,-1.2455868464848268,0.7082083907096602,-43.331567932181564,0.03839996950305465,-10.926413932664184,28.99827398354491,177
12.69942904000009,-20.076162658288105,4.781331188318943,-14.710407326030895,1.6143928646003278,-13.028587962498671,-18.26253258946371,-56.59109512090812,-1.2931130096237693,-3.40358628824345,-42.872975456278624,-0.08911240698445544,-11.229596478465401,28.769813243352587,178
8.059843999257579,-18.934624852513085,3.642134639095918,-16.47285189622111,1.5964898945872679,-13.039055632360103,-19.41708158798488,-48.53898452748673,-0.11142408562987376,-7.828645260220562,-41.73309633164886,-0.5096027127357393,-11.465451910717587,28.36651301871268,179
1.0714056265979033,-19.91975694484608,4.347339088937652,-20.549322023373982,1.6819750649915575,-13.11431623176486,-21.023384137670494,-40.67710686758534,0.7199532589796515,-12.291499213446167,-41.96677505763021,-1.0573076848251273,-11.99912412447639,28.18139696445336,180
-7.869101949987684,-18.794958214962186,1.8441928934379566,-23.69465187916401,1.4613080010964026,-13.073641875285693,-22.96782484505456,-33.424512507543135,3.5477236828422374,-13.542847895847766,-41.97405172127975,-1.6226857878916374,-12.442845628677018,28.488905458901705,181
-15.497038380255008,-18.631271448061867,-0.5510223187069616,-25.927479227345664,1.053416148643882,-12.88641254638895,-24.749375010634523,-26.132330898223135,6.315438162664487,-13.851453703300113,-40.999743040924145,-1.8135982555307106,-12.767380364368584,28.812449458809432,182
-22.148787424260707,-15.582544239764466,-4.872786119823755,-28.19187278383816,0.9887726315771129,-12.89686563065497,-26.292437187689668,-18.990452306238733,9.045526359283278,-13.265625286998604,-39.56857270969712,-2.073918008795308,-13.107458329410937,28.908065919889868,183
-27.397712034778316,-15.894024985871445,-6.8288906901627495,-30.570273246823938,0.7898528846644403,-13.003004604133196,-27.259574116894015,-11.025351520136645,12.298165429154757,-12.586891939562548,-38.23189244278796,-2.1969932032975654,-13.704358904324854,28.49707516335948,184
-29.254444100794686,-15.319705418641899,-11.882904743341905,-30.897228514080552,0.6628573404571592,-13.019538786804317,-27.69070876078377,-4.6504055678135785,15.461598531916577,-11.543440705352825,-37.586024025493145,-2.1931504866537512,-14.203406449771858,27.84081485524745,185
-30.904239188437355,-16.59846095947651,-13.671701598231055,-31.642340158099174,0.7029727974779112,-13.073964290347673,-27.755220501869864,1.5711172482679439,16.236403337018775,-7.916286293617304,-35.68577241312743,-2.3198877126582382,-14.556057678189438,27.173994798150858,186
-31.66751425021729,-17.185450111020632,-14.978706030956188,-33.164748870814186,0.8293778944132068,-13.287590878889876,-27.645488726703494,6.715171183536552,17.987883804545874,-7.927039269292169,-35.37990122444681,-2.6026444799188484,-15.057638671766828,26.420615680113347,187
-32.824492712430825,-17.67768736313219,-16.18911516605265,-34.58336142749102,0.8778407925686916,-13.495747838840257,-27.410468213706448,10.370161370878844,19.006396040905692,-8.295348549568502,-34.98782496982573,-2.762107415953542,-15.54335932735149,25.57495652066432,188
-33.672972238899845,-18.036281987474776,-16.981911956084073,-35.39863937649108,0.7710912256605368,-13.7198177138519,-27.06316215740503,12.096245272651593,19.368090120460483,-8.470329887632706,-35.14515532676363,-2.8846983550116723,-15.975321438146276,24.83912138188527,189
-34.338324066508896,-17.900815807380816,-17.179186929213337,-36.08916542038755,0.7263871519995833,-13.96723370551827,-26.71308537657411,12.793914906792264,19.54534498109098,-8.606232610020015,-34.97783381210219,-2.8447930476711223,-16.31429118091071,24.298237740312334,190
-33.75125900316155,-18.301842130547584,-17.609857774651424,-36.17838566137433,0.7105438094646509,-14.141601869748992,-26.44021241582663,12.402672881476395,19.897367831681706,-8.10294603970534,-35.00595127525867,-2.795652165927575,-16.517186747927326,23.949421890798927,191
-34.44045416896034,-18.23029600350533,-18.439864121883588,-35.7372994290642,0.4473309652482486,-14.22633013206729,-26.34566642310344,11.191278417050194,19.801765551201438,-7.596384026109218,-35.44136406222163,-2.8201287559814716,-16.627302212515556,23.84252788164737,192
-34.229955827643394,-19.143389154135377,-19.08943004202497,-34.2190041468119,0.2548013394183177,-14.0844046359844,-26.291285293527242,9.040013379205732,17.786859878600087,-2.933369308921387,-36.309939068458306,-3.226583986049965,-16.532654613362247,24.12237975698637,193
-32.16253999117115,-20.520202622164152,-21.115188314578283,-32.8045963198064,0.5897241559745251,-13.921217326900212,-26.29389138487903,5.333890164495885,19.092338652859752,0.5540944156018511,-38.31928030460929,-3.78848619526221,-16.263739624250437,24.83666340198833,194
-32.89657967097962,-23.21903414997254,-23.570055273318484,-31.179380278512305,0.6627236026305929,-13.504070974146241,-26.72058655349375,1.3106465055623004,19.150500896550124,7.89119901180121,-39.06309887263627,-4.452825542376924,-15.68437561167172,25.94686472479861,195
-34.431616800715815,-27.00636882525925,-26.784618586403166,-30.672205226214906,1.1331952274125043,-13.029125154071188,-27.48027494279183,-3.06627473144774,21.707438758799608,17.216689471317768,-38.078941380732175,-4.953200583467831,-14.88239516824209,27.409220349890024,196
-36.930840311036036,-31.749072694624882,-29.624121277935526,-30.137994127639924,1.6441772596523188,-12.60649464933311,-28.225859094150653,-9.316505450167215,24.464290639025446,27.091174668183303,-37.05400606238627,-5.6794691571464435,-13.861595623776248,29.391824382494768,197
-39.75824375799319,-36.46349759791597,-32.293852440088095,-32.11430922090525,1.9980532934759776,-12.604252444853966,-28.83032150256529,-13.33493726166821,25.85559809000947,35.055203639965235,-36.850663406059,-6.738549232846523,-13.102190225835662,31.141349608835824,198
-42.504789562188705,-42.661512545183456,-31.632060159288304,-35.195361407774996,1.5201005410788013,-13.025004616695476,-28.809975164443784,-14.55479814088509,24.592875874160864,39.42726108542517,-38.392273003969926,-7.735580344043654,-12.855204626108659,31.863682690869872,199
-48.0298727910304,-45.96492245738875,-31.39999322545138,-37.91633379065252,0.37125821939051507,-13.508805553596604,-28.390183914096454,-16.712733327868126,23.43764286118814,42.6958600783667,-39.775810941894186,-8.111221418713658,-12.813426139817212,32.10957962825214,200
-52.867164715115,-50.73363425477509,-28.242943748837494,-40.0043345591968,-0.8684687991374035,-14.014158684180272,-28.00251228144473,-18.221928448551246,23.841541942203033,42.17242440096941,-41.08664793913743,-8.0728121508569,-12.874720086598579,32.0773003937837,201
-56.15011941573556,-52.831493703028784,-27.652286331445623,-40.72506720571458,-2.118241668557102,-14.431166894728527,-27.58362927778611,-20.885907073192957,22.207234185123983,43.971627420107595,-41.78004951836203,-7.778615712612186,-12.968327327522434,32.05696251410319,202
-58.84711825212971,-54.113014826246854,-26.43462334444676,-41.72670049269693,-2.9797370031849892,-14.812944046570033,-27.234695986288234,-22.665792984375763,22.640069301656965,43.321535628959865,-42.85419763427083,-7.470773686196366,-12.97588074750115,32.14807751994047,203
-61.81228911374945,-56.54607687681633,-23.71233435610418,-43.21276281368793,-3.7463761016921175,-15.172995448772483,-26.925960070645324,-26.691726289900025,21.636335260925613,44.59099332781104,-43.01084396055522,-7.068856399973181,-12.846108853158915,32.31383004495849,204
-65.06888823021377,-56.072167490504754,-22.514351273875317,-44.80519176576912,-4.321476972416198,-15.537870088584974,-26.8058822701838,-28.141176832112038,21.53379656997851,43.66582744911524,-43.69572948439106,-6.627903402465645,-12.934276745136494,32.17401526211643,205
-67.49956040192903,-55.391887498560095,-21.1751341147842,-46.085511262392195,-4.779139865690938,-15.75223558662449,-26.587911735897013,-30.330840027318988,22.256300710997422,42.981251869733164,-43.99172106713062,-6.110660953765374,-12.872323514740003,32.21014490189889,206
-69.68727939666655,-53.792897089643986,-18.967812600637934,-48.098836878546315,-4.8501784445352865,-15.814194892743942,-26.66196626893002,-32.1739617214093,21.797315963315103,41.599846654463256,-44.60926722546347,-5.712090144658309,-12.83526746306154,32.08242708589477,207
-71.05383100575776,-49.39991192345975,-18.937108448728214,-48.97601467800528,-5.010862464533795,-15.834054020045084,-26.69227472518799,-35.27410596510747,21.371831624475934,39.641003835100115,-45.156383414424816,-4.892393738952893,-12.843524973124934,31.889442329169345,208
-72.07630906004718,-46.84553843534673,-15.896856303218154,-50.07184478585448,-5.256741010053664,-15.754588411812215,-26.574431334200042,-36.66163809110319,21.29519719489688,34.14170547955615,-45.73452722525886,-3.861779692139052,-12.945716644183442,31.436705140109233,209
-72.3726336808471,-41.45271420521161,-15.032201127518269,-50.057831702197866,-5.440406210475356,-15.554958410507156,-26.307600732231585,-37.99044433645989,18.5512635920396,30.676000690579556,-45.47991729858648,-3.1536257270234658,-12.854830206495812,30.847801843127055,210
-71.04925645787394,-38.45289752803245,-12.180272297338902,-50.56939980510693,-5.408885365329177,-15.277007084698159,-26.1064925523258,-37.980179610110234,18.01025938110582,24.83011375458204,-45.65768430029308,-2.4822689779571268,-12.798223285243786,30.13112330787901,211
-71.36297998515144,-31.823648035171974,-10.553378945931051,-50.54357817357115,-5.730426776341522,-14.949390876986229,-25.73989566059753,-39.49293424686784,15.566055607025747,19.427494501921004,-45.277952685515054,-1.755643191483593,-12.644091246786358,29.55585482957501,212
-70.72976116717376,-29.40245465406272,-8.599674784805176,-51.120594596162235,-5.758259516464054,-14.752551150011634,-25.544617744946883,-40.01149520035417,12.921361866098918,16.016642771959905,-43.897978241774254,-0.9899322356945868,-12.730516842864345,28.905713208529292,213
-70.69343866185525,-24.8511088523219,-9.09763809548038,-50.583870134445554,-5.827021989543067,-14.512201658720484,-25.349470254505466,-40.77783665554023,13.43149158242893,10.63081716757033,-42.62485904873615,-0.41178960501792766,-12.607683735042016,28.35986031923811,214
-70.12985884956657,-22.743301880326694,-7.042588329274595,-50.43924387395218,-5.9032989878179984,-14.284505354443587,-24.94000917879741,-40.75517985462267,11.963736398900084,7.932872840318377,-40.07491541207444,0.24132587555794438,-12.467895886384495,27.778585184112924,215
-68.82363433921715,-20.91737072492903,-5.555014796649451,-50.543062708167405,-5.904717055138621,-14.068327373066879,-24.60641186030399,-40.65000196335387,11.539126726830244,1.668094787442794,-38.62355496335627,0.7890751733713522,-12.42656735139771,27.140830433033337,216
-66.86460856702584,-17.882222343799565,-7.711130826312882,-49.91187480012093,-5.7042859267839585,-13.866244523061477,-24.392499943406904,-41.105674757216605,10.168424991540828,-1.1525712212453911,-36.58513911576207,1.3130858855143863,-12.407621062533138,26.486498803429193,217
-65.20370912290224,-17.067209808851413,-6.861611305166125,-49.52910107287137,-5.407031485111656,-13.559298707022885,-24.252418496737814,-40.90206703043112,9.853505121785757,-3.520743044883522,-31.528959461553193,2.041007303241133,-12.065349067073972,25.888075608066135,218
-63.4773371473238,-13.997291736958063,-8.86644285187577,-48.85518151084114,-5.225459934791681,-13.437384294974784,-24.20893804107189,-40.687939777866575,10.672716562300646,-7.788534175028994,-27.99993445308193,2.7045654670360633,-11.935795109403037,25.412210188207393,219
-63.643501289104584,-13.829864412771279,-8.709908582434235,-48.8836408348121,-5.234645944497605,-13.357457771465997,-24.26390819738349,-40.39631035962852,9.713927463745577,-9.627621037124126,-24.134646866323198,3.4150274655691484,-11.814629223285115,24.957330629762954,220
-63.96953948096278,-14.266027333078576,-9.104615115118945,-48.90188301811298,-5.322282599727859,-13.37754262914245,-24.4375462933753,-40.25844092093324,8.715465174733893,-10.772998692134477,-22.740289217256688,3.774342217468059,-11.833295371433334,24.79893919613978,221
-64.50717653102896,-15.119097093503957,-9.671193670050274,-48.61450825965526,-5.494212018886176,-13.49768680282771,-24.490391644353874,-40.82588168830179,9.715513669893868,-12.485884162670615,-22.948007882139326,3.942452041087087,-11.939149428587074,24.813908511685398,222
-65.57418914434999,-16.16926069921277,-10.651162415732584,-48.756544332785346,-5.678853032572579,-13.776204131080325,-24.80243933626694,-41.02709707042655,9.32413042025994,-12.437360207301401,-24.796647946879457,3.7809343517540546,-12.207494015826612,25.117548398386127,223
-66.1408516251151,-17.62568178904024,-11.680750210504174,-48.297201076607244,-6.086895749009751,-13.96967561301363,-24.92534831729434,-41.235674862838685,9.463896400643094,-11.693409470368959,-26.483723158939565,3.6683541852082073,-12.420363154328784,25.43846310625258,224
-66.70292424087808,-18.674152966138212,-12.03857602375537,-47.37413852599391,-6.604883957335102,-14.069032533939591,-25.08804166644348,-41.076580097859704,7.372154542753594,-7.81376920469543,-28.341077752997442,3.377039640564899,-12.574581302146083,25.982511409994036,225
-67.334761275549,-19.991953545806815,-12.682810109593538,-46.45961474523522,-7.103354201136011,-14.245482750671313,-25.242578690888042,-40.41998904168195,8.089270411193294,-6.5024129062430545,-30.20290197000414,3.143684663249841,-12.711302197091715,26.32803303341838,226
-68.4227157640304,-23.956939107523535,-10.89701172659651,-45.96423492039203,-7.654207298747467,-14.360505315367604,-25.40308024339825,-40.22938696348208,8.819757325984249,-5.037354331989437,-31.791244473761523,2.8800150172441144,-12.839756409199216,26.731817290500747,227
-69.50941381477635,-25.662028460421112,-11.957459302208008,-45.11098049516837,-8.243875389578157,-14.605424043302747,-25.442568161652964,-39.23518607052057,7.154480303819576,-1.0876609508538464,-32.61463269007472,2.6950445897014528,-13.071946062528076,27.01531698096758,228
-70.65193581534102,-29.616983858734205,-10.74028161444521,-45.60707122814748,-8.742358114748932,-14.846344842609888,-25.492622049758282,-38.72215951711954,7.7294537203026055,1.3299205666185927,-34.15208922167871,2.2530837161770023,-13.231852748882183,27.389473721365334,229
-71.61331035943003,-30.759387941206306,-11.502635244949813,-45.14145319146245,-9.227387852476154,-14.92506711384476,-25.458876367898803,-39.51870546487467,9.070301219701856,3.172463799800076,-35.58266279725063,1.8862420633180903,-13.218281598337793,27.888045388248887,230
-72.26888863296665,-35.071899945268946,-10.624726311671155,-45.35630425217271,-9.477589091988834,-15.032960680191318,-25.37115442127824,-41.10191400656532,10.886470463549788,5.29425100769884,-36.36377505560212,1.6384928782035002,-13.174004590255416,28.353400053330972,231
-72.9733435982267,-36.618374197115024,-12.108439716063861,-45.200478315471806,-9.790192642273642,-15.098405231846819,-25.318412856896813,-41.648430542389214,12.327570880361206,7.094326267164106,-37.28610674819485,1.3791413440849483,-13.159289936382558,28.72113055607513,232
-73.46122780797737,-40.15337558277424,-10.514167065514583,-45.48008130991173,-10.056475760627748,-15.137230105901377,-25.24589005486403,-41.685668368152214,11.19069018924409,11.11623695347607,-37.12861789070068,1.2418379004767377,-13.127723689827402,29.077057665791774,233
-73.30893757402299,-41.1832114787844,-11.932946201870053,-45.795012020987336,-10.049265377588465,-15.325446208399532,-25.3132012452576,-42.28822258084085,12.450588961037077,12.968612777464566,-38.47255055114164,1.1148289530844906,-13.237923295248395,29.389897699178587,234
-72.61309695030977,-41.903962753748715,-13.090062975270131,-46.0381009568368,-9.977626181041694,-15.458712614137134,-25.430490505550317,-42.891173959370235,13.543618155334148,14.242623175941846,-38.843757521268685,1.0729256790278379,-13.255987878907407,29.649497409633355,235
-72.07639669660496,-41.776453141508696,-13.40044567540995,-46.64401417004916,-9.950662832243857,-15.579740086059537,-25.547127276048002,-43.47250936110914,13.948164774968069,14.981488402242999,-39.54736832166965,1.1085741459305232,-13.292134524592653,29.824558849524067,236
-71.8858938475771,-41.28682082898529,-13.172756209017797,-47.19458859852748,-9.981578547199547,-15.636386336954226,-25.676816137577827,-44.27443967963375,15.942979427672409,13.478227498145046,-40.3292773633416,1.3567959212897407,-13.338857040620894,29.90682740277273,237
-71.79318385497912,-39.857829767772955,-12.235886733162976,-48.400698546121625,-10.019792222617385,-15.769053402434917,-25.862017907335535,-43.79104424405561,12.236746518957917,14.131574542256274,-41.354852882083605,1.5051692816459386,-13.584083991889075,29.658571230753765,238
-71.55954277422835,-36.11158874698733,-13.724730069155257,-48.44119129179512,-10.181873592688527,-15.818814486441921,-25.806303413650568,-44.098904812504045,12.828820230136902,10.996048932628154,-42.140406537032234,1.9219594359957515,-13.715829275477594,29.4438354274539,239
-71.33754081171561,-34.52114849854757,-12.63118877998127,-49.39164344045516,-10.144538882345133,-15.861925832449385,-25.80613362286851,-43.64928729203519,11.087494706763971,9.07540444741048,-42.34427363996138,2.175601741006112,-13.834206804553935,29.167648644137795,240
-71.07299810490531,-33.03982488411773,-11.477565961070773,-49.96459518167954,-10.183119530488863,-15.725778558492806,-25.73001382891633,-43.995997136001755,9.246810472072998,6.845821092135644,-42.04373462349608,2.4814260973900737,-13.859369081774684,28.935278331277683,241
-71.09708077711214,-31.34123212015625,-9.930163561741987,-50.2959632507978,-10.21522216526034,-15.543716790750343,-25.675035623303536,-45.529514227576634,10.076400128862055,2.404167318093248,-41.99412696862812,2.832844441638157,-13.766345074687907,28.923758908643553,242
-71.32415080965667,-30.116206124439024,-8.544911502753246,-50.15095645478952,-10.285878395387513,-15.281833948069586,-25.603382800748633,-46.23978190539876,9.654231479737833,1.511064712346694,-40.695204772094286,3.096568102564022,-13.519839019288014,28.86730909025605,243
-71.60969470421138,-29.81824693565172,-8.272965593069925,-50.26037087635975,-10.090125578893016,-15.139173028734302,-25.69379606557363,-47.208414527660025,9.281398048837532,1.2824195867380614,-40.460803328052684,3.1745664397817026,-13.412300911658129,28.848897872899883,244
-72.70860183658472,-29.193456757925382,-7.717865798388117,-50.62155685382408,-10.014310353393714,-15.063518065054502,-25.77725480334966,-48.27409794789232,8.73360275810809,0.8626058335046707,-40.094757931982066,3.2703455974511204,-13.360320430757534,28.838942252525587,245
-73.68082437724095,-28.935437868261396,-7.343847600188669,-50.68649331021439,-9.961981230162763,-15.021547539049903,-25.887383293361182,-49.76533464982161,10.932472626542715,-1.6001612568817176,-40.734560949897364,3.305260037014944,-13.358082221084409,28.767497731138118,246
-75.33629595883541,-28.89222815182793,-7.192052983703611,-50.9421329584405,-9.872698770248977,-15.088335352725712,-26.065699062752483,-51.1268103243982,11.075997200411935,-0.9017219416873729,-40.96899255100604,3.2935902014825005,-13.292402538844886,28.793400632082413,247
-76.68170688249347,-28.97882396446651,-7.078186452026564,-51.00926344217753,-9.807917566470845,-15.229075741948868,-26.22738925206465,-52.45399700618919,11.205751456319247,-0.4047451429006108,-40.864249013939386,3.4062636918287965,-13.37606897147658,28.78854654563822,248
-77.96830707814343,-29.61612306321844,-7.093335655891151,-50.49672117352511,-9.905356312371433,-15.352018358790641,-26.444117420015555,-53.59460580263675,13.986875049079261,-2.719299014082944,-40.97270670125881,3.5661478056196816,-13.449169427870936,28.731970654250173,249
-78.9410649082304,-30.254728077152706,-7.495321950584653,-50.45193813219952,-10.063055229443929,-15.635694961713074,-26.67522816021113,-52.816627569580376,13.528952819833659,-3.6521852931595715,-40.39362396316308,3.8562602406218907,-13.660139318366685,28.437717864617834,250
-78.74056033661827,-33.693428457756866,-5.615678823005823,-50.57417033300363,-10.00653672081259,-15.89022102965226,-26.757344972594638,-51.835489386789604,14.16549096366405,-3.616419746818325,-39.81451819475943,4.000858617374425,-13.927119173873386,28.083455329755857,251
-76.92129384032293,-34.78916719834942,-6.042421498678788,-48.98555800403307,-10.069309413083966,-16.016107164893807,-26.7389160495771,-50.008132892158855,17.628570450835195,-6.055333536609148,-40.13322429952581,4.133767792238925,-14.269238601678804,27.678392170110644,252
-72.61735444219715,-35.276577185749524,-6.202746021425703,-47.075044492894015,-9.67125916441679,-16.005207667219995,-26.63788750023008,-46.13145168139474,18.410620535625405,-6.7560709610600735,-38.842357152559636,4.19033409258049,-14.43107477694664,27.085897363420365,253
-63.465238732322725,-35.167893332347575,-5.896934955144561,-44.152269583471046,-8.620923228603365,-15.564697070291617,-26.179056923253196,-41.05463548910156,18.389416929724767,-7.985439710888996,-37.08374954765457,4.139387440896681,-14.39103673438123,26.360835628950767,254
-50.17745039266032,-34.249097886260145,-5.651655618440369,-37.67202377345801,-7.628599960488011,-14.501679928431072,-25.038933085174715,-34.533400964849655,18.796434488338353,-9.903655379440995,-32.226768464751046,4.563881289045527,-13.893801593131686,25.012234666112185,255
-39.65188673003021,-32.759686385035316,-5.444279912112377,-34.882543244543385,-6.571104974445863,-14.245241190848933,-24.371323199220633,-29.152850368273867,20.30449368753199,-14.392836934033173,-32.14442172770812,4.748047650099821,-14.144438343517693,23.876695539019764,256
-29.95313895454606,-28.491590064815664,-4.756373759554428,-32.03844767613151,-5.789762442469978,-14.162284784132,-23.633550596459695,-24.790092160893746,18.054369291267932,-17.25365006038683,-31.341757846310244,5.06878509024244,-14.359196683055949,22.889355640143016,257
-23.997932877616986,-25.592966380924707,-0.14513707175753726,-30.596927833190385,-5.200197178884124,-14.175972764046977,-22.96021177418599,-21.811627832010057,16.05275206394885,-19.811895636637267,-30.02636291992578,5.4135121164125035,-14.5092329444476,22.12007076118453,258
-17.07414458333486,-20.441944414118016,2.2807069508879607,-27.066628925856307,-4.3933425890870135,-14.018514334844962,-22.39528337127006,-18.049932895429905,15.035012125544721,-21.51930185459555,-29.494992136584486,4.973198660645983,-14.44957397872382,21.802592130461804,259
-9.187147706124764,-18.868122567918384,6.154346015022579,-25.468928180936263,-2.917302148068867,-13.779758226130445,-22.03924073801364,-12.285002159997616,13.634970634138758,-19.67138662065706,-27.142700443640337,4.361001453430984,-14.031512246137138,21.667015860972008,260
-2.7763177945293602,-15.556688552628726,7.307456120662538,-20.510367577296066,-2.397323635358635,-13.159040666795596,-21.846073212820535,-6.368021807740977,12.925685434137968,-18.03291570360061,-22.48510397841414,4.147267882845922,-13.226177112949909,21.259854491806838,261
2.943972523027552,-12.053865069651321,8.475954657488352,-15.418666738242008,-2.611897300173979,-12.647825561986648,-21.601288756965687,-3.0166967750050926,11.789529856785006,-16.09754860367246,-18.060386019920166,4.370499623551442,-12.420975228029274,20.84417429132622,262
4.3558983878657935,-10.965350424158956,11.837092974297034,-8.12962880266083,-3.742958643588949,-11.765144006102254,-21.766150821462492,-3.2242769351068614,12.38048182398087,-16.63809462086773,-13.926142341895568,4.802646365372812,-11.471515432128184,20.803832109043526,263
6.999219581903096,-7.825173546867185,12.642782116156999,0.8346660776428626,-5.364747498968095,-10.933517398606051,-21.49159567181329,-1.5313138014221992,11.33459559782316,-14.748274546802143,-7.675800029975559,5.630685807581881,-10.600608918093052,20.470033590166224,264
5.847176746235405,-7.626782374974024,17.59707511848221,3.581403868497611,-6.114430774608741,-10.505756877965768,-21.68679481266921,-0.5690381261986569,12.056976634334951,-14.910969679270494,-6.061930299312602,5.857737763949616,-10.144401274414953,20.3319834230329,265
1.3944603468091064,-5.609228202555933,17.947029116420012,5.020213325230439,-6.469503017946198,-10.106559436639563,-22.452928035780513,-2.002905936590765,12.296916979031801,-14.569393659770391,-5.241770466705465,6.1134178025068175,-9.701866366160639,20.721422912573715,266
-2.009877074553279,-4.514608667656804,17.164965444076845,2.6029917171305907,-5.8270193245323725,-10.034015614861406,-23.510666313186654,-3.7300204804414583,12.413195278694628,-13.449153647624058,-7.393246222465204,5.897696037097239,-9.738322660258673,21.511745917649822,267
-4.489893014108907,-4.015263360858393,16.009662382048976,-1.244270270886914,-5.035464701616865,-10.21633847704263,-24.263105002912567,-3.1585585132169225,10.946779913900777,-9.65389242991565,-8.546893783282664,5.83971070648576,-9.78375220832033,21.96293076239849,268
-5.223208823978784,-3.8647247337720456,15.33174732887056,-4.025175274343804,-4.528915619689864,-10.405015436568519,-24.607391513280753,-1.8577452162579529,11.759598737587746,-8.757083464925177,-10.692431492848502,5.618284695479343,-9.901604085290087,22.141861375485156,269
-6.400201505592015,-5.950449474854009,17.403783264967537,-7.183891337352379,-4.060863525091095,-10.641684678284472,-25.033872864354958,-2.358639842717889,12.594566886839777,-7.28594960508212,-12.935765586671943,5.368151057881519,-10.078369178938207,22.59067398333759,270
-7.534156035869758,-5.054069492648485,16.848066583541364,-11.52102535353069,-3.2708666816962415,-11.077410031371489,-25.328185956997277,-2.7326125262307963,11.441794983566828,-2.4079797374135916,-15.512413077099879,4.879290320156651,-10.433514946134984,23.073301985290268,271
-7.631271164882523,-5.17953651526817,15.937432742607363,-15.28101619017118,-2.543051657009349,-11.667079310813754,-25.461453579468024,-1.2308780824898369,13.341517178978956,-1.878997756626352e-05,-18.883470514672094,4.099736711849393,-10.833078102383972,23.422557961746268,272
-7.805967235236283,-6.431051671568287,14.240093488622945,-18.357465335394647,-1.7178373964836382,-12.069449250057598,-25.77788903213953,-0.07395682312535848,14.98123202346821,2.381951412262344,-22.12847814695563,3.34733391992447,-11.136396509359043,23.81788766687861,273
-8.145042735496409,-7.545137710138378,11.830155089005531,-24.032874345688377,-0.3233656276279789,-12.612259979558965,-26.341092733278582,2.5892797066084845,16.776278939321088,5.020148680970689,-26.353713038249722,2.053386190836879,-11.737949446747978,24.373417564909523,274
-9.466176833236142,-7.829245331222692,9.806711321036769,-29.185797400380093,1.10496864456036,-12.866938410256127,-26.80990903793257,3.6452411672474025,17.706298317510353,7.251122318524171,-30.204472770765904,0.7798334343536416,-12.190143954374182,24.84594347667711,275
-12.590223428460352,-6.674482550467143,4.066911756744748,-32.29508621068873,2.417138824130661,-12.811119796614042,-27.540673528521562,0.5567791480026737,18.800076673441165,10.798846401935856,-33.538200589300786,-0.15537099620938533,-12.483731710033332,25.43552495174256,276
-14.973870702410213,-9.492190377377874,4.728203285373367,-36.01805842067477,3.267352332573791,-13.190275464343058,-27.870310932306822,1.1135380883463555,20.024106977222914,13.538763442649556,-36.89738073137877,-1.4882047229644935,-13.000144717094756,25.908826443164987,277
-17.659987855344056,-9.609699608450388,3.388994557305868,-37.76413403455442,3.3624883947736683,-13.546556685827744,-27.981116182068696,-0.509752423627864,22.98333575002868,12.863310092805065,-39.11074869850239,-1.8699950042167959,-13.21295478039482,25.9439376853227,278
-21.858653863515404,-11.942463856773715,0.7308970789086551,-36.864792269230506,3.0590604368612784,-13.495862316109132,-28.51800006545995,-2.241450191591077,23.84604977666855,14.850226994554234,-40.05740555804449,-2.3876971913525438,-13.325682263639763,26.236710623580514,279
-23.217594369861335,-13.760576059483821,-0.8518582754671766,-35.81861792821833,2.6747100522002976,-13.68081443806024,-28.794626408008483,-2.53735607280333,24.900164036766014,16.350930734270538,-40.318719933938084,-2.469616326814163,-13.618099193904369,26.220984895918992,280
-24.102594272903925,-14.78741647590393,-1.481235104395764,-34.506425176082786,1.9414843728901325,-13.83770358211291,-28.88843454942745,-4.523782138989238,26.9250502529613,13.999198561889582,-41.11319799568998,-2.1225837813906074,-13.849562174280035,26.21400759341446,281
-25.135070335928457,-17.78723482214796,0.563713844190357,-34.90724570519723,1.3493107605566927,-14.086752788958593,-28.908248766284718,-4.753063919647144,26.694063549799914,13.925497477137645,-41.42774638134203,-1.8865111785539372,-14.1350728445305,26.09233886158203,282
-25.987721274644407,-17.246792504226097,1.0922786430101978,-34.613167390533555,0.5393677638723245,-14.315929510866619,-28.910733754386612,-5.16881642898767,25.27404088663174,12.304462754359584,-41.489376492905386,-1.686376183567325,-14.295326435184146,26.251156007052113,283
-25.589682221357258,-16.29066292961051,1.982874754379356,-34.88288365438996,0.14642088780395124,-14.48412571214355,-29.11493918634078,-5.718809655149206,23.862945798449537,10.648841051831603,-41.29075403128926,-1.4117676538062103,-14.343481691463372,26.41592252983809,284
-24.368563850149606,-13.055826660939063,0.5258702260706979,-33.593377560247546,-0.4536222676775557,-14.486883724119968,-29.358449279708427,-5.706211673041879,22.366740954012364,8.521875941595303,-40.545582225285365,-0.8496210324650705,-14.334044383386603,26.539368528116277,285
-23.09923306787296,-11.903521115708353,2.2975831939109383,-32.30641778218817,-1.062368439381453,-14.410972225935836,-29.44118909376517,-6.036199442609044,20.180778150720272,5.647153067446571,-39.54418102930596,-0.21333244411226096,-14.180043360869195,26.64176745199089,286
-22.08250654457267,-11.30191505231049,3.5143125121684218,-30.916635477434042,-1.7460748933129997,-14.293584268365395,-29.545149137972277,-5.003973873244225,15.924220323675197,4.940122186829844,-36.43391714735227,0.733042926464185,-13.961046768896153,26.493421639904945,287
-21.611807469754353,-10.467045317657316,5.0620504975823755,-28.790689631808505,-2.560329925028379,-13.972847050664194,-29.61998370373664,-5.519093713961542,13.945479527117227,1.9084406925864406,-33.80048204940766,1.5606986951625035,-13.51602279878746,26.57012596302159,288
-21.321870699483238,-9.737538596783917,6.433201976969477,-26.624416621554865,-3.386580924568185,-13.71886945725068,-29.79811281499759,-7.200285565205188,11.962849097745133,-0.9507566319152971,-30.391732417385,2.6943426655180214,-13.147457710799996,26.73131074031894,289
-20.76394704941748,-9.42486444037006,7.16169099196719,-25.413467024473672,-3.9982948933039633,-13.547026033830294,-29.97222582026212,-7.4952945436412275,10.648972718503032,-3.2124995808650727,-27.289882187991875,3.5795731458451177,-12.891467848043977,26.898796385171526,290
-18.537715027640846,-8.385561395795236,9.097209228893272,-23.148108062347827,-4.626646473816688,-13.42682217061047,-29.685625978687618,-7.859769404629869,9.704374761907788,-5.18596190994558,-23.538400914370396,4.419855352650103,-12.491703621277328,26.966238335343164,291
-17.693195833953936,-6.918167923736613,10.74533910817987,-22.15041933727734,-5.119666980664781,-13.479137435011358,-29.545146461222068,-9.277474633574979,8.933834128902676,-6.263864115103561,-21.05366298262017,5.205984539386876,-12.236433089670989,27.106895094121157,292
-16.36859742393202,-5.874026367291074,11.680955222361863,-22.905554141261337,-5.191211008901269,-13.638006176363392,-29.502749591133263,-10.028730229472965,8.803481614113846,-6.313078748348282,-20.66344849356393,5.569484142492487,-12.182558908875986,27.391387112353502,293
-14.375311440838452,-5.5450607478145155,11.931227752654292,-24.64705812693964,-4.810740425989641,-13.934595107996879,-29.440025783439367,-7.901935189571223,7.3270275998447,-2.9549776891841333,-21.24894544012549,5.350192547086459,-12.291083916062856,27.54306375397773,294
-12.752086320820183,-6.108498379585241,11.31702288272638,-26.51639671050073,-4.240621873017664,-14.206700528076691,-29.405850874541365,-6.528119526107968,8.509657164090372,-1.5266048097199394,-23.51746341567433,4.7746337712830424,-12.350390627914964,27.788636151628374,295
-11.701878642205068,-6.8623697009878235,10.033313006555824,-29.562295746348514,-3.3078312467816593,-14.605569152776079,-29.558125267363014,-4.489604780748995,7.523260572503541,2.7531188311121704,-25.30947649360353,3.9917193684184333,-12.495926879935638,28.132853984501406,296
-11.680160741746135,-7.851833337425884,8.470891378276972,-31.75418770487448,-2.4723635405678315,-14.87008579244101,-29.61683790726746,-4.089605186031204,8.326116321839129,4.616509500061334,-28.7032751552762,3.010181445762277,-12.694195803215699,28.309711137333213,297
-13.058885912057567,-8.772969855018275,6.860757979301843,-33.124211147402434,-1.8613847711231708,-15.114697149470153,-29.662807333053276,-5.191125853498498,9.421994816838787,6.902711229293952,-31.16204682216437,2.2833652899011656,-12.823899597129437,28.571048759206466,298
-15.117821506686392,-10.070562245567032,4.615511739958863,-34.77147232387163,-1.0506952132469964,-15.41030806560252,-29.635224021379088,-7.040112499655795,13.295541135065381,7.0665227364255525,-33.89585523120882,1.5562298501101162,-13.003460980339364,28.710264653058836,299
-19.951222115662315,-15.180720585281914,4.152474053258947,-34.46599402660326,-1.0303994653424864,-15.378111546215774,-29.775641886137553,-10.40131022810647,14.7553549058429,9.47772195846827,-34.12850116784068,1.298482791632923,-13.030059915206666,28.882017541950304,300
-21.974864129754064,-17.6635819462783,1.2627170524471198,-34.71975323286413,-0.775274074535747,-15.775832721921416,-29.927779412657333,-12.259366761431364,19.00324236336768,9.828485738779218,-36.03963938238938,0.8808329941687484,-13.334231798123275,29.12280373846551,301
-26.825499720266833,-21.943742655792683,2.0025666637226047,-33.772095582458945,-1.2278012834340448,-15.84953473746334,-29.79812699911963,-15.909208568457396,22.270345403314852,8.579085336711076,-35.89808012835782,1.201433573817192,-13.428637896585919,28.927435026352867,302
-30.8886542819632,-23.486509352307866,-0.05138214809588345,-33.6754783924693,-1.2543460256193661,-15.707401946510993,-29.90487857093703,-18.86886181908695,23.676143782224106,10.626930253741948,-35.631919212348414,1.3358017627831171,-13.535366872945847,28.96433014927431,303
-34.167930673496265,-24.760948385066868,-1.0885640522427584,-32.137409189079236,-1.6070852115908232,-15.534647322499877,-30.016469233557338,-20.94629674438287,24.90636458129246,12.345458035307779,-35.46316237736387,1.410614048514598,-13.491054144474235,29.210108040420177,304
-36.13844740753474,-24.062613200649743,-0.8409723336203965,-32.95777064796789,-1.656385756946024,-15.578098378532578,-30.01786466300266,-22.48744203590721,24.918513133598104,12.794217152173673,-35.91007416447902,1.6859287674186882,-13.620185987092562,29.274709398036634,305
-37.04394283091486,-22.769954432245584,0.19239121344852667,-33.52022319753218,-1.7469215804565934,-15.591112704223308,-29.887863096343743,-23.18238925974765,25.016473677606232,13.219287838878252,-36.37222835958029,1.8402270982891924,-13.691165394514606,29.292805449369705,306
-38.32017823070262,-21.3093993308125,1.6934437494821712,-33.16037250128439,-2.0387199966733793,-15.504012835396924,-29.798878048845282,-23.442421025793127,24.82122903764817,13.120748211679617,-36.587173568126914,2.0078744362352228,-13.668799735979754,29.27508844182381,307
-38.98125175655381,-18.890265248495965,3.9662666547252896,-33.14501801924171,-2.2894810065917346,-15.527794273716747,-29.613955373310233,-23.826160810965085,23.899641522632017,12.073076072089442,-36.54984127492903,2.3482010265585176,-13.67799522406481,29.24301545858058,308
-40.151930803070854,-16.34546501169805,6.534102579578792,-32.22798499262432,-2.7784616767225514,-15.386809822075017,-29.465732433269253,-25.296485930706016,22.35326945806492,10.17680138508152,-35.82527576848049,2.943430992306287,-13.684466400288889,29.140845763077643,309
-40.35096134974088,-13.588830473611646,9.393150125220194,-30.7569205684379,-3.202758907248031,-15.206941408373195,-29.282494749332525,-25.99560020404547,20.67058879662502,8.192736329732988,-35.33342292600286,3.32342460016687,-13.554482396126556,29.185976252410317,310
-39.416299398452225,-10.85815734982463,12.827492699472188,-29.394671884034615,-3.544857327872684,-15.083845400933487,-29.200394096384887,-26.06827081027823,18.523078892229798,5.883083873229899,-35.27058139324732,3.6760880979531607,-13.50691313459706,29.291546461353455,311
-36.92276534688593,-6.234970409867372,14.633097793695278,-28.643943712225138,-3.839473478125194,-15.085097592544784,-29.186525964523746,-25.794887873556068,18.10253740164633,0.17648059594525148,-35.71850889765303,4.168956190824923,-13.610677755736024,29.325288016941137,312
-36.1356061098738,-3.8423966263526164,19.535936049304116,-26.58470614674607,-4.403311132727321,-14.75851780501433,-29.151072941079022,-25.824421999606653,14.329883869374742,-4.4157393387267785,-33.31039849519054,4.87414434030383,-13.359024685944979,29.331062587713756,313
-34.221698901081076,-2.4895453077320893,24.226287447790973,-22.440201317934477,-5.267685539856103,-14.393468775205225,-28.746258165686932,-24.42694898663849,12.819903666095579,-11.600434319303764,-31.844463568691364,5.4611156118972985,-13.297709174106513,29.033881319540168,314
-31.409563298819258,-1.5004100016062862,26.6332380961144,-17.240287749967543,-6.057470040209615,-13.98774832852964,-28.25078963679879,-21.0508213660402,9.888184782078438,-15.305942392664384,-29.733001441020768,5.8745740950636005,-13.095880486176325,28.74354473355344,315
-28.14610740954557,-1.2745332158154852,28.109849543574096,-10.62396211077506,-6.916265866439767,-13.329216087269245,-27.62835773455479,-19.15669202064627,8.44896723878829,-17.982303411105402,-25.213170432392694,6.485789460442653,-12.330866125043709,28.438161553892012,316
-25.651699867662394,-1.3124740347756618,29.45747455825425,-2.837224058576191,-7.794717013039512,-12.4243064425511,-27.04285838118986,-18.773237004663095,9.39991775698314,-23.301730883412397,-18.94341124833376,7.4326508552980135,-11.347742004784937,27.855555658278384,317
-22.894143126620964,-1.4808195720328012,30.245882011866094,0.13583926931453755,-8.036384455372309,-12.056330976103192,-26.703504815990673,-17.22737072237785,8.680263813951912,-24.726972147517365,-15.728988719155582,7.899597244615813,-11.062865084501885,27.628195165933125,318
-20.599926723038283,-3.229802600894991,31.122902593477303,9.06684914627398,-9.208932919626083,-11.255442161508533,-26.263543562015904,-16.576470069677935,8.121076739785053,-26.71307369745616,-7.339951779165961,9.22432929256359,-10.366612064005551,26.99626706314439,319
-14.687377659337942,-5.836474221410851,32.73567045574327,17.249508384340757,-10.287208590512266,-10.546880469107258,-24.8274411054393,-13.233246031883285,8.461431345109752,-32.77443866036929,0.9191867855575739,10.532051469875597,-9.81682513813615,25.085361609778875,320
-11.603431480756916,-6.865639496876185,35.04628597814862,25.86971246915801,-11.432457343160957,-9.34648250550446,-23.527048996996296,-12.189818225080742,7.893088326276667,-39.16581359124906,12.925763582529314,12.69939207852687,-8.948794161277256,23.29522135448663,321
-9.477328697227982,-7.021133724932058,32.973985627658,29.991172890493438,-11.590975276543169,-8.509825419706631,-22.72010292708844,-12.89088410437501,7.261844000657944,-44.56481926405,22.168719473944268,14.552501845591735,-8.23819421732218,21.957082481427665,322
-7.377927462397875,-7.807446150480056,29.728887596179064,30.776829043084632,-10.939110942240927,-7.847162994786573,-22.420048788370796,-12.953404333269487,6.472278696002485,-45.93197677818152,27.692745235715307,15.759482172262391,-7.9769273048190925,21.1666724874613,323
-4.847075692300414,-8.369764813238017,25.617491330827107,28.72382511542816,-9.899335339540066,-7.554181539002285,-22.125431389962664,-10.762207392211904,5.319185163359315,-43.989810070442736,30.60071208536742,16.22574625073798,-7.941446223743671,20.683897900121746,324
-1.6633304822266382,-8.455981262489802,20.563887448826186,23.10423942533346,-8.524660360217066,-7.734552324005827,-22.034989066313887,-8.262862756471257,5.6322567914248225,-43.94619822741551,28.500589943161604,16.01887924974771,-8.24136141894266,20.5736552605331,325
0.6586320635110927,-10.576278188448594,17.75217382633335,15.512792965295112,-7.168359764393351,-8.202163638369438,-22.576936554936758,-6.961842125940721,6.765974548447032,-42.84659103621504,23.764683385475713,15.531961937756744,-8.860615050260268,21.130009229217304,326
3.4456794013819114,-11.685192767510534,11.079994193949265,7.654819194612064,-5.557269468059088,-8.890291189797107,-23.36912052733717,-4.7682450833080585,7.115227931190986,-38.01819414594862,15.965449748908092,13.793864369018898,-9.729746538872252,21.961581060068887,327
6.042856157384113,-12.739058492588308,3.689750392910255,-0.9244731464721343,-3.68660845064505,-9.469985206260015,-24.737191782671964,-3.287538772843253,8.666629308335558,-31.89486721790852,5.819790753761019,10.717932445124601,-10.482320041091555,23.546671106295452,328
9.725143932047354,-13.841783952008964,-2.9583536278955838,-6.741543276017232,-2.086707970577438,-9.765161175103902,-25.973875442566538,1.1996598621821297,8.33351870528033,-23.3748973606703,-1.7619614387812308,7.760647787290768,-10.959102222181812,24.93771785547668,329
10.96451868858689,-14.09470303479858,-10.577203777726105,-14.06356172656184,-0.05790245711560879,-10.169431239411692,-27.504775665934602,3.4746511744061164,9.182792617794505,-16.905475680601313,-10.852977669322163,4.075047735216305,-11.15110292107758,26.232858935201786,330
10.634693222864895,-12.633620940113014,-16.842041287870995,-20.37818707194978,1.2355177473731147,-10.753587947798886,-27.986230552765313,6.084418330271281,9.191780768631814,-10.903058118948262,-18.46989404330078,0.649759216682443,-11.461655173314167,26.81818224277774,331
9.659072992895423,-15.561126175134186,-17.65590822640535,-26.724788567718445,2.217251719226524,-11.324652584260624,-27.946060436984745,6.998410135224553,8.162205492023933,-5.294118760998252,-24.415121087161793,-2.211018944373489,-11.704829918845043,26.921003214382562,332
7.538325905121337,-16.34704161560143,-20.999711738870715,-31.022287331979086,2.8772333296700627,-11.996112976048506,-27.388644332230903,7.3887382085739475,8.73146242673626,-3.152070314735724,-29.617238292444227,-4.490137427795696,-12.203906059900243,26.489106557558642,333
6.853169119937083,-19.734249575637328,-21.585732583838624,-35.191703411988534,3.325262606030528,-12.874257608523685,-26.999544386007496,7.055552227872184,9.129077917470548,-0.7303377929073316,-34.786898844997374,-5.758871710067399,-13.013458889992457,26.36630248225334,334
5.779030183164569,-20.64957234734226,-23.95470125783581,-37.394518874741024,3.7414824432687417,-13.698495930652554,-26.780928589645384,4.797984390832829,12.067317131383762,-0.8711939055729554,-38.67195601597433,-6.193890487537682,-13.717979653451165,26.336804953561327,335
4.181712968368203,-24.009427240775793,-23.561008748754592,-38.363266634893364,3.632078397389875,-14.296962507567137,-26.387724480888636,1.5889490342120198,12.66965416871287,1.1582424020823319,-39.66126510977788,-6.466467188889648,-14.118589015049576,26.327188738352643,336
1.8617037753980652,-24.246187436597868,-24.610117127326603,-38.50681877209732,3.129381432860467,-14.83928132487777,-26.283587535682543,-0.8925761217402653,12.25930065209047,1.9640390331157365,-40.76713983664994,-6.417213846179898,-14.587724985567796,26.563301032243846,337
-0.14778633995803464,-26.289767954976803,-22.396409416563507,-38.78035612525356,2.44127824290884,-15.182366366692245,-26.057403046579992,-4.5537204336300015,14.14348575052725,-0.38963261556566836,-41.21062620799972,-5.613360103097915,-14.797135237374862,26.761499231635682,338
-2.9403425993333823,-25.48343871466899,-21.836825215660088,-38.12918284880014,1.9194280691596886,-15.37490534496313,-26.07277398595332,-7.366165042844479,13.85541437447341,-0.22162840059388395,-40.63827505884875,-4.400903680003997,-14.968377927108387,27.129579992136396,339
-6.872813165758004,-25.999054688245995,-17.18219788001003,-36.750826729865054,0.7803708236136062,-15.322909403867524,-25.863681565012037,-11.322826966969895,15.262545270120274,-4.087301686984521,-38.89277074607967,-2.4681899421534648,-14.934092870364639,27.256199923479386,340
-9.992329699210353,-27.09810696511948,-12.642282240752458,-34.90090684220079,-0.2277119174937259,-15.234048361651212,-25.716023457991874,-13.323023080733611,16.104477789459352,-8.807794332441325,-37.42735069916991,-0.815629569766482,-15.158626475402176,27.046504392380058,341
-13.067978447803831,-25.959168810831763,-10.236789829494066,-31.16603729219804,-1.5132725723979763,-15.039341734615586,-25.38686517883072,-14.95147898335249,14.591222735056824,-11.099203230879857,-34.07759034475519,1.158281203868362,-15.283674893346415,26.697423549009578,342
-13.954116410580987,-27.867162998740728,-5.948338575445575,-28.959222374296232,-2.3289565918831197,-14.887235210319151,-25.2721141336257,-17.128406854417236,15.216489779189905,-15.766740794634625,-32.387423426294866,2.5908942312300236,-15.276706872552207,26.55295975021607,343
-14.535367746499743,-27.145822578797706,-3.985906839064608,-26.04550466633093,-3.085029491972726,-14.709742491973998,-25.088227533573207,-17.962569269753036,13.910568017146918,-17.69223798353857,-28.989788850115556,4.219981210677801,-15.280011808423017,26.277500276939264,344
-15.377001042631427,-26.007124394126798,-1.9658162389674103,-23.813679834106125,-3.702274335041329,-14.40324418534452,-25.038407047486437,-18.404761251958526,12.741262692557662,-19.2469273122898,-26.3242525682145,5.506933630170897,-15.272454680438212,26.126715517815107,345
-16.167612301594904,-24.615950057812743,0.18721928504785848,-21.70778664989846,-4.249299231062226,-14.078438145498541,-25.06520707947389,-18.016729709077868,11.4769594692024,-20.687353380289924,-24.74883441822445,6.269277815720289,-15.11456759734829,26.178018703426773,346
-15.505650694338415,-20.85536691994333,-0.18866289136152248,-18.82242975089504,-4.7104300160063595,-13.660617933025065,-25.182740835136023,-16.743360349414264,10.441630906784042,-22.195870979081256,-22.685383562761775,7.023129077602879,-14.943049152286264,26.140230059922555,347
-14.214951696031472,-19.7646575591391,1.9027101100187311,-16.669782230854235,-4.9828928996298245,-13.24663258878299,-25.318462054938905,-15.742634884285295,10.138195551231043,-22.9542091624096,-21.181951061867803,7.639968451171863,-14.756998334198665,26.233508395735516,348
-11.785223034940053,-16.054002935405478,1.293798727098776,-14.97916806808447,-4.927843377275614,-12.90458632142252,-25.467925303451533,-13.468948778722645,8.3536889218705,-20.669400229565472,-18.811133082529825,8.225644013252191,-14.526777074334948,26.231342769400293,349
-11.379092987107082,-14.276080505840316,3.175183470355264,-14.321288595985406,-5.038840412028645,-12.636156086674548,-25.754534669260213,-12.47906418103614,8.418266212303493,-21.036913686345585,-17.89265399788973,8.618286744451177,-14.344972072351604,26.399344957830696,350
-10.576247745700815,-10.822150076115644,1.9590493758109842,-12.387284770400141,-5.326839371600326,-12.414348041662324,-25.986252888155903,-11.960758939456625,8.583310134844726,-21.21753389815332,-17.01964282467734,9.045804904566928,-14.17124036535122,26.563527961645896,351
-9.362554912116737,-9.890964831856198,2.961694439082504,-12.58836832870804,-5.214947381651896,-12.380481468800337,-26.367015792558625,-10.861438101051238,8.34631221299649,-21.55248205378537,-17.450931180252198,9.192607447162915,-14.231355395501765,26.714102439708387,352
-8.132337599647736,-9.31443516792719,3.5626937932427913,-13.173738697034949,-5.078417638322408,-12.39492396691653,-26.674597099582567,-8.883428516726854,8.13569096401746,-22.17091416812161,-17.46152588664545,9.432106569244553,-14.382235519294637,26.6756474650794,353
-5.886028116106763,-7.266537260536486,1.1920556399095525,-12.32354356230704,-5.050108469107786,-12.327642761297835,-26.76587102076077,-6.30020013406977,8.8982464708527,-22.497097686059792,-16.334287577034317,9.69077500289905,-14.341740761128447,26.398634320828865,354
-4.228447131757285,-7.893824753790927,1.0907345852293588,-12.312520348400543,-4.942496319668053,-12.177670530582617,-26.795880708968806,-3.496630438065864,8.685901958486495,-19.12179657853731,-14.715068532502436,9.764533788182108,-14.204119741118905,26.198558312308542,355
-2.3263602918514947,-7.074976973671888,-2.598602408854373,-12.255371062329983,-4.622447154436393,-12.124799824298545,-26.921669058269963,-1.5221044207242733,9.009355491350595,-14.735836003370506,-14.633032950964283,9.250973556987896,-14.081734213187353,26.278260822674238,356
-0.6222604885233533,-8.319961586989363,-3.9260509307338607,-14.459779118677483,-3.9070402144762864,-12.393542577845837,-27.0747797653387,0.8138872212708662,11.389321098994493,-12.802512324813476,-17.3121432180905,8.02211582847002,-14.302124744569202,26.48787773578124,357
-0.17391771587423885,-9.382713066121322,-5.850669310775774,-17.705146769805562,-3.0442923182758066,-12.74480246397166,-27.136407194834828,4.113734156132618,11.539146769613035,-7.897180980858949,-19.934658723957604,6.412470634923391,-14.654969267420297,26.69145790492859,358
-0.9188960368613974,-10.115545491150197,-7.9820012784963845,-21.22731606252029,-2.068767907438354,-12.97007360598002,-27.289981176231414,5.8427251288906525,11.61744095318732,-2.49096847414443,-22.258269690532938,4.825316923212957,-14.975390827758668,27.03265626792894,359
-0.7073476772797836,-11.122969490195336,-10.122279994236449,-24.52379001630121,-1.0258512281727667,-13.299961759813964,-27.43477862581106,7.280394026014873,13.238387268778062,-0.26110870822071747,-25.518359182578738,3.229901105544882,-15.394981152438296,27.40331429664955,360
-2.056995922442584,-12.700863749445293,-12.855312763601638,-26.55498003380665,-0.42295982433217505,-13.435822334472013,-27.570256176204015,7.170769662830972,12.240950483221,4.842297171237504,-27.52727915982498,1.9630788146450224,-15.689195983141628,27.6155635629416,361
-3.3319660225559633,-14.134898565151236,-15.555785288094782,-28.742979568565055,0.34488807713924746,-13.613891172385246,-27.873309252908047,6.8429766538716645,13.000919867440922,7.074784607023215,-30.962929808190456,0.5295222398477767,-16.068191962671463,27.94036632468734,362
-5.247513252249011,-16.054561540778828,-18.69282449597719,-30.1971380942415,0.720459247700872,-13.689281373544908,-28.159768834412503,5.079545986220381,13.764638156233845,9.065021720763163,-32.54867916689666,-0.1563972694804935,-16.34077944581516,28.205335292117677,363
-7.544916920960536,-20.69712858001142,-19.579039741533293,-31.24169658215522,0.7028463232479555,-13.759633958761322,-28.256606891612055,0.542659668739079,17.689915970940184,9.742814501902817,-33.91765930485643,-0.2975826562997095,-16.465631452742564,28.498436480513348,364
-10.395885505859793,-24.851512112981407,-20.111515991303115,-32.04739137576903,0.44433965481727816,-14.025890023676075,-28.41823166001506,-3.3725097016442764,18.26280580465952,11.755828138475247,-34.59166781185222,-0.4674425598264415,-16.617426888060074,28.783609614656346,365
