JMW9912/AVATAR/install/dynamixel_control/share/dynamixel_control/data/csv/.data/H1_0511_2233_gymnast_2_animation_semina_preprocessing.mp4_motor_degree_H1.csv
theta1,theta2,theta3,theta4,theta5,theta6,theta7,theta8,theta9,theta10,theta11,theta12,theta13,theta14,frame
4.589178245779024,-7.365291716652767,24.024217637933145,50.54237111965959,1.993245252618524,-3.0003506004799343,2.6534590492657584,4.452598323495889,6.850809048979503,-22.898305737352835,48.834332759264434,-2.0039613531197658,-3.0709143974981044,-2.753255860105079,0
7.762727033514451,-6.6995078427770105,26.06106165344136,54.55715915306009,-1.4664037246952768,-2.854159577164631,0.8912935536172873,7.4788086367125395,6.596845944979106,-26.48849445942042,52.466182507116415,1.4841076884024638,-2.8768180369267737,-1.0949788970396548,1
8.084543130364898,-6.249733014546425,27.721839532566566,56.271248864856226,-2.6979747520788906,-2.573631517389722,1.0813867579123808,7.90962157773749,5.943522198599243,-28.303253858187826,54.304535255665805,2.7439240205929645,-2.564789321808559,-1.3067670570838654,2
7.947142688757269,-6.544237110052764,28.617923180839163,57.25417569051487,-3.46167567306489,-2.3174928857737944,1.4134189655597087,7.818595993098011,6.0453837322315,-28.682060133779817,55.35333662339166,3.5146047065012174,-2.3385477839787017,-1.67216570735563,3
8.35692071749193,-6.449577024591947,29.69742802515902,58.21901321810626,-3.849530088752141,-2.1239913232594154,1.6528199018920435,8.179485782106308,5.883657655067181,-29.758195125484587,56.42534328581478,3.96539808709189,-2.1185195720761336,-1.9271683439696643,4
8.154342764232506,-5.768278914724509,27.21008998293083,59.274846452114886,-4.021702887007011,-2.0542921727204533,1.7378630878343533,7.926012731331623,5.828473004887225,-29.9463788618195,56.65982669090757,4.194056079808139,-2.0382528320621462,-2.0102099158371587,5
7.777782894042311,-5.771546147122675,27.68369185748845,59.73407055557856,-4.17532089676586,-1.9612254887870346,1.7252010166263831,7.558864516120778,5.814255184482717,-30.35786528685488,57.14288432361924,4.381859225281461,-1.9425031116331875,-2.021571007249401,6
7.07234815373011,-5.816264455534499,27.676350765899638,59.8305270164687,-4.250575605616223,-1.900914134059779,1.5925902352818857,6.989542138622028,5.839139035479102,-30.38055624016242,57.268392510201906,4.469315334259936,-1.8696259347317308,-1.9117075774904693,7
6.064433199667602,-5.848149835157813,27.30133898545569,59.65688247354285,-4.307142797398243,-1.8683407268739918,1.3989854784740743,6.243915985426002,5.298788210550638,-27.664750390781798,57.81264132079039,4.485316571236634,-1.8397372024089003,-1.7218419387919692,8
4.888641094581948,-6.160289751033716,28.25394649909037,58.82053685453346,-4.266752802577072,-1.8683324162135362,1.1453508431756554,5.134372612727133,6.087154774043304,-29.709774729339475,56.614632869002776,4.4588839665453674,-1.817909482166393,-1.4594365962229938,9
2.717430272703519,-6.614973677065855,28.96316089219498,56.615175207141476,-3.966032031605574,-1.968552077514422,0.5690116887330565,3.3853619764397225,6.132262772248686,-28.09976701354559,55.44198052297514,4.266724775652969,-1.9071117731876241,-0.923291708262363,10
-3.27111421322465,-7.017106487667616,26.377306934232564,51.26267129274387,-2.633813044475034,-2.3080930914273856,-1.5404980888900197,-2.4278697075941134,6.718314360247339,-25.378463926433323,49.48666824494188,2.9400438186782702,-2.363161946293792,1.1972400049435628,11
-13.35395288488728,-8.838163906961055,24.289423998393953,40.31159084243735,0.32013552093780756,-2.7817186634888373,-4.9426918772098,-12.592886870040813,8.8444183660247,-23.50850640574199,38.29594967408409,0.06408843549966406,-2.847438903307564,4.645826851337269,12
-27.781028068997337,-12.242221113200252,30.494235279984547,45.612317423268955,-0.28235935604648277,-1.3398249598273178,-5.311822630274501,-27.78561584819652,12.422775751619925,-29.347430665682204,43.65238180226924,0.6632688693513071,-1.381259624606279,5.13110669619914,13
-41.36037309480027,-10.647620466750427,37.11760809908203,53.185670437951686,-1.4711122519334785,0.3687345578416041,-5.443948438996412,-42.12472544711207,11.620916834720838,-38.44141447882313,50.706299601573576,2.0359689791138567,0.30192536957430677,5.275938945975902,14
-56.24992127391972,-14.418946936787554,41.98163091078949,54.04940464835016,-3.093911145984413,0.4763299236046418,-5.040607311570002,-56.724138345770626,14.832164387227724,-43.504605009103166,51.82240314236695,3.9336134356327705,0.4048940821643769,4.857213757129505,15
-62.78391894908707,-16.404040994487,45.71515454104435,51.441976257472916,-5.180989859652377,-0.4196595018140118,-4.344633544706531,-63.02300710667637,16.18405346088947,-47.02240569629897,48.203134033758985,6.117494519804839,-0.5862476303047282,4.0777401379452,16
-72.68985510103383,-17.148203167048333,47.68848574987833,55.11677696865048,-6.806157388567394,0.28878881746753693,-4.690361752069785,-72.73842125745007,16.079970618186827,-48.73393077392916,52.01769045483507,7.6065260503494665,0.036276570600038874,4.424632439862817,17
-80.58260871444297,-16.280496856493073,46.83335716122957,60.7070849359696,-8.226890248730479,1.0227885132647916,-4.69726494660467,-80.68436075232204,15.017231124280766,-46.971390770498296,58.47743781299027,8.818751903173137,0.9221860286187442,4.3685909530060165,18
-83.29092646227937,-15.090511491100784,45.446895969591914,63.66503620852172,-9.02026774273919,1.3056800456491013,-4.414566821458818,-83.33870483751215,14.379349742200922,-47.155687148777396,61.46105647701927,9.507200229840304,1.2583832469398466,4.198445370152756,19
-85.71297447692925,-13.931235517923048,43.563620396055796,64.50088830967314,-9.036744653095983,1.3370660464939408,-4.588864403906996,-85.73305601505406,13.711459877424677,-45.314707656204504,62.478433168612746,9.38187087378089,1.358599719484151,4.382475840331139,20
-88.65047174828183,-13.50280694751197,43.523238659296624,64.83968146992288,-8.981161161316658,1.4564079193535946,-4.540729605946338,-88.22382536416241,13.48085681309582,-45.54804346377906,62.75002771004524,9.292313210201279,1.4779467102573804,4.397384646046982,21
-89.2399299360483,-13.742351095246805,40.92942512791374,63.61909410135152,-9.108791304695645,1.3323593160064615,-4.5073073023785994,-89.54980855068149,13.585054828153652,-42.65528361170482,62.43922571723143,9.395575288606995,1.4256361820022252,4.405262244438636,22
-87.7177493068705,-13.626560363168112,34.06550318222981,61.455213134173704,-9.09570777805966,1.147299284876544,-4.637218208649864,-88.09999451882356,14.0694731972918,-38.132065572765214,59.87633395532542,9.42107733262609,1.280166504628413,4.5788581824950425,23
-86.88988009663501,-14.004318880613756,31.781372125200683,59.85307514096586,-9.056989109672415,1.047781045294969,-4.619045486597219,-87.29027961383508,14.544805824314238,-35.84090057775973,58.35311793195526,9.422754824513849,1.1949383624523207,4.568270381314946,24
-86.82504220076522,-13.972439544465193,31.220649687984423,59.35271386871209,-8.984761217845133,0.9535435021594142,-4.614493343488289,-87.31169727988485,14.11847276113617,-33.401787673773484,58.566651830760485,9.365128324723965,1.0899416673483004,4.529844033467894,25
-87.2379851021696,-13.896207421584709,32.00450181313996,59.914342303057325,-8.794192551463789,0.9399231122260815,-4.46208728967846,-87.6708933507228,14.092821956102211,-34.088727865715654,59.02604218820176,9.219916354064125,1.0795166517258987,4.384542298305208,26
-89.09985273370133,-13.672537863459342,36.8082957062774,63.042139261442706,-8.48239046624677,1.0172407406673487,-4.181316843282455,-89.66951310946403,13.926564343542077,-39.295468644813354,62.27234050551116,8.923450513223916,1.1493572784214636,4.067670539076751,27
-87.43521259414256,-12.616348078848151,39.08264043663002,66.16095882312725,-7.838413042328815,1.461839719813421,-3.4515720023447374,-87.10751355686511,13.41929493029143,-41.962699680601574,63.91534514255509,8.229709085249606,1.5972705108961842,3.3110713781738847,28
-84.26633330037605,-11.904995970389551,40.69275501153086,66.49445446931071,-7.1107663663581215,1.6671680171263286,-2.999746070182958,-84.06993785766826,12.60193336735959,-42.73717880076447,64.86888541018752,7.429202723406758,1.8232264509176024,2.8011641886856755,29
-82.35396083532167,-11.664813682080007,40.20837841206779,66.19341592307035,-6.549770477195867,1.5348928846560934,-2.978702673554111,-82.07425452119739,12.401223967844448,-42.01965156263632,64.37616883810313,6.923054125445217,1.6874476812586845,2.761828436421083,30
-74.84732600752187,-12.979405336523643,42.9874781905901,62.27469851786725,-6.401594415228566,0.807800581116656,-3.2797521933740543,-74.27433085197399,13.902728906161359,-43.627111148557546,60.29945504526916,6.636054379168317,0.9624847161242944,3.0312245351747777,31
-70.00042045802095,-11.564363017070685,44.32338364228471,62.96013924825386,-5.767403402664384,1.133369187637708,-3.167553943541322,-69.60624449408732,12.584842896180692,-45.28461011326446,61.384582933977136,6.063117686938184,1.3400516033172203,2.940781540102371,32
-62.30695902095202,-10.849002264532253,44.696615676944,62.80670659776075,-5.07099559402096,1.1562457010503604,-3.6317097358771684,-61.95923449241822,11.5403237500949,-43.63486775868419,62.085798820370194,5.376020291977374,1.3612764272789846,3.38602039694359,33
-50.836252458414485,-10.095964837834265,43.524945045270144,63.357221381568785,-4.604436201983724,1.278192822019813,-4.068173055999302,-50.025597437034115,11.278201940383122,-44.05447888633395,61.45810765376446,4.846015185786838,1.4233883400316256,3.777745511961991,34
-36.88671784226672,-9.414106160008064,39.12746713452818,63.514108540995956,-4.6405795027614,1.1679084100144397,-4.571303763593526,-36.23172040648063,10.461450617901342,-39.688956092626384,61.569459208706675,4.921406207244176,1.3120303114264988,4.149389825083161,35
-21.490972421473703,-9.684313390635001,36.45259632272842,64.38785312165867,-5.1263833248819815,0.9781434093442456,-4.5131585469778095,-20.68081104169522,10.796358892701585,-37.25246669571771,62.64985702232214,5.463982329662434,1.159693634071029,4.171480366688319,36
-8.863175625798439,-9.624860063751552,33.1313649130225,66.9465252626249,-4.831651133251168,1.177793119929688,-4.597311354492839,-8.042477864393708,10.5185607570194,-33.95088739655036,65.40702782501178,5.180444498554272,1.297247876097273,4.276906877343337,37
1.164573789238566,-10.40924823464205,25.984202175630355,70.49886703195507,-3.586548919676014,1.0945359924902325,-5.471464980772031,1.9971197045360245,11.10014469436908,-27.62762140416693,68.5763763968401,3.930887819052098,1.2088384570974864,5.134194176116099,38
7.823323979582839,-12.982126471454738,17.51050769558572,71.26331139996556,-1.773100497764629,0.40513471271087664,-7.205269385097557,9.05904315992225,13.395591860995285,-19.55889355607321,69.26521716334449,2.1414591524219233,0.4925840963645564,6.939847582186852,39
13.2627841840069,-16.63273388429392,2.420077977838774,68.16570327627937,0.4238369138048606,-1.0339076707700543,-9.73812249147941,14.934130795318506,16.57191368437089,-2.955543523329165,67.19715778822523,0.08065776935299504,-0.9014476262108405,9.406430757794102,40
20.327255246204945,-18.252926216858253,-6.533311878064969,64.13123183616005,0.41810788003093313,-2.3368709496734863,-10.196449802622912,22.195057950804525,18.02146258371554,6.687048914134123,62.25771466711668,-0.15488264133219615,-2.221091674315482,9.84997585187803,41
25.32777929690183,-18.32103841102219,-17.150552945767156,60.98536840737572,-0.12873239241245016,-3.3460104448915557,-9.403483545288273,27.176144715571432,17.787933159282268,15.929888701774729,59.78936049026569,0.39100199676308683,-3.128744674340699,9.158938442128608,42
30.36256496456694,-18.488034979816355,-20.057857240849575,60.00084562163561,-1.5762535904882382,-3.8896640442170196,-7.582813255206206,31.931652316120523,17.80400266972303,18.390967977913416,58.91022490510909,1.9527795416768763,-3.6917598492621013,7.340262541092039,43
32.89448029148827,-17.737008696286907,-21.090438712998225,59.297814786643414,-2.8465332897887863,-4.058661080428531,-5.834628140572922,34.30164076367643,16.542035219746854,18.560762730859377,58.451857550672,3.290531410965379,-3.7960612218021788,5.515017653368129,44
34.47695671994248,-16.555769443155665,-21.01952879366753,58.883729559220555,-3.747454715641278,-3.977382311568471,-4.178229293801824,35.59661426341419,15.072511990253998,18.222846250175024,57.80365427577362,4.112811770306847,-3.7436695828778657,3.906339203200214,45
34.55149310147687,-15.179587022823961,-21.114688092122943,57.44052494321404,-3.990157268106658,-3.9213977625325653,-3.0629851596243234,35.31657762392813,13.386843857940297,18.42917457590074,56.93414920586681,4.376869230305014,-3.6190293975583625,2.830677276366619,46
31.234456281447205,-13.402934549942614,-17.67868936151022,58.540047109187455,-4.307946806260697,-3.3415993095313987,-2.273077274900264,31.831818075025087,11.986546027894464,14.388264370843574,58.06685264317386,4.7974003485277645,-3.0295240631701064,2.1317121159726256,47
25.80021672246003,-12.88293490864141,-11.77110281125903,57.7275885089933,-4.967738705923854,-2.877996141934964,-1.898749486388369,26.490291731664048,11.710563114473983,8.71151340134635,57.587615960931025,5.387858029170731,-2.4621024256562443,1.7697076610033258,48
18.760277433321047,-12.350668082918132,-4.2939334642271545,59.16248205765702,-6.3010625046382565,-1.8511765221735754,-1.7111570378967182,19.609852079750674,11.72784003033009,1.1345324751885983,59.67391051146092,6.888489143285187,-1.5528672789903877,1.5770335358958565,49
12.263581381744503,-11.11420771110556,7.892625400835321,64.45352094213366,-7.900702949213825,-0.2742920008445214,-1.8583547397567157,12.397664428498384,10.859308540428847,-9.224082286708764,63.71736558108451,8.380422810141207,-0.023544958102192773,1.8185672236598356,50
5.089610889856689,-9.450596003673875,13.941187899092016,65.17318933951694,-8.56665568513001,0.6957539038034996,-2.5583335093104216,5.624353546104202,9.344218639869194,-14.563920253841145,64.1444307606819,8.91876970942269,0.8331362021450965,2.445660861957109,51
-1.95311160743089,-8.67107547712791,18.744669326381388,62.69527894363093,-8.785132883172913,0.8972061353127581,-2.965367726175241,-1.6655683275836983,9.204884838363597,-20.40429299836286,60.92905258623202,9.148781353183425,0.9998187887452408,2.9210115157403376,52
-12.611677437873693,-12.101830635512144,22.163601607684683,50.66218847080091,-7.246360998187142,-0.44255750583027104,-4.520655067224429,-13.30121117098996,13.254202266528186,-23.242210698975647,47.522311297314204,7.615602812614206,-0.566169610596152,4.374629509434287,53
-30.860477734783338,-10.93414984845099,19.211646687937957,29.327699585732674,-2.8297605729909185,-2.147278532235477,-9.169834756278016,-30.535248863378428,11.392939977130972,-18.241284675363715,26.979738096530784,3.2483149238589126,-2.1534544205691852,9.072810099606198,54
-58.944715813943716,-20.068392262050107,25.868123722845528,33.82599647848249,-6.391471964219323,-3.068969092648038,-10.94333774834147,-58.90657347395056,22.611514299183494,-28.02205836923459,31.883736904403015,6.782455487943093,-3.0367756222767808,10.687867318245242,55
-79.2908568969257,-21.516235674960235,40.62181159605113,50.75730874985859,-12.435820147781007,-1.7605451889798798,-9.096551654311808,-79.50716426223268,23.209626090127355,-41.97778694251195,49.3737096670495,12.774254827461414,-1.6253889975395606,8.759981337574283,56
-89.88187623717238,-18.511947845408198,43.735054799753755,60.86273336376736,-14.561172516771272,-0.0655374582443262,-7.605578729326987,-89.7461050551837,19.871626585606528,-44.07097064299786,58.80021935370995,14.99039673267891,0.021971887678581534,7.292250442402041,57
-80.41269954307893,-21.16911827051027,21.72754068859511,46.50467936879668,-14.669894115998128,-0.38654995444861556,-7.386826276671647,-79.88895360489192,23.18567724808492,-23.83404957856285,44.33544238828185,15.081914515600815,-0.30486690910184855,7.065960821758917,58
-74.00400661396532,-22.660416557193308,13.432113107385826,34.81202129235746,-14.603242988061664,-0.6608993847342599,-8.068437986554228,-73.83594400929972,23.775495087997076,-14.235233486636112,33.56547528364796,14.981912341205797,-0.551212470815423,7.778220908266271,59
-67.66263468569083,-23.872456522918096,5.578693550875563,24.029801486910973,-14.450993326514496,-0.675814700974134,-8.110250641645283,-67.3560456023592,25.4006708739172,-7.2444415691558275,22.65530897952485,14.816239645727622,-0.5577815285759322,7.840887980325679,60
-61.806531256735425,-24.41528180420262,0.7467752376628929,14.398318376168143,-14.578480859281694,-0.5939246259936132,-7.982812058196974,-61.85762740832701,25.29109861162858,-1.3941128174240824,13.94247201491207,14.927193004975393,-0.4410839554603233,7.747974647510618,61
-59.509608215942336,-23.44721746898424,-1.5356157832177628,10.197289837939339,-14.613465047154557,-0.47797327114229515,-7.736185645152321,-59.490772633074144,24.725716141872404,0.047318180904682476,9.5879693415167,14.8919000322782,-0.30346749110514903,7.536565925935611,62
-58.04673360334966,-22.923665057995997,-2.2010184138538587,7.204472859890561,-14.68350493931491,-0.31378808299004507,-7.30061314363181,-57.93165871393442,24.16772996727036,0.8130831644210645,6.460754669966055,14.874376964598069,-0.12488796116795371,7.101082532868496,63
-57.292955951246,-22.35753181234602,-2.302591339498596,5.426288224188353,-14.689757888587517,-0.21709509472826746,-6.815364018268567,-57.133070893059724,23.637663438990394,0.9945476881475382,4.60374101042212,14.864997014048127,-0.040086015416397044,6.6541901182365875,64
-56.791851432501346,-22.26569857235998,-2.5826408387577975,4.409580332774692,-14.734951388000697,-0.15699452604903702,-6.314267696337391,-56.7172312444958,23.642974839735466,1.3155367453577056,3.744158463174713,14.891134464851211,0.013127028229455903,6.171833908604236,65
-56.05138601589562,-23.300040364940322,-2.7540534549552347,3.0037175319723315,-14.768063566197972,-0.26027037774386463,-6.0295563725986,-56.19930068553488,24.257832133697246,2.2577174800718685,2.7669325693672753,14.933080429922487,-0.09393827139129185,5.8898071853645435,66
-55.72900056364319,-23.844842539155497,-3.4916348613764026,2.464922091304485,-14.714138933347401,-0.30834763609230764,-5.877681700615312,-55.80483940029359,24.86118043014107,3.109085349132455,2.0724966124519937,14.921360871215951,-0.17883907516147243,5.732474882946124,67
-55.64070525533236,-24.17463867927435,-3.8704469417612173,2.2973448669496572,-14.609095529024556,-0.3587189897443919,-5.73546063857125,-55.532773676439085,25.82429707523433,2.823639038376234,1.6727521852669431,14.875633278029106,-0.21231830137917615,5.57764602703705,68
-55.59764352729623,-24.473504823519836,-4.146941551627968,2.4466645177493316,-14.441019892902963,-0.3238849732970155,-5.520486351629099,-55.52879289132668,26.07116084144333,3.0351928441820077,1.8668649000534165,14.70120231830856,-0.19190860879096477,5.376436776118864,69
-55.42874602116783,-24.950624042773377,-4.682521967651297,2.4057113984402756,-14.2223694341394,-0.29593348504862826,-5.34416052815273,-55.54403467094587,26.508801993566895,3.3997783773622245,2.125642980330298,14.535516379532575,-0.14845573461691422,5.2079090371800385,70
-56.30772786805722,-24.958079152329738,-4.034585690171748,3.8726838700185575,-13.944047160222052,-0.25305160116795056,-5.169788104080147,-56.32951041561887,26.42651162016478,2.705745866921451,3.2567765347456796,14.31326807226079,-0.12164623565347912,5.069920030945392,71
-58.358953942653756,-24.859500770603486,-2.4435836915332,7.196323342051252,-13.56817180362553,-0.16196208437953044,-4.9477338327970815,-58.535329695835415,26.495399241925757,0.982993073663085,6.907918539535341,13.955390396828353,0.026738638820362277,4.832674714107323,72
-61.66139805111411,-24.592353551583734,0.1956434189869048,12.584385453482689,-13.130188077726558,0.023802840051277238,-4.683173906141294,-61.68248973520549,26.236973015621153,-1.7450991177242892,11.784684806990692,13.47420607895571,0.20718928789483204,4.569205534026203,73
-69.93393868601407,-21.837406309614558,8.123206133381894,25.737161912099037,-12.214404764104122,0.4916895124703785,-4.551489614373727,-69.99101180084742,24.09632111063196,-10.029346852843313,24.771403956910053,12.522589473741375,0.7033422789020927,4.443953568233739,74
-72.56397886819377,-21.18947428545708,9.708094183684333,33.01045608255255,-11.560003047256759,1.3691763188778094,-3.1695392510825835,-72.27486211288848,23.44798155912844,-11.249460999936607,31.293821190390364,11.685823716731829,1.4418381764355739,3.004619852918502,75
-89.03026534398683,-16.76400806190471,35.8790079815183,64.7375453941478,-10.01109436897412,2.2170404605258986,-3.0008973628030273,-89.14862943273482,19.059348760141603,-39.31543417059189,62.61579347431621,10.083859199797088,2.3430853982790616,2.6613990708312985,76
-70.8860989434557,-14.681814093131822,39.11084934342031,61.957663836851225,-9.66542287052421,2.1444675927573535,-2.741145383833333,-70.48553063461678,16.551576824491285,-39.879407553856545,60.10969799888505,9.680763263527254,2.2958314820911006,2.4137328933974933,77
-61.48226563928316,-12.213879134563559,36.898927380585704,62.174966997422885,-9.171998387318693,2.10794849525483,-2.468762324365423,-61.314278270591714,14.41740583098937,-39.90139858574937,59.355900326634064,9.250281943334015,2.2504080931442587,2.1448434561931027,78
-48.130076680216064,-11.301595851331033,37.51756861056737,63.822819223120085,-9.102790864351395,2.183455377981344,-2.6642671812119962,-47.80018262760927,12.664573756537497,-37.912918384352324,61.85652866337649,9.195711903902124,2.3583924125501894,2.3303546453462882,79
-29.296652327122295,-12.158536947187933,33.14666522355083,63.762617228873076,-9.583778061309562,1.5006078287059306,-3.44276695436449,-29.41390976668583,13.479434982897185,-33.38374895559409,61.668680225645346,9.865338701675764,1.6796884915969232,3.029918332135302,80
-10.74524388118868,-12.107617386621655,28.963761118806055,67.43597928058594,-10.068337110359664,1.422448330380447,-4.012710422025817,-11.169059957648031,12.881942825103435,-29.215746620722275,65.74956357648718,10.366014062275614,1.5699692757109969,3.8001564837940682,81
1.0727748008858535,-12.024953842205282,20.128119675965078,71.93830618606786,-8.525034771207443,1.4450098733398427,-5.381374622187568,1.3767119323251662,13.307410659898112,-24.25978538949472,69.10038536075258,8.816282635083239,1.5262401420435077,5.166725107567996,82
7.986423071890711,-16.450734197642664,8.668204574905115,74.20356238472611,-5.337846130141559,0.5400077268579059,-8.212965258952142,8.779383752774558,16.574975443296736,-10.684949035664847,72.16452030923163,5.673858392116687,0.5349007612239363,7.908530850074083,83
14.24563849006767,-23.058796575296128,-15.659115873690231,65.34743530065397,-0.8201741742902205,-1.8738018279236777,-13.099091981057752,15.703601639545981,22.125887116903527,13.480294059657268,65.12290041197,1.4006685743574785,-1.8324657579646546,12.675520818317203,84
22.589404908083875,-25.537683576152656,-27.73351322418597,58.470922879584876,-0.3070090233372519,-3.4943224460803153,-13.645106436398697,23.932510640307243,24.009543405629067,25.053226934891903,58.366717238992784,0.7113361674918143,-3.3909441160741243,13.319054859511906,85
29.154184124887163,-26.90905137858189,-31.26580260118017,60.073648082340696,-2.3616824694938665,-4.240828336558175,-11.127401880195976,30.30358879347155,25.3893364664337,27.936050283288367,60.23174665416321,3.2167247523694997,-4.030581686371344,10.775296450804754,86
33.60924483113743,-31.20612357860885,-42.53660814840426,61.69925159960592,-3.128116646293908,-4.762946268261904,-10.555370035152771,34.66579283711011,29.067025773800726,38.51254944827288,61.867465818109345,3.876038211463077,-4.475843931340685,10.22499226387711,87
37.12496794309116,-33.09932477827806,-47.759322245438376,61.55189307984918,-4.37586736522889,-5.059995686451531,-9.697712890008267,38.49203633550114,30.156323429565738,42.465881397585065,62.53584206835451,5.109675744724144,-4.717677619704184,9.31916724196661,88
38.759701795560396,-32.77270515644292,-44.803948151690435,59.325086614872575,-5.606436314989504,-5.198549265763913,-8.096166643357503,39.23016641788208,29.217503827878932,43.47934383716003,61.11287734859296,6.407853454930871,-4.863785234593217,7.776421735621881,89
38.9152946739653,-29.718236748502864,-43.01621755601907,58.05982571034714,-6.976009793401878,-5.014639095908778,-5.86578218042559,39.31555129248404,25.874750942486653,40.56456784214565,60.549274636788574,7.770407770288181,-4.53296450491102,5.638005826401156,90
37.28815248491941,-24.743168010309592,-37.0895376175949,57.7391879321195,-8.099186665475107,-4.38640675101002,-3.710146132305135,38.09751555936178,21.958669683424777,30.80805812053738,59.08103674152056,9.037184169244199,-3.9987998810756955,3.586586376433908,91
33.697221343920816,-21.949951798746703,-27.993451777322043,55.86443397798868,-8.442166592092354,-3.9525334339943696,-2.7593573471702637,34.28506246576679,18.03717238118061,25.229385777016542,58.779627220158666,9.32395469717054,-3.365720764164321,2.5379265218245393,92
26.623242353837494,-19.6346252257291,-17.406336111330315,56.354758428085056,-9.478760223415414,-3.0735724964875266,-2.334313170782228,26.72716856061717,16.501946204663973,15.895769508973332,58.795448404694184,10.198182066829206,-2.641504705268288,2.3981749624404385,93
16.848081238542516,-17.019338557458326,-7.562713132537586,57.388448008175466,-10.981525079834139,-1.8994180653691877,-2.900584825462718,17.174336513334477,14.490233287627746,5.897371661049363,60.63279199984239,11.743986451757326,-1.4549381904139136,2.9056266332497724,94
8.973506405088253,-12.979653533256577,3.3027035747830458,64.83816025475727,-12.492057303277416,0.034045182305628814,-3.267291103329106,9.467038432554094,11.834576780603175,-6.895627436093698,65.42008832287785,13.027426927007376,0.331309955074392,3.3640127429573483,95
1.6610042021614884,-8.947309854794263,11.730774798102022,66.62528681212743,-12.749298255100525,1.3606854454811759,-3.7974620914947748,1.8817690007073813,8.78041761385725,-15.93203693401264,65.09479520467244,13.115448776566568,1.4093863139777842,3.836074915715396,96
-4.913429695432138,-6.189310934694378,18.281325019412883,62.610964501703116,-12.368800708280656,1.6163243433128966,-3.8298388788828563,-4.621168438400888,5.897586446984966,-19.849965987805795,60.59102206115394,12.653612243951386,1.5412736032231118,3.795613400898334,97
-19.037997281948932,-8.767048496293713,24.743235037913202,49.73637290108947,-10.659296058956924,0.31459008568556845,-4.527548190445612,-19.802544664568252,10.309959385104946,-26.486200819484402,47.618665020058145,11.016605708355481,0.16689112098665773,4.32889831864387,98
-44.90464578326902,-9.798335699998226,27.88740311341782,44.7036121695392,-9.618666544855104,-0.1596617362204961,-6.867055936183097,-47.06177090249662,11.911142182387117,-29.83454304650174,43.047790774409165,9.793872100682453,-0.16358113743460706,6.437815816894277,99
-67.29109112151244,-15.049390114354427,38.68140522686943,50.63430963532522,-15.085152061627191,-0.33306630018109795,-6.165911189585005,-68.13556860701055,16.431200585718695,-40.54396476749635,48.72479694302685,15.128064379659168,-0.2946916053162909,5.682676065992524,100
-82.09743685830868,-15.063497974681628,39.06244515130035,61.51212868771133,-17.405342876367808,1.2923341633456817,-5.955750976981945,-82.4178772547285,16.37256506339031,-41.85236295990191,59.85192029021615,17.499272504618663,1.3673653276822484,5.532019154531927,101
-79.2432120875481,-20.96433937832107,20.096805226764584,44.152516372343236,-18.681622725395044,-0.1060557892890117,-6.341317634449071,-78.86785660373721,22.324755914637805,-22.54670300882699,42.11493544352415,18.893881158660182,-0.03692960864555344,5.9720023359898855,102
-73.42203264050498,-22.460102291716172,11.221920255210351,33.60668428819483,-19.068202097703434,-0.9119953640636494,-7.8827204951180425,-72.82167872248698,23.864825582769107,-13.08229763312114,31.397277443008498,19.260960991399653,-0.8668513295845597,7.493245998280372,103
-66.96128604501514,-27.028046058045863,4.315216419636186,21.831493753264215,-18.60883524445587,-1.4068968162451543,-8.604209244813328,-66.44304405902128,28.099518674219805,-4.645597831747351,20.35789410390455,18.756283940728554,-1.291716700130197,8.253149703064851,104
-60.53583572418087,-28.281931461980914,-3.1210017361217552,13.073714683948303,-18.752207474668154,-1.1695538286743161,-8.592572404071799,-59.81096756035876,30.113790923099742,2.476720841868234,11.6188671510199,18.884994186887102,-1.0371276040632729,8.231352826747143,105
-56.91651328542753,-29.193167648181735,-7.938422711785484,8.470161771076294,-18.649101688313245,-0.9763171168091854,-8.438354105501915,-56.622784570951886,30.870704850771883,7.1341830732289715,7.7536761170756785,18.80907047094234,-0.8652841216603645,8.16707436449086,106
-54.62576250235326,-31.57841629688108,-11.530869122808918,6.993009181518123,-18.513724150054436,-0.5992095821552844,-8.046307353605265,-54.57300669919905,33.26787711279344,10.692169625458936,6.901200922053695,18.695957603227956,-0.4752106387932882,7.8151373962710995,107
-54.28320825019742,-34.98279337742074,-14.360649818931726,9.007964477189448,-18.193013849860545,-0.5372424659987298,-8.00118879709169,-54.15668636714804,36.76276005272357,13.661513345979342,8.958030528640858,18.440103876990193,-0.38806000593874634,7.791589333092681,108
-54.55452768011525,-40.50984365409706,-16.777993050648803,13.36810744747658,-17.79056346134789,-0.6723822128030519,-7.973033979341353,-54.42116357296721,42.12236916459708,15.828902548598318,13.347507685048095,18.13268264374448,-0.5126621340835196,7.75614940396106,109
-55.6179769549394,-49.11482880381664,-19.49577868444824,21.84770935833227,-17.693849075733016,-1.264221428306581,-8.065864040066685,-55.309887519810026,51.14308227291079,18.688123561174343,22.21159720420143,18.025450824549743,-1.0741192168919718,7.918380144255887,110
-58.09669300379842,-62.33524484974486,-19.48725401767748,36.29114727103307,-17.33035845991146,-2.1824406350717176,-9.123374446355681,-57.95103214864173,64.44879422735383,18.520185443129883,37.46616460815017,17.727335278213648,-1.9694480590960648,8.972453528275858,111
-61.89152513197613,-74.4201663985667,-17.107645911831813,52.89115994243197,-16.268254913707345,-2.4359306794330187,-10.29189866641379,-62.67517183172371,76.97210184054805,12.523095886200872,54.22321377125467,16.61652696937599,-2.260654339141111,10.07720035859467,112
-80.77815303764301,-88.04336394762028,16.229295477885362,70.10939171721735,-14.932551539245214,-2.7729368594278196,-11.280773426141755,-84.83520785689849,90.33097988606305,-27.73798792771957,69.7610504635245,15.188349161129535,-2.54595806407299,11.099962594966069,113
-42.44428733893486,-94.16486187889983,4.181703222050943,84.01168705894517,-13.62734693029678,-2.9303742580096097,-12.568471276291985,-29.58679599507109,93.71099536595517,-2.7997296553077256,85.05374636799323,13.833401411428655,-2.6871334328428547,12.375703952420919,114
2.2370330177362576,-85.59825855218993,-7.271467545013555,86.15641075898837,-12.00554694482299,-3.002084600563035,-14.265194457812063,6.1751501137339835,83.79144885360337,16.282803359873135,87.51861236580683,12.171090169840125,-2.7924503407829206,13.995988510614351,115
5.942232502256212,-72.02861737870215,-65.6544241599328,87.41903968184644,-10.53045199042448,-2.861410445605828,-15.031405133295783,8.603660264450733,69.9574811147366,87.49554848909457,87.64758670122733,10.596357321268064,-2.6987215506065363,14.74920682754016,116
4.832216169607491,-57.11291128478054,-44.27904991547194,84.04270954605414,-9.3803588840951,-2.621890747085535,-14.753177113601787,7.827611349909209,55.1387393149284,46.254526769519565,83.91359357394128,9.371983441226929,-2.5275754339658594,14.501401149120053,117
6.978009958623896,-41.38707261254845,-31.194634771209135,82.08517616154784,-8.747777623055294,-2.0937783479381022,-13.794261581970002,9.296300375139671,40.32568143514771,32.032164642597216,81.57830500399787,8.82927776784689,-1.9634829449421547,13.467374551124136,118
3.2524243461334548,-29.114090363795285,-9.450080140945419,78.93186928400063,-8.273115085730375,-1.0290974363442191,-11.964648609695045,5.564333558822874,28.574197656004102,9.52210104626072,78.42899503254407,8.343202561161227,-0.9172632539273162,11.527747448754726,119
2.010100073043842,-18.131087288465338,-1.605174914144268,78.27394943575925,-7.912838136653007,0.17513066424475598,-9.96097860350118,3.6429207590614943,18.301323275100806,-1.6615090177092335,76.61025641704536,8.124419287893714,0.1938093800568053,9.5419311024451,120
-1.9483352831234118,-9.895775816199182,7.194079333298953,76.62407167598761,-7.407426455253344,1.458037000328612,-7.958144777470082,-0.957302386320046,10.596080145827324,-12.497531425641078,73.91411568304959,7.64011843502236,1.444933293890124,7.625260428254368,121
-10.418378508775579,-4.497873837053778,16.517089495044658,71.31997072370847,-6.999969473589063,2.060581099643693,-6.818427501190981,-8.719848360375709,5.566521300921441,-19.948925388103103,68.71120818159058,7.237473800934285,2.062914839569373,6.428367886838564,122
-19.145097250427142,-1.662139951063262,20.998560345041252,63.552520499472415,-6.027652909527642,1.616571806931612,-6.7895196522945565,-17.753902291326128,2.6738888575869733,-21.954349734867527,61.21782688101676,6.174860973964421,1.5827257093270912,6.4402666736564536,123
-37.26684740129645,-4.020531147940932,27.270963207922897,62.60848268499804,-6.331299456857747,1.840873612031546,-6.9883948318362545,-36.687164573357244,5.617475464314053,-28.52368267573151,60.82879574974147,6.50493996899931,1.8170369760000205,6.5661596232687485,124
-56.49676817725324,-4.819755540503238,33.502632911053816,65.8583180037248,-8.742225166379756,2.6178990436917022,-6.200069806216051,-55.98910950020665,7.382249655552193,-37.3162649364658,63.96022635110205,9.012838456342607,2.663264844773191,5.882001899251301,125
-65.25829124338767,-6.984594389242562,36.153887820642204,65.85925668654652,-11.260483976347802,2.2577889351865013,-5.050153342618787,-64.61466518406746,9.278088687759015,-39.57766958185174,63.835934085792886,11.661734982046163,2.301659773970417,4.65413063221867,126
-73.69253531001766,-8.852594209268412,39.23395428757996,61.54587947970151,-13.01728232365755,1.1505458315140351,-5.090076244009402,-73.1571350826711,10.61333208679875,-40.28131720984007,59.81272054984513,13.336583137108358,1.2153283551921463,4.700083588178469,127
-82.90613633131088,-9.263745224875004,36.081143265787546,63.767115489045324,-13.247014172227404,1.48409319436414,-5.65903124521186,-82.67638357510612,11.258132310160567,-38.62085141232012,62.086159441561875,13.476343788696365,1.5745968122693763,5.298062823544567,128
-86.23469024845595,-10.077134207147367,35.035459142947694,65.53774994136587,-13.61678313073007,1.7704993891866325,-5.319552882283233,-86.006413161906,11.887422195221463,-37.64780106851423,63.98323336034336,13.784427017827248,1.9293380592153102,4.942624914368215,129
-89.82766763722401,-9.521831672605922,32.72036506156037,66.5053899464409,-13.55725522835084,1.9052981551550183,-5.086526421104292,-89.74251444129555,11.264784198553471,-36.29708804611516,64.5448858368336,13.728813084779079,2.0534167435930066,4.743731409281461,130
-89.39392604750343,-9.603635257834261,31.739910299272957,65.90929849364322,-13.40609160914885,2.266135984236229,-4.515477830667602,-89.35288613178255,10.860826742091106,-33.080722001459414,64.72247368597331,13.541398244791733,2.414557298656699,4.186356154491412,131
-89.0689671407137,-9.23187284300296,28.80124224573665,66.17712256335354,-13.061497289494655,2.4226387267299394,-4.212973238816428,-89.14618720586371,10.910206289892871,-32.53979830960928,64.38087659797537,13.216352339335181,2.5624915116477998,3.8861902070647223,132
-89.2941227718034,-9.391572977229506,29.30555244956275,66.55062581627838,-12.760014874875488,2.478948631154906,-3.8759740281471053,-89.33153215437976,11.070536433422822,-32.907255550415854,64.63586969166154,12.908917607680506,2.6235448135632504,3.5459353940128273,133
-89.52181752075997,-8.558009891463195,29.746319494764187,68.7652947097027,-12.280459097110542,2.690467396354643,-3.521061814066208,-89.5878935421913,10.59248657550864,-35.264514179740736,65.9831700877415,12.401502734350341,2.831787137491111,3.148582520468815,134
-87.797899182762,-8.579648600194455,31.51846094354236,67.6581882991677,-11.760363629375387,2.743985644731386,-3.4974734904058153,-87.9893696196633,9.969951217443647,-34.1204584084809,66.1367996871198,11.817902249780936,2.880480349302702,3.1056152774293766,135
-85.11242892675389,-7.761328944535952,30.267345650749597,68.71603692954584,-11.098144180532167,3.0002100744942726,-3.063869639587519,-84.90885411727554,9.8283977798733,-34.850681956403946,66.32896506208016,11.156821171538144,3.1407712396597858,2.6859324542632907,136
-76.91150156920938,-8.311527672058844,31.48035982852816,65.90630243480655,-11.103707995127037,2.510455931976834,-3.1575178720676296,-76.96559674525906,10.104974832644052,-35.033878088895406,63.70974814420738,11.14886122206662,2.636264203449294,2.738952939256163,137
-69.8334415463795,-8.165189850156262,36.14097905660457,66.09996790893919,-10.750608914694787,2.748265780495261,-2.4890105350815586,-69.90167719271676,9.86774081289233,-39.19346958988866,63.86422814067706,10.86259126073419,2.8506202185503486,2.0995056128096814,138
-60.83354357608424,-6.739454264020452,35.25592109279715,67.063032121914,-9.991226014750733,2.8359205520625914,-2.8936036053697727,-60.72810815323111,8.392343550339268,-38.349592728909954,64.93382241952641,10.110350856175964,2.9846365038804348,2.5417914127026404,139
-47.31477403098167,-6.589975503241264,33.69832824170448,67.31682731776178,-9.511145468948103,2.944610390812252,-3.3316454933913295,-46.818775062325756,8.277719481296993,-36.79900357447751,65.12875587765528,9.59811548261123,3.082774787773143,3.009660195127173,140
-32.638831496896806,-8.092851045233171,30.831347830547752,68.49599518090163,-9.834378830796314,2.8428512581717706,-3.7481711071485484,-31.75002629827998,9.17447395350648,-31.764652297397543,67.11972654383496,10.01226180639857,3.013173251862991,3.4635436550676637,141
-17.011982996065274,-12.084620996400899,23.8629928026324,71.37004608132354,-10.392088606629397,2.3498964697338716,-5.297527888275886,-15.42231549357765,12.880314723708663,-25.24949869836459,70.11274385834011,10.529765139836938,2.504225823418609,4.990093981512003,142
-7.440279207966021,-21.438184183818876,9.669469541948512,76.4540598204395,-7.4859326287257115,1.254031635811146,-9.347821133163947,-5.323720655612734,22.01954255865701,-12.134594843586628,74.9060962881996,7.700562995648583,1.4292269098974273,9.017848988885522,143
-0.16382958831834432,-34.840578443564155,-6.515427399017881,78.869381690446,-2.4275406668911685,-0.1972811548990811,-15.16816521649419,2.205320992893057,34.872503178279196,3.4858597292232787,77.42428376599948,2.6594314096318525,-0.03550267441923972,14.825506300290217,144
9.911777425014288,-45.97798395766764,-24.387300902447443,80.56902640814673,-0.5205671590301599,-1.1539102902342095,-18.885076284541483,11.79502407394062,45.35047219073052,23.970616465399942,80.24989539049922,0.7949175457818197,-0.8970378826781165,18.601564987436895,145
12.29379539655913,-57.82989123742883,-34.9091874347049,82.56294415055874,-0.9889126937340078,-1.5332530111913227,-20.467925711350738,14.22027578636087,57.11709490399288,35.01242153655206,82.30530335369053,1.2045497882895662,-1.2582172701333725,20.144203006482165,146
15.785861559168785,-69.74821025640787,-54.524572646484756,86.83409894363733,-2.6593539963241435,-1.6736375596473891,-20.38944935796617,18.89984193642162,68.98821048047566,44.57967278149113,86.19051657432993,2.965015089488125,-1.5157819163452115,20.04972422753204,147
22.158827366004058,-79.2742913218899,-21.723934341930985,87.6777199466895,-4.327790458173079,-1.8327985711306858,-19.721801793916065,26.104378132257303,78.30829819382075,57.11560377610639,88.72685772089967,4.589302160841205,-1.669244926582597,19.47355093574238,148
32.128479674342685,-89.81533391631818,2.1673262389506,84.88307166946602,-5.665701539183929,-2.403997513577771,-19.24384877746806,34.768730130326375,88.5822194337325,3.5283300296277993,85.56315884563442,5.8117201549008985,-2.2139121946393874,18.931545433307605,149
49.97165474824188,-98.26571359293791,20.911742050747996,78.60162794025794,-7.127586652948362,-2.7756129943595655,-18.225903250030868,51.71670526815518,96.42397751800773,-18.646732485952217,79.47305482470894,7.128515871583923,-2.597414999447498,18.044620614650743,150
-16.31576979972563,-97.54238701453679,-63.5938526433179,74.71354803327466,-8.19436100158533,-3.0654208751891674,-17.380511079341133,-1.1904788415775758,99.55441446548043,82.27336863448647,78.82821303898534,8.07103608149587,-2.8346362067522755,17.087704556494987,151
-23.155982098093364,-86.07171673927665,-63.79887940569728,54.348206749224204,-9.275670101731132,-3.1772845194775448,-16.52363515895424,-19.22581975024486,88.72249997802953,65.05403057509905,58.26740624874915,8.995971580079798,-2.9933395150347146,16.242545898879158,152
-26.917456879055106,-74.10247603971857,-61.173214367366114,34.08549627624766,-10.001261163319953,-3.1722340960203455,-15.459184126258428,-26.04400781391581,76.38866755906147,59.967261861902934,37.05230050731799,9.668937263544738,-3.004814990810828,15.19381508641777,153
-30.384690717349574,-63.37714276453069,-55.070531026941396,17.65971150021563,-10.713408056845289,-2.802450450837733,-13.778370342799036,-30.935022852612192,64.98547064343786,52.48436296118749,19.882593007988238,10.30945418476338,-2.6151196048696477,13.540927647394652,154
-32.68156647241414,-54.87487676329861,-49.56747215181056,5.891752707988059,-10.998672949593367,-2.4156466437548776,-12.410331020400498,-33.7190734933997,56.31255008761383,46.60415791443689,8.128720702265614,10.598350781634345,-2.2750695772573075,12.16768590769561,155
-35.502309836866615,-48.529455513870644,-42.834931035923944,-0.7119784291541041,-11.30258064178586,-2.1047388145981345,-11.024867737876047,-36.15491743445498,50.28668808137955,40.213898097789865,1.2295916904236894,11.005341512267206,-2.016578360460348,10.771187015912808,156
-37.27794025734472,-44.8127599165897,-38.5737466691239,-3.5742839872128087,-11.559311457041627,-1.8374878986998842,-10.05563573167612,-38.036408642308736,46.53105813590757,35.93469818359903,-1.5728398103078,11.33198709532533,-1.7636256897727463,9.818956941471347,157
-41.51886059552122,-40.08123666003433,-29.391685974833756,-4.997408936384622,-11.299614069056291,-1.608302064597007,-9.059901534885297,-42.68807876872276,41.297055555882885,26.88376468919264,-2.864869111705715,11.08126322855169,-1.5606217994467237,8.829158117098181,158
-49.62406428754212,-32.999828521531036,-15.007687249472106,0.39220168409517797,-10.316439913290898,-0.6575892633028356,-7.609209905353558,-50.91753144380926,34.37891623469195,12.702677385683113,2.7749883012511307,10.137005852866475,-0.6200256954161408,7.387515020189616,159
-65.72193965725084,-22.18159329044621,4.266444693936339,22.77102069666853,-8.229845175253795,0.646091650414933,-5.922649259391597,-66.68680957874054,23.63742959252796,-6.681698479514887,24.087964462265322,8.121956339849973,0.6754758832064398,5.684634290185988,160
-73.39866816573652,-17.098680945291825,10.79189131651027,38.27193707073351,-8.342202862037352,1.8962197225831139,-3.320676364781569,-73.48159367277958,18.73980182371881,-12.829852507658305,38.00050328477593,8.372242640131855,1.8947483138317605,3.010266120221933,161
-82.74475943668203,-11.938298626110164,20.909694219464786,55.90371422214851,-8.134728499391578,2.6053627725336,-2.577882889301642,-83.49134547538367,13.611435650259587,-24.854978526348617,56.01470355370543,8.260798384159548,2.593545773007329,2.3217553982878463,162
-83.86572944682345,-10.307234908561552,38.18849972302116,65.1200106583907,-9.069402478699079,2.614365816382064,-2.280987748291581,-83.28932143654316,12.062685860940617,-40.965472153747555,63.755228929489256,9.111408013009171,2.6639537987276154,2.0283071039712057,163
-72.96884537258777,-9.527737359705524,39.57703384465869,66.12108712937768,-10.424725471214451,3.1162716115756894,-1.5519990358757687,-72.17540063319723,11.05261332316703,-40.97076675868973,65.0582118277006,10.45133785021648,3.1814966828522713,1.2973390524886985,164
-59.99385380833039,-5.93569236681141,36.373265773859735,69.04618687030926,-10.352696942907725,3.7017970106364797,-2.433146844744201,-58.948934965916095,7.500456849105267,-39.33995382131282,67.10079674616738,10.3925210955512,3.768468071637356,2.2500244391712556,165
-41.26019820994644,-4.847677054406752,33.312311727241706,69.84744061824955,-9.997867744611778,4.0357277195883245,-3.8370591330134722,-40.204199709646716,6.191502062279359,-36.708171692685454,67.98395906252709,10.060963185047349,4.141808110519004,3.5728090473124743,166
-20.70860028156917,-5.322602881818145,26.72834923915561,72.07722507881377,-11.092576075236268,3.616890868002363,-5.00311336616724,-19.09083747959264,6.668105480921293,-30.270062802353184,70.09611793244268,11.153436933778023,3.8096061097859146,4.654270485606587,167
-6.04914645194712,-6.100272183029591,19.331131828699654,75.87411332072804,-11.028974655833192,3.578081509229769,-6.610852843288442,-4.320177945593634,6.8364263948007755,-23.07382781387157,73.87374877276073,10.9713228631135,3.6819994472039683,6.255918735301687,168
2.3847289398749836,-10.68088942762016,10.900784365096717,78.51199390742283,-8.685097523378396,2.8079697334489886,-9.50476571192773,4.495335078301908,10.921702235946903,-15.762230217851425,76.01345253615288,8.635921291548092,2.8388142705140953,9.124843867736987,169
8.921270323046551,-18.21340595091828,-6.563297710445652,77.93138269945278,-5.280525013282345,0.9370616398497671,-13.921568901811609,11.081865125239085,18.100572865444,3.480418430586801,76.08591327409881,5.206013699804067,0.9351555401258239,13.641524322385866,170
14.856279240515658,-24.47855200005871,-28.462302356259343,69.25751077867125,-2.4024937462947404,-1.2405927259097493,-18.03203389776681,17.19141608672205,23.576855671267282,27.368126881040894,68.5151094469385,2.3658657312235207,-1.115746076371128,17.713721481837176,171
23.67987360581812,-26.867116021782262,-36.54716864333049,68.41564608892443,-3.7501141800897755,-2.6747104226627765,-17.008290849371555,25.68410062596297,26.233819160362778,36.59995692526979,66.62333665808268,3.8464085343869256,-2.6139825624490713,16.786416597727374,172
29.1353029095023,-30.781127784390595,-43.68966281327121,68.60205063278056,-4.6874731506701215,-3.472056700907054,-16.197957352184886,29.74200104902161,29.2418314247364,47.56339795868351,67.4022250896954,4.800509229452279,-3.2835298012608534,15.991570778618838,173
33.8331239393591,-33.45717213337227,-54.12941369965283,71.67981959430654,-5.945427983229881,-3.7971450414228074,-15.17402500419228,34.672810370478814,31.846045150454703,57.47257720216739,71.32874478272959,6.147265624814327,-3.50891613551888,15.027210070587493,174
35.49578288734805,-33.99844114882103,-60.78767984032053,74.32374751859211,-7.370293288842166,-3.766951674326445,-14.069840260709682,37.07132638611346,32.930736355772034,59.441575842549454,73.13581973658134,7.58791932642128,-3.48198996025811,13.906707090748357,175
36.26778570394067,-32.94030038072169,-61.3146882309276,73.79246761536413,-8.428547497486086,-3.7126196708167907,-12.73475294222806,37.95470442121266,31.635234720983238,59.27444759856813,72.96938040895523,8.749791201143124,-3.413693335725855,12.557688541270004,176
35.40284338584543,-29.52911429817831,-55.77851384149856,74.09197014485376,-9.664883463669208,-3.2872150706852117,-10.945239509375899,36.324005005053124,28.061433352154147,58.919390480310426,74.07783761299828,10.043297450469908,-2.901028100910938,10.880657713740616,177
32.57410806559173,-25.61736934682251,-45.895764707006286,70.87511884707571,-10.444126482041552,-3.00855856742602,-9.203586100690432,34.12081295457998,24.746401528776982,44.04101187890868,70.01076625147343,10.783878751367569,-2.752814748037329,9.13661936920373,178
27.127877581664514,-23.226732602517657,-33.7589595283325,70.14665237572905,-11.43352710754213,-2.38329831709263,-7.942799681323676,28.94246047787468,22.232685668905305,31.308216765748035,69.77787672341151,11.737299014803314,-2.038838811215673,7.839686723974925,179
20.734973099342106,-20.199901824877518,-20.548641296914013,70.66398025272206,-13.026385412677216,-1.471387086156136,-6.931132859407513,21.960462632575375,19.730701781637737,19.69716250178698,69.5283822027797,13.263028991058464,-1.2302092695731783,6.838920255607828,180
12.931256144926888,-17.167480985942486,-7.6172843021202565,71.64331077883845,-14.567357204649312,-0.19741175247032547,-6.437663837300248,13.774544554594476,17.134176502222967,6.992203248517395,70.67779498735362,14.762057232165043,-0.05754778630809344,6.344179178663648,181
5.085411829228214,-13.881437939312784,4.722557349738905,70.787215990553,-15.411391130374698,0.8720752780301931,-6.316690829509017,5.678421708165884,14.027913257483073,-4.425848271075621,69.54927928495972,15.687823230627826,1.0086129401758273,6.198460754090277,182
9.586957424197486,-15.955482461506472,10.453738649490687,56.187247656317275,-15.901078124953282,-1.3822662819359126,-4.794518776549404,10.559848180901703,13.391735340499068,-8.443826354203228,60.06216028504496,16.094050660987527,-0.7641236330536815,5.295944871036574,183
10.908864487733071,-21.048394524708954,10.99470852206807,53.36611657446604,-16.35549447364086,-2.2139146577404083,-4.463876715481495,11.536016746049825,14.404114194978975,-10.80267710789909,58.49599971303065,16.79359326173873,-1.3863832667367102,5.284865613554632,184
8.466371496540681,-27.701129417655658,2.4845632185063455,58.80658467114268,-17.26913678411002,-1.976307978968504,-6.102020394174814,10.247429631559049,16.018956128891496,-11.11589026359814,59.04538288549665,17.759604160257453,-1.550037122806444,6.604095881371699,185
5.249069239809445,-37.19145818027105,-6.359512878603067,63.162783212218606,-17.526092798892396,-1.844042632284452,-8.234327155229042,11.287740054859144,16.377278681022382,-9.693644579285944,61.716162105698004,18.35277814437742,-1.3533427368697264,7.770470530423426,186
5.623918310625482,-43.15316244593066,-15.61545826538438,71.76533101612297,-18.61383300117886,-1.652215726160955,-9.925731142305175,11.83478089417963,16.37878181007115,-6.035056644305188,65.71210341878263,19.066645118165376,-1.1181902943923956,8.954212814006917,187
4.706618523399044,-51.39495656092465,-18.293408159027983,76.01140621545237,-19.540267024119892,-1.5473185792618784,-11.044953922322266,11.57825918493128,17.517774545826285,-7.12619032014646,66.4927004123736,19.56837541718165,-0.9405289754583034,9.804964029064761,188
6.418920078800655,-60.30467511331557,-28.24315190578205,81.2645941883226,-20.260924187086058,-1.4738971748596954,-11.697594328718516,12.315205618723276,18.56480865049006,-4.128589391708789,67.8871900518829,19.86978313915494,-0.9431821727013249,10.485673726047759,189
-0.8628771775853634,-72.05143246877182,-27.260574092421635,80.16272567434073,-20.73190735584349,-2.187885681964331,-12.408267487027814,11.709462937834067,18.984482764481648,-0.22481754983052427,68.64874404858254,19.939151415293107,-1.076423050099881,10.982974464079172,190
-5.223331078503123,-80.23351163733813,-24.146623051801626,79.86845575828573,-21.49172919851258,-2.897348636901795,-12.768757381404837,10.496104837143161,20.303583789862834,-0.43549448704719723,68.7745525009427,20.41372457387712,-1.3712488881340585,11.681615676047729,191
-12.664351514852159,-87.75672223238583,-21.345634072041957,78.852905661216,-22.053900516689097,-3.549110568870983,-13.14059844320712,10.929503741255582,21.802088399400482,-0.9121609085672308,69.26148584414068,20.70652097092884,-1.407126748107196,12.305832117422746,192
-30.248118629857995,-93.07054357691777,-5.999467581450424,74.6931918850982,-22.551231037092972,-4.5727635750917575,-13.769587169082442,10.137574051767643,24.991723931449055,0.7539653864262196,68.74122761132327,21.09873418753433,-2.0075578420771043,13.168260416558144,193
-50.14536081124966,-96.30595766581654,10.109318340247667,70.62905651637786,-23.462262634999817,-5.433013460134915,-14.169690942562497,7.72736670171093,28.388146611859742,4.982645725586503,69.25284753266003,21.996987199695415,-2.627726316701829,14.484781665396216,194
-76.6950210580218,-97.59984805998707,29.443297688504746,63.57515095850103,-23.789690943858815,-6.33463492363961,-14.449816867511602,8.202487366711297,32.2519931099743,5.742648165404993,69.40096425465518,22.89673244066134,-3.2892345997343577,15.567090008833233,195
-84.05876291429671,-97.4089155008874,29.57145502101411,61.0253297401229,-23.856958029265666,-6.88125797337394,-14.654807583674208,8.4454370848689,35.83533734442766,9.778630186741754,70.7424528001681,23.856930527629647,-3.908051864392477,16.77298550282493,196
-69.50339310428345,-96.24584374451308,9.212956787132356,60.688985513829344,-23.854509799724045,-7.534518935818082,-14.681172533971484,7.828533011238764,39.886621561496504,10.290591622520253,70.6499375392714,24.983205998611112,-4.748367020946042,17.88069321453634,197
-52.48485766569996,-93.98596230522331,-14.948574224052233,57.06630321631307,-23.848174694819832,-8.32481675824112,-14.861815201907545,6.795874454690405,42.66113997278131,10.591342289847352,70.28618724850264,25.856527492779833,-5.54096602113349,18.75463169846238,198
-43.85708908566619,-91.51138723166628,-28.39149576059262,52.11698714013313,-23.85318448645777,-8.958251114551235,-14.909114018337549,6.167110888312069,44.79985962611158,11.586773611509633,69.62810603270196,26.374685108136674,-6.265371430233679,19.367740551628295,199
-42.45461823154803,-89.14754028003733,-34.01786831102221,47.70674180322658,-23.78928237297016,-9.42606418960754,-14.946401265367202,5.018830895686285,46.162809013908216,11.811776150249406,68.97946075237526,26.763388450912185,-6.773017381136548,19.862539219234378,200
-40.49599450212388,-88.84832445467951,-36.81916530659403,46.46485809541933,-23.896542800680262,-9.729163803213416,-15.019391702075863,4.573183401396564,46.77875685826027,12.439887229148852,68.38906389077327,27.015010682038838,-7.172153045621674,20.103244011424305,201
-40.849471188255414,-89.16590380993959,-36.31762223751336,46.95290349072097,-24.09373919357052,-9.850225765235868,-14.96026308940115,4.661729745677563,47.46405228774466,9.280120148285265,67.04495406057666,27.218439628810145,-7.373284703812842,20.11114202934059,202
-44.17669623394118,-90.43691930261399,-31.717837298262797,49.15840005601438,-24.317495395231038,-9.940342556533212,-14.884739683931082,4.659873795772734,47.453572103013094,9.675348924150109,66.7825626351073,27.407774581703475,-7.5039523370160595,20.002626437489084,203
-48.13936098877358,-92.76512647553162,-22.70383761865344,52.90035219496764,-24.697474060778426,-9.811608096621063,-14.864537043500214,4.860734409167775,46.8170080322329,9.943994440279525,66.68668950342423,27.52424544547995,-7.4915674382909865,19.77854982576214,204
-58.70998121936876,-94.19362414099349,-8.205582585851992,55.34628974308631,-25.03092526248577,-9.630079565957384,-14.80674039229445,4.932715838488369,45.961203318455404,9.948586708991071,66.67136900486001,27.437978072065565,-7.309894836202078,19.497986868659847,205
-81.05008401729779,-96.11468477638957,20.06722453984231,58.35167737077144,-25.599500896467628,-9.209708959436128,-14.770982568740187,5.583511952671987,44.92731225566428,9.861501017636925,67.0427875494082,27.391439931833748,-6.952226310103965,19.207158786944134,206
-71.3713720130044,-96.36134662332556,16.48301123309955,64.3627886499279,-26.22376687189486,-8.57327622165183,-14.728136724062022,5.731435706491957,41.81675849157488,13.456118033053361,68.0802260854114,26.933868200125325,-6.355528630706449,18.746964644999117,207
-52.79687612220585,-95.1358594977869,4.789958161853724,68.9315870392731,-26.999410201719527,-8.051056098601913,-14.424628282858288,6.541125008105872,38.67025372259524,13.543076566478828,68.17698218771937,26.44109550635217,-5.705484607420482,17.977394476648783,208
-37.48288761875145,-91.916229913764,-7.1531125856570705,71.9081331685697,-27.522724258903015,-7.400606383774419,-13.993414628858202,6.602048409478942,35.096303311680884,12.894776522705355,68.26666551620117,25.96299162091935,-5.07455641337471,17.270895564944826,209
-27.262177654156147,-88.3706733243006,-13.089650788960423,74.82375886462526,-28.32194343797663,-6.711039801085291,-13.355871889918475,6.951253940207187,31.903524061905237,12.46962062417337,68.35107109473373,25.43756423878525,-4.580522577240763,16.296772502512802,210
-22.90965929890613,-84.28324859421535,-11.658668424743775,75.4447061832579,-28.64744557968699,-5.776151780848076,-12.533035927801752,8.269984612645914,28.44263372734423,11.509412541598987,68.98591836454243,24.677943052097334,-3.878342173828658,15.144851959606994,211
-13.707189647834845,-76.5962484233172,-20.1443098496154,77.9771047910703,-28.358175782737767,-4.472751756329417,-11.741556502288807,8.360210630982781,25.245719546098332,10.823815275380412,69.00945099450703,23.969053338431912,-3.292250244841163,14.137129899370697,212
-6.82409302087154,-67.80350024812655,-21.899368213296405,78.30246269329628,-27.78672971435391,-3.207897101113837,-10.875207212786234,9.039437962787476,22.374799538538447,6.504070520312369,68.06913890231085,23.47528180591555,-2.695584688246962,13.00266165664619,213
-0.8892688303484593,-57.37081885650726,-22.899593442334325,76.76579417398013,-26.80336807599664,-2.2813721674915497,-9.845876305810842,9.592496739954395,18.55060747104435,9.533890242829933,69.0980764119809,23.018189739689404,-2.1730083119223824,11.754426264209872,214
-4.914852816009985,-47.12673893528937,-12.856265971827941,73.52644520922648,-26.358011867666345,-1.573687400081531,-9.12388226822959,9.074439829905298,14.591493437289923,4.854679394214453,67.97359128740997,22.56008433656735,-1.5335275458004944,10.424389811535901,215
-4.886583052966926,-35.82058704120447,-6.507915293156224,71.60343630024174,-25.67678606804825,-0.6439470278411709,-7.875926973789245,6.770147624237674,11.892130792060847,-2.2554623415633577,65.53255678228248,22.497754326829263,-1.073087538016831,9.072209635396566,216
-3.4809442017298147,-26.423539854164055,-0.7799429717408294,69.89729666769382,-24.66524877077236,0.13459920711739912,-6.573664422140906,6.044528210374966,9.368906853435194,-5.679607920175611,64.34870883720315,22.20327899189998,-0.6026873485779051,7.472582353800828,217
-2.821371758338645,-18.154226035861893,2.611620158092563,69.37243554219481,-23.77497204332126,0.8114196527353275,-5.491481320403111,4.863158092440244,7.05409055696871,-8.73573628487211,63.100282761553835,21.936582651843516,-0.18762911058825746,6.075828442696527,218
0.7589213413649399,-12.719128811730632,7.056635387050551,69.27745482941995,-22.82884335202035,1.493805439084801,-4.1996197932927215,5.09203929194502,5.345337266787455,-12.831850898520237,62.695085867911665,21.7047907484595,0.2721258116777598,4.777694679765437,219
3.675113743677895,-8.049272626643473,9.744483686947897,70.27125297605217,-22.03110143792338,2.2512995811431873,-3.1446928498838536,5.090107807552934,3.30526079203509,-13.727820032423807,63.17467886970576,21.334736583732248,0.8185900636371712,3.5849438778249816,220
4.0950192831603,-6.410791440250363,10.648971267864002,70.5326478967912,-21.661744932128965,2.5890368102847483,-2.560924875990643,4.873000568999829,3.095937887477141,-16.941522176061728,62.14714970170441,21.276454214674004,1.102490547772194,2.8178402349143363,221
2.8845077643398613,-7.560626508716014,11.029726425285537,68.61769316436191,-21.513495453253046,2.193447245692399,-2.4328229097158363,4.162583482635068,4.147055135984209,-18.48000739593627,60.46714643033436,21.515462953353403,0.9607801701597992,2.5550052769899425,222
2.3136251430302646,-10.192383750694452,7.382229185041288,69.39837919363768,-21.399879738785963,1.8843785548219567,-2.593491408164958,3.7201208886969095,5.375952024496285,-18.110658059492422,60.50287898666133,21.660330166772475,0.8251042041205098,2.4754485016748378,223
0.9895711770180426,-14.605850146729987,2.831534492056196,69.82483706445821,-21.1612486721192,1.410273458558837,-3.116204761448613,3.056623431509564,7.153223650777579,-17.29364171049933,59.90576303603005,21.631755026307243,0.5170688875734035,2.613499349795926,224
-1.9385736611303115,-21.041969614279093,-0.9334920467518314,70.28251005371814,-21.0258564022775,0.8478903297585871,-3.8743128988086495,2.586584881217511,8.561551767846105,-14.248772991609503,60.89531385457053,21.71700307716854,0.2563384175619278,2.8070695730181625,225
-4.535858762899098,-29.35368816434766,-3.5730534694663896,70.78797680983057,-20.8736047633224,0.3110549071036231,-4.648838234762097,2.2178145514307013,10.399987461952476,-14.27993634338611,61.01011699925635,21.913359945831186,0.037398104487469365,2.9604377524274925,226
-7.314881765972726,-37.380025211499415,-8.74928806621003,72.25310851709852,-21.054673792214473,-0.19312890145246667,-5.196156591583043,3.155133363775301,12.08043978438012,-14.808772227549403,61.48791221127377,22.29074391098834,-0.12397277489546894,2.971833082495833,227
-8.235904225693787,-44.93383018024862,-13.32675140468694,74.50930408821301,-21.571306970663937,-0.5473383515523446,-5.392620234780009,4.604050203207986,13.390780275995576,-15.3739929527604,62.00813110580314,22.75998536058617,-0.2674548298052838,2.943610887606405,228
-9.211360542042591,-52.99542352264888,-14.125848661015116,75.56734383966806,-22.14639951347413,-0.9854127946759408,-5.57461049202046,5.670537966428661,15.256339268596909,-15.827488578548712,62.51554861787212,23.13311932102686,-0.3807441123630604,3.177952092332297,229
-9.749141740755555,-59.93633003463052,-16.92321393569572,78.41971194149178,-22.876835804160645,-1.1843060489345196,-5.883412578659716,6.142110511763525,17.00177774791124,-13.23162199506208,63.919861710790336,23.42555658544747,-0.4227293372099402,3.746140536735232,230
-8.35204987118546,-66.2194965534298,-21.48453424883883,79.77766689659352,-23.348067872993145,-1.5240573331796603,-6.014645033932454,7.106370490377362,19.28590799048029,-10.040222092091643,65.11178717063999,23.775243163361,-0.5834311815045169,4.452547812683106,231
-10.890935885476756,-73.81697768626982,-18.573745191344283,79.68494708777193,-23.837059933068765,-2.1405004498650833,-6.322199272007099,6.953796817961212,21.329359057437852,-6.498587133839198,66.04833213190997,24.049613830356,-0.803877330170494,5.30499005548034,232
-14.079659402250131,-79.26150322706464,-21.14230948682645,79.75438689198107,-24.368519125923356,-2.7368229885000073,-6.550618928520718,6.986284905596138,24.226982541561206,-6.039339020854933,66.05796352095187,24.480867591399544,-1.1526000072085165,6.190185822880168,233
-18.703646646391032,-85.19251266531717,-16.351659873953654,78.57981505470619,-24.664961903936117,-3.3722024343987194,-7.042418038653212,7.608345028290839,26.97406447526137,-2.9502694136268968,67.55600047538753,24.770213858716264,-1.372413428734576,7.207774896152924,234
-26.195287792847978,-90.4324622207693,-12.367655701597167,77.37566202878786,-25.05613808389868,-4.153285472202764,-7.59632437975096,6.844881818364485,30.710856776965997,-2.1396505027155577,67.26961494130086,25.386435327968982,-1.9443328564429698,8.295373610731465,235
-39.04620479963709,-94.35074843560888,-3.1919692154772696,74.60204026547751,-25.317213551449406,-4.82698077352816,-8.172536936516561,6.328472654763068,34.2465741942088,1.335304502982736,68.3815804715661,26.026904979420003,-2.446093546972962,9.667494264914092,236
-52.47956524110237,-97.7352946357271,9.070874648155408,71.02730897966424,-25.50065436624745,-5.436825299491431,-8.642516307517683,6.535896330118468,37.45388100315875,5.344128845458413,69.49023458571267,26.757127971640458,-2.952071655242281,10.836125420336446,237
-79.22173965182951,-99.52733013151921,26.543678477831303,65.16583750082061,-25.596006617191037,-5.7835889840153865,-8.849958709620799,7.606217954950396,41.04788539642193,6.0954667434051375,69.83927343158815,27.564741035914285,-3.356104676253642,11.802414403504198,238
-71.75548278313576,-98.5698270226497,13.86400629370263,62.63003657099053,-25.348615386589923,-6.339635752096002,-8.972817862285419,6.652053095025853,44.06955363232116,10.12798324877381,70.55376198288988,28.391979716550555,-4.066027246919809,12.781430874499046,239
-56.361026381108026,-95.31220690465979,-11.059681134872301,60.20078427301005,-25.039798433271503,-6.920263170807312,-9.22784019635019,5.218274496240237,47.511562643792296,6.121692535721598,69.19193170136556,28.957267882269303,-4.862718822882038,13.772513877500035,240
-47.11085602563939,-92.28024299504595,-26.163242220664824,54.45396776962846,-24.673242058516216,-7.591322115165414,-9.398040342569328,3.5454415254116824,49.833834809980196,5.994604678670096,68.48709744447143,29.45187139152799,-5.572008358669597,14.510796902566913,241
-38.40250884925157,-88.95971014101167,-39.470073373910004,46.730182525688654,-24.4398063453014,-8.191997917010664,-9.530252366718528,2.1827052836338656,51.68492106699771,5.977637236754983,67.77033614199831,29.80843931259215,-6.090218519489067,14.99765353846985,242
-34.65418608487739,-86.13123814642333,-44.95827112928338,40.2434871981784,-24.256260677634657,-8.617014352539549,-9.716099408173639,0.36484218472667745,53.013265242911274,6.06306312611633,66.58937740451708,29.890456039425878,-6.574731498374551,15.364943912747664,243
-33.27390471878361,-84.79399557029221,-46.916363778915084,36.70020508577868,-23.994350423207866,-8.95013364749537,-9.912108316775987,-1.0932433830666297,54.68007895720415,2.6503146474686012,64.48693162478408,29.9627796230018,-7.072318999944368,15.72994876626777,244
-31.887190304114622,-84.91550534804283,-48.846725330969285,35.89668796909821,-23.83213630622929,-9.225393828692493,-10.085797651583153,-2.0460106263283033,55.24999345100639,2.7257950018087826,63.7079050441967,30.16534303854309,-7.405874600524886,15.95485347679646,245
-32.312425933828834,-85.81744862861966,-48.364760375526444,37.2826891505103,-23.82700130184024,-9.322972243056476,-10.11213122442146,-2.5739044779360083,55.37896187202601,2.754810005708988,63.26965048601922,30.39010441932766,-7.601240286925525,15.95548010877093,246
-33.97321612366374,-87.54976727316941,-46.21333350451929,40.43992383194955,-23.8503432644005,-9.287673059343213,-10.09395270757638,-2.5289104884878317,55.32287186666545,3.1671539387551677,62.96452214667297,30.516786642908727,-7.640429123205821,15.780659051501484,247
-35.62335928537928,-89.1779015364718,-43.7658687018378,44.26817659559256,-24.112460547384902,-9.199285847748452,-10.116072194433173,-2.1879989599587395,55.13902998770676,3.4156492062713175,63.036217182939374,30.604775644826038,-7.561833119376494,15.514024054011388,248
-38.1676794446557,-92.30923496571944,-36.84482547291714,49.67404085167808,-24.30333329332256,-9.053176698041487,-10.140807983830138,-0.95829630608696,54.82821659034379,4.3521718870829345,63.246631542792336,30.546664030153774,-7.382066284939278,15.18371013478377,249
-48.50907843025619,-94.92068595797618,-21.69447985769585,54.72508218101574,-24.635866319437035,-8.769134914847815,-10.210355391968738,0.13526276178264499,53.797476533170354,4.913049057392748,63.651617215289065,30.436880309161218,-7.103785224925057,14.881122944684904,250
-70.70405363517224,-97.03124819321856,6.8991401240845365,56.9654895064834,-25.06434373607256,-8.477304147934756,-10.369814795678884,1.5129157415695498,51.99592376096643,5.951174229440521,63.842532435195245,30.007257380192716,-6.7298994505597,14.60979150150889,251
-74.74940642886693,-97.87244408516082,18.4761441628931,59.84401500963491,-25.683962722782194,-7.93360312883366,-10.301920613498968,2.994499796922628,49.34119415653808,6.5876211671115055,64.32916408612444,29.786190884737596,-6.112970263381595,14.181986117141854,252
-54.24069687574004,-96.11917833805933,1.462550248820378,65.97284912947234,-26.529628314322064,-7.396300941755955,-10.273529166436482,4.050577450565597,45.44118622806973,10.451147161763759,65.73320983809754,29.358289540624853,-5.481680930534583,13.673649961620502,253
-42.87263708220047,-94.42598048933256,-4.663048310891236,68.94402015727943,-27.528440788539026,-6.63788371982855,-9.909472124817988,5.083476372481141,41.93075290806034,10.210892725312613,66.29596582187449,29.128432365702217,-4.723552365640407,12.938033428622505,254
-36.14607226578117,-91.95044205637443,-8.189016049145271,69.64388319000321,-28.270462732008113,-5.937745663791267,-9.341298164958797,6.563946020251322,38.86778362962902,6.402636057294178,65.85285864421756,28.852988705145354,-4.097274112115274,12.120366990042504,255
-25.49090403154969,-89.17466230684289,-18.910388446224992,73.31324794577148,-29.15616194937363,-5.220452877927388,-8.82368022217984,6.939161315354348,34.80903941637835,9.833178984221544,66.84809785302214,28.457145308077994,-3.7249175531214354,11.363088454290438,256
-21.263968660219383,-85.7860691967368,-19.195562493220244,74.02594309271794,-29.54680961915805,-4.323910443875554,-8.024523459108147,9.065529710956586,31.114691327156663,5.061117334043262,66.87684672700874,27.830906996513274,-3.1138282663490444,10.32646327696515,257
-10.995914403724758,-80.15670866643369,-23.7605132899917,76.48903485551683,-29.675216251670427,-3.1419726681409355,-7.499563926544529,8.437758872970615,27.55063437440511,4.5634790727811145,66.52713773154464,27.185151295427165,-2.730218204979172,9.511795625298053,258
-8.211970447863553,-72.40355781566738,-23.41880208509752,76.88066600970058,-29.444188929071558,-2.0025823053951135,-6.674726063599037,8.078420185183626,23.630205475633296,3.916939582631333,66.35011993452116,26.643136800593247,-2.197534113805575,8.532849278447117,259
-1.5488034064715497,-63.413666882629116,-22.37959965162125,76.51421072160196,-28.897581121487832,-1.014693741156027,-5.8262917988226866,8.07212616547984,20.069378755464044,3.350223360318833,66.26546108921384,26.216980708223133,-1.7363799958657549,7.593018829561627,260
-1.8104311892338907,-53.95112684069114,-19.313669728245184,74.99246723071265,-28.32035817861851,-0.3027941679345835,-5.185141159672272,8.249829739929494,16.564456778915716,-0.903455546582328,65.30698036511835,25.872206754596053,-1.1846862344626112,6.5389123885268114,261
-2.6446773012887914,-43.85826080986064,-13.104975584907882,71.92346229680656,-27.547408156257426,0.23394022915480983,-4.362030120139224,7.211913290059923,13.671586578179447,-4.374247963910417,63.92255594278537,25.712724734152104,-0.7759208317805705,5.511805218466209,262
-3.911148004857103,-33.43665713845529,-6.308901607220344,69.4393086854313,-26.71897143171462,0.7706072461265737,-3.458406110489845,5.944306113479479,10.737415925762358,-7.754552770778846,62.663545223923855,25.463256431649103,-0.3673799483328422,4.488175557762324,263
-1.2378540567666534,-25.278701860769118,-0.3847677907123383,67.92595571033812,-25.789080753729287,1.3882831568274208,-2.362117127287189,5.796066744928482,8.943736137187049,-11.335911781007496,61.83489092808675,25.330929798707572,0.09670176603965089,3.42409647234417,264
-0.09129299320084318,-18.242723176191472,2.853104404183702,67.14700385687817,-25.12063388142781,1.7600453762669517,-1.5724395386537995,4.9696030965586715,7.583351150476021,-14.084773143128606,60.53329337239404,25.25553559795971,0.33700386447909925,2.5506715776879467,265
2.0381998979183917,-13.271248444582831,7.512657012397704,67.06731713567014,-24.462574030205182,2.26537160465206,-0.6530425150481572,4.9781401549732225,6.365631094826422,-15.403769164598668,61.49447106182754,25.130218731032507,0.807365015031061,1.7344226074693083,266
4.036237073119179,-9.372800884421972,9.397401026335897,67.90175581849627,-23.936602017745557,2.7049341776898963,0.01667691904605897,6.054941993007733,5.500327155833501,-16.40663745165768,62.07285320506107,24.807278901353794,1.2448148976268811,0.9915131450135171,267
4.607200262976531,-7.214433659177138,10.41907154515001,68.26178288119033,-23.878696201171486,2.8817112358337367,0.49616705440869335,5.641844351186785,5.215209622485088,-15.858412514545693,61.6809220824256,24.695465702488086,1.3656479820253715,0.5245892499783869,268
5.499127640054887,-7.472987475122981,10.231824225036732,68.15572021109247,-23.789493191688106,2.873778074548527,0.7296069099616828,5.523733965967539,6.208923721726033,-15.267090779159233,61.32286463488458,24.466064014819818,1.3651542855446548,0.25741291247612164,269
5.984947370460477,-9.729104375068307,9.920575029586447,68.14732570226306,-23.72045719801895,2.809560736526003,0.5918656051712319,3.905682438217002,8.118454739197215,-10.975716519344234,61.57936286892584,24.136130375414645,1.1786961439425407,0.39296196316680304,270
5.602767518090727,-12.211497836557658,5.473230959854736,68.67636530760521,-23.69082730172816,2.5510161089622323,0.16202116968208763,2.2254196175755383,12.816523959269274,-7.202928776720532,62.31968725060239,23.860974831645283,0.955846551915487,0.8608449067072391,271
5.0602266894037395,-15.584469443056522,0.6174132696235188,69.13024033512791,-23.705848438509317,2.1863505154113527,-0.401276762020375,-0.21453232458599036,21.204146050743397,-0.697426975488465,64.17237399219458,23.656502129856822,0.6264514995240499,1.5470153478187707,272
5.131342192411044,-19.837482801463423,-0.6304701156420961,68.80510907821984,-24.136942185522926,1.8118252542577948,-1.0879286573448197,-1.4729885470349886,30.656197943547234,8.830491425573088,67.38677435123539,23.76679834754558,0.25278328506332914,1.938155091549135,273
5.169638672237472,-23.38102228931996,-1.3257931784616679,68.69683938546831,-24.715967243274886,1.5387077962860696,-1.849659219625341,-2.9970317009853904,41.009970345165655,14.103416426039246,69.82235478723518,24.28900911278661,-0.05981316937677032,2.2173356411032543,274
5.4957414467678305,-26.103111463363106,-5.094448409567234,69.85490136633196,-25.635273924996316,1.2374067277706768,-2.759297743425229,-0.12958650107118075,49.08683045829454,22.43225695421438,73.26470017347796,25.01099271241177,-0.253048770044095,2.2872109038195125,275
4.967677523840912,-29.481091405959752,-4.982869100147993,69.99601068484479,-26.364937244360018,0.7766818303443022,-3.779437142804323,-1.1705697817504541,59.59584743479444,25.399032648919412,74.26194058354275,25.698712651477692,-0.9971520366046217,2.6598313013702812,276
5.918151921647983,-32.368213912507905,-7.9953575592062816,71.7647278777391,-26.859830230035985,0.39234419803387344,-4.891116460973078,-1.370220211001449,67.69191360137614,33.948950854594706,76.59391155144404,26.210269554438476,-1.6300942824009572,3.2453278604781444,277
6.647831631385732,-35.467461504587334,-9.08697782418527,71.7551807845825,-27.155378690500868,-0.14612448557895516,-5.840671114299341,-1.3379046258836653,77.58250231218288,43.31606995639072,78.26922970393846,26.616793786259286,-2.3208922760774118,3.919867779158072,278
7.016719176270859,-38.51353981059596,-13.870921435738428,72.791119557789,-27.595184035726955,-0.6114937469238408,-6.751233916689114,-0.7139148950134463,84.92023960028048,53.33566157780358,79.39754530325733,27.24110403192595,-2.959903720548994,4.536394649762751,279
7.615516481909949,-41.706726835353315,-14.194084490731882,73.14774036469242,-28.08886285652085,-1.1057577811891883,-7.838562530984042,1.4138987001064174,90.83271384399092,65.74222609432583,80.45141580005118,27.663934993328063,-3.563565129151977,5.124580089804556,280
7.71756417348289,-44.022706880795496,-19.454582192867267,73.99475839623909,-28.769343847027113,-1.5189432219640038,-8.473262097461394,6.098083122521663,95.93481797660577,86.87086435234303,81.1286461792772,28.142168005996073,-4.046356054301924,5.306891714000981,281
8.286295697124823,-46.66885493114717,-16.42314243416003,72.95025986045789,-29.26657531728457,-2.0148466006301096,-8.958007161300248,7.1490134967583225,101.67903373502983,89.56017860630082,80.54368247333946,28.37150947741088,-4.6973688065581465,5.582008112552595,282
7.839252039926973,-49.04137173544166,-16.798498835405972,72.76231097140244,-29.80974546813492,-2.434043832594061,-9.406470152854151,-14.991048235866296,103.59876830074384,47.79131259277588,74.98710881216462,28.403807297729404,-5.284100184135318,5.7366551970956925,283
6.917394351972303,-51.2553009429601,-17.02220682185822,72.33293746898272,-30.2700754653507,-2.8425616760386028,-9.736074834697167,-24.007422291281202,99.12410334058983,48.121650348969936,65.67425170474989,28.3137695653637,-5.788227845307425,5.77378747039033,284
5.92546363378848,-53.06567421477758,-16.823799090871137,71.97303741856723,-30.500418062338724,-3.1961459504591656,-9.906215212917933,-21.35957063127973,94.66413702351034,56.237052594161355,56.792305800345375,28.14496051046407,-6.313476530398669,5.826158677460716,285
5.279193311960877,-54.74611555985077,-12.859923042623942,70.6166517457517,-30.48256938490299,-3.5365021312393874,-9.961733951752018,-21.008035305042657,90.72181397128868,58.45076385846731,49.124424210904756,28.117699138285396,-6.768588647471077,5.92073704706311,286
3.240107185136031,-55.53786896644178,-12.232920148124526,69.70344615684223,-30.54389182671929,-3.90347688028155,-10.021762869540728,-21.830691342670928,87.93047346916178,58.04641222075937,43.388525236880426,27.91486025292757,-7.173058260915192,6.019531952602106,287
2.2884186304775658,-56.6331275954031,-8.214269956442418,68.22169951377685,-30.618342868502477,-4.1662500572512196,-10.055835060179646,-24.27094520301577,85.6768793878338,57.39047329105284,39.10266020713567,27.72341696694505,-7.482292586544189,6.110074923273903,288
1.388179451177611,-56.65779766862307,-7.956372935648408,67.77183465345134,-30.715605806381408,-4.290242001701053,-9.980437944435355,-24.699644407363106,85.08754683775345,56.85215488664637,37.87547269642589,27.659556677273965,-7.6746805523673265,6.211998634481739,289
1.5757681654356681,-56.34217100579602,-8.229313578960639,67.72749512740698,-30.855915733853955,-4.28099502524941,-9.702923917827109,-23.522952261185324,86.06724624091154,56.07075998055944,39.45089508809803,27.81332415111652,-7.71688921045087,6.119702759929723,290
1.8986782140780745,-55.7465260420315,-8.62389579720546,67.69311891533104,-30.906223294507416,-4.182484182753217,-9.39480646925935,-25.173839803235506,86.92427983350049,53.7831294361623,40.89837524932923,27.901079205674204,-7.731264705562508,6.030075731667579,291
2.3405787680437506,-54.95725802413503,-8.900559269513476,67.8029928393155,-30.805421126535936,-4.154534157695143,-9.187641455505922,-26.985897381118114,88.78948182985089,50.9982186892573,44.75631809556636,28.09730781374082,-7.694306097795259,6.145832680301225,292
3.220079404016509,-53.819729092059404,-9.283593997124374,68.11606785117334,-30.658809656174554,-4.039478488466166,-9.05769423109745,-32.9618880683491,91.80247528276138,41.89990935673915,50.838365692718874,28.33257992880569,-7.497702701978902,6.265465078731109,293
4.089669447624966,-51.910726537485594,-9.887878900996695,68.2321935731922,-30.420465773608324,-3.9547842133110183,-8.964037260963442,-41.99144417521278,95.61057265540558,24.507600936325243,56.40986421700193,28.68301851618277,-7.245672462798306,6.419038329435458,294
5.025526918315326,-49.106404152799904,-10.18248542836167,68.48060881962195,-29.92810953157923,-3.596299481238497,-8.908967323946886,-63.13650556937715,97.78021392343913,-4.083388221599324,58.126486504279775,29.09740088384,-6.781608687221478,6.6362751234411785,295
6.011081270941637,-44.85321316873049,-10.157944721111635,68.76342980704146,-29.548364619781033,-3.0638220847574935,-8.573406786750184,-88.61686091055579,98.35848096938678,-34.80862186302678,56.525263925194956,29.613564014543492,-6.161731702761672,6.530220765820072,296
6.257461700057178,-40.997760541459975,-9.830797257383082,68.7761971678357,-29.35786980392851,-2.629472625874449,-8.175785099291026,-68.36057333058692,98.15964898437122,-22.255245809952353,60.588226871476465,30.319511131153234,-5.5961171770245315,6.44446043777836,297
6.410412277555858,-36.603424371998045,-9.808473600534368,68.49156127364792,-28.88541091630544,-2.1923516829557737,-7.619283109580069,-53.550435260092506,94.95172166903433,-10.692173900333707,64.71001273592468,31.143940272961345,-4.894233172315782,6.22197837287407,298
7.057211430327625,-33.47107201556047,-9.553153763286382,68.6089846425383,-28.511112610410663,-1.8157521679656123,-7.151647269160951,-38.4375437345872,92.88028482082747,-0.2943978501658397,67.91865682989742,31.843620969631818,-4.175180594985201,5.915971398970012,299
8.624282638130722,-29.369046741771708,-8.469931692912223,69.2908773715094,-27.797079354881692,-1.2841742100019624,-6.5060599771253855,-27.994255052721083,87.95528147340781,7.007023475258317,70.58349735276434,32.10850208152794,-3.2185061305777096,5.467250519360047,300
8.62092086493982,-25.658998958067787,-7.8165819199759,69.19800681940187,-27.09632232136979,-0.872903854449285,-6.037498741208485,-15.656266502278715,80.94407549787684,12.013423893778555,73.75157976908095,32.0141359741412,-1.9220568977755847,5.099779200849506,301
8.412742676073647,-21.64521636143379,-7.729373122455472,68.72052644927388,-26.476221675717042,-0.4374506805465207,-5.328025747456316,-9.743385232837545,71.26598624541444,14.530050278709853,73.31198973481895,31.412648822323476,-0.8369262277220857,4.481778453549204,302
9.089482512196748,-18.093715168692555,-6.873086369278341,68.85272054321028,-26.18088104521393,0.07483793038314492,-4.4244280585008084,-3.707645756211125,59.88579346764627,16.90570121887402,73.37427076314133,30.764344229570067,0.15198140027872187,3.6413671019713587,303
9.438441021655516,-15.158906875129539,-2.8669373613365856,67.66963226672338,-25.974314023502902,0.49743977221564445,-3.496699022526906,-2.1561640948989567,51.43411058033008,11.822082874409785,71.16256910242728,30.537576427884364,0.7646853556042489,3.0078668470865466,304
8.54996152793857,-12.245026124318105,0.22286220403818383,65.94749017932277,-25.835243908877544,0.7157006735346538,-2.579546552104921,-1.4635145445131037,43.18450236367419,5.984853798106427,68.8351873703403,30.359423049754152,1.2123424180747397,2.445319922253669,305
7.203968418199272,-9.453681855603804,3.054713533554467,64.1834029878404,-25.804392158333375,0.8518346106122239,-1.5437797738487016,0.9709656157595928,34.50501594522243,5.094178066373791,67.35972394278282,29.809268645420055,1.705390109244533,1.6560831430865888,306
6.929972893720307,-6.915896387035663,6.4951467300205215,62.995229670103534,-25.730656266408584,1.0703614450213532,-0.3362379237464178,2.472152424845314,27.469080343648777,0.6730400453713871,67.2180927004249,29.44598110304534,2.2554478290587503,0.9483012092966641,307
6.720638259922042,-5.091380110146629,10.208691432806601,62.203657470893006,-25.669424089890175,1.3804197693730156,0.6206747624830273,2.828967329180851,21.112824155757856,-5.575740514429623,64.82434940334439,28.737096817966737,2.4863721241678656,0.2773466916335951,308
6.4480200833425085,-4.060597023419047,13.721603081332901,61.46990516564517,-25.663355865672763,1.729187790612345,1.2671996131785488,3.320813647891507,15.389580273654005,-8.046263451922272,63.13070113435494,28.00329119452523,2.720110398963791,-0.4245870062854432,309
7.021450335367409,-3.1040878648508827,15.356552396958449,62.520420115211685,-25.53888201528588,2.3132947028696016,1.967443901146172,5.707530414149841,11.309586736418773,-10.145263278983299,64.37893801776752,27.40213864911467,3.2859728927110274,-1.111713592583598,310
6.9184672825879145,-3.1680653044288456,14.900418342249036,62.20964066682952,-25.3809005419809,2.527173666650699,2.3474089404415404,5.749751319588566,10.977084706067616,-12.31607074157633,62.75299894031192,27.021813295046222,3.327911017308012,-1.376396595004112,311
6.608910404577728,-4.4581838500500925,14.369411998149996,61.987105799851705,-25.330816862691456,2.4331287886488413,2.301146493958159,2.768840655967725,12.964360870167665,-10.935523563964589,61.832419134225546,26.94902486433077,2.8394017870143116,-0.9911459241868318,312
6.6427078733736415,-6.264009307054525,11.230132433801467,63.08110730637261,-25.339888748362128,2.4049783341373248,2.2656502548269737,3.0247086663107283,16.4748748335032,-5.589651602740846,64.65630334115426,26.965193461665642,2.76587490131649,-0.7019927471688059,313
6.350081317933026,-9.455316708133926,10.873546155093726,63.15981401845754,-25.222478459444602,2.211391984079375,1.9416485449369023,-0.7199712932794716,25.060261214500947,-0.4194144571395525,67.04954403067354,26.982214027709126,2.4091206650967907,0.21958180832903113,314
6.18863770865986,-11.925593979700501,7.616838474079008,64.30567196926292,-25.272458636772885,2.0940786073336746,1.416193149479556,-5.585358974272322,35.74809652862242,4.010100337845581,68.46733474861549,27.01476149930343,1.8343343852782856,1.1953611730020415,315
6.774442758032066,-14.539851838029422,7.646718907232094,64.59835941206507,-25.63403728072686,2.0410677973636164,0.8503420676695929,-6.666907032625397,44.362878650411325,7.420430471332343,71.27068395276271,27.39285325761749,1.6008431712475037,1.5653282891138969,316
6.728490547549109,-16.903207594267005,4.383863255242479,65.80957539942716,-26.031372946962172,1.904911168349215,0.1771801406433065,-7.710856972940948,52.87495380238859,11.013637597612682,73.81559948012405,27.82123755711652,1.2593901271966825,1.5976833538485264,317
6.7720420372094,-20.122957975328486,4.357284563417207,66.10529916275387,-26.49963547748907,1.7128892947267933,-0.7530674348683716,-8.474615468716845,61.00531856305223,12.281776387945891,74.86948773436127,28.186890345225148,0.82452454371908,1.752879372657567,318
6.218258292437989,-22.83778755917655,1.375546156601531,67.46074764361816,-27.07675860865494,1.3999592559248262,-1.67448192797412,-12.517310705130063,69.70737488351202,15.799883171178664,75.94819548721289,28.583922909018035,0.1058619993737156,2.0061621877766354,319
5.6601369529887595,-26.36145988178942,0.9573736646585955,67.3942556199216,-27.81556940329385,0.8813736074202011,-2.7181878138945077,-11.893336162065967,76.72389333498452,19.73878571312307,75.69938418331292,28.99372560272082,-0.7451336135019722,2.222264832983011,320
5.678148068929356,-29.211806233964285,-2.185296153167221,68.77949040987916,-28.20487461812854,0.5331386584559573,-3.689073498832797,-14.341600941892102,84.55356879798,22.72055823859565,76.12145701743862,29.304172530492647,-1.4205091660455422,2.78925859836231,321
6.326288265724814,-32.44894976257892,-6.156239140919557,70.0362948454238,-28.42465194901775,0.178477015075661,-4.607712752651391,-14.700716560651541,90.56782939584984,27.88824711787327,76.79059046800822,29.45447078870941,-1.9626234731704282,3.3650987873445652,322
6.89004715826229,-35.88952430290774,-6.764577756149117,70.20657752104871,-28.769750845308785,-0.1552960477859542,-5.41400759695546,-20.055927765308873,95.53910247201004,23.504924130800415,76.95489128973692,29.82062273838085,-2.340379304604169,3.81300050170547,323
7.3759048454989085,-38.98457601167111,-11.481622961124309,71.25141984247982,-29.19440055123045,-0.573016743779844,-6.179383065086485,-19.39448899072834,99.37906671830191,28.87962336599125,78.3299907424144,29.944948382388795,-2.645515977519629,4.024909992906783,324
7.529832983339027,-41.99503113677345,-11.832370658797126,71.41076432239332,-29.764048929639998,-0.8716403360238649,-6.715464626522649,-34.54818091022344,102.25970258360996,12.75260625111902,75.69202748619934,29.993703632501557,-2.8425568590905734,3.9624862617745626,325
7.49882224976909,-44.883541489602365,-11.863993123933072,71.61887184301366,-30.431696099090622,-1.3389247090778227,-7.193987745418485,-46.28129483464409,102.63094001787246,7.783088839646772,69.83073406614034,29.91285269363892,-3.431154660125306,3.9501562650392943,326
6.77288124158362,-47.825414000363864,-11.817701573361157,71.51227992323868,-30.99893808111038,-1.9107865179348564,-7.633751242399892,-20.06114091423284,99.50931539752193,52.1234088405489,68.96969669749848,29.68190464325003,-4.081060744466233,4.028854622885848,327
5.16199564639153,-50.509436584851585,-10.88106352517619,71.28145811991625,-31.47169733333259,-2.4477269406240003,-8.043643709326325,-17.464970633162682,95.62771338172007,60.64183253228457,60.89853315230254,29.162759333533387,-4.716965151319388,4.124744852447045,328
3.642211091996755,-52.66387706552554,-10.00445784154097,70.97000846014537,-31.781286154611397,-2.9003513207817493,-8.336258795537754,-21.211241040965895,92.62507318792926,59.79002571429587,55.07400238647849,28.88932686976796,-5.202916312342745,4.134824766672354,329
3.008503905034213,-54.80347614009873,-6.0320451864008975,69.79092157035053,-32.00437762747292,-3.206012685888549,-8.383085283594292,-20.37093477667978,89.69865366461974,61.886582189769705,48.80618902226706,28.69258996126282,-5.634282196903755,4.0763832446408905,330
1.8619948150468655,-55.70584310990412,-5.955706133608035,69.18892768154352,-32.09327364220193,-3.5074437589880425,-8.376547357013342,-20.920055686261612,88.01928242669685,61.49550460929377,45.006403334826,28.515189017014478,-5.961516954498379,4.0698946330602155,331
0.28526218705160555,-56.44883940113384,-5.231054166458891,68.63331392850878,-32.1573323535557,-3.813146320463633,-8.354156655908266,-20.777032461277525,86.17598619409246,61.886322794566404,41.27651772506404,28.371931644448512,-6.253646254498413,4.117244879644948,332
-0.6954470026027919,-56.84390775611634,-4.907233711162996,68.20140501526693,-32.249254465962515,-3.908492655374897,-8.260095271501067,-20.710099030565253,85.08430371980813,62.05184578506171,38.95017760370203,28.28703512818922,-6.474580776405112,4.120533123027058,333
-0.4534462392160028,-57.432681597297034,-1.8869721681695013,67.06947656925823,-32.37484585131182,-3.972565466510094,-8.010038936024605,-21.356493391480864,85.20744111006472,61.197104558110105,39.05264986419311,28.362128801636775,-6.573880904163947,4.04962182563817,334
-0.6069682338750924,-56.89234012246647,-2.1023774386225127,66.84212174287494,-32.39329342826365,-3.96064910450564,-7.754299970488336,-22.47110286653165,85.37260905933708,59.72281204221928,39.194881636684826,28.47423835888734,-6.664446874411442,3.976737901456349,335
-0.003134224636732222,-56.22097461065076,-2.729599137209001,66.84927588375052,-32.317247577792834,-3.8778600458564605,-7.479812447057442,-22.705924972813893,86.79100344629595,57.017646179919566,41.65264599422827,28.62423739552294,-6.673642251402038,3.9441391100009624,336
0.5534256088949164,-55.5062434150915,-3.102330558160393,66.97589327089987,-32.29035218181738,-3.758571801911413,-7.243603854399391,-26.18004440389735,88.43456737234824,51.993639295973146,45.340080760393,28.948588583624833,-6.558675906942026,3.9342102417908382,337
2.128384518402786,-53.60578439557375,-4.754101970112966,66.92961910605862,-32.02156350002454,-3.561790322847227,-7.0690511171022266,-32.64390782195705,91.6702763934036,39.69263457090284,50.23969326092588,29.146272282235945,-6.4042506671274335,4.071218643575325,338
3.852725656913178,-51.03543052154396,-6.073812326762222,67.09514498757343,-31.547144619033364,-3.3700792041154437,-7.057806501533,-46.611953119572384,95.35212212081282,18.448594529872167,56.25423886809172,29.663782765317183,-6.07344135893184,4.525373331247185,339
6.231694476930904,-47.08815281986118,-7.5020177938050265,67.37739586839592,-31.043857753516875,-2.7935154015545294,-6.951137019314393,-80.62352529367651,96.68072937938989,-22.822039645771525,56.186031026502086,29.997955112737454,-5.48681683980551,4.705580218844461,340
7.207231922530431,-43.37334292949079,-7.481571801872085,67.60389541303336,-30.839424955711312,-2.2271822033096083,-6.583371691595928,-78.63681285803348,96.00377305661878,-26.82754039151325,57.98435190254337,30.687022049021138,-4.8291536738603185,4.667256942319941,341
7.661622065097797,-39.07576000900765,-7.60433165503912,67.3299028205312,-30.532413850617935,-1.8419732046930848,-6.080257292868158,-61.47909186090839,93.34542656093006,-15.836273728166685,61.189716562717585,31.509154979667194,-4.168965579528638,4.496275543687321,342
8.570310136431049,-35.86683510817509,-7.4693961865094485,67.45476277599104,-30.442934083268494,-1.4385426012033795,-5.583814820569743,-44.75303480668601,91.08380513320405,-4.489766511285877,65.01031957448595,32.31507877609621,-3.3607080725515135,4.19643322735924,343
9.791996436908475,-31.557201493729803,-6.5426359788381285,67.91213495242528,-29.989501755171823,-0.9344190539489229,-4.998568959621131,-33.94562724902371,86.0102006250997,3.5070108574690213,67.92994446972232,32.822050456231814,-2.3305990419734464,3.7472663561279824,344
10.69563394290135,-28.329453695883828,-6.033869977886292,68.0256205647632,-29.469093118314785,-0.5248606159700092,-4.426724335124793,-18.334124925162207,79.97412547554683,12.933141040744973,71.46252390046712,32.842463641093644,-1.0838461141057965,3.2955905157804324,345
10.344865596454744,-24.189697846548164,-5.523158308198001,67.60333005208196,-29.06193821537158,-0.044594621392647214,-3.727097992831349,-12.655045518359344,70.40557589023047,13.598524741511447,71.3900683068463,32.52694998524586,0.0697300025594018,2.50864278543917,346
10.492765596504375,-20.4670989624629,-5.194841242500899,67.25425523622779,-28.725421884181515,0.4642090822219552,-2.934183894822815,-4.986705432637244,59.257057814644256,13.814529038716504,71.11930476557852,31.95748516169904,1.1667597945035135,1.6275555734795506,347
10.61247171194222,-16.87214755822316,-4.835511657490067,66.91294187794514,-28.50332132154475,1.022138713300473,-2.017259878807285,-0.24840948604820848,48.51091316314027,14.384818694219675,70.99767376514383,31.306255022723008,2.061877541749824,0.7758233759220347,348
9.482950603698391,-14.155779408806568,-1.446235863747146,65.20014262146262,-28.41687746588545,1.4937467525365775,-1.0586080212421765,0.566001763670112,40.38299859219817,7.426070491467703,69.00258807402808,31.11601130901885,2.779723522456198,0.08432352936497466,349
9.03023454373916,-11.598096338548725,1.4662762858903062,63.35321623171728,-28.199889586389776,1.7094472969547623,-0.08688151752004533,2.225402315783386,31.815905506736534,6.384442313129469,66.97208139319876,30.32684928459916,3.1197532444659437,-0.7855216029610337,350
7.831331615263294,-9.253369334648317,5.359097215740106,62.38947584239815,-28.161449546773227,2.063492521596009,0.7675397511769051,3.5142767299280826,26.02386524450446,-0.9610799635693329,65.32897691029213,29.88942910549235,3.594346006743249,-1.3596842262785227,351
6.964606604158983,-7.5520037854124755,8.34432737243553,60.982641249882576,-28.17982702311622,2.240789180426026,1.578984860351105,3.808127368104173,20.811058524276635,-3.80959748495513,63.758853312974566,29.425582149058094,3.7289569913327543,-1.8574581826847267,352
7.525372697936765,-6.46869201544209,12.508386354925623,60.65071559165871,-28.136011623237312,2.564550822575593,2.308593614969273,5.658253614196058,16.393193432125468,-6.813737673840155,62.47866134260531,28.772190646222594,3.902996351465555,-2.457703920805281,353
8.402091771164711,-5.04821466059137,14.146838757542307,61.68317843269653,-27.897126033643012,3.068621045819585,3.0134564320645643,7.86112927077212,12.583550088866579,-8.547263248199219,63.46442338614369,28.09506894131654,4.312910026509432,-3.0230237613716424,354
8.463077078852349,-4.571174112022297,14.341633926545356,61.7617628192415,-27.74104583098802,3.292370123487675,3.412085840659093,8.159183001557619,10.178711546923562,-8.812312530760758,63.35450746806316,27.81226129954121,4.413779144421519,-3.2968708222126293,355
6.749153940382137,-5.008957946451514,13.248187111142252,61.160264346448294,-27.676092469190735,3.2181554419090896,3.4086143743068402,7.319237654141858,9.747149904951305,-8.214297954545879,62.88518810497694,27.81523801768906,4.339213596586415,-3.3188869875613274,356
4.848382110862702,-5.09942851935809,17.113216565929452,59.38444731931326,-27.745949468882376,3.0858090717310414,3.1437151010199367,3.5433163394060596,7.904822371943444,-16.79964683088332,59.472799942771125,27.89216425887958,3.9994746408912203,-3.044217832444438,357
4.57855013901169,-3.67391463451262,17.80936935984648,59.74627161689653,-27.735574073502534,3.2795126710412164,3.168616038302835,3.7527233445437322,4.797553022507881,-17.12959516640821,59.60864094891322,27.585472779193534,4.021344004925382,-3.2591363092059473,358
2.8963633846086716,-3.5777633615159923,16.793635819897343,59.29808201393732,-27.596720873723665,3.2850446556590276,2.9304624888480646,2.8626425667241993,4.509480812962756,-19.002723900145917,57.80344602336329,27.074462473201233,3.8322840960671547,-3.3375265646069416,359
2.919401224383518,-5.86263130869059,16.50036554112755,59.50776539238747,-27.500074664319264,3.309069542128274,2.884405946928166,3.8361334403911984,5.985471796099047,-15.383556405852927,58.35152534700804,26.64137912303239,3.749901298632214,-3.5328340784031367,360
3.600970364132416,-9.624933420156205,9.985230114535021,62.603103929902616,-27.108759784341594,3.4583448743320573,2.814731487267073,5.959388241699248,9.827174946702879,-10.508557372789188,61.260174297277345,26.21772480749122,3.8760824561700673,-3.5540542891335583,361
3.4433688522787755,-17.32272091525362,4.018006289974088,65.270474798352,-26.908516423411168,3.293437399746312,2.4451932716133604,7.127761682712711,16.902832292012487,-3.2108426517014843,63.457517498631304,25.97035176021227,3.634836044891306,-3.242548298022715,362
2.737458476291544,-23.917700120095066,-1.7155819029638146,68.03827593763799,-27.16559718029501,3.1451075248106424,1.9885452467912006,7.663022476700679,22.874578050619853,4.288360667733546,65.92198212655488,26.20219808309277,3.468784044277139,-2.5912677490947136,363
2.9492069379790093,-29.452754170582015,-4.434625511931788,69.71328761722194,-27.61580523301572,3.0373530366727555,1.725416800337169,9.348406190866278,27.673902840649436,8.381737510686794,67.77514819161225,26.649908721166053,3.406429363978994,-2.075139990737622,364
2.470709335162201,-34.2127778152169,-7.429940391573583,71.03795684670668,-28.146551132600283,2.94582983715347,1.5468599305917112,10.304733513729373,31.00522742387761,13.002121294805704,69.17797059151776,27.052464865840207,3.324276351246105,-1.717843203079184,365
3.411392691273152,-37.83057202190919,-11.506579012809445,72.38305152238642,-28.54741320931434,2.822134380772908,1.4394628623784158,12.250346413051949,33.02958494295635,18.27908695991193,70.64791777308993,27.34627694261019,3.1618156065773824,-1.3518264475936594,366
5.58335093471113,-41.01426925092626,-16.053892824398847,74.18196585880777,-28.810212890563903,2.743720426225519,1.225025477265011,15.151275657570574,33.9873682360212,24.39592532066422,72.20610783346825,27.354922492679446,3.0401646192587433,-0.8977821203679711,367
10.943311546340942,-43.3897429829715,-23.66249623256148,76.47924611606261,-28.899950432736006,2.5438872693363375,0.7489917020383705,20.77472164329207,34.473046581068054,33.29032307689223,73.97479673969286,27.248267600623084,2.720602906569274,-0.17649915888932144,368
16.531249406042853,-44.482813374911466,-34.33420882479965,78.39947895025554,-28.653485109248244,2.2434126422067044,0.06602428280944296,26.789370340012276,33.56164630673523,48.89670254406313,76.80853302577351,26.93479208129474,2.511838200051902,0.8030141827119994,369
23.35539650029168,-41.61314406080028,-55.42666010051865,80.71310425408379,-28.11105522754877,1.9427136567943595,-0.5970305416105692,32.58545061829832,30.93411850427852,66.45440561277933,79.12204770883619,26.577445668591025,2.4631254943194447,1.8561946832787661,370
27.17456667438749,-39.11578216844417,-67.56164253952424,81.74897749804046,-27.42735295690838,1.9786031291138049,-1.1839733625963473,37.0761169569694,27.830735250905793,84.73853577931843,80.91922898242093,26.15425491577733,2.8511193348399404,2.6998072758668537,371
29.65361532044864,-34.25468577000031,-76.22664735930758,81.94225445115458,-26.82529361796593,2.2716253470292394,-1.4804540801068686,38.87326317268479,22.05387465821624,82.36112469484651,81.51153472733345,25.71585083756667,3.374512851507817,3.1502157390747634,372
27.42314353934812,-29.703315696064433,-77.69684750912916,81.66386257239982,-26.331779282895045,2.9778639312805613,-1.532931729099067,35.7987215017252,14.74435578849056,88.29347889505092,81.75877601255671,24.97699735405969,4.145127136397976,3.07738341013403,373
