JMW9912/AVATAR/install/dynamixel_control/share/dynamixel_control/data/csv/.data/H1_0511_2223_Anysong_1_animation_semina_preprocessing.mp4_motor_degree_H1.csv
theta1,theta2,theta3,theta4,theta5,theta6,theta7,theta8,theta9,theta10,theta11,theta12,theta13,theta14,frame
-13.976668276605835,-5.344338581159931,23.883265296346426,50.905881986971465,4.076817007022363,-2.9377833895812016,-2.682067536473433,0.7101133124880136,8.608935309268583,-14.404209686435966,50.16932485992132,-2.613563976268075,-2.40352595343317,4.111803608032143,0
-17.90843055104004,-5.5252273741383116,23.242769360195147,51.35344996113954,1.971890707315279,-2.7164167969521946,-5.099322206725126,2.5281790891134532,8.937544473883456,-14.598100622466925,54.7007255491646,-1.6856900595154545,-2.4468442223666758,4.905772016332683,1
-19.095451112855386,-6.048764325330142,21.026454645430782,48.814026213069916,1.4999506563394256,-3.1660077403795754,-5.370421843627979,4.756013451936108,8.887374749439791,-13.647862422302172,56.36425267383206,-0.4961297136546437,-2.5220054172318145,4.393318067293963,2
-22.59198641884486,-8.484469717099085,19.963525864625645,43.16324965837387,1.8526188119087188,-3.6934013506492325,-5.687920619521613,7.088591697229756,10.50949990262137,-16.382933758920334,55.034976552188226,0.09153504951674472,-2.6413717130328447,3.8588693167849373,3
-30.013656498094107,-10.45489183759559,16.42168284592893,40.58691024093887,2.1586335240684194,-3.961957927991163,-6.395878948320952,9.16684770395416,10.697845782262785,-15.70437957127901,54.13692217770115,0.32070666712877577,-2.8263536132237754,3.263424320630097,4
-38.586313357331726,-15.113159256431192,17.88374544563536,41.83454191994146,1.5564869619444137,-3.921627014608256,-6.4886563228589,10.288854562652537,12.14297852905821,-21.67793429748231,52.18101411133218,1.0989664326848718,-2.903711398174737,2.3458437784309294,5
-46.42356746642435,-18.823984086211123,17.625284207452882,45.53540982097951,0.7536023933398535,-3.7009351319229262,-6.274132443765057,11.467026567424583,12.68098814515942,-24.907932746223203,51.53650830085845,1.8355436529545808,-2.8970833447000843,1.4233725569944156,6
-55.85417656451794,-24.052688301424077,22.878470340670304,51.147280534505676,-0.8341910001716006,-3.285414092018709,-5.511878140150119,12.42092274871406,12.75749074647506,-25.949840020746173,52.85591972986639,2.8282108514365367,-2.7583917203957298,0.4477214406918008,7
-63.50440404641553,-27.521046140150418,27.72764569171634,56.03799770604901,-2.438907022227376,-2.8725308946625554,-4.529236398711887,12.243474951509063,13.38611891348068,-29.216534173120312,52.52245520835145,3.546137510095572,-2.6650734051280844,-0.376428073540514,8
-68.85625328136923,-29.39113058517452,31.649225973325315,59.18405897650555,-3.956509670458833,-2.4312735603340525,-3.7693226344814232,12.077154519134154,12.859781270531892,-29.353277813271465,52.5717668358022,3.945617192816751,-2.590972979905392,-0.9963350953204854,9
-71.860593531329,-31.506285197150152,32.673267896056785,59.840290524400906,-4.9770790616784835,-2.391539628366383,-3.1862332520552368,12.43597908812842,12.63374784128731,-29.55556515307022,52.739151005684285,4.3064025135985196,-2.6676988770372727,-1.5157684753377856,10
-74.81460013525394,-33.40835204632994,34.632194269673924,61.044669079413545,-5.9026055454792905,-2.2850056659182725,-2.7824874663384973,12.790658338259588,12.603283079055537,-29.860790332658883,53.08924043873334,4.454871581360202,-2.649043765572649,-1.9340994631281836,11
-76.69377357915532,-34.98146308632935,35.73644653685189,61.629142099818935,-6.727715876303057,-2.251614679313398,-2.3674469768618662,13.373209769720669,13.045187342713673,-29.88670386928354,53.195797985100356,4.5130141035798665,-2.7393141539355437,-2.381407969693641,12
-76.6602230527777,-36.33076115908557,37.49962311592296,60.42404712367636,-7.307479596096345,-2.3759665258694076,-1.891097863575889,13.98485085918322,12.474920560504659,-27.01882552528433,53.97985474635677,4.515239070880477,-2.768983242125506,-2.659491175634392,13
-75.83916073650242,-36.69635049581769,39.10096144805657,59.13064805386095,-7.7955933667366235,-2.435446767666562,-1.5699557197207343,14.329061287981677,12.524447762860934,-27.098858094199215,54.0642822234876,4.517796063468473,-2.793320170311492,-2.8731885175987526,14
-74.74093385357502,-36.93837927735469,37.91496821334851,58.37263188070758,-8.204940359375081,-2.507647035152552,-1.1674780936092681,14.211389478865923,12.753490602170881,-27.094915285340978,54.13778189830142,4.609008232354376,-2.8363067348668545,-2.998445295722417,15
-75.20273089754511,-37.54320463743144,39.077316825117215,59.38936130449635,-8.87971085974763,-2.272878027703946,-1.0118448593253122,13.467943653603246,12.583045219266694,-26.66425638858528,53.62035572751278,4.633605236267621,-2.888689692131794,-2.9850537149738376,16
-73.73337037006954,-36.727580473195104,38.371730062717,59.05703781336772,-9.181779569115063,-2.2594481283495718,-1.0683914860946497,12.694223303351253,12.400057608170503,-26.427553896803477,53.337064126346135,4.670317758548559,-2.9503857443688912,-2.858924183086397,17
-71.87586663484643,-36.4629437783517,39.37821005131599,60.4053054453712,-10.003019397911796,-2.1045512075453803,-1.164912846280324,12.08174148374269,12.316441435796657,-26.534850322661732,53.49863935688209,4.799539168002117,-3.012624442013399,-2.7091380373805847,18
-67.86105154239253,-35.61357975268278,38.11856474861971,60.297889744964124,-10.343046161668335,-2.1335500769046662,-1.4326111334850524,11.491710769345206,12.490639567194032,-26.62904755244534,53.70665759438333,4.782539155030824,-3.042715380480774,-2.360925142091605,19
-63.234931334350144,-33.22403924389282,34.71010117184205,61.15926061077169,-10.628879526031751,-2.0470103710097534,-1.9365963454967223,10.701539219470492,12.388921949014895,-26.656234453896303,53.7780668010575,4.620846564366398,-3.042824934336318,-1.9052159851860722,20
-56.599326388412116,-30.840946204690418,31.340442618131938,59.54216680053063,-10.544192389872146,-2.2825101997645447,-2.606901710917104,9.657583320177306,12.115783097427842,-26.262186990132868,53.320307946417834,4.403870125886822,-3.228594627828393,-1.1840375440515583,21
-48.2916048344809,-25.964412358304465,27.493890113796198,55.886082741564145,-9.895197930914843,-2.6949967435990105,-3.34552048933552,8.098912813553927,11.890855241332009,-26.003010057549655,53.092956294854226,4.36704580193077,-3.250960055655973,-0.23450220601094007,22
-40.9397005328782,-21.658326300473078,27.85882640239584,53.86963606217497,-9.793825289753022,-2.865585216626508,-3.8566638292920707,7.050489103208656,11.327674864812781,-24.099436072559843,55.21889078327583,4.676269810573167,-3.0351375450171245,0.4549185779996313,23
-32.14588842162893,-15.877975788384111,25.907071443655468,52.39487689307023,-9.124926144068834,-3.101632755107943,-4.301603673599282,5.21222603041645,11.605428159463209,-24.82493959513629,56.17743504819084,5.050214668241325,-2.9271157970386326,1.4666051049060334,24
-26.943119248430236,-12.26412448138651,24.71337881890347,53.12111819660328,-9.025636366934638,-3.034755797766712,-4.571264574150438,3.3354246954958233,11.78505430738765,-25.57681889954381,57.08788553210165,5.567537846694648,-2.7962574696806137,2.108204080584425,25
-21.123977870745,-10.181599367752904,24.40750093870333,55.04803733043328,-8.81282675737616,-2.8977856113488856,-4.636503453308688,0.6653232183113195,12.234917298267185,-25.85259827495687,57.52676897876077,6.0439893723328835,-2.6826856207635053,2.8937731519996226,26
-16.56843675766579,-9.341830285138284,24.622023801554143,57.80526507551832,-8.754045872254776,-2.6386956386784135,-4.514595019770009,-2.3985876364207637,11.899614889408545,-24.505280649830365,58.40065145935592,6.561564210061019,-2.568979980712193,3.583173985863377,27
-11.061834642883314,-8.961804230523958,25.327352441568024,60.417988198137316,-8.756904520570954,-2.406449238722264,-3.9893140079299343,-6.130528776693271,12.62425794077414,-26.022726546125874,57.330975337475635,7.051353680462538,-2.543521406161348,4.319255766009002,28
-6.681614062894722,-9.759276951238167,28.635340665517507,62.0429565526131,-8.775646025555325,-2.13966811046175,-3.338105605571991,-8.917044265766712,13.101366817737581,-27.754520778667203,56.13005622093297,7.4233539280537935,-2.4944275051816307,4.557232698624902,29
-3.0166229901687447,-9.886462538477735,28.442988845795117,63.79549029893707,-8.66313429873377,-1.9327813984233635,-2.791493714688991,-11.971913800545266,13.417749425483706,-28.27393999213598,53.595726392112525,7.522603462192613,-2.5829678662465416,4.7213759218143165,30
0.6272617150413862,-10.491587638316263,29.575634274063944,64.57292062163705,-8.451387488655351,-1.7572385178704317,-2.1601342583518672,-14.69151700573336,12.912583087105341,-25.86340083782518,51.377175591205095,7.463464788561303,-2.721709456455382,4.873149635079433,31
3.6598546826674703,-11.245344464293058,29.224996555170645,64.27269665822088,-8.031045343886579,-1.7695278612092913,-1.5913554938852486,-17.00005510371627,13.531841743181424,-25.48530589678647,46.550648945045275,6.913775116511343,-3.0781416938008572,4.92830032059891,32
6.812422064319616,-12.244487682174045,28.782147018914664,63.97718884072214,-7.474701140965256,-1.8302385328197899,-1.1047124847129377,-21.47541593461896,14.844027702431234,-25.035795719688096,41.71705421392569,6.355146264478296,-3.5293420517838223,5.260532220348565,33
9.45686914282061,-13.631991343422168,30.018389100281365,62.33528020451046,-6.8850187424625044,-1.9543473125928337,-0.7018891167363125,-27.820318077690377,16.74055811042841,-24.640433039104806,37.15344293559517,5.893587865907781,-4.0284790163437325,5.6736537245172665,34
13.292343493149195,-15.192287129450207,30.138636461918512,59.72656747971465,-6.32935778450376,-2.387984641892151,0.15179188837781912,-33.40296859673392,22.20795321041662,-23.48715285152277,32.983131930369375,5.562125571071736,-4.622815303202752,5.2555059242015325,35
16.225178509188954,-16.87808049570247,32.442774145993276,55.15605193896373,-5.944504206190208,-2.950144536752346,1.042993470527561,-39.23928587802475,29.3884666205261,-25.640373119566892,28.770166163703212,5.422124549454654,-5.149490091811817,4.265019928070626,36
18.268728904732036,-19.44029388638583,34.87193984442173,49.82321712800432,-5.5733007538304875,-3.629099967022235,2.0008616808900945,-49.453500736887015,38.87346322614624,-33.358489615175245,27.39561640285181,6.421164309395268,-5.336268351705813,2.920648743486486,37
19.67442113879506,-20.657154023759357,34.36913448098916,43.087558865967715,-4.985926563776249,-4.435616304115119,2.7383084428661912,-57.22426943537077,44.739224561455416,-38.64053677468132,18.548124596862067,5.827556129271963,-5.991517627609074,1.1565735160189052,38
22.611154453323604,-21.2405714366471,35.0267692772855,44.922559520916224,-5.480167428484008,-4.504319733550006,3.4318628335983212,-69.66894013865874,48.994136356201885,-42.373448837658295,24.57122847523485,7.79144322299093,-5.5216152942809735,0.818717367897585,39
22.040507566230755,-20.368677589364932,32.18293112403151,45.809764784271934,-5.650296742500734,-4.201759487837944,3.1494932418873383,-76.67177604410233,47.09513418235767,-42.951510510535066,29.95466062928895,8.888425702428842,-4.751798612923288,1.2176205683904622,40
23.45101276338999,-21.897951278037475,31.314202350653886,45.39111655938255,-5.481372589173671,-4.344953476290139,3.4988684469092304,-81.34075168569052,47.21862214417664,-44.10844581042394,29.632861869130487,9.21944743182878,-4.557123839443206,1.4542510759581107,41
25.064458911723946,-23.560003948975673,31.13679851897848,46.5777198778817,-5.731499321202887,-4.4037176293210845,3.821367815931871,-85.32277708727761,48.595689280212476,-48.695157762631396,30.142552672314807,9.916872282259845,-4.4766454955315185,1.3885380299533676,42
26.148259083914265,-23.4754143010447,27.882249446062623,47.63498583228029,-5.813892011253516,-4.392195643754722,3.9565937973650898,-85.07699765148811,48.57389986432383,-47.48741420836863,25.984944735665792,9.41826572390463,-4.8059403978052515,1.0785584561312322,43
26.15274792039683,-23.310873636715225,28.178277432776763,48.00711606617954,-5.895463072357154,-4.315608782753029,3.8336922391671595,-80.88464378251186,48.24115023169567,-44.709002105816225,21.543165602566916,9.017423105326571,-5.07554856609182,0.9627447570449046,44
25.40515680661941,-23.360104778849294,28.70993840493521,48.80132032259227,-6.149711678162554,-4.109171164453115,3.754231994218946,-76.28088958117357,49.13012357686457,-44.47031794704213,25.023096043410625,10.151728623386527,-4.6032622846497375,0.8648308581293658,45
23.343809552773102,-23.177229884327257,28.67484187911948,48.28350535844859,-6.256013651456672,-4.04532091511868,3.366227603383208,-70.10031558880476,48.08960340098915,-42.532649839400264,23.860550443524538,10.459185201664896,-4.551168054289292,0.5041778982882243,46
20.290727968728387,-22.44847034834841,29.526372013668382,48.7920042589158,-6.473430971286642,-3.894691933923076,2.5360905413406334,-61.80972117787312,46.410040113139324,-40.852765744502484,25.220664603622488,11.150587485801234,-4.276656026320448,0.7504880532225433,47
16.501810580896265,-21.79839352736596,30.77317330006775,49.99914364768825,-6.923196954508936,-3.6590096607095637,1.5487160164541351,-53.353292461458594,42.342442161714295,-37.012612142574525,29.176788652229085,12.022920539266952,-3.8874748036717284,1.3171332542616636,48
13.288280210278355,-21.191751809609894,32.105446907048844,51.44351571402946,-7.470288641671482,-3.429393160100848,0.5905810570824366,-45.67039779263714,38.055011469218,-34.6547390418508,32.223804184486646,12.971904622022274,-3.6226019937511387,2.0591660992837637,49
9.617800238473762,-20.275306255352177,33.08271951992899,52.31287447827634,-8.022880487827106,-3.3474617299768465,-0.4508222512264057,-38.97288013904758,32.693284246300934,-31.073170429437283,34.878282116686364,13.544853905374648,-3.5280853800217007,3.0278613494974578,50
6.261113775478727,-19.994652403034355,34.05863304651807,53.37582234701949,-8.731053241932333,-3.3159682600250986,-1.40417638830743,-35.85119579157419,29.42787460850757,-31.072673092172376,39.012413885604914,14.52015750963729,-3.3069641606822233,4.019804197398834,51
3.6327400203344733,-19.882557262348403,34.94326476878576,54.34120097484885,-9.45554472039793,-3.3132534320517872,-2.3049602743892734,-32.63287634637926,26.4698238957151,-30.269006479990257,41.5609132523316,14.913688645653577,-3.3531365130744386,4.772386347351245,52
0.9865505813878613,-19.57715271466088,35.724094280043445,55.14071324946257,-9.936555364450598,-3.303455170056176,-3.20486447429163,-29.735960650725254,24.753481114541913,-32.23366990959668,42.958237654457434,14.924503794784686,-3.4132431193636377,5.33384484209344,53
-1.8734695320463792,-19.078366600317857,35.8404840213217,55.19210914126812,-10.134858891752549,-3.34472928729437,-4.194242408993812,-27.154859402592866,22.3823319701884,-31.006908469571247,45.07185315792583,14.815637973712727,-3.4778782587770722,6.057877821128237,54
-4.627081987320217,-18.053812286851073,34.10342835967517,55.03776969782408,-10.20109913396501,-3.4366333615211286,-5.0120452749282345,-23.952532923868365,20.242732079341206,-29.55918991096446,46.62425899467897,14.626488869891618,-3.533178455801595,6.3819359470470145,55
-7.5278030909817275,-17.154026110093113,32.540577993362355,53.95526541726854,-9.982837360957008,-3.6969895026261237,-5.868816476496252,-20.57528563093639,19.59993040892083,-30.56724702899225,46.74085374926161,14.121718110512019,-3.5930382773944256,6.597205572255971,56
-10.351857925209346,-16.185560835636032,31.13963410071879,52.92134904053596,-9.705384590928352,-3.8487498794556885,-6.523652288591243,-16.873952903400134,18.611879337974027,-29.521019677425482,49.006375069874146,13.745448288774623,-3.4437922564764656,6.692144650674561,57
-13.143909245858074,-15.194756546337448,29.35282992380354,51.29973098245105,-9.244412926070186,-3.979330667076019,-7.171010052809827,-14.665063943784157,17.5666509321717,-28.148462796865104,51.063959926761115,13.339901122721905,-3.273423746250159,6.807479723326826,58
-17.117733755073143,-14.33296185895887,27.007913273920902,49.15238852191717,-8.83079480954112,-4.1727166191736265,-7.757593737431789,-12.411546642513784,17.385399682823447,-29.760048163794227,52.27003750208747,13.086961386611359,-3.0950402345390806,6.748233777341536,59
-20.79426823771397,-14.919637935349822,27.78926882215781,46.19299742288542,-8.469100484126558,-4.387117962281863,-8.088612785574737,-9.565599500765895,16.743065810511,-28.5581865128121,54.158092144859786,12.766689664756521,-2.8452706985486724,6.511292593574806,60
-22.57315985485779,-14.972494805716895,25.31321843741547,42.71842033083843,-7.857648008631836,-4.695797681808468,-8.104235181080467,-6.424434518835744,16.26706216797761,-26.92960489845233,55.444320549000274,12.529366485080836,-2.669179816187769,5.977866518493727,61
-26.7832974370077,-15.209174193742511,23.81070292714869,41.712179301807296,-7.608540438502759,-4.846993195233677,-8.214991623844798,-3.970123107647569,16.069494775275786,-28.609041480674346,56.36769016734967,12.301830517596422,-2.4256738063732586,5.4590633834036755,62
-30.579456265584106,-16.294216187162636,22.207016183567948,40.804560637280574,-7.5216414292510345,-4.989630270493245,-8.221337689611248,-2.0644631090756547,15.925656516414886,-28.44751860066958,56.54682488421588,12.189197759874956,-2.3362269656823105,4.963571284517079,63
-33.5771244985628,-19.928919938136424,24.3025861832706,40.866652096073544,-7.789885709543776,-5.007000804090076,-7.9668819612156,-1.0710758495809887,16.62233175168523,-30.8314596556041,55.340660736877496,12.178505649254095,-2.391128460881201,4.466945548290277,64
-35.999274381757076,-22.80690024251798,23.893960400756548,42.74798832503119,-8.292211286467976,-4.951069273279175,-7.492864236348133,0.27742818051775303,16.543972036317122,-30.435174652434572,54.89251706313997,12.182260940905682,-2.509301307394179,3.871029470766767,65
-38.083827676278986,-26.203137106929972,23.993098062228455,45.462578769313836,-8.93412801026706,-4.839274963348891,-6.96788996058349,0.5942486131967998,17.13521721445404,-32.51669066933866,53.282048318007305,12.09008429067218,-2.6567538119352796,3.4863740691204623,66
-39.363584514351814,-29.804083658897135,23.867204187989753,47.56003165313171,-9.366423487598668,-4.804021210578078,-6.311955068802395,2.4642239481430943,16.94205610232123,-32.579709001774404,53.333933808620685,12.158546722475576,-2.8178317339469623,2.9115646067606535,67
-40.9924997596044,-34.3240146294925,27.229006150098755,49.34910177205197,-10.012306172023141,-4.649387238622855,-5.491904372144602,3.9168426902127482,17.283950962585987,-35.30984145546611,52.480767438053,12.278442371144848,-2.915109313738,2.2426364701924335,68
-43.442415603127955,-37.612791590003965,27.87004960556327,53.83931276195993,-10.865452764238794,-4.234140859495426,-4.776666848806523,5.095122781622946,16.74537330066445,-35.355912793223375,52.45525390882713,12.303001221685442,-2.9319408470823523,1.7130449897556268,69
-46.80079996456387,-42.09923581089331,33.389498770141444,56.84091792258917,-11.90573684653495,-3.8446842076872945,-4.064091650929806,6.219227913451775,16.47010018927072,-35.65455472706498,52.774960020286066,12.441547099678488,-2.9351606674997206,1.2466462223539356,70
-48.00268444378528,-43.82841656139812,34.86117224551146,58.58505103573814,-12.297963390596838,-3.5677795850176186,-3.766194036036561,7.02320355097249,15.810402355572787,-36.07665903246543,53.19586517014467,12.384128894848576,-2.819169234449626,1.1125904290752837,71
-48.13337282618056,-43.755636922920694,32.462943663828824,59.7167655967294,-12.437794617489098,-3.397488662973986,-3.566982975457246,7.796135236860915,15.154125080514376,-36.63434741953221,53.762345332557175,12.260099364064388,-2.622781830727786,1.003330176455209,72
-49.13823743476963,-44.55666856473473,32.51070701257678,59.52339441842436,-12.21627279198515,-3.2395877735669627,-3.4643403341042256,8.5164899452383,14.62928613380237,-37.36279835356857,54.529657320572134,12.091215052345817,-2.4102357865883883,0.9120864028157578,73
-50.43953951835381,-47.53126075126348,32.68283401289772,60.073778264823524,-12.214463453909957,-3.1603029981925763,-3.2721073903317444,9.389313008945148,13.853415745551363,-35.303348463674155,55.90129901529459,12.072874633419014,-2.291180736354381,0.819162971303403,74
-49.747418752914704,-50.452977859114036,30.739088028620543,59.75628338981164,-12.054906794944474,-3.2470818753851196,-3.085190087609699,10.030716348804688,13.541790558078551,-35.442302446042845,55.956600483368824,11.984158869150908,-2.2963584588971573,0.9060363440707244,75
-51.39064782252693,-53.69585318166548,30.898592415426474,59.920686588774544,-11.9391148413066,-3.2546520685818163,-3.173586358423027,10.677220725809713,13.246252160384046,-35.87497198153059,56.32786168616355,11.817924209701012,-2.289135568323036,0.9830489446383247,76
-50.78170771294346,-55.15593693313303,29.73679895633789,59.70022939067714,-11.372861745620547,-3.2985882839136007,-3.417301359467283,11.654325145917891,12.169122631499146,-33.71902540550804,57.44413611937223,11.619031848398393,-2.212882058262761,1.0453916745439595,77
-51.48114186365692,-55.74368680319246,27.958442842457703,61.15816008720848,-11.114920876162488,-3.123557335079352,-3.796261001590316,12.400829610090678,11.737373195365539,-34.06931500528524,57.645328388515516,11.247674457896832,-2.1347968049057995,0.9862295619520646,78
-51.368878023297896,-55.28897171980746,25.47140133563235,62.247249775840956,-10.74405297915819,-2.930188464048718,-4.196934933244377,12.917680052216712,11.320633604885831,-34.28462808198743,57.725206235785684,10.893834898464563,-1.998876388782339,0.9770069556280077,79
-51.63062649381983,-55.452894866537214,24.123273680434096,64.02841861945245,-10.665140858897686,-2.69506809734786,-4.286522521482582,12.867037332831522,10.896658534432627,-34.42766330965046,57.77997543023882,10.79656636251265,-1.895707448322508,0.9761831701539881,80
-52.103553222460675,-57.03504220961985,24.978601750513835,64.61102046375191,-10.926166252810832,-2.5500462254610463,-4.068438935841278,12.654169480858583,10.910793859908754,-34.347961993064004,57.72527928971129,10.696564902285127,-1.8566157434973127,0.9036832755555146,81
-49.9479640357867,-57.045874307950335,26.049680580312035,63.803570250353935,-10.949622726765812,-2.4872552442858953,-3.677349550219251,12.298658913965209,10.702419167183464,-34.40890628346655,57.77696093296602,10.627132000524677,-1.7604432045671714,0.9743829449312883,82
-48.728942310185495,-54.20299912078983,24.3663134907562,65.36726287258875,-11.096187648654983,-2.279122970906274,-3.566828981838756,10.991477985218957,10.48878271056338,-34.31561438559759,57.77627261648553,10.493260583014278,-1.6288576001843549,1.2087197275121035,83
-47.51632517694445,-51.791792259178244,25.654771113567474,66.11793772178984,-11.511787523642473,-2.0247462348065888,-3.5701375545727894,8.762881100820124,10.961183304472533,-36.52813092032201,56.81236055572687,10.451739662040572,-1.5539238329811602,1.6465153306045954,84
-46.09707328760275,-48.208206228349255,25.894846368714386,66.05088865309662,-11.655849581938812,-1.8826580034671596,-3.836813135217135,6.69217283060338,10.273585015165139,-33.348233427911765,57.23548962355928,10.238259326768777,-1.4862748814250286,2.187354496190189,85
-40.75740680074565,-41.583625366411155,22.660702102356957,64.71795159418895,-11.211776470987653,-1.9041135327371717,-4.431216377641853,5.1319242642050265,10.281265390515788,-33.30436288771655,57.358492013856036,9.798475404157017,-1.2959703453425426,2.9149618307660705,86
-35.09695682658916,-35.11943876207638,22.657425948870063,62.2928134799602,-10.90771066326698,-1.8185944821207698,-4.668875542025385,4.278631093920872,9.543694122766764,-30.402391785242347,58.01176564304285,9.446088646596477,-1.171247466350533,3.19366705440907,87
-32.947306098519135,-28.731368037991366,21.21724729536141,59.454628907679236,-10.550951573318901,-1.9449476233526375,-5.681396077512422,2.1314154776370096,9.807034854863698,-29.19370871481047,57.61564441568037,8.95683376463295,-1.187889563302265,3.736012360087828,88
-29.90800097989208,-22.232516589591835,20.886743054803723,56.887698477102695,-10.3523740519129,-2.20906764201153,-6.584692908021927,0.19728669573562543,9.880188466413788,-28.242054131807826,57.23383769994511,8.918686829356902,-1.2991361500539023,4.2542942111218744,89
-27.701342534338103,-17.063357435471968,18.019386285988183,56.12035176030411,-10.102064352632173,-2.4088422679490518,-7.61447599284022,-1.8017837144592401,10.960440357890345,-30.370269289712155,56.401959302841924,8.974788479813606,-1.4131631290636795,4.859270899681543,90
-22.912900646411206,-13.373294975866399,18.591991603683205,54.47862265647812,-10.030016569007516,-2.5820045054513483,-7.693618769973026,-3.098082574085187,11.472562313268169,-30.019816171784687,56.49768259830787,9.39273223708338,-1.548281849999246,5.253110464643963,91
-19.200471016832008,-11.665028832211112,21.406026186386075,55.94091468780914,-10.289275465119964,-2.4447835299327823,-7.640322491585399,-4.841116603846486,11.531362897065858,-29.490593045511257,56.43778915817591,9.55040263319615,-1.650135957880044,5.58926502438318,92
-16.801860266906424,-10.501460303470934,21.28743406330547,58.69011885616098,-10.599470905774382,-2.286993988383438,-7.703534707071318,-7.756739827683657,12.28624591454792,-30.906612132745703,55.0227125977366,9.565275179389984,-1.7938064146727442,6.03510011770078,93
-13.381369801377025,-10.999487889211041,24.56881615018124,60.65531602435722,-10.856364804270694,-2.0763346188667127,-7.555247650777456,-10.403708205864918,12.367845836140855,-29.187870563448445,53.89516732118144,9.523118770659197,-2.0090363743510644,6.417756948545066,94
-10.040211835787266,-11.311275689728786,24.2931894763306,62.68917436167022,-10.969575841757518,-1.896807525457204,-7.2250699613437535,-12.997363293209636,13.499690319031982,-29.804522630994548,51.27205485538181,9.401170813746322,-2.2385699510455335,6.674265580238433,95
-6.278796580870991,-11.848288000158293,23.512652547365807,64.1625078730925,-10.794315020078606,-1.6807433935302434,-6.816261086747245,-13.532866982704846,14.118356700079488,-27.938172314976924,49.184518983242405,8.948402827721402,-2.40153395764907,6.707833103464626,96
-3.5628026519390983,-12.630864646123348,22.05853886561949,64.97263734752374,-10.215107355103033,-1.5256517169328747,-6.632672326081243,-17.421451627869526,16.154500221069465,-24.66184302019888,46.685709920834604,8.243666395651413,-2.598507731836539,7.238736753014601,97
-1.119120303838898,-13.545247942114184,21.547950248927464,64.65189698531894,-9.702409537444591,-1.5791003513892277,-6.502826544262225,-19.370895048457914,18.503379308494168,-20.906032363248013,42.82680329556687,7.366204441362321,-2.989574699953027,7.579180230676655,98
-0.0038372885132638987,-14.796965397155388,23.723853648793224,63.462039254956565,-9.350999081468451,-1.6655163873003067,-6.226246270297386,-23.706049499557345,23.48644669456711,-18.250749121094664,43.32800815682606,7.382522150555255,-3.0836637964891263,7.745967387254987,99
2.957071154317612,-16.564866370671425,25.727572807694237,62.23998360191968,-9.344770923490232,-1.9179260049289186,-5.411591955182325,-29.374825947803178,32.989361726126766,-15.945832218481211,47.748092916053146,8.332495859858282,-3.0222417454614687,7.474726407577279,100
5.184676540462558,-17.145063127681066,26.469463123947047,59.97112347862124,-9.3892830970156,-2.3350148506029504,-4.6038965196598625,-34.5214387547769,41.9322073749525,-18.57878750149788,49.73922529691263,9.560176420179676,-3.0992312052380493,6.792141074998947,101
8.18174517869177,-18.504876877697214,29.750140003498878,56.38906745547836,-9.218498220818654,-2.9396806812494214,-3.5575293557010053,-39.76114420839983,51.394765199094664,-24.707190950294148,49.473188831770194,10.58268355934119,-3.2966436783257076,5.6597788381704515,102
12.402319873225293,-20.10059220610946,30.51652400776031,53.6889841799853,-8.949491782648803,-3.7189968631886705,-2.281442352370669,-51.85415690213043,61.06390197979376,-33.83297119393925,50.886527518496045,12.143498272036473,-3.3847605538332544,4.614576122244941,103
15.14935978680583,-19.74660446556817,32.30025701796086,51.33632429973733,-8.237985699365622,-3.92931292321121,-1.5687060670789954,-59.06519261108189,60.665987299972095,-35.971746589241775,52.16460852306237,13.093814526200054,-2.980385510985181,4.679138906291185,104
17.554330430920523,-19.968248888075596,32.2758658171564,51.495691227468605,-7.993045144945991,-4.005337126931893,-0.9502973553366687,-67.64995556756575,63.570056994152665,-44.73730401074862,57.05600005112859,14.501488111576966,-2.180056875140126,4.762369687787432,105
17.1610010495877,-18.517552924598554,29.324183903538383,51.83802041137654,-7.7532033998363294,-3.9063713441007506,-1.117366692608252,-71.11813316877279,62.88956573612399,-46.25617576517474,59.589235623199116,14.826178899994378,-1.695406892480461,5.107123415361822,106
17.094946392345204,-18.68060670907884,29.427579966334655,52.043368967793796,-7.64150642507404,-3.7848963019323865,-1.100589752107116,-70.68925844744861,61.75031143358582,-44.33528255069804,60.77876882530879,14.973841060603995,-1.5076806442035977,5.185651648445151,107
18.10412842919073,-19.076820593397812,29.499050381147825,52.34388543117227,-7.7581341383950715,-3.9137343261465625,-0.8421415096250239,-70.34033255729497,63.374237639707495,-46.93081611138229,60.59283687040674,15.481623663576968,-1.4466110042265325,4.729309415139434,108
17.46092406921285,-18.72834643542628,28.987833495497917,51.47078134849079,-7.69044514492232,-4.036256762640356,-0.8597610401760474,-67.67928480656317,63.04221391338894,-47.874871309213425,60.08075268648766,15.810660997565687,-1.4007760032481267,4.059418865536311,109
16.05530493163497,-19.44089765882384,31.222430199803426,49.65396488672184,-7.547736371934802,-4.1074956388717005,-1.0155582717456648,-62.26077964340958,61.3817459745965,-45.2433819951243,60.38271189711941,15.916113754282597,-1.2847507991548206,3.43687527602773,110
13.661389545693085,-18.61964409240081,31.29260718358099,49.39389586813808,-7.540896669887097,-3.955573511326857,-1.4436590319755764,-56.469707875709304,58.20929259053841,-42.11117992785787,60.20863148163364,15.631617734351268,-1.1970349560621845,3.067194088539124,111
11.630270135678956,-17.6850573514472,32.012834728416706,50.19129164156426,-7.621779672904668,-3.6998187882497713,-2.0344866667439363,-49.82213947590983,53.7054123332413,-39.941465517830686,57.633556816489346,14.82593352375053,-1.3671703574284801,2.823564323415852,112
9.374515979087601,-16.328837886739823,33.25937809487364,51.70267924912617,-7.953400200684058,-3.3654084695929876,-2.6039933160308144,-42.940239505944376,48.94387923798473,-37.88264716888786,58.175316959108116,14.442599059766295,-1.204088370885813,2.7889700206543933,113
7.183848851304838,-15.4454130642329,34.091609226405964,52.765296189096766,-8.13989108116589,-2.9794906247334425,-3.3031321540295164,-35.68702588037436,42.5460021842832,-32.73949757533554,58.35051605148338,13.830011446612096,-1.1354375971166142,3.176567044395107,114
5.11275416630315,-14.730968981334396,35.27793629470086,54.28560420061571,-8.561271747348632,-2.616520146773141,-3.8303047603356273,-30.532828498992615,37.751811282636446,-32.3578690078421,57.54183380962918,13.477107170720444,-1.0492253161636869,3.403590495104167,115
3.4603750941896823,-13.743168457815417,33.807943586870735,56.49118231989514,-8.84769769846742,-2.2704283547505186,-4.535827742419608,-26.213253636886236,33.7265367122558,-33.742994799393635,56.671475925718894,13.177577215375814,-1.0609306872583886,3.842539362247415,116
1.4468770858044544,-13.564041045629398,34.57265222832062,57.37596858293418,-8.938458242883916,-1.96453071398214,-5.340226314284572,-22.699017361665074,28.43417326647475,-31.288841490586844,55.702882078663784,12.631612435980996,-1.233128815579461,4.686949920608576,117
-0.3153298110399557,-13.750111340538508,35.3043746808799,58.1754046293369,-9.00215358001811,-1.7412477472653183,-5.845356520685289,-20.557655563869535,23.419247139593814,-30.597000836074603,53.02978716127306,12.126925241434478,-1.5428969753990436,5.547893515267644,118
-3.142253522103564,-13.573859896276241,32.267792269235,58.90390011680893,-9.011740533098486,-1.7191282318544032,-6.373941608985904,-20.39245177568291,20.233895774234018,-30.645607158961788,52.023073972056224,12.236741617703087,-1.7909718309173537,6.423453326374109,119
-6.068096713110023,-14.06834989713948,31.22223162125102,58.76088616136039,-8.998813460530116,-1.9039980737369144,-7.09322455342381,-20.289830634655182,18.3449297894327,-30.826138977762525,51.59354930305828,12.473086969960663,-2.125290621319407,7.234124329562372,120
-8.356283840665666,-15.184610373225981,30.6458478982212,58.975976594728905,-8.916379028783123,-2.2229104769398806,-7.888221157104933,-19.294982223058835,17.16879937989078,-31.152248746443924,51.33245036969538,12.438562763140213,-2.593804545445747,7.77560960456922,121
-11.637437977444598,-16.457628089126555,30.08149115763788,59.43266083975142,-8.848422585881687,-2.5469470573661215,-8.84360548477533,-17.461720749003476,15.289201303893972,-29.283462816162626,52.490930320170364,12.370375372188366,-2.862229439976317,8.20095255902263,122
-14.681602801956556,-17.761031638185674,29.189489982039913,59.58775697686783,-8.863548027214884,-2.904853413116791,-9.537061530863895,-15.501840509649972,14.797494019355034,-31.52024123039834,54.364459110244624,12.751736804663468,-2.870800739991982,8.412952293004512,123
-18.20098196097183,-19.077922581718646,28.349674414250227,59.8768004173806,-9.018417797842957,-3.211413736764862,-10.255462936547534,-14.170318188583867,14.063065114866083,-30.982083115395344,57.062020256083585,13.044645702783969,-2.8139131497898435,8.628212821186496,124
-21.348330501896474,-20.07423832884641,26.43433653536835,59.22860119328822,-9.152325174301533,-3.4958489973159907,-10.737591503192418,-12.508913749478953,14.06177365407395,-30.327703486953414,59.386504179162515,13.238732265576596,-2.7280619589981,8.788608974121567,125
-24.042322347235945,-21.503429782976887,24.233866279296375,58.344521237480414,-9.341595351707985,-3.700583669792579,-10.965180908613542,-10.788374633639222,15.132555459877045,-31.81489938467034,60.358869180295,13.218754701807043,-2.6688593499096944,8.823450841302217,126
-25.745401117189385,-23.137926314978476,22.464560251225755,57.655573703318936,-9.566287818096294,-3.9272474571728555,-10.859997794276591,-8.11426465858336,15.422596043370271,-31.02011273220653,62.02719521868764,13.2692613602485,-2.662406667934444,8.577741158855288,127
-28.345121946063298,-24.7237940296586,20.533141391413547,57.005322688351114,-9.842874520262175,-4.191076476307032,-10.705074223856432,-5.8391468915979345,15.949428046899113,-32.185258534352016,62.634439076019525,13.211381233802229,-2.68903767525562,8.233144461484766,128
-30.49088912749208,-27.027356220108803,21.38910822862654,55.242430451320935,-10.18583828206211,-4.4827237777272755,-10.437094206712926,-3.5731982650573437,16.445938556341904,-32.99664267944542,63.169730033198924,13.219481079097338,-2.704170155336113,7.9242515619425555,129
-32.83607900310454,-28.987358387544177,22.35038002800941,53.396883295540576,-10.566622066489526,-4.737008320450018,-10.117442918435076,-0.9535674261911853,16.736329798049624,-33.646270639631496,63.61576953288274,13.14522264872517,-2.6876701886509204,7.646255544892886,130
-34.68376919132565,-30.40830609237089,21.039218663484917,53.04108550768482,-11.008894095737585,-4.889011729987408,-9.790253962875662,1.109999191663952,16.46052597086523,-31.600160313106752,64.66915349156712,13.077363977531988,-2.7236140212950977,7.41994652610514,131
-36.77006372427292,-32.428043548566905,22.887899038696634,51.94990843220071,-11.493969760319317,-5.040956859572415,-9.552624949209108,3.121349235087477,16.621835523414134,-31.700768277433344,64.77069883086858,12.90570701111363,-2.769997479084732,7.2337114787863275,132
-39.23563862184041,-33.2540641790749,21.75900239472551,51.61386492836225,-11.82766859325004,-5.133894830379511,-9.45667107649822,4.789004813634514,16.78126493792201,-31.934069850604804,64.94344255805616,12.728925294153496,-2.735145342577757,7.063186180416349,133
-42.065051108412185,-33.858055485977154,24.19951644071276,50.52948400445781,-12.347181558508924,-5.206613519240537,-9.311431917065729,5.981410073973602,16.72271188409581,-29.41266767406507,65.7563508638941,12.506012505605547,-2.6914862349052306,6.896382681466312,134
-42.94910621950284,-34.382892555152154,23.891606911113147,50.916272356107015,-12.862226583803794,-5.22103616264225,-9.141037631260458,7.477714097817722,17.645838904340692,-29.414065213440658,65.8670113795073,12.343079172137271,-2.697690461290881,6.770501049043797,135
-43.30685275014945,-35.664724774893536,27.02783843930005,50.621031212904875,-13.34983506389379,-5.177666722557589,-8.887811502686416,9.06520734437992,17.741732243926766,-26.806147383211403,66.7378132620607,12.132975572725272,-2.7099569507809593,6.651201627112893,136
-43.64813899459599,-35.49861866415724,27.32737470397972,50.63801113937243,-13.74425730595142,-5.142225638615488,-8.704195561953576,10.741257842204625,17.876859078152297,-23.695423812775516,67.45960070553387,11.794230788226686,-2.6747576010727676,6.4958024483815935,137
-43.939091524057545,-35.83660162614592,27.1722143206814,50.4807192270946,-13.999139875119232,-5.165991495043168,-8.57090581080811,12.315351981501308,18.41449603727783,-20.995682021850197,68.48362173120694,11.70864201169248,-2.6902459124088893,6.459515598190953,138
-43.8416486535852,-35.9782933004112,26.876807725997722,50.20846297762149,-14.22605925044333,-5.219214145122402,-8.397817292192554,14.246103559439778,19.01801693689685,-20.467355074162572,68.46661531155841,11.552291871674964,-2.6969909672821633,6.427959412320722,139
-43.96183346820865,-36.15402404362414,26.82189626193554,50.199073893697225,-14.423838908634094,-5.271393367773392,-8.160754380153186,15.674128890672499,18.846405840121758,-20.292226317413487,68.46505236782839,11.462724816514145,-2.729543066463499,6.336204627283415,140
-42.68331894725203,-37.18082562354544,25.959528646959342,51.08456524848633,-14.581065089004552,-5.277443193905639,-7.8841838077010795,16.209767711825155,18.712163725496097,-17.626661751822343,69.45272151038533,11.428220218507589,-2.755238275444311,6.391544231625097,141
-41.98385415991797,-38.80241011527752,28.004764801252026,50.355741218014806,-14.57336679799602,-5.28380627723324,-7.608366207803871,16.645153944316256,18.5850804793188,-17.372047696444927,69.36726416477293,11.453447429070431,-2.7754855214396272,6.343094946258663,142
-40.72986782825143,-40.203911403101735,26.91848810003577,51.33042108936105,-14.654323146077386,-5.267739736487658,-7.374251163118422,17.203206426750185,18.608391999165843,-17.984135517987838,69.63452256982227,11.624913710866775,-2.763428686422552,6.328784986203223,143
-39.06105890263606,-41.67926196937682,25.851795240042033,52.87867009772519,-14.762669480406467,-5.135903658629906,-7.154134821200237,17.635709016535593,18.72316549420275,-18.87989043731308,69.99802254311744,11.76919808084972,-2.7535070224859686,6.36507779591218,144
-37.825775068510744,-42.94523093115313,24.907062906419544,53.94663671676523,-14.76131219235921,-5.030901254303252,-7.043862659364371,17.83919248249393,18.356171712929786,-16.63910798573089,71.06428744920825,11.753593853400698,-2.7209504478225055,6.439926745251368,145
-36.59960221241712,-43.263563555743644,24.24382253326607,54.574838127236816,-14.675770066292413,-4.851457756197207,-7.012570360233032,17.665524568568326,18.25189766689425,-16.75088646483093,71.07226141394955,11.622955570701974,-2.6453787428205504,6.616237816816036,146
-35.28499889835937,-42.902764793489226,24.155646483136056,55.52509464582238,-14.453057933727704,-4.659660899827207,-7.1633761002328775,17.305560278820604,17.019703209483744,-14.661390436301105,72.02982460856656,11.332649670006928,-2.5276421033690166,6.846363365824782,147
-33.801217149819074,-42.053888091833144,23.801636744388404,55.874751501122695,-14.225987558230546,-4.420618063402849,-7.263166829854515,16.724524217614775,16.147916163736433,-14.812015727011385,71.91978466484966,10.974051901945973,-2.41784442468312,7.138097277085432,148
-30.657686602666537,-40.249035338504186,22.90967726774914,56.468931064800046,-13.988715991244527,-4.1901811330366705,-7.332755765227343,15.225425555218052,15.431749654701175,-14.369379398838205,71.62877262204235,10.606029734593278,-2.320333212969931,7.585455770536906,149
-28.22726258919693,-37.13785206950589,22.520215662365906,55.76633286609867,-13.699943716627367,-4.09186825848347,-7.321114484024712,13.99187467716215,14.64764459506601,-16.46510230663441,70.30414110864751,10.279098844265578,-2.2146507684674597,7.955401705453039,150
-26.81116551456514,-33.64802196271002,23.979762044906213,55.385830620739696,-13.57092155888732,-3.9580636258609454,-7.3973492203419875,11.759645694677678,13.83108660346631,-16.27454040502975,70.08209260755768,9.98539911258601,-2.05149693830929,8.40949280841754,151
-25.18588446805761,-29.51503389655233,25.59922321686359,55.03898056157494,-13.372404145982003,-3.767775182608405,-7.424025785856723,9.907628986439015,13.321844553700599,-18.622131832240797,68.9080793531944,9.778979221111383,-1.906546321194996,8.74252356440222,152
-24.214778989219177,-25.084850122146342,27.378868610485938,55.08052451633533,-13.27431214995187,-3.5243610268747476,-7.345464139506509,8.370342439885826,12.8654862433856,-21.625594780282754,68.07010546133961,9.730698247486115,-1.6266152149877233,8.87931029562535,153
-23.145444757852946,-20.954676649625867,29.232345481778673,55.450182797480274,-13.328998266240449,-3.231042808995063,-7.38617145289415,6.079756348678909,12.816201760261782,-23.643243661293397,66.89912999017857,9.667561186389428,-1.3998221596480929,9.060014503873159,154
-21.068563973570548,-18.11075599301493,31.338512811297903,56.303104600382845,-13.538549370344896,-3.0167760922716345,-7.324767076319342,3.310517066688476,13.198814326641177,-25.038909149688447,65.4384223463416,9.689170518156924,-1.3818217138859714,9.269231367394877,155
-20.0740580953431,-16.222378459192594,35.405192093940244,56.04575248388432,-13.602180132369343,-2.902067615206718,-7.465476701882408,0.3861469162595332,13.912255164611603,-26.987195160679683,64.24099774254486,9.82734683699088,-1.3666065156367597,9.608756348115051,156
-18.359519712881518,-14.675484703173135,36.84278098650382,56.77448791815235,-13.530736962421154,-2.7959803604786466,-7.827334361720908,-3.0032285854293685,14.733748823651862,-29.12320571636576,63.137819915942096,9.977600468969133,-1.356854761746098,10.129038873077597,157
-16.083250451371445,-12.303917037129386,35.6525020043,58.06863219606346,-13.323907277791522,-2.6774321211465617,-8.216295468948807,-6.035696708486064,14.88495550272815,-30.764981462023705,61.40823750484552,9.919518336439735,-1.399881027196022,10.606000589857576,158
-13.213046386357254,-11.801421261175271,37.792195346841424,59.276408493196854,-13.182490234657513,-2.469108570853978,-8.56707618986274,-9.486101212275159,14.758429042918793,-31.584898848864135,59.87378755790975,10.01306851151513,-1.4854212723102955,10.949060921303085,159
-10.1979176457931,-10.864739512184384,37.53003024659896,61.15491932415221,-12.967210635802,-2.2075793120522444,-8.859658182578041,-13.380039539285837,14.076253389378483,-32.4945122545106,58.24492822167139,10.13138678218328,-1.5736346964358268,11.275728902796923,160
-6.115157998409759,-10.123851222414775,35.813408270850324,61.691447690773124,-12.531989488981655,-2.0479031809809434,-8.751507680202359,-16.860013284864856,13.166093509717832,-33.58879154459727,56.453928385733455,10.291324604625306,-1.6716959493559254,11.429311077947238,161
0.4434638235712786,-11.606380068850996,34.389631122152224,62.925149606341,-11.776293826193365,-2.024144540131313,-8.535998609691767,-21.33161908709473,13.429615877563172,-31.91983788623236,55.85264968518046,10.675143599632067,-1.9614862701226932,12.095993333760058,162
5.578541323096445,-12.697649552010203,29.106671214475565,64.22833270569849,-11.065121694817346,-2.0313163845362503,-8.176246346939566,-25.724283460430797,13.193831830569136,-32.60765448003611,53.58119575349866,11.31076028972903,-2.3862281136348957,12.235258766858683,163
9.84237374094529,-15.853054964197895,22.787772207272113,63.143893824946566,-10.005690837979522,-2.382650024957418,-7.898082445635934,-29.703941727541523,14.775644424027332,-33.8216048289522,52.06539497538062,11.97873775830713,-2.7465842384481167,12.359215166731719,164
14.144912896700696,-22.219872963701835,14.124404385993648,53.21780964677117,-7.848315762545379,-3.6966043748448247,-8.069091660251484,-32.7519427075333,17.118937569294257,-33.723843121824416,48.52616011260739,12.588704341498905,-3.395471070542232,12.5209257573859,165
18.3478961510336,-26.880741223929842,5.206791117493393,42.809193654433464,-5.982742929967537,-4.977386267917564,-8.544171999771322,-36.21311794929041,19.788445495604826,-38.15004564140874,46.220887141062384,13.70391628556874,-3.8782830508824553,12.81065012208567,166
18.215823035347707,-30.256146617283747,-3.985238075044234,33.63154243163665,-4.320932604800672,-5.890496655741541,-10.380646996779225,-38.50770157254747,20.589186494421742,-38.05128076517043,47.00700985641636,14.625160145100988,-4.251718515569774,13.303837040062843,167
18.96936791355982,-35.10184083112184,-9.420313366343995,23.02555223139066,-2.7496033292483326,-6.8156852538847446,-11.762755463219008,-41.60643723068425,22.402308821445484,-40.159865863457696,46.184616039234285,15.62831816573596,-4.614093412726886,13.50494336211731,168
18.139823809623834,-28.335201189988666,-2.5864351623108597,35.52751972564849,-5.643098979295273,-6.206519136574033,-11.873757271816672,-47.19054755396768,21.479194433312607,-39.55144505226128,45.987388793486765,15.878303523669482,-4.811760899085233,13.450125070345177,169
21.391446009369776,-23.77824256704775,4.662038884410173,54.641356112072664,-9.325486382950498,-4.851007996870876,-10.79775266368717,-54.229281457196144,22.447738741847324,-41.473559720452435,44.95106268337044,15.615493006951352,-4.833732098281395,13.001465098582672,170
24.251244959493924,-21.70849891432234,9.44060304056355,66.1013349773105,-11.134442447137817,-3.461420596472477,-10.024800661924594,-59.297428808191704,22.32960735441299,-41.28280851963408,45.317282087555625,15.60948906428001,-4.718996409816111,12.776030452422333,171
26.72581595665273,-22.47655005091445,13.016796716661705,70.57720413075558,-11.684374880873069,-2.7738016334162277,-9.578053851446255,-64.00188759378129,22.424942077358384,-40.95707162731703,45.28460543061268,15.977969682573995,-4.824906278631491,12.341404020845843,172
28.520725324097132,-24.24725860327096,12.537895574575202,72.97151342449992,-11.938021163937393,-2.4441193667055026,-9.244158639824922,-67.95639237454449,21.738825192091806,-43.510960584089894,43.64110372378502,16.29133522232265,-5.004328342643009,11.885705587418292,173
29.520268246387232,-26.281048203115002,11.21699446498187,74.9233869078371,-12.176470455841471,-2.233277901594998,-9.145629205982798,-71.22824673474221,20.056875111991456,-46.39229920752325,42.1225256065991,16.691457591146005,-5.231770858725103,11.61318524018256,174
31.0011358072781,-28.085081902218942,8.903878610802444,76.63652787037192,-12.567875023786412,-2.249785572922235,-9.08292285196705,-72.20472004232447,19.91513627449099,-46.35780026572095,42.02927534726942,17.32985626167742,-5.449139472471789,11.483258635026951,175
31.37350470613722,-28.308144577710884,7.536002272996468,77.96593213928864,-12.788911011286293,-2.1481884742770028,-9.155322502460074,-71.44212551367474,19.30817591793369,-46.79020820073077,42.77898893724188,17.915344144156993,-5.358784306702133,11.497099596968994,176
30.657808569406377,-27.4322077450889,7.595954305682819,79.03498714499158,-12.745770715419473,-1.9230228709420365,-9.337016545105016,-68.99938976584917,17.441429239045235,-44.768354822301866,44.62005667121502,18.312661808946853,-5.115498429374129,11.537334096784562,177
29.463371312119488,-26.60521821669723,8.032294868412755,78.77517350048996,-12.647483200888292,-1.9187808778978028,-9.459388528082211,-65.69726367252078,16.93770887617465,-45.35744478454185,45.38845369563477,18.7113590226916,-4.922993517660263,11.527932685613308,178
27.932089470459914,-24.93775145329952,10.506814414702532,77.25918971799695,-12.347317903490726,-1.8580360368942754,-9.46875888236839,-62.37731505144867,16.463678231189935,-46.019490277828865,46.204255621148064,18.893028849995012,-4.675843224214909,11.630099936229815,179
25.710987099262635,-22.914256240597634,12.898997831614079,75.62436926227622,-12.026259394677615,-1.8692698175397326,-9.776957618265131,-58.57843667956148,16.20753917976727,-44.09255495756657,48.10487256686562,18.848056925780504,-4.544430047436951,11.998652274941717,180
22.574682025865187,-21.23626538216962,13.152134939876223,73.54580412666171,-11.769345274187645,-2.101683328764584,-10.28662882838075,-54.08127989423619,16.291479956710678,-41.78038123940183,49.12684706142768,18.815799947770493,-4.554255054696166,12.556073823705526,181
19.23174586143033,-19.7531506184654,17.184994685374456,70.64422052682642,-11.566916782980305,-2.2671191463293376,-10.764816268861612,-50.47864888567554,15.12475417666519,-42.49258845486833,49.31798362100925,18.823725843581528,-4.511277095006143,12.90748929462439,182
14.723052963604966,-19.38267728352722,15.581585258731385,67.52273225087156,-11.208059662234888,-2.6730648023644608,-11.369728550763856,-46.67869626419001,15.133605947315461,-43.1872441152896,49.73545346467713,19.0560490215914,-4.527873585587899,13.510279433451547,183
11.103975042484683,-23.53537829164245,6.898639576008262,54.115724007348454,-9.179630738520022,-4.054400079982932,-12.098421597716875,-40.365721931108965,16.26144420119286,-42.93990939725932,48.267641110610526,19.123002209516628,-4.914495693404138,13.733850341876982,184
7.316395052993765,-26.362532128575253,3.0964872253076408,40.22380328591645,-7.321375763162806,-5.279975988118615,-13.393643334095483,-35.73451820252745,16.714501039911116,-44.35248950945953,49.601226707408244,19.308392129791688,-5.131904588749025,14.104685028948321,185
7.540350393637543,-26.37152789681873,0.44172599393130657,33.88117649793393,-6.31445024345536,-6.230734183052953,-13.604360327195069,-32.31720231064178,17.315003398615296,-46.19350405892388,51.7478224709777,20.003006282138674,-5.232819951132671,14.342028777661522,186
8.124789401590835,-27.52935180291043,5.92207305591831,29.391455974531937,-5.874170271573486,-6.810921522892031,-13.168956425961401,-27.99252146412942,16.69278860184959,-44.88167854751841,53.2097477065594,20.07730213336196,-5.054139455421038,14.422759557710203,187
5.23222686496712,-26.194534541061554,9.601799366450015,27.40532520675149,-5.792558112302098,-6.990605124745767,-13.457418433644737,-24.756449424445766,16.591929907041465,-45.99089713394222,53.8485955089033,19.508188047615544,-4.954743924819451,14.81290893517942,188
0.008968628907722542,-24.52867953805584,13.554683274557574,24.88119534442445,-5.7352293810564525,-7.103039307709121,-14.196568789950593,-21.373742563827943,15.547947197683632,-44.46157051551911,54.914116693540365,18.552305355685448,-4.900070712974088,15.17219233602223,189
-11.820560993662191,-20.4257060137353,22.166600445689674,36.02561193148604,-8.752436166050964,-6.212415703061246,-15.851726138529541,-20.238806910463172,13.495317964247274,-45.00824743620369,54.8855924109905,17.229874368429357,-4.9420924552800045,15.77634235250365,190
-24.27349701395804,-17.163262567583182,28.711943951604812,43.837110874266834,-11.926842413120925,-6.172148223198878,-17.716170545261452,-17.531774673839937,13.447030806681008,-42.89097675910752,55.55301999136575,16.342671919627968,-5.247841537374119,16.645884508037515,191
-30.226794946006116,-14.760087004597478,34.193243079749514,47.60846996983747,-13.946750587361178,-6.272092060284736,-18.138267385951846,-14.688416770419812,14.16665460610108,-40.94249026448987,56.51741865767975,15.998078356831641,-5.41996008042142,16.809623284651604,192
-32.52875538185227,-13.563665296270488,35.67597607220537,50.069742006458085,-14.697705156966325,-6.2201799320896685,-18.12579694649019,-11.391137986080516,14.414338669839909,-40.305341543965,58.48697683933669,15.667035288290236,-5.226220661355884,16.61739514505366,193
-35.101069884854596,-14.067331237043533,37.95873222427739,49.09502940025739,-14.710337008254921,-6.164061932902463,-17.79534817277883,-6.594248593360531,14.559622106950334,-39.64541201775742,59.89632099890099,15.204824913270686,-4.873489511922853,15.888705989064027,194
-37.928739333075974,-14.567475373696356,37.18651429082417,48.77056146483457,-14.55599144598504,-6.001987277205508,-17.47898715204881,-2.6823402361742694,14.80950074973434,-40.2060117920256,61.00818664030071,14.775493780312301,-4.510667472077279,15.11244786545899,195
-40.8486123201315,-15.516300035599556,35.78510348914777,47.57610934794984,-14.251862470167481,-5.878440271699321,-17.05648866450506,0.5796021526354805,14.442917834972379,-38.46369331105884,62.125078155324815,14.301491078476635,-4.20960678016874,14.430700763499143,196
-43.144908961646756,-17.293808865601264,34.182969184388384,46.18274062192813,-13.9350074808805,-5.834875618512897,-16.574822429096752,3.7606501995977215,14.15642169375003,-36.86792813214871,63.32843770113741,13.93733931709927,-3.996654433864127,13.752641590699135,197
-45.032706161962324,-18.93663823345723,29.96183677521212,46.41873885898295,-13.705393523769054,-5.747273282070982,-16.200040583339888,6.736463762547009,14.408960659891605,-37.79941324720879,63.87849212278965,13.499018700605667,-3.807683232155254,13.138347126012386,198
-46.38795498964554,-21.94286127926642,28.834140131491804,46.36447080423085,-13.537805071060514,-5.6507463386588626,-15.84628430445328,9.218801756954525,14.414371781031393,-35.86222884914201,64.85953389304838,13.016068841431695,-3.7151636091349407,12.60412466224664,199
-47.599430591622564,-24.607830015477127,27.903495130262787,46.50871255053457,-13.737843214419824,-5.719815640377734,-15.389927771486285,11.200266724311685,15.471936230700411,-33.148884651244586,65.58475902851464,12.591201664461956,-3.71267413236882,12.05107957584625,200
-48.31406008238857,-26.593438678533126,26.833272776289363,46.08151186764626,-14.01921339312562,-5.970486758076733,-14.878284226135271,13.861139116183365,16.093683967029115,-29.734784554253476,66.04567574119135,12.26227627422395,-3.9155680000146353,11.51787262842171,201
-48.305867925862934,-29.939760354167397,26.370046818925385,47.220440661548295,-14.29163783484264,-6.167134197441165,-14.465625178847326,16.048361428046473,17.073397157409744,-27.0051905507448,67.02090654140817,12.067590139463412,-4.110112076975462,11.277673472975891,202
-48.31208810120697,-33.305018294386336,28.981075194727545,46.945669527063174,-14.576508182926275,-6.289686897489017,-14.023660980118942,18.15046865428707,18.086453369076626,-25.89981877547004,66.77528241853919,11.858774878892175,-4.266004999343807,11.069865302602583,203
-47.54810913019522,-35.89237452303578,27.51285210240526,47.831333862689796,-14.83351119771853,-6.517471354186177,-13.558802604007987,20.623860692671997,18.090196729572682,-23.482574089380527,67.90950081017138,11.981730887460564,-4.410684171102723,10.78462294827391,204
-47.80113518464274,-39.00379220301619,29.42240030240563,47.342868084989476,-15.070190771177232,-6.63277253182214,-13.034999103161857,23.218303374902117,18.612633759644922,-23.408026451004755,68.13922229257263,12.179908375275357,-4.503787766050704,10.399860043404773,205
-47.887236457647965,-40.36316604256426,28.56526608739598,47.035268838171326,-15.35543153162951,-6.763922656400075,-12.38299632570613,24.954284047957337,19.288150395596876,-22.72504405515116,68.13417029564488,12.354443145114669,-4.559689469856016,9.987457267129699,206
-47.42671343560612,-44.0187653906118,30.50398019148617,47.71466098031352,-15.913422965656972,-6.8839028284612285,-11.757100251313403,26.467280825308627,20.40214086869401,-22.533423297821646,68.45370768233649,12.730505861934692,-4.717950222151615,9.740022154924844,207
-47.050479084956365,-46.626424242753416,29.878157717454474,49.34660762140955,-16.403704534514475,-6.9282118557890255,-11.390796711464317,27.72143170673832,21.64693469348653,-21.943844598459176,68.66440429732978,13.028874796466372,-4.834467229454359,9.59974840907259,208
-46.92577374643841,-50.377086243338056,32.41275307493837,50.46407367351136,-16.92840020074912,-7.0187761686182295,-11.162880457133893,28.774215534567784,22.664113529878847,-21.646893466170056,68.93748909649572,13.448015015280179,-4.964591493830281,9.563492982992118,209
-47.23645630608037,-52.47299564081224,32.270685160325094,51.33898232968989,-17.177089798502802,-7.079699530600193,-11.030837695007424,29.49119141839717,23.28213780419994,-21.51724629414944,69.14206887651903,13.702553919193562,-5.043434526848955,9.6932107716115,210
-46.28413608170941,-54.28878540806824,31.948214760398983,52.876217681042256,-17.4811400553244,-7.0302782306067915,-11.013240065018875,29.60826019175117,23.42283618143478,-21.861543841287233,69.3196805702598,13.792645069297018,-5.101712706083383,9.910472279002636,211
-45.12849650750215,-55.86427512031019,31.11747771421035,53.66835682649333,-17.56425422104246,-7.000916778758298,-11.047842591686171,28.994797106013195,23.106147691730605,-19.445031572328478,70.232719220144,13.777359538820331,-5.1312588143000095,10.223027607460693,212
-45.288281671753005,-55.83107240758526,31.62401906791443,54.18474868467526,-17.603173076250673,-6.863700957650135,-11.184473986431328,28.403372638979498,22.45869941745177,-20.302109359419415,70.28177664645533,13.711439994168622,-4.993737944787127,10.380765297316563,213
-43.72494771098365,-55.399523024324814,28.313630408118122,55.866994467840186,-17.459456900152325,-6.6392838172055715,-11.362475770192619,27.73796944342531,21.7619037005943,-20.96059159916373,70.25615913930837,13.574218388604871,-4.90165369091413,10.683048427331697,214
-41.269042323840495,-55.2763539611749,27.372530381951847,56.871311409867836,-17.31944209881224,-6.353765218077227,-11.57619960801775,26.322447532239288,21.017502745816603,-21.28132870290823,70.05534202830508,13.287144691000664,-4.7378425527751,11.130342779091002,215
-39.207726206196156,-54.013257968076246,26.85284808756646,57.490570175581276,-17.215795451986168,-6.106022266850189,-11.743648491068026,24.305658903877994,20.103983390111612,-21.09958338349149,69.62104718895058,12.97270502985207,-4.578968882311807,11.501089857864132,216
-36.98934057138849,-50.967414107981305,25.627485201430652,56.471350680495576,-16.823069526648553,-5.984238183230431,-11.8655690359544,21.868843942400208,18.774900105317332,-20.34375535752022,68.88214250617989,12.516509687424831,-4.435094727419477,11.983872542414343,217
-35.133751738678676,-47.734534270590636,25.55586004298709,56.106531977623234,-16.41051175600098,-5.837898053362419,-12.165040579143138,18.95501125732584,17.39509069710685,-20.161384434397487,68.36186937409065,12.11175013871117,-4.282361439038373,12.65887803794596,218
-34.42664612342002,-43.17350770604565,27.184714948473967,55.4152906800319,-16.155767079036295,-5.649344226922036,-12.33244302994662,15.802589709714695,16.599965173119443,-22.461035564530462,66.95706964665503,11.725104023111552,-4.038231509719299,13.17842996179959,219
-33.983208037702944,-37.56953050682027,27.705500936021195,54.23203936837022,-15.79469853972803,-5.487178315856091,-12.370413627426707,12.760065040271611,15.45175352271579,-24.888846660651346,65.65269542955791,11.501269473169462,-3.77506964061964,13.66167253261757,220
-33.43730288118333,-32.60766310864523,32.33253610944263,52.790058475979585,-15.83699393752258,-5.223626656196093,-12.240215592492829,8.5376324922005,14.8215784826396,-26.643491606213466,64.12194070452627,11.408371951515376,-3.4810573039176416,14.007427301495387,221
-32.245244136125955,-27.551090973439607,33.80509556267493,52.322308800181055,-15.944503871654398,-5.05087484677556,-12.224229467346778,3.347378819556934,15.104453521852024,-27.89063681352803,62.34106658507917,11.450500383251757,-3.3669234755986235,14.45550558108299,222
-30.29349952606836,-24.53757916376762,35.392583240422,52.71010709706082,-15.923669295514278,-4.955946807307877,-12.495912232616265,-1.4004746667305674,15.607680922490022,-29.821959285900302,60.98564945974688,11.542480516802163,-3.3577730934728183,15.055745407035985,223
-27.932442769595777,-22.26364542756773,36.93007375743855,53.264076408013636,-15.91477730646314,-4.8869040504647145,-12.86300980773574,-6.013672939021129,15.735762600252576,-31.523969644269783,59.276041304290736,11.596630260653551,-3.36874875791041,15.665298643636044,224
-25.93141206994127,-20.720794372772076,38.147096871819606,53.776290683991824,-15.84106643640701,-4.803080893402185,-13.263865057573668,-11.147118919846065,16.58422658507049,-31.839661171316244,57.665988591294926,11.764359358728848,-3.5194585288376503,16.31930552768498,225
-23.06779469943564,-18.701229404212775,37.02503645347827,55.27003927910145,-15.570063149734839,-4.633059101385461,-13.757317591584632,-15.830723442810589,16.160639809748083,-32.70985274806695,56.000868217871975,11.759584052271762,-3.6394712840323216,16.918947788614748,226
-20.839418228949807,-16.47766053290993,35.89485350751474,56.746701966625565,-15.147268584067833,-4.318233185844577,-14.306612836063291,-20.459187174751584,14.995507551292263,-33.811510373049835,54.15707011156071,11.569458143162077,-3.5965465065613706,17.452447202227965,227
-17.65222092437414,-15.135827248722096,37.579569689340346,57.41681320447386,-14.96104714895418,-3.9695473451472143,-14.388392001407773,-24.682568215605347,13.197906044534438,-34.89434778029951,51.707008693054334,11.45828560984142,-3.64678842576747,17.42854767559195,228
-7.2122088210720365,-18.386447659615833,32.25187530631246,53.87402047509966,-13.695089510934533,-4.635422273619996,-13.617829706162746,-27.54717029852398,13.89378465529447,-35.246199469915275,48.14403796060559,12.089719564333425,-4.3994358952843235,17.528458403169726,229
0.16926223363020668,-19.033875907297322,26.505084671719622,47.15946922352677,-11.832205937433127,-5.239284042795532,-13.223051987534145,-30.928056312300185,13.14892017608487,-36.949695837937064,45.82078106177659,12.648552729928532,-4.831362787722643,17.62799182879643,230
0.18087288295625634,-17.097568069379413,31.14722077408847,53.70170074732579,-12.899493095934362,-4.424018276581343,-13.729267038062408,-35.5009297114479,11.150087529423931,-36.73223201348537,45.98337095646675,12.795947173144127,-4.872378712428171,17.344392466227458,231
1.1615335455384361,-17.242614024462203,29.040172098590823,50.9608875712524,-12.415521961325,-4.592114067049688,-14.27218705811774,-38.472535222792885,11.138300788231748,-41.45329689330449,42.62083786324338,12.816696285439622,-5.030241093998371,17.210479631149415,232
5.118663683097045,-25.412162161729057,15.685350404505153,41.87164834542429,-9.95478952269671,-5.575520924595088,-14.462686444062733,-41.2281559129147,14.69759972333058,-39.90169792814861,41.83723397988928,13.571856940688724,-5.537458448318798,17.634409945441696,233
10.482850471532947,-37.99018727985663,-4.055905523701074,29.467195626049953,-6.85385089249054,-6.601979383883316,-15.805551600932548,-45.43945530592583,20.08989064344509,-41.19262070633496,41.19051666933103,14.687029660386784,-6.373530600764706,17.958904204586037,234
14.951904450702559,-41.26725372336194,-16.87231714120425,22.80237072774184,-5.230218901268756,-7.387486981155453,-18.08624562154033,-48.9970795151897,20.80449081443669,-43.08957381596921,38.86356975280587,15.405893689443962,-7.187933224453327,18.40534742860093,235
7.561829090213504,-44.40686570561502,-24.344229041386786,20.13321382768689,-5.196163882373266,-7.620800002504157,-20.69798978668326,-52.96404326659878,19.837774238995657,-42.631652470571,38.1076570726531,15.904075824137744,-7.475333238244867,18.810874173690493,236
-1.5640061284016904,-51.15092497956138,-17.697850343522003,25.232000782053287,-7.241322188575515,-7.768283290866654,-21.220277347343266,-61.5821378752555,18.18636566686302,-48.139577620651345,35.32215973752184,16.328109716432962,-7.752868982145648,18.579655486744677,237
-18.304806276920576,-57.802962977960604,-2.466643432428175,31.06034631980543,-10.380705185659833,-8.045365658578731,-21.059834827296108,-68.55118841401956,16.183913801270347,-51.35572818538176,35.21114440644954,17.36440990296603,-8.03250746028327,18.856478858683065,238
-30.06141980675104,-55.732793289489564,10.698096425742095,34.83424181056667,-12.830349293807453,-8.072213617395896,-20.30929126173583,-71.48399773208088,12.337485305602558,-53.12863907333187,36.38940100043042,18.148752086359696,-8.018248550750462,19.293606707609584,239
-31.888891640079574,-51.45262153989852,20.06299887000051,38.32596655604211,-14.534997124245427,-7.7361558859323125,-19.30336491578627,-72.58042792056139,9.778038730065331,-53.892999730195996,37.0044525545812,18.324285949085493,-7.765451723713758,19.30105179971311,240
-33.39983682049248,-47.807859234849765,23.417690361759956,37.80893149839331,-15.059721874189009,-7.547065749467939,-18.93744499899611,-72.38175326260247,8.269301681680338,-54.54023150685971,37.426472526644595,18.392093914804928,-7.5179120038909675,19.48237870023447,241
-37.091976441847706,-44.860820287515764,26.931792719962868,34.05498716550547,-14.995495930147808,-7.489293108016352,-19.01983501887787,-70.50988895348065,6.2636952309998986,-52.73049518196855,38.63224661062052,18.424103771033874,-7.21697807985376,19.923252284911126,242
-30.924581742701864,-38.812657318603755,25.855694670367193,28.280686374070875,-13.819107947929622,-7.426578457753268,-19.20434030560053,-66.11850895255482,4.114351364868498,-51.62714820965544,39.169397129993904,18.031833702512824,-6.879264334189921,19.931378370519482,243
-27.341108017637975,-33.57419230021124,23.30540527610511,24.20361361057604,-12.504558526956561,-7.227219395025697,-19.499445824727985,-62.08053357011205,3.378993445173476,-51.780461627344934,39.792103837721584,18.07853283765128,-6.744730557293383,20.016703310204445,244
-14.12757225868282,-28.70828479542954,21.62793784936415,35.37650160219371,-12.670189013603395,-6.3386299163079425,-18.821837193435915,-59.03007720614084,4.152885083496244,-53.14458642742395,43.74768333099117,18.47747126479246,-6.349882974048526,19.338251317272512,245
-2.3307904280859932,-25.4571827231373,21.789569727685244,44.44008559163035,-12.542549296017386,-5.722326320746382,-17.997628356108308,-53.48417351154062,5.915979839118526,-51.29914370182142,45.89780106445546,18.395187798658874,-6.284472911162916,18.7507719315445,246
3.3218503280012635,-20.978960585423362,27.31095365786536,53.57984556935427,-12.8735277447705,-4.644538239052433,-17.28788161690112,-49.759512096106654,6.014963403333823,-52.057584587894816,46.793772084650406,17.725269193399875,-5.884339979294298,18.262136374156043,247
4.819081237021356,-17.745926009805288,30.26178345957977,56.72017400814045,-12.745750783332378,-4.253551243808903,-17.132350123025414,-46.56314295245816,6.30608697985833,-52.104302306725614,46.069480257537045,17.13003348645656,-5.740461192757863,18.01043319279257,248
5.572983816480153,-15.952151006968819,33.446217225395614,59.56631551654226,-12.347126833633464,-4.0388266033523985,-17.316031950778,-43.16712498845885,5.9709787248008945,-50.497161114340585,48.13828577685973,16.79627768245515,-5.625132783625807,17.90867772589183,249
6.519770261197809,-13.920870868890512,33.029519228275944,61.89126374256357,-11.789529956264403,-4.035253792702491,-17.53429637690394,-39.0026034080015,5.993931438168192,-49.08313485947649,50.16134005125396,16.654290648170576,-5.445415167681392,17.851662104004703,250
4.642793988319411,-12.016782390454159,35.885535227695435,61.28174533756286,-11.340119403123875,-4.097986157935671,-18.419870008473495,-34.47107149084995,4.305798854093387,-47.60536433138637,51.285230997937084,16.444454842794066,-5.271103039140645,17.657984215262825,251
-2.0361368946223175,-10.075023221687283,39.624470219637274,61.141671089260214,-11.691178905385279,-4.077791509876038,-19.841841734915604,-31.094868008463486,2.9509111767500356,-49.349043641221314,52.9636401782226,16.20019885949717,-4.88784510442741,17.92934633563111,252
-6.194376018297067,-10.025638695817713,42.04224253937895,61.13810085172937,-11.982271664052869,-4.211724335399659,-20.836714965810682,-26.628520835220616,2.6219945293458546,-48.69211380984426,55.18652317567297,15.970725446094962,-4.60615224234391,18.03651201411962,253
-6.327658773626658,-9.770238489108689,41.915445213395884,61.037324027056776,-12.522828317217678,-4.238395394825667,-20.360014393112035,-21.06764846615357,3.6861642350405246,-48.91730041863468,58.009996196895024,16.093208113359182,-4.147527746525382,17.49674011945716,254
-8.048644887172962,-9.904980954433757,43.06245481466563,62.17893748294409,-13.029019250570714,-3.8957435835908933,-20.379163071778,-16.854872611199667,4.488371785521506,-49.44571359933815,60.7342606455,15.647714715738724,-3.67280696888095,17.394645177618077,255
-10.101421369126825,-9.655299177742428,42.438483576566725,62.046604783268535,-13.23433293838044,-3.820577205287078,-20.31009563749238,-13.322883233962465,6.064691935859178,-48.39814454234789,61.90660004933583,15.187216423492961,-3.4735407489840924,17.245948044729232,256
-12.041056136725393,-9.658391766994034,41.21920804522898,61.488007711445476,-13.453676284657677,-3.937487183065841,-20.076824802239962,-10.548401951774695,7.834992333805244,-46.64468283583713,62.618225801199436,14.729608882319448,-3.4128578304828423,17.088762756539758,257
-13.407255439119163,-10.054355081538269,40.15047445565811,60.96719988595784,-13.427646603301893,-3.952550276355562,-19.952611134914996,-6.91593032438884,9.026887912363483,-45.29735162306999,63.421457069766085,14.316296569779274,-3.332164704980788,16.939492992621176,258
-15.22965242729842,-9.90795820819173,37.266959331857436,58.93702555193323,-13.065197725892258,-3.9564176743206323,-19.839685256997214,-3.549905965488563,9.563395910623603,-41.49196406648709,64.74093317670143,13.751087153920002,-3.156686586076887,16.933189342626328,259
-17.09700298152775,-8.443876048237016,31.995741908724476,53.67936566473491,-12.152007567002318,-4.198782327612907,-19.358100283951547,-1.0005071177309544,11.125648224336766,-39.819292570152186,65.15956519077618,13.587094026253176,-3.190007665787809,16.80652528012732,260
-17.15356245640839,-8.150898259681325,28.159501828913562,41.84918965084046,-10.27373311012255,-4.824321672220618,-18.639164537883282,2.0831246490390494,13.007000020789969,-36.49195509689769,65.22323510469064,13.405677338505804,-3.3030301874189756,16.53401267755943,261
-20.756588321582328,-7.17257124893966,27.69081969235803,19.881218370257,-7.013807251241497,-6.109038928726727,-18.046718806964382,5.541427033573251,14.888583175399798,-35.05847689426786,64.46000941196336,13.621472117886766,-3.5803056824286834,16.17039611949534,262
-25.282115763966438,-4.300125423762866,28.49433695370982,1.094053697636519,-4.314962443786223,-7.540865778271133,-17.51866677305358,7.524252555673735,17.425393120565012,-36.50725811180381,63.305509606091874,14.62925711850876,-4.206005695270981,15.775155257630368,263
-31.370915716395643,-0.15657076315159263,31.671070746772838,-15.270654523309494,-2.116151966502426,-8.731128342906642,-17.11975967805679,9.14141571028411,18.806828771332277,-35.355386737170086,62.726286782466715,15.489132935026294,-5.011936343520862,15.264929082270912,264
-37.94011860125149,6.351554912917364,33.2381976891183,-27.477960776201897,-0.4405850076174369,-9.427277167146222,-16.802509611227617,10.690626479649417,20.95334329613929,-37.923508407401776,62.349724236943366,16.045836977582123,-5.503585400164367,14.78768024561718,265
-42.4514924287249,9.464660958904293,37.169796270747575,-33.35860742047645,0.28833396659832106,-9.969772537747543,-16.823395692271028,11.969363419569227,22.76941344715772,-36.53326763565258,61.68938168535522,16.128860400089916,-6.072752431200884,14.555096948148103,266
-47.38639876970947,11.485139351953716,38.858731613645276,-36.34624508121266,0.7316169649625578,-10.152127901678861,-16.68985432499884,14.362654198914226,23.704822418362465,-38.58918178125804,60.934949092489894,16.028299365135492,-6.24932981575416,14.103645491030413,267
-52.55653996933047,14.146663323738863,40.010331101282404,-39.80443441257422,1.2887962127206336,-10.481752355224375,-16.59728197304879,16.470097052165627,23.98216953905552,-38.31748227506513,60.9780524765763,15.95179205386325,-6.297837513596911,13.539492965588051,268
-57.970618326934414,18.105313483365446,41.50817859300754,-41.75511131438186,1.2954690633438768,-10.477379314895742,-16.819903671289335,18.05094194424791,24.365026458840394,-40.430940757056106,60.11603866391447,15.65493864234378,-6.183738792985747,12.957088146581965,269
-63.16725597974399,20.220053156425823,42.426536537436135,-39.74953830297865,0.4352266412255066,-10.10533211180484,-17.165185409837466,19.426680265910303,24.075507801275894,-40.221668860572905,59.9986768135391,15.239487233256334,-5.960987894714148,12.566846974807167,270
-68.65277386175204,21.036507749512236,42.39286142089514,-35.91837386653272,-0.8733647641799813,-9.662952865386249,-17.670183867772714,20.621321795566693,23.409143155290966,-37.661529362196724,60.71763879620475,14.820487995246749,-5.6708370720055115,12.375579144380875,271
-73.74949176911419,20.857864686605318,42.30514607912194,-31.797903300855623,-2.3140618927501158,-9.465117674000364,-18.16283456038995,21.173133749261815,23.040994580597538,-37.4193379808117,60.46531337309056,14.463747285183759,-5.51341930159033,12.361118270796274,272
-74.99765169591525,21.69351734986579,41.846848208675866,-29.38161340020436,-3.309656065117311,-9.567307863849736,-18.202844844246776,21.074551893192996,22.19988998776979,-37.28668906936189,60.09171841069299,14.100250722310284,-5.380677534843642,12.289593467659044,273
-78.22661494220488,19.33827249702513,42.7022285090639,-26.383762081693416,-4.120728529065733,-9.50484556277259,-18.412630531970922,20.698859456811327,21.33179774168897,-37.849549587607406,60.27900632276174,13.726939115297146,-5.177049237562366,12.305625213662642,274
-79.15997462441622,18.218922661960068,42.040153742729295,-23.027032621401915,-4.903634453846649,-9.403015434194938,-18.293467201010355,20.74239273671734,20.04734448075205,-35.45068984181681,60.89528070727579,13.30236658932647,-5.01718995414312,12.067987709267163,275
-79.57230251729092,17.334102935438978,41.81750934772556,-20.719889181361427,-5.452616027287319,-9.291211828525435,-18.11141722762872,20.607504440120792,18.786176782588267,-33.17460635864697,61.64830829698851,13.022318944380272,-4.7834750706293905,11.686771403336449,276
-81.39333955477996,15.86517873903102,44.00367129914208,-20.5064977511853,-6.001506361579734,-9.34662964759781,-17.545838554675527,20.32445442022524,18.679198611832692,-33.07472116846791,61.53266410461983,12.93981583352351,-4.5469298964390354,11.35835788522654,277
-83.14761861135767,14.375522464081765,46.553807716074964,-19.185821906052045,-7.026819881418231,-9.237330488351118,-17.058578898631456,19.082025785261347,17.908904337354798,-29.804237503760355,61.71353768846121,12.628145029125474,-4.336085361924655,11.207316706976805,278
-82.82352230756598,13.804256651784627,47.21229522231917,-16.912453260351246,-7.802175157687036,-9.053030594427241,-16.729671017870306,17.43534265512763,17.932963423909978,-29.32606174773733,61.29876559949449,12.497167549040617,-4.1696850030629085,11.323449232918824,279
-83.86025647685923,12.799302965961074,50.3880341131374,-16.94633001908925,-8.281998497044125,-9.128804665681427,-16.251655120705678,16.32225367940301,17.30237945902357,-26.507331221761333,61.95420381498479,12.59535038651388,-4.058125294023698,11.451440118815933,280
-82.94460288735536,12.078782576584189,51.5660369931749,-14.541303251631897,-9.146487653311763,-8.954423033488263,-15.989905097583263,14.568902933456007,17.11650212709038,-25.939372714981022,61.430928548637134,12.4859625663219,-3.9899373606049275,11.677786572928579,281
-81.15825063388353,11.980180972838117,53.99463183522671,-10.807585063786552,-9.897878840609119,-8.458813670277062,-15.80196689565907,13.252215620791413,16.70221900422806,-25.883081827995046,61.25966287370709,12.240011514428474,-3.7184150279647117,11.876913219312321,282
-78.57210693781799,11.964082361862758,56.966554325176624,-7.7113516330398335,-10.698509140081132,-8.23395319741748,-15.316795605166334,12.379679689616005,16.390116157815502,-25.954618820549825,61.230065583998524,12.15856107953446,-3.5646869895337905,12.134587582841409,283
-75.68744072410658,11.826933116017058,59.746326831334144,-7.167820740663038,-11.288493066808838,-8.236438320485599,-14.811307999661022,12.097326743072788,15.504381939892426,-22.632560999867287,61.60338716890654,11.999466832042321,-3.5103479605498373,12.326499271321113,284
-73.10267512760866,10.507376120304066,61.98622935788213,-2.66363889368884,-12.61574713069272,-7.816085887690229,-14.62430365281087,10.715478592210546,15.791479840743113,-21.532936819162284,60.773365474731,11.5622193341801,-3.51259567427177,12.942597443704685,285
-67.73618348867194,10.017691380017649,62.36219615669257,-0.5370601906879756,-13.387632752600975,-7.707427819777227,-14.393649783369183,10.40623907043045,15.875984168500942,-20.22260378779717,59.70247808518321,11.116338388439045,-3.588416567043527,13.711825791663355,286
-65.60200635946173,8.626444687735507,67.94413113944294,1.8681597406168347,-14.606539290877214,-7.688834729679255,-14.212799550610637,9.401942226544865,15.978728243091913,-18.21076943234753,57.85256863553894,10.481441948220773,-3.765329577491963,14.619020739638236,287
-62.65547034038824,7.184388514291483,69.53983238839909,7.401145745585408,-16.508565254356597,-7.5658178325375145,-13.897375322954042,7.8748238137054445,15.64605027208146,-13.237800921133836,56.78655571985777,9.845780265497869,-3.963912752193949,15.493003750760517,288
-60.32504937604354,5.405626612212428,70.12442935256266,12.004551238929078,-17.8334979815066,-7.416457988467257,-13.706501391247048,6.959225067757653,16.047220560103266,-11.730704413075069,55.119306607132074,9.30087913762997,-4.1741643572477996,16.19671759091819,289
-56.24955187842957,2.213674672080574,70.64936497356908,17.304420880861123,-19.343695415593448,-7.201401241778009,-13.349562241775597,6.046042996541052,16.605482395214153,-8.846343288673168,51.408866721240976,8.246954836697569,-4.503991443190516,17.00927132025428,290
-51.766902737419194,-0.6356752940044149,70.65443505067103,22.7714711701248,-20.66988515434493,-7.067533273160905,-13.128100339759554,3.962771129522744,16.332461781246113,-1.8571690124611777,46.04718804162216,6.532387144036387,-4.897634266337724,18.247615445648375,291
-46.29503490987987,-3.9085575086075837,68.99683750230837,29.512848039101318,-21.873344619020237,-6.68780557432781,-13.255667909528114,1.9006098346234568,17.41572838348112,6.389609609986448,35.12215656964063,3.481866670491545,-5.301228397199421,19.796231249874854,292
-39.50454234180294,-6.965769019286889,67.6153063699577,35.11282111439253,-22.44319773007419,-6.381750882397795,-13.476943408284706,-1.0156823335837042,17.653710320014365,15.91197628850928,21.05181969261801,-0.06477402680067772,-5.612690790989925,21.482286875061888,293
-34.97871377483494,-7.894657116506003,66.23462990309638,39.92608507488205,-22.781423855246604,-6.233189806530841,-13.887345434173092,-10.543246161130572,17.496453099534246,15.28041534560211,8.323964999955328,-1.5481416782194117,-5.849997245173343,23.315807191529814,294
-29.32989267963142,-9.112445270686953,63.87607885724554,38.76540233024622,-21.5935230651987,-6.77717823034125,-14.035390441621116,-18.14120685100121,17.728614045797674,17.868580051555874,-4.571205787578697,-2.616329109902184,-6.1325610476657255,25.109551005743352,295
-24.109382072700893,-11.586488484178942,61.080711402212565,36.99673485436412,-20.46105217000408,-7.492651041440876,-14.235652407737371,-24.795693213049685,17.06111506820045,18.236462818986414,-17.00722688639145,-3.0985622949577083,-6.6897700767706105,26.460941080045906,296
-21.11481994041104,-15.414543204520331,60.997302733513635,36.56091638114137,-20.245221475493306,-7.946015071088407,-14.297817879794449,-29.73355896617931,15.377000590014243,15.888395345930187,-27.39316797281998,-3.097161576055426,-7.34125982333629,26.832103371407776,297
-18.06615079780975,-17.254595171278243,55.86112372246894,39.75026435013101,-20.75359788353312,-7.9559634538183275,-14.357197667699262,-33.31556250800677,12.714506964233673,10.841910958968155,-33.966313332045154,-2.5765754092227926,-8.033448725803868,26.348174652540138,298
-13.723717352657824,-19.006441750867435,54.02879059157944,41.996667205634814,-20.899761483251204,-8.094670636534673,-14.610160220078514,-38.37529170391558,8.04743143266479,3.663489331629769,-39.339339551665354,-2.241955214464104,-8.524438598586748,26.124351002723326,299
-9.400185549550738,-22.15847417888077,55.47883219567508,44.60186272932006,-20.67545579570493,-8.126343623471433,-14.594457536612513,-46.69870979377102,2.233148981160384,-5.047912997921739,-44.36908795673336,-1.4761176579844864,-9.241163593577026,25.661455429796817,300
-3.491935347622846,-24.14191528180851,52.64427533486799,47.849026640704054,-20.087193222495532,-8.054684797725077,-14.295500379946775,-54.868949712353874,-3.404662298068103,-15.193086861903959,-47.372191711023554,-0.4709540596751009,-9.84025807372153,25.38356611094133,301
0.9158791285575296,-25.94269313281496,50.62928772480532,49.800336770779424,-18.90560965461903,-7.847765483306047,-14.498077594552672,-60.8281330344126,-6.594270509553706,-24.929767691502228,-44.86034875026136,0.9803075219361492,-9.935908628355124,25.51875515213657,302
5.453426443497659,-26.869903175201635,48.70031785080345,52.15725014517027,-18.31815256180327,-7.618844305754806,-14.776057249789389,-64.00483023322691,-10.842228526693217,-31.825007670355774,-40.967638006824906,2.4512192842002736,-10.17170931335726,25.636724834696132,303
10.059950702139625,-27.307432508730724,44.013665526630014,54.974649862191846,-17.92373771455771,-7.403703111929122,-14.908908932275542,-66.72529853376672,-11.46232940289304,-36.09214808212815,-36.62516325137343,3.9646443368696223,-10.455312746298986,25.4477514051758,304
12.953279528414635,-27.3531091228983,41.87168453741326,56.698677986694044,-17.617281748346286,-7.312515672393927,-15.109939836804356,-69.64087417117405,-10.983066285335727,-38.760274188541786,-33.56669652473306,5.216901430091402,-10.830084167508279,25.36152892352073,305
14.09273767564555,-26.65312450146551,39.783076719664386,58.00460757335593,-17.27002832047881,-7.123186275004554,-15.303581567467113,-69.95527134315695,-11.62180520056045,-39.94359384165324,-29.343694225274447,6.617239157111236,-10.933298328924435,25.137831981843775,306
14.112961653427497,-25.516991588402274,37.85947489794781,59.17737776185987,-16.935570781517487,-6.849914894489056,-15.528482207883586,-72.34398132045494,-10.755943312406542,-43.02409749626624,-25.092980216317862,8.19833400530437,-10.977112334176246,24.75186641349385,307
14.52110858674683,-24.100169036790636,36.14725079315205,60.480659886449075,-16.623627300551977,-6.62516450760684,-15.6049025950471,-75.41865033487761,-10.325248970994577,-45.25434990666556,-21.882999178710218,9.455098640321514,-10.968472458054242,24.37244201655951,308
14.77409083674882,-23.43888878183288,36.294206519812,60.49325618356775,-16.290412432257483,-6.444546943302678,-15.459041417083624,-77.86409397358105,-9.697639045013622,-47.4723885279582,-20.991850191226987,10.336367586050084,-11.064223544544031,23.80222245588169,309
14.743508209608967,-22.023646872546546,33.911128955399654,61.18639719040756,-15.950762983016086,-6.1992290531313445,-15.230187120258114,-80.12252562304145,-9.220551389948312,-49.76830687418074,-20.85420710787258,10.911588616019209,-11.047501331471725,23.302112538568252,310
14.334743706285527,-21.188360398879745,33.3742472312307,60.568847496726356,-15.474588851492511,-6.050166261315849,-15.134811989065343,-82.08568806256709,-8.457183343330069,-52.40877054243462,-19.92385719547939,11.654945357827144,-10.910865796909405,22.721092594274765,311
13.140348209529245,-20.159036805975592,32.88055984781367,59.88092291527758,-15.2177620717346,-5.933647081467548,-15.074975062092232,-83.45402846387044,-7.640193815495832,-55.67425097946175,-18.782758938872227,12.510251398508071,-10.800565375969295,21.891097029722914,312
13.157287938631907,-18.73454543149231,30.39216120559241,60.61922732532476,-15.143497056841417,-5.722357851004192,-14.782006171561333,-81.8160545631584,-7.979291214012653,-57.71832156178936,-17.37555201507473,13.03570014729834,-10.75521975258975,20.869190596104698,313
12.30074621004831,-17.58497118781984,30.3100684556495,60.30889512284289,-14.95185313059233,-5.524832685479478,-14.638769650433732,-82.30959064270166,-6.723859206086798,-61.7036826380324,-15.657208361108877,13.600046967873123,-10.58806358101718,20.07675695666243,314
12.170004319719407,-16.64590497144939,30.281149780462624,60.11416587588021,-14.876317684383787,-5.42031034515883,-14.435273202449606,-80.48208816426208,-6.053174716339711,-63.43002793839348,-14.139943352689523,14.0886575193813,-10.54345393475022,19.177827905716892,315
12.26173050121157,-15.951441855904028,30.393131563114686,60.08247872267747,-14.614588183470863,-5.230136167295277,-14.245901670022167,-80.53131382657925,-3.383361754032063,-67.26901175005388,-10.279619223297372,14.847255632033443,-10.329036013917584,18.438644620829475,316
12.21992921549151,-15.281391155335807,29.926697492448522,59.56833691321834,-14.564140523682397,-5.243043720790789,-14.275033794903097,-77.67191017534398,-2.812760629306242,-69.67192515031321,-9.353881960938434,15.383294769463141,-10.515722524251998,17.65609609283504,317
12.000182282594878,-14.051360231052362,26.741101961804567,59.871178635234266,-14.531974906450383,-5.243242479783531,-14.36622170923753,-76.2171467853051,-1.7908183586019708,-75.06961133064954,-9.971507419277353,15.889196987508216,-10.765749917870375,16.81970670373732,318
11.12556792248613,-13.37336442871704,26.912508082256483,59.90899915921451,-14.437690135397093,-5.191195058456687,-14.758788059140995,-71.02920348107736,-0.7504760374386975,-74.56899452936638,-6.72534698533207,16.555745878498467,-10.654515350520168,16.570045092202626,319
10.921006013983932,-13.100675441837579,27.230179224201102,60.13062321570558,-14.284691839711975,-5.100333436573387,-14.892191554518124,-67.65349079520959,1.7028679552806099,-75.67500435135608,-0.7515039481248957,17.57309342871539,-10.303599245963262,16.255247863948526,320
9.472849915795205,-12.140097795277606,29.248840036462013,58.51191441441962,-14.11315418549492,-5.114152607143888,-15.561399053786847,-60.63968477362863,1.6749551599717507,-76.40546103471215,3.6870091871671367,18.068591122566644,-10.149444526507198,15.988386174614499,321
8.11117240077024,-11.40871297059788,29.80055783017812,58.98993367234889,-13.900149581196802,-4.881346440997296,-15.92199225382596,-54.906511120968595,3.5402855324822218,-75.21732208116384,12.966453516150848,19.48299267977389,-9.372932162050144,15.911764472667189,322
6.456371878666619,-10.533967320510499,29.247558732530038,58.511103236229424,-13.412099777205196,-4.900087818364099,-16.396610217708897,-48.151130650413734,5.990060746136787,-70.5930929467271,20.05844776250584,19.944392429066017,-8.907495865776587,16.292779721017414,323
6.257349802438427,-10.169790346108098,31.667369336516824,57.3550026402388,-12.71132258534622,-4.828530100413031,-16.459025090416528,-39.950013195372904,8.824467646321004,-66.21247343042667,27.122171206976837,19.7801458937118,-8.357353306142326,16.395668681473936,324
6.172680018916817,-9.058066872088268,32.08781616483978,57.66223047375515,-12.157256537065726,-4.703590344481702,-16.59826327332664,-32.321385850705994,10.704095993451023,-65.12309415402535,33.38597088614565,19.28810543418498,-7.782221830289349,16.624182312591145,325
5.932864761914065,-8.463042502258899,33.890085094441666,55.87950870538923,-11.541428618191466,-4.713008238739366,-16.567329558777956,-24.734893109183854,12.50905884417611,-60.7841478740412,36.7708188918964,18.231501353553963,-7.3753193308352305,16.778443803215175,326
6.104847393915788,-7.645351667421043,33.59982065336145,55.43972071028954,-10.993522118434456,-4.667245475699762,-16.438400251055537,-17.912987305682847,14.400719798317311,-56.69626186279262,40.78388923099011,17.12794260485207,-6.974007887586038,16.83786465801235,327
6.155221676887293,-7.51978991582031,35.1115909793871,54.71031169588528,-10.482282770933107,-4.538840242046359,-16.08335873458433,-11.804400453606215,15.793300234068827,-53.31417118932301,45.667880813156046,16.467430421257614,-6.314614007634745,16.61800692413207,328
6.092321579784283,-7.266304223644341,35.242528821849625,54.82192826941685,-10.268956671305622,-4.438236377365549,-15.72751969207875,-7.432711893374206,16.308278397814927,-49.97482720937177,49.751512855488016,15.919837577888094,-5.825390224968936,16.398979492123445,329
5.765768568704402,-8.116632779616088,37.73254527498809,53.96039319261197,-10.227886555626382,-4.457647442720908,-15.203286097406268,-4.875713196674145,17.418248221130423,-51.66267025384561,51.861683497483355,15.600687003304714,-5.457297037698469,15.997749420110463,330
6.023402691967467,-8.183952554146606,37.53440987168116,53.65674537660236,-10.330115951333523,-4.5437735448330425,-14.767703492028836,-2.6555801587316568,18.138583402623894,-49.2104234244651,52.28662168874625,15.04735381659797,-5.47184991432647,15.582493735173328,331
6.68702770585313,-9.646959434603817,40.60070481821651,51.72032924961728,-10.267722990641603,-4.802451687864455,-14.037442000044061,-0.9038108609020737,20.030673797334096,-50.26806751932053,51.60017299080737,14.679805836352264,-5.692589270328114,14.818248326100818,332
6.717990512619369,-10.326349325969534,40.96495946288995,49.30996323728354,-10.299749643243478,-5.234895153710645,-13.359038264016911,0.7008120318054656,21.643792807303182,-52.17817442387025,49.82411805246552,14.338873982551753,-6.024010412094291,13.821226716237097,333
6.306177832939285,-10.98034180409387,42.43612859946512,46.47705204451395,-10.41371758072896,-5.724878307770064,-12.801813555613526,2.2575863443806212,22.271056759188827,-51.228341117897074,48.06470007675112,14.082665716430927,-6.455608597659956,12.892123642956761,334
6.491648139933758,-12.015286325249251,43.81066808568667,42.82928141088503,-10.382627362638381,-6.37909761973785,-12.193627491133094,3.320085161408157,23.368140954159262,-52.94211983247013,45.4520413184577,13.925202406469905,-6.990080528704466,12.040801158296645,335
6.0773491275093106,-13.710445141162396,48.487306796065816,38.97530391870373,-10.463979445205855,-7.003603547138756,-11.658841822954479,3.283651587597222,24.468018983687912,-54.590175135923886,42.233291791561456,13.826901127628991,-7.5650202437135805,11.316946538966182,336
5.87454119646625,-14.469188289238286,51.14593405077498,37.622622089048136,-10.772017983570693,-7.488352771970355,-11.425328896439982,2.9599142297854395,25.273612247612263,-56.518356066692036,39.17549546089271,13.519628760086933,-8.1308604746803,10.90079072644006,337
5.119584717447107,-15.02436885906475,53.59190709013046,35.75863134477589,-11.102790489695243,-7.951220136421679,-11.481765985892544,2.533247905190537,25.678105355597587,-58.47744402387229,35.595461161332224,13.183172114722069,-8.771224191745459,10.679905094814199,338
4.4092482882799775,-15.821301296508935,55.68953592746565,32.435590257257154,-11.24449795797253,-8.612164601420238,-11.63964688063968,1.820652449871542,26.754332113540528,-60.36371593351615,31.150306697866505,12.771522593958638,-9.529231353514282,10.709058267004194,339
4.117072988496009,-16.881510129100224,58.00691725925499,29.12361290382012,-11.280379659614304,-9.4307924130422,-12.05773516203965,1.3096889837408243,27.940559706703056,-62.32734389385413,26.01775708848178,12.124342883781132,-10.429281584498199,11.034635077193288,340
4.197288894782124,-18.33463870726743,60.42367306912532,25.41789016811226,-11.138324322789277,-10.324233953874456,-12.667736707109245,1.838752181299403,28.953062752726765,-64.10590054121745,20.774610201481728,11.138925757241173,-11.443185026618838,11.663023376385615,341
5.756399881323546,-18.945231416943958,60.06895502554084,21.974860550025788,-11.061688846356146,-11.344767022613631,-13.462431756693864,3.4340292167819997,28.964750940565597,-63.901530419521805,17.042436059869562,10.573361473343637,-12.35136264835008,12.454406287460305,342
6.1882115181523725,-20.937838917098613,62.34590827027693,15.513548839170827,-10.32729967674903,-12.552663560035864,-14.462355617890433,4.869906357199246,29.190514196775332,-63.56744458021985,12.737144026014331,9.87304795009267,-13.32298076439197,13.387752702933867,343
8.391162010826376,-22.608463916537673,61.799221757979765,10.073279264225901,-9.556375037802214,-13.730942356898153,-15.15311242287625,4.932479438831687,30.27566850183291,-66.77425440559293,8.743780814044525,9.315438774166452,-14.138145975163031,14.17613095993455,344
9.75115950243994,-24.329705309546803,60.99674665670053,4.476852642832373,-8.610056447109436,-14.733871271884134,-15.978255775748048,5.396181037942822,30.530210360160066,-66.49381750870342,5.900763680094678,8.958106154008494,-14.883600709089873,15.15628136174575,345
10.65945942841051,-26.21491648231875,60.07739693168464,-0.4520754964365556,-7.443768626832561,-15.46415117891014,-16.802450681516206,6.818890560985643,30.2494254483809,-62.531811621085325,3.615616336256673,8.372165612240718,-15.458997312801646,16.069389142122663,346
11.205021937080858,-27.59739477602607,59.3690739575322,-3.777479155821175,-6.386853305013912,-16.00989573919965,-17.854146538571115,6.501733956644445,30.449797161782445,-62.051028983879796,1.250990986262165,7.587504546468854,-15.916891114623768,17.173714256987136,347
10.924406031954561,-27.090130702723645,59.354425169416714,-4.461577806689215,-6.167412461911206,-16.27023945871187,-18.967982664453462,6.6161891518857505,29.3927703073039,-62.24887244412233,0.2773871189454365,7.007886127395977,-16.247322986890815,18.348647247629863,348
11.651925281618231,-25.00229003069914,55.97568553673259,-4.779932126373533,-6.1167655966860615,-16.43288129612571,-20.36501626034135,8.272961770566235,27.501345868515124,-58.94452080200542,-0.7017062973231598,6.383399434101406,-16.60626877084255,19.643541409924765,349
11.374627328459292,-24.779632355279965,55.65406640597814,-7.055560882767195,-5.636153628530745,-16.734559152148005,-21.53419044542807,8.806143647196766,27.453998348930185,-58.71787892418969,-3.569483811546234,5.37277126204717,-16.972107603404478,20.910793001585706,350
12.331664106489537,-25.57658309908812,55.19798070892797,-10.28383079970544,-4.752728360214628,-17.26717953241255,-22.47924094182574,9.973667529556254,28.294158402046737,-58.44074403127075,-6.125311394548288,4.6420539640880065,-17.466217785942057,22.027812208273396,351
13.888450843292896,-27.15965412532386,54.737508453025114,-12.556206058350755,-4.029669332961841,-17.809936256474625,-22.914159353743614,10.98917600730697,29.608324730127627,-57.97063130123781,-8.466249034054744,3.9284895763770318,-17.828600795060325,22.617379939069995,352
16.45935710955386,-27.009244918825104,51.03420736414456,-12.909039420958463,-3.4736849689259275,-18.038432057970947,-23.319990401760535,12.928119493169717,29.30695353715095,-54.00887128095322,-9.65464752014472,3.1633637498007015,-17.960490624284112,23.186892252549345,353
16.997550515040384,-27.88722038477401,50.70219720818146,-13.574637361416693,-3.0769558430375272,-18.174399658890238,-23.558712688347228,13.249621459373557,30.101393807524676,-53.54224378401152,-11.147189350069963,2.4833571404794847,-18.077908994450894,23.571991882224378,354
17.092989605780197,-27.851745694075582,50.70175870020445,-13.858555923960322,-2.7577935484662035,-18.30328905632248,-23.979479931510834,15.346014962233625,29.250158424397092,-49.794347000406724,-12.057750770344144,1.7664593333908967,-18.17996377804803,24.071530737826713,355
16.89186976986148,-27.238847710807992,50.889247119030685,-14.014006400970041,-2.5999681691347383,-18.421598928627258,-24.51689906164757,15.96047193456285,29.275608304198908,-49.72987189529932,-13.483690506566639,1.170433645500991,-18.294194962738,24.705271702913013,356
16.681985378938823,-26.658375309465903,51.19026672988864,-13.355912035868517,-2.6571563610924165,-18.442020447270576,-24.810321482122895,16.560507432468867,29.317806226158044,-49.835728921679326,-13.900523843114826,1.0085686906461184,-18.40170889350923,25.183683479108097,357
16.37238903696325,-26.338286684485382,51.27975525840934,-13.063837791109082,-2.6154309944752465,-18.46369987392744,-25.126974337784336,17.126524590378793,29.672047927064163,-49.75632781062869,-14.462830420447915,0.8078991523482949,-18.546788585410365,25.578406234855745,358
15.623837677347554,-25.79425953408267,51.27719301859711,-13.081649774301452,-2.6172267571832992,-18.435577933553308,-25.443268210978328,17.426793218044775,29.767512433157442,-49.66351976594175,-15.281617828228065,0.6976776008453417,-18.62386592453216,25.997020956219043,359
15.502776338861198,-25.61318690047343,51.369458841014456,-12.757253476651167,-2.7975865370250386,-18.643060319356618,-25.719551178048185,17.77215410457668,30.12142971364885,-49.41580326396604,-16.336750265229153,0.674688312641399,-18.86216707339971,26.457715274201764,360
15.368488368188126,-25.405272545887133,51.54072582716261,-11.970387718791335,-3.0651252968114493,-18.823635304995978,-26.04819546672749,18.049136557197397,30.15917260154613,-49.404679148375656,-16.81172659465233,0.7223106231843579,-19.122955480032694,27.036178338835487,361
15.333653973665754,-25.180184963970788,51.98824856853798,-9.637101924771411,-3.6124327836886363,-18.83455776900109,-26.24232140941684,16.38336403872759,31.114887708779154,-53.33813725538729,-16.0354032528236,1.053977703894805,-19.108390338564845,27.517309480250034,362
15.054810103809508,-24.88216638996622,52.22624024277458,-8.330168017407589,-4.051768306483961,-18.92345333607941,-26.3308060738146,16.15652869906155,30.993912541920054,-53.35586725247487,-15.790179680804364,1.195738348568034,-19.112225121260188,27.744761889521126,363
12.527985726798375,-25.084522514823973,56.14061007107877,-5.278053222725454,-5.026376376718402,-18.661291578310614,-26.366520926581703,15.238511142224281,30.14866071452801,-53.803197126161415,-13.435999070829068,1.801213117531434,-18.791109024531107,28.00105620062125,364
11.067523478739938,-24.021458635055147,56.69977530912455,-0.7713157856479707,-6.393285990915344,-18.163492323906613,-25.95745444888511,13.79007719623554,28.907558429647406,-54.49327225842848,-9.359806442253419,3.0653266055120008,-18.302220491025718,27.92219026031692,365
10.792166392620093,-23.203055329702284,57.350652502463305,2.5789004772076702,-7.615587470688658,-17.816672049397187,-25.205077752238246,13.176833690589628,27.71545153331482,-55.40166839204286,-5.2015295832268835,4.475582408676268,-17.94112262640774,27.35665481007214,366
10.61961149246666,-22.711974945594708,57.73712775855697,4.616454219194902,-8.403000088069097,-17.49925044361255,-24.412089457171568,12.78986469793614,26.28851194122347,-56.10070960332556,-3.1626642434898127,5.174029667553183,-17.537073100634807,26.740355307850518,367
10.389346628633945,-22.248996701995683,58.05609098158703,6.371172879941064,-8.908388262246595,-16.933829639236407,-23.53246344485705,13.338092572516736,24.015647757269168,-53.264279205081046,-0.43051659330900677,5.88730387606616,-16.944526233853487,25.908281322157176,368
10.297747282392313,-21.814038713059734,58.48022752353114,8.658481720720186,-9.450676975296437,-16.29597870564728,-22.696951281674462,12.561336846739513,22.959331689085882,-53.79410640280533,2.028954117735852,6.4919525673819205,-16.267279504598736,25.189164029147257,369
11.666072764577965,-20.63415675710587,56.01918428872592,13.027800535440193,-10.280879143641911,-15.42270448803202,-21.58936252773215,13.590860808947197,21.076387552185228,-51.29590003500057,5.777332380340023,7.227429179176681,-15.482272634803977,24.076501306770265,370
