JMW9912/AVATAR/install/dynamixel_control/share/dynamixel_control/data/csv/.data/H1_0511_2237_Semina_Robot_joint_animation_semina_preprocessing.mp4_motor_degree_H1.csv
theta1,theta2,theta3,theta4,theta5,theta6,theta7,theta8,theta9,theta10,theta11,theta12,theta13,theta14,frame
1.787844718716287,-8.9099492071957,23.464951236348814,45.83423287727046,-0.8043319800076266,0.20848291148719236,1.641387686575291,2.6647353792440494,8.436830782583803,-28.67700414466213,40.93038327950458,0.408725961719887,-0.22426903280430088,-2.0413848441132805,0
3.1369311853733692,-8.26347556235108,22.217521364092928,48.93541744781795,-5.2758207126260865,0.13277316674656114,-0.3916670901291997,3.896175468830719,8.3427715309252,-30.199545992668753,43.25082108015886,5.385269039347284,-0.1965717834463573,-0.23321688519464434,1
2.9992148590214702,-8.112711009455868,23.17668628924998,50.249513767094854,-6.269866481073708,0.13513414827981268,-0.5142252103076366,4.102688872828241,7.238829103631942,-28.143187720413096,45.54381336044658,6.36677477397156,-0.1641502786626193,-0.08981634315528651,2
2.5109305701569133,-8.409447138244728,23.269588310796497,50.65380748984795,-7.108593450255303,0.052435768174672555,-0.4287651026314743,3.7813372949109825,7.500709695503988,-28.259747619051616,46.004519660007695,7.192398149508448,-0.20606137512924652,-0.17065041278568563,3
2.2692833669994763,-8.502280524977255,23.38773035347099,50.92529990741953,-7.602739013923048,-0.006429433750410534,-0.36287597207029415,3.513655143296351,7.606418350241365,-28.35329918814068,46.323985146707095,7.675688633358125,-0.2384572335378796,-0.21780952388055955,4
2.152164331443097,-8.572466969741797,23.591555282844897,51.25179412003415,-7.9860033132339625,-0.046321036404187936,-0.23556328106015004,3.3692696673882696,7.679062207105171,-28.521012774306115,46.693408842601585,8.022045185842067,-0.2461844171486871,-0.32555176603674413,5
1.9026460968857324,-8.579613490541153,23.47009412405934,51.18518021447061,-8.200448319906855,-0.1191023958258355,-0.12309640528680096,3.2370500648923355,7.7566363467445285,-28.509488616598247,46.76384628225619,8.224576842312482,-0.3019823778268121,-0.4171023568673326,6
1.6774308594586662,-8.615045978521094,23.3562259476806,51.12934629304376,-8.33640195893986,-0.19149627330235422,-0.036074662665824625,3.0667124267286487,7.852141284609719,-28.44935363943991,46.778804420394785,8.355313433783614,-0.3593496914040641,-0.4853259472495418,7
1.4461391347521233,-8.605240564259983,23.206582656845995,51.013990375755114,-8.451231431724699,-0.25621659970108723,0.04095999338245896,2.9435514773926914,7.8815954386469995,-28.341688396537055,46.668144053991206,8.431824837567278,-0.4115571944812614,-0.5622146233213747,8
1.3299429623364865,-8.542642042755489,23.125989943660507,50.92878153791075,-8.546510573986573,-0.3047746260884012,0.15038823621562386,2.930178041567618,7.951458575131486,-28.31932661692968,46.66776476673603,8.516450721998728,-0.45876203857590436,-0.658825730048142,9
1.0864740258532242,-8.511977795928347,22.830238334931106,50.61837846652769,-8.58258532482338,-0.3842817394319505,0.21256076811230432,2.7924680743360324,8.022831598584881,-28.209657752224558,46.57815814039254,8.5539900102364,-0.49626648979403515,-0.6891592484953919,10
0.8538380958130062,-8.501819975391442,22.53341275169769,50.305684741918775,-8.607832671423425,-0.4396116394555306,0.25211565838684297,2.6389259127393303,8.142925053303664,-28.06444323407105,46.45857259583778,8.587381174609545,-0.5278095879382482,-0.7420926559119622,11
0.6169698921432729,-8.45641882913904,22.30684278631536,50.07153283447327,-8.627926070849828,-0.4759549505204605,0.2979515759470403,2.480793448021388,8.276721891494228,-27.95542194827622,46.40636491400833,8.66198675142475,-0.5362599523914218,-0.7725889350759488,12
0.3844003425245064,-8.473845303988009,21.999369293313414,49.747134024272036,-8.647155783738233,-0.5293945449758322,0.323521017123184,2.4207535587979,8.401119249198892,-27.81940450322258,46.264376671039045,8.689848425598383,-0.5712767371656161,-0.8139173855615762,13
0.3440125697418734,-8.565657338226986,21.799315554635182,49.52400450785435,-8.687322779070335,-0.5639110803963918,0.4051822440258652,2.4577050907966815,8.58012878050279,-27.69438787213274,46.12365252898571,8.743094800769596,-0.5854242486237294,-0.9009161978144303,14
0.05494755096865712,-8.61464189333505,21.530776442738013,49.28045588143635,-8.69930866966797,-0.5912549180972586,0.40376359248148347,2.3696302671011606,8.714346442826951,-27.560005090182063,46.000718381243345,8.784628633654112,-0.6130148083842908,-0.9131150580847724,15
-0.17511285209469313,-8.670467010819703,21.378114826426692,49.17689419453714,-8.74996377925628,-0.5930079008837763,0.41114285995204686,2.248660120533045,8.835177645209715,-27.428133789868994,45.89000865185506,8.835539655539439,-0.621676674425143,-0.9416296713237239,16
-0.33812056963372566,-8.754635102289667,21.233955820198958,49.07115965146607,-8.777435415994027,-0.580873358887957,0.40659218904884253,2.0678770328240006,8.997886914413533,-27.22253308527535,45.70227699878988,8.85986510809748,-0.6349840940792798,-0.9439592319551117,17
-0.5908780586050159,-8.817193651253575,20.979688700020905,48.835953400578724,-8.78437113240802,-0.5877497341244553,0.35710403325538265,1.7740975178255851,9.094928688777143,-26.89100810466583,45.321643614632194,8.849578717487589,-0.6607686402591743,-0.8731208833866553,18
-0.7097014992871546,-8.82541660872604,20.895367297826432,48.76568096882904,-8.84713700870418,-0.5688620251647207,0.35021068101537084,1.5703763837632185,9.183612863437219,-26.697031204069077,45.12665704680229,8.907186480536916,-0.666133100850324,-0.8646553585042477,19
-0.8773935594173187,-8.842915061672118,20.60686569820472,48.42763214413043,-8.840153431430059,-0.5821082703287302,0.29759992216876807,1.3051589650149182,9.303132880564187,-26.272947731898615,44.58020838532681,8.877945436068634,-0.7097683304515964,-0.7982868712709003,20
-1.1480594987581816,-9.87845970365724,23.415267345382098,47.40916760314161,-8.854185104346334,-0.5728728503306298,0.25036720983162014,1.0298126948144881,9.375261058845853,-25.956314621319734,44.19323568249531,8.883028043000373,-0.732017313192633,-0.7353920525051333,21
-1.4252403493205792,-9.926953269174136,23.164837260586864,47.16438190896415,-8.871623173475207,-0.5692764244706091,0.15210220784563366,0.6915051180917166,9.431231266260845,-25.519122932161654,43.60948333950828,8.840815763563846,-0.7651740939444042,-0.6422852534675654,22
-1.7140402751564223,-9.954981161968703,22.72115393967468,46.61730244771045,-8.820956129292993,-0.5972893927278885,0.03144599115450468,0.4019781226159514,9.468302355679663,-24.97252281483333,42.78323828205267,8.736764246795598,-0.8328854323455911,-0.49549714093154895,23
-2.0185002722067793,-10.00909983138385,22.379562526704223,46.23813871600642,-8.820844188973883,-0.5970435433386351,-0.1304807021534906,0.05646402332824354,9.521878128782912,-24.37072164798943,41.86946665098632,8.60480936392027,-0.9013065499055829,-0.34795490266133555,24
-2.8890411997124863,-9.964891872460615,21.777640848225257,45.62979190497024,-8.73297013443541,-0.6207664815875042,-0.4380654167958219,-1.0271948665111035,10.583306604755002,-26.731535244048253,40.25915772230189,8.476493235187544,-0.9355212251838994,-0.017338512227799543,25
-3.4655304046097153,-9.945585971961718,21.423455839142477,45.29524572709369,-8.78201650501231,-0.5957785699413649,-0.6058912567619877,-1.5868962342823867,10.57761133410444,-26.28543869093977,39.64645589550216,8.416826497083287,-0.9215184557576631,0.16849505677811935,26
-4.136372027866454,-9.919488336141438,20.917207515275386,44.74371612916126,-8.691259231162102,-0.5712827558518057,-0.802914790443654,-2.259078290942049,10.552502231048623,-25.672782638703392,38.72259906602112,8.30024620249409,-0.9570319845570313,0.40941754727916346,27
-4.765604675660024,-9.85711410514641,20.427470879510366,44.16977524033035,-8.641382682119788,-0.5669987192217207,-1.0145076773635717,-2.842798552487644,10.512029934278862,-25.133590996079626,37.87024943285369,8.162962398732066,-0.9535139830142794,0.6193042528818773,28
-5.793722912974987,-9.689186047996563,19.784637735449532,43.43652382151538,-8.478786793088819,-0.5542146918658436,-1.3043217791410826,-3.7461644720965053,10.38575987037661,-24.396817078031003,36.673480197506166,7.931612895282509,-1.0282509256884185,0.9473825109017452,29
-7.142383250269668,-10.490868162475678,22.206642004993316,41.88060867582922,-8.270228189230513,-0.5382826645915619,-1.6450125828837756,-4.890651807610862,10.157701731250551,-23.789053341060118,35.77825059873337,7.720406196523053,-0.9772561372179885,1.3113967837325373,30
-7.774741622028516,-10.424650388163942,21.443791193020278,40.71015123220598,-8.037831728970252,-0.5794549668714033,-1.812822596223881,-5.19943146644983,10.094133029519345,-23.256824986307706,34.67623939415304,7.522059713086777,-1.011614795854444,1.445546806334341,31
-8.701998737205432,-10.188034441236244,20.90640121332856,39.96178319357341,-7.7929909769609775,-0.5518407421296144,-2.032831237848674,-5.919419201295131,9.888098254590037,-22.883815364440743,34.039809942911006,7.302230507319697,-0.9639768597129253,1.6008604557402382,32
-9.7469320347317,-10.070742869411859,20.459494839049906,39.50998580748025,-7.6131106217606135,-0.4809111226065254,-2.147479149249879,-6.947850026115037,11.10905251066725,-25.755420969956322,33.28583532771824,7.212408376640949,-0.8217912249484527,1.671241712388057,33
-10.928361059724487,-9.751004037199792,19.848584057870198,38.62967872753045,-7.264696347026002,-0.4603555022099924,-2.430352005004273,-7.984732070457003,10.95577422196078,-25.404116766833557,32.90370861627978,6.995002756884898,-0.7377020954787143,1.915950841295692,34
-12.271527410256645,-10.647343496374159,22.715516398488028,37.789502840406655,-7.112081531265851,-0.33192155360082676,-2.4979666493039048,-9.204673744151604,10.777161577943113,-25.327808622982243,33.28639981655236,6.963032241226805,-0.5392320371987456,2.0234680859242133,35
-12.710379914157848,-10.436389694668371,22.716534673864242,37.85265916377602,-7.008230498492894,-0.20919578635228353,-2.429706246239468,-9.66486027642312,10.68453279781821,-25.277096282511888,33.35042934174389,6.921236213284853,-0.4232062073597656,1.9712911873110934,36
-13.625032085948806,-10.299893667428002,22.540893810835577,37.83254876691369,-6.888212892388119,-0.10545982596837392,-2.5027158038679653,-10.693851675441019,10.459681830924502,-25.106558013339864,33.330239418764194,6.768029000633122,-0.28375405971353196,2.0785143312440533,37
-14.241840602126791,-10.456075310523456,22.368494000404134,37.89097731493055,-6.820026519894548,-0.015823401726723585,-2.470573038813857,-11.13876835203534,10.565925845386412,-24.908362465671598,33.19700427748448,6.649722347723717,-0.20532409093560397,2.036303395796467,38
-15.321001218629576,-10.426146744849591,21.925472224462418,37.45171074575611,-6.570124212345267,0.03779424236722559,-2.6419739464596854,-12.189460657011637,10.56557609453326,-24.56027704102942,32.94342955748664,6.453118888759303,-0.12990660137805973,2.2355956743965364,39
-15.514102376995664,-10.660130700769804,21.383299448825134,36.552341729984576,-6.313640648696723,0.0013373915100417966,-2.649817540902431,-12.715299874678383,10.834484528575274,-23.944078305882993,31.950328061144482,6.195897878833744,-0.1812990366298483,2.2961250068866015,40
-16.41353178887498,-10.859301263606069,21.080077868257817,36.500094044402886,-6.1453265338448935,0.07616880003217819,-2.7910771235322853,-13.831822003603216,11.038250919235496,-23.504417615796516,31.688957265611403,5.987228824099072,-0.10785922810597283,2.4487183951689984,41
-17.646672992406753,-11.045893502784152,20.837877293700277,36.73151530293569,-6.022302788210966,0.20645051193425293,-2.984770404693223,-15.342168222149548,11.281714003141676,-23.05193074008269,31.658030717470083,5.813842440457026,-0.007858153155084476,2.616149297244144,42
-18.477454985957916,-11.279051960606122,20.45769953760027,36.49704693130002,-5.8345778949277625,0.2626354361487087,-3.0941966919811565,-16.175276080110226,11.602470188947331,-22.502618044379183,31.05765301287021,5.524869319943761,0.020975604662603013,2.7341505746948154,43
-19.51099716406276,-11.536247403240422,20.281736090409037,36.82116208011036,-5.828196319048364,0.3790947176908479,-3.124608013464007,-17.086613561361123,11.896890202349239,-22.215677865613678,31.147752758127687,5.3758581050469765,0.13110778267637185,2.742595144333607,44
-20.249128370106583,-11.824107833294658,20.01265113375014,36.82378383787659,-5.808853217182726,0.43680751757943,-3.1286420427885173,-17.721276569306312,12.238530218690926,-21.834518643160845,30.887661173993884,5.313560729627256,0.1542449600796953,2.7084485885969,45
-20.739762531246704,-12.502847375329512,19.694437063663084,36.928087241568456,-5.843590004633526,0.4915930566531303,-3.0305431574573687,-18.551920158189763,13.020533615328322,-21.467177124236418,31.23268923642189,5.352428404717113,0.2476722697624506,2.65769569550012,46
-21.753558628867232,-13.164394848057254,19.007879778165037,36.481874120962694,-5.754648181593396,0.48945082380155774,-3.1111869221011377,-19.551341205105633,13.514003131432787,-20.836246819687524,30.71350753393372,5.282142462155045,0.24673504716728284,2.74612093638819,47
-22.28092820569037,-13.846906587515623,18.458782778379152,36.13474341071901,-5.721545494541622,0.4666490139487071,-3.139108192723987,-20.133118873682907,14.137077647826747,-20.320129593565856,30.40083781816261,5.244442102456257,0.24443974352290446,2.7740434057494396,48
-22.929275439121678,-15.675830833528908,20.629476213295746,34.039255097058046,-5.471893574926136,0.3972865697241414,-3.2875691678175682,-20.92616386469548,14.64841896721448,-19.57811995319188,29.52791319215666,5.088735778165906,0.18979949648346114,2.936846998302414,49
-23.80425832238525,-16.320573804533314,19.996727457405175,33.63291486922463,-5.339084116025553,0.4193098793680683,-3.48594809082267,-22.236902408577492,15.392535084100242,-18.844933355546782,29.21444880866312,4.923216603517804,0.22164102988590317,3.104986671302071,50
-24.194782248157868,-15.480750195835656,16.515779189732562,34.3064042545962,-5.299375429756401,0.4771068312397498,-3.6377010796160234,-22.746629449257544,15.799062889940764,-18.333338396884542,28.66630003425293,4.813710019060995,0.21376457631317258,3.1705606538579088,51
-24.432828940196128,-15.82811666060061,15.948133876455422,33.516894065791476,-5.198929523732113,0.419978971954752,-3.6648004637154243,-22.780953316287036,16.221334895892863,-17.886167536587045,28.060978879188603,4.698773151703141,0.16651990169731917,3.1465476296981683,52
-24.7032550868171,-16.218493719696156,15.935302771598854,33.98228563509454,-5.229294024857168,0.5191261253570442,-3.6391644913345877,-22.86304982820739,16.38470598049293,-17.682706131064307,27.78822948335444,4.683396001894984,0.1797748978629899,3.0185179726534748,53
-26.011043055655733,-16.55521808367939,15.814321564188973,34.59863282194559,-5.226741463674252,0.6516190945006153,-3.7607123301990115,-24.094203186152164,16.62370272879852,-17.337791664857022,27.83284555702823,4.5763363904987475,0.2520537993187696,3.0325117322975674,54
-27.19744079396983,-17.055578637881094,15.491032918606617,34.87550737796442,-5.1785663136666145,0.7079677904629711,-3.857322148676839,-25.411218641088304,18.51227573134217,-19.885666062284276,26.72498628992458,4.486124515119333,0.23189778646078713,3.065142173626718,55
-28.417934199031677,-17.36368363350327,15.586262101730897,35.82886515807017,-5.290858048895813,0.8577874082018532,-3.820770556120355,-26.438786932141337,18.76454808795435,-20.026937820449607,27.881759593296323,4.698991738932181,0.3750819608406628,3.0042164740436523,56
-29.39154593345086,-19.17060907716469,18.630678895705326,35.64958486398689,-5.497002117557343,0.9330461064407755,-3.6432007468956726,-27.144161229846464,19.365131480180715,-19.774070356503938,28.289213102893935,4.902370671608904,0.40713548167623576,2.7793057712439686,57
-30.48749713807868,-19.47452485356438,18.569164899332364,36.197784826043936,-5.753184423010539,0.989298142476776,-3.4240794829262016,-28.26173763794998,19.778894604072324,-19.635715747867927,28.934130359872995,5.160009332360746,0.4831589655141801,2.5647678285341047,58
-30.702722329646825,-20.837394083007904,17.69665628086917,35.74498887403571,-5.964073798374444,0.9069230739867402,-3.149643853092116,-29.056055471339494,22.447032708530834,-21.857034000033632,27.69712151928855,5.402561640239823,0.3512345423105623,2.291411579159033,59
-30.898867726890707,-23.003323152707345,20.323116656541767,34.774776081683044,-6.292061794212527,0.7912940632384765,-2.796912669868549,-29.212716905446932,23.232169126271412,-21.30093996449728,27.353219446171018,5.676019904894267,0.25572228320659035,1.8523375264691748,60
-31.72898030244199,-23.516290598409384,19.64587370419922,34.19106929254585,-6.452379578081637,0.7462076460264362,-2.593943929549824,-29.743076178077494,23.762937736654205,-20.677380002815426,26.727863252189834,5.802181732743476,0.1663935197757385,1.5468794694532189,61
-33.039749078702265,-24.318815114088515,19.264447169250197,34.64023267424277,-6.618105972900084,0.7356395578711995,-2.4758645580523675,-31.492197704774384,26.00663246281309,-23.18079329658082,26.046137034118015,6.021094113683056,0.14718276546534764,1.309366664746401,62
-34.60594778561493,-25.054170185306926,19.158674659032734,35.622913712592236,-6.748733073784935,0.893081109471845,-2.4721108002868255,-33.172369393656155,26.612309458352687,-23.146147679283395,27.381126720185314,6.242834992351317,0.30624294671939667,1.2339924743303479,63
-36.63180652914976,-25.53354782617306,19.367874062829255,37.04909610484602,-7.045265747037347,1.111918600613741,-2.463925205117015,-35.00975973332061,27.095203785764625,-23.47089822328372,29.377953930996778,6.642416005410224,0.5752393446146451,1.1671996919520715,64
-39.049392558994526,-27.129560266762688,22.338514151699872,36.91716094759593,-7.242063247746887,1.2481388164891893,-2.4645737623630732,-37.41639792591598,27.25547068401194,-23.577178337116703,30.61791270416265,7.003412527433457,0.7648895629886071,1.1860249829251344,65
-40.56313584923313,-27.829150313724696,22.40991425828306,38.034425163558325,-7.637007205398407,1.3509825847464234,-2.351579082818144,-38.92641609664131,27.690618852868624,-23.51327635217409,31.420418842708397,7.390263145390686,0.850426094949471,1.0219907587306127,66
-42.15912217505865,-27.915348236185043,22.888539884551236,39.34187943218717,-8.031952758648137,1.5712662421033872,-2.184120842065919,-40.82918657240924,28.755174537833298,-27.15834477172554,32.01520368911251,7.781431133633916,1.0782464968513366,0.7977742419448269,67
-45.08986678443771,-27.37797318621211,24.018731469702306,41.52328219250419,-8.37563273419941,1.922012358405307,-2.1747974453670817,-43.75073133545091,27.937155900513606,-28.020270361052468,33.929024213933936,8.180701686319152,1.4432006868742875,0.6995702346988382,68
-46.52688442410539,-27.000893867267855,24.83063068199971,42.89330234967093,-8.668527304926362,2.1344171005831765,-1.999482789062055,-45.03523520220537,27.476320215548125,-28.57259657659459,35.03237787016972,8.505331792119252,1.6551787804780846,0.49037635048616446,69
-48.70174756876434,-26.68518106910317,25.936488681894385,44.84180895470451,-8.956515050092847,2.5003061748017315,-2.009647133248657,-47.1585932602744,27.120174062652882,-29.648085410943395,37.48861730759612,8.878366610502923,2.0779707520132358,0.5172284934622025,70
-50.54327189962582,-26.891630490101328,26.532493462296966,46.153035259708574,-9.08422329482873,2.7143618153736915,-2.144204007693411,-49.04374592456607,27.353106653842765,-30.197552205981648,39.16531662345374,9.12343893661881,2.3705048885039557,0.6686120283229432,71
-51.76132626402764,-26.211213912013285,24.187225694710616,48.2314273922813,-9.16713816899005,2.9461124993297982,-2.2421421228544367,-50.098091223642214,26.336825185779507,-27.930893605281426,41.6779682569584,9.288126208770825,2.6532701996585737,0.8177385653270515,72
-53.28573643299104,-26.10723399081119,24.642216875374455,48.98334321815,-9.037163223688198,3.1527060237574025,-2.420260855022611,-51.497466942050856,25.755137296911855,-28.32601244872098,42.24074325416092,9.251579674303343,2.820075027621127,1.0912302101614777,73
-54.69771161096861,-25.95755773045442,25.24168350464473,49.858851917483335,-8.964139764841715,3.2742157843193778,-2.5106847697737873,-52.76032445546157,25.28429621138477,-28.73703429392638,42.873619501157776,9.121703602047806,2.983990073584696,1.2802231631258993,74
-55.6264365430219,-25.613166977270204,25.07381417025886,49.590786309646134,-8.81489075001922,3.281695984710451,-2.528952941198426,-54.09510895792865,25.051527309632064,-28.95149031896687,43.308798547066324,8.970406932912734,3.061096567735724,1.3756023429572592,75
-57.533083260627116,-25.20363434775156,25.655571811032605,50.35494525940956,-8.745330768238194,3.4532080456628695,-2.559023355422178,-56.26798604959999,24.73217128491107,-29.742514629332245,44.77169261658833,8.944466966359691,3.263663680658148,1.4942607823340388,76
-59.30051537342608,-25.24921114707261,26.314877165743567,51.35425920062299,-8.800277662528423,3.5653841031990496,-2.5277910572588076,-58.133586631446555,24.171604942319792,-27.532238188397773,47.21222381636445,9.034377318026852,3.449959933787336,1.5233482710668491,77
-60.9422638691978,-25.244907078500397,26.911624141352483,52.19864174247602,-8.852374943979168,3.6704647628780784,-2.5204075828269183,-60.045804966220174,24.37302954913182,-28.143993477293826,48.38996950598109,9.13309707654361,3.568249403928375,1.5175375753094311,78
-62.59632523890936,-24.807794285734175,26.370403057327696,53.28736914274935,-8.925961575141494,3.768912908789131,-2.4895124243346975,-61.95534270837073,24.361411372365424,-28.68428087806896,49.30621055817536,9.252138715682447,3.651364755644897,1.4951317770194412,79
-64.25639785200502,-24.841950132913034,27.09717986554636,53.79466028086337,-8.969565114358742,3.8543417719006263,-2.485128551656383,-63.789689401788934,24.310994498197473,-29.363897676736055,50.3405770555699,9.305883264143285,3.7547607556868927,1.4557976068233769,80
-65.75145375143475,-24.81830135959132,27.713415346714708,54.180913074759204,-9.015362041664202,3.9126382324690923,-2.438087491742939,-65.40560032594755,24.47923567412288,-30.731202923568684,50.528024793516856,9.406299553319842,3.77764898145669,1.4279749557505594,81
-67.18651697990076,-24.851197457489306,28.34579364543737,54.632097711828756,-9.082516360365524,3.957381204710571,-2.3680988641107548,-66.78500158594692,24.31883184138457,-31.21711573677159,50.858824755481436,9.491133389558215,3.800301810640439,1.378474333243178,82
-68.15003970578599,-24.89548049885888,28.844249139326894,55.029799774862745,-9.187075706374424,3.994930262863019,-2.2971019825291834,-67.71305988773886,24.195645939038123,-31.5820720348959,51.140680803296185,9.607848405087456,3.8411038391525225,1.2903492176979605,83
-68.72396722745758,-24.744531798511805,29.306411728551222,55.38791554143586,-9.296797252434313,4.059798286578859,-2.186176553698205,-68.23428093081344,23.85341419260969,-31.953835946092564,51.41236524198715,9.741484285289417,3.9070126231783715,1.232487206176213,84
-69.1245742522134,-24.61724698171585,29.72399580983626,55.73543010819991,-9.437231457865133,4.107518015005749,-2.0591043444163555,-68.61305250267317,23.59551315830369,-32.255109267055765,51.654061789595666,9.880465280381628,3.9415469875247773,1.109878229339131,85
-69.25995399749434,-24.567130525064037,30.015001813003217,56.01567062925774,-9.571309288984079,4.134730521765897,-1.9322173600610828,-68.72209920976861,23.416482823866723,-32.46867250019254,51.856539305415545,10.004795768088421,3.9852521986459424,1.0151028178440522,86
-69.3012532671499,-24.53371351377057,30.206138668860866,56.2061940587838,-9.714349226387796,4.1662681122045715,-1.85119295896972,-68.79954794812835,23.35168845551019,-32.66941349885764,52.097936520443476,10.136172968735195,4.031640788939909,0.917340950558068,87
-69.21701633175898,-24.498106404963774,30.28636111287457,56.29727301272088,-9.827303052064831,4.170406769583267,-1.7569426427362835,-68.7014379014902,23.26827344282446,-32.79363522198924,52.25123314753167,10.270437224870214,4.029376084140994,0.8710957606812566,88
-69.14171091035193,-24.48215892814847,30.358771830230502,56.38445338975985,-9.903730646255804,4.166788192124374,-1.6894627636106194,-68.57374001808324,23.178561893296727,-32.794968146822754,52.23352812975878,10.342253281046466,4.024232801657378,0.8223162887073703,89
-69.01136833739234,-24.165685490187933,30.634239699488848,56.596503704123215,-10.002310663000875,4.21301590631798,-1.6296396817720809,-68.49963386866321,23.26695261670956,-34.52372517134984,52.19323902565605,10.472598366938781,4.0796152363421765,0.79125920521913,90
-68.73228492213835,-24.013936088403483,30.579298722538805,56.535837502840955,-10.074248263915894,4.201966030960111,-1.5496317153527808,-68.1935367954933,23.15431453156385,-34.508399705207765,52.12463399751652,10.569336378858575,4.0726415625301255,0.7420499811744672,91
-68.55579401117078,-23.836612945827117,30.51402263424996,56.434859933722116,-10.157695236986513,4.2031474335367465,-1.51370599044765,-67.95460429237885,22.956529313808932,-34.51800299055738,52.063785535109396,10.643113161361555,4.070833947869631,0.6988840307994425,92
-68.46488057853374,-23.79356050490262,30.541670459345557,56.465726688811074,-10.226046273025634,4.192096645928837,-1.4520848449053196,-67.81187467975758,22.838072379521346,-34.554920912845176,52.06767867404547,10.734537456506118,4.058719542096132,0.6684716132372643,93
-68.38334806021672,-23.790048109625495,30.499661656266017,56.433734171787826,-10.305663679033263,4.17314531707596,-1.4062705802521611,-67.73147888336536,22.840870735193228,-34.53679448544608,52.04115665855872,10.778806452622838,4.052547022492486,0.6279066380770739,94
-68.3806840226727,-23.862425225962827,30.400327368655446,56.35255788289424,-10.390614094303473,4.1121725972616305,-1.3909178353634541,-67.69885545570438,22.915504065987474,-34.493710693914956,52.007138790263376,10.86476920967047,4.026683136281875,0.6407075232026864,95
-68.22298866967557,-23.81776286354003,30.36336048764264,56.32490032104721,-10.448390444434427,4.123049753363401,-1.3708428458132553,-67.53634546757694,22.907687856175315,-34.50988463349289,52.01784003571812,10.923020263193688,4.024515580410997,0.6366815705216462,96
-68.18936723150007,-23.741025389034228,30.420776607692545,56.365489615970795,-10.482748329049498,4.123866981733384,-1.370644724715756,-67.43187727538678,22.81284860788384,-34.55244134847566,52.03804017149205,10.972019294221601,4.025881931080528,0.6295685518607514,97
-67.98372346141821,-23.7329595397838,30.300353921761793,56.26868708987543,-10.54705902147209,4.105038496210482,-1.357504562322065,-67.2687734114265,22.857195562079532,-34.48221384468432,51.95243817187796,10.984602647273787,4.023540249274772,0.6234895406684795,98
-67.72128254110292,-23.594726140399132,30.2463444441339,56.20566648565608,-10.559216692987965,4.119547062801033,-1.3667296579681805,-67.07707814287278,22.884412696043135,-34.49707789556228,51.97071012112407,10.989927351417148,4.01792291672258,0.6398974217042641,99
-67.45730601030989,-23.43602850278373,30.182793648841322,56.12305340801605,-10.576690133881003,4.129612482297101,-1.379697328534394,-66.81321904705582,22.746900603449163,-34.44651119787569,51.846799059868935,10.998456601869853,4.018240021149688,0.6531267225778337,100
-67.07056027541103,-23.274144604310326,30.09876007797659,56.03698744552133,-10.581799329630059,4.125262215689981,-1.3584783193364278,-66.46890283530568,22.696775428341827,-34.379806493352376,51.72414183506126,11.016970081945127,4.014369881661478,0.651080650877884,101
-66.5829381473282,-23.202562252283027,29.821522216520748,55.787065239408456,-10.610477178670568,4.088652422846387,-1.3532187362462076,-65.9153670651947,22.65040035652017,-34.14225280700595,51.36121256338813,11.023012045184426,3.977427909262721,0.6415019070741457,102
-66.10312790006832,-23.21134554796445,30.27849820688216,55.58235557262,-10.636106372996393,4.104721902526044,-1.3390057035358445,-65.44464471965507,22.574096754514926,-34.2013140677517,51.386535557636584,11.0672177237939,4.009075737320536,0.6214407202230173,103
-65.46843879271786,-23.141975551672186,30.002270542537907,55.24607188835138,-10.637114714823202,4.117332342083384,-1.334767617408427,-64.7457011994989,22.547023205340228,-33.958660314421984,51.004894073239306,11.068910491668671,3.964966021165396,0.6107634318885797,104
-64.95478967441277,-23.04395500088848,29.915915778160656,55.10158045495536,-10.65229450556938,4.099925585380283,-1.3315862224120436,-64.10963036171275,22.39896848677186,-33.79300751779957,50.68265452259585,11.096869130762778,3.944466880531726,0.5982436797110199,105
-64.33673827863953,-22.91756949980604,29.74130689880371,54.846706474751365,-10.670906920807028,4.090597722606713,-1.308187393866027,-63.48344071470072,22.274802506288633,-33.65200398220993,50.39677147100243,11.117286041651388,3.922854781453632,0.5925499891653365,106
-63.86353485041633,-22.8696055442319,29.78111365240545,54.848196075349534,-10.702543568908318,4.097280120637874,-1.2915360960688078,-62.878688257017785,22.136538049436677,-33.521742776658144,50.11641045915424,11.134900360346668,3.9246229997805497,0.5905885588004787,107
-63.20491409076512,-22.822035522243585,29.781195529050105,54.79471259629848,-10.732539142336512,4.098279504195587,-1.3133665904807013,-62.172834881832955,22.123770107381144,-33.46577578099733,49.97446003679399,11.199376503669201,3.924835267066985,0.6267630709383403,108
-62.386107544575836,-22.83153093118305,29.869942549683934,54.83950305142593,-10.813426627626953,4.124212446184494,-1.3132659443915107,-61.289933901941474,21.994666663967664,-33.48467705684739,49.87685973266247,11.26797870188868,3.9272527191671616,0.6497741694293814,109
-61.56568038241626,-23.025559398253673,29.64913316401001,54.602956678907475,-10.855872174383395,4.123142433226666,-1.3465136426500561,-60.42206029404599,22.078929911143707,-33.28844095151668,49.54561124029434,11.30539939913438,3.891291947113858,0.6724638604554966,110
-61.03420514620325,-23.074856167185,29.62721219396094,54.55572867906525,-10.92243136321172,4.134308043897185,-1.3998588336137365,-60.00410024239761,22.342500342558317,-33.58264211360668,50.025588532720086,11.403558329817509,3.9637284200232914,0.6801250284715656,111
-60.00426639332326,-23.32018086910056,29.55651663508491,54.47456765349067,-10.988184176620901,4.092994518919118,-1.401338759986039,-58.98622333247411,22.689413552310967,-33.426198483006786,49.83305201749427,11.535069012537429,3.9323145020177583,0.6605367849346103,112
-59.05160596612929,-23.49811218008944,29.827499299238408,54.74058064258161,-11.150026768666892,4.128642567445009,-1.4117764639302475,-58.16115226728849,23.037715056859696,-33.639350162942165,50.176949464545515,11.719734012084773,3.9474577266920563,0.6126874766017274,113
-57.987289095785954,-23.628377957081852,29.90248773309582,54.76874689850829,-11.337690499162127,4.110978840515833,-1.2904488389452633,-57.222317773606306,23.424342004790653,-33.93253115673708,50.620167068932936,11.958693489785187,3.9785580269996315,0.498535289516195,114
-56.589316885596446,-24.04190524652678,29.65615295294947,54.50609264071131,-11.443327961469253,3.994636704289667,-1.2531870729389785,-55.858872188770164,23.976351867060533,-33.6435608409155,50.277708154442145,12.195077223082041,3.8242698088914158,0.45167780520692535,115
-55.178869051100115,-24.436232836660956,29.550338094354508,54.3784073293693,-11.657837402602292,3.9396803143581405,-1.2295459717603265,-54.50091805582404,24.50542650658521,-33.448841893736585,50.05003254480779,12.41587629719629,3.7166134968863807,0.3542238951285289,116
-54.000947176878896,-24.737481883479997,29.33202601128988,54.119063838859525,-11.807885894618634,3.855817000174257,-1.2536971962784726,-53.323229742327925,24.949878279613174,-33.25201269157815,49.80426015828269,12.597069851494268,3.6021632613565933,0.32147359014422405,117
-52.78184838164543,-25.22196729464348,29.34638650703793,54.15651246621144,-12.01405744008133,3.7844953356459525,-1.2972232013117861,-52.168386295396424,25.50430690532398,-33.182059079496504,49.77479124066034,12.79822468551161,3.5237985229781508,0.3156960532492785,118
-51.33392554712971,-25.8722498809362,28.718292191751676,53.53070796277315,-12.157347982870021,3.6400242988582336,-1.3886241202843692,-50.69260188433583,26.301369988568958,-32.856427382659795,49.44877749379028,12.96707867957414,3.343142549174573,0.39221576966993593,119
-49.78354772458021,-26.0609521641885,28.620445153308506,53.2981243024328,-12.33002854967043,3.540229502322912,-1.4994562506817064,-49.20224179726165,26.615998752481154,-32.96042933111896,49.49808846487321,13.144189705689122,3.2922759779770923,0.49501648464928527,120
-48.01951059025296,-26.266138296885973,28.5346013753575,53.04303967460595,-12.494373506915043,3.4421900162959513,-1.5745575416637965,-47.31350523437223,26.93986809122526,-32.82204422582774,49.14626246411028,13.267625070798076,3.2021307110574293,0.5556539392124777,121
-46.14375314429561,-26.510633117660102,28.424078430544135,52.74233469266082,-12.627577079281284,3.370240234362061,-1.6785291310568553,-45.037466066992174,26.3391956960415,-29.779415884621592,49.49406306608304,13.34024240316046,3.1120208293155445,0.6565673806231022,122
-44.75973175131665,-25.556412102679992,25.41999391050489,53.193529515701606,-12.625062271704568,3.3013634740148383,-1.8243937327201336,-43.60028688249565,26.24880184450833,-29.708079084884403,49.10415575080119,13.346688895976772,3.0718360903020874,0.8195880923182475,123
-42.92232717642853,-25.521061423036233,25.403200094857734,52.87460073009497,-12.772911913947459,3.2442605142844476,-1.8913860175507573,-41.53722356015619,26.133659526333226,-29.707828165996396,48.65777635962254,13.500755342277648,3.0121993402008527,0.9047642021712917,124
-41.47004021876358,-25.180530181938803,25.184327218513364,52.26314583863049,-12.848268866790592,3.154461751197794,-1.978138968019812,-39.92026235107304,25.80598851655569,-29.518829201157395,47.91624950593814,13.535789261773097,2.9223636341434216,1.0162564595343426,125
-40.21744139393319,-24.825770420664536,25.66020744205476,52.43688426527363,-13.063811707133656,3.185539738695096,-2.0638285211887704,-38.68956474906358,25.356132146406317,-29.918870176513735,47.99305210763306,13.711580864967914,2.9495658402148575,1.125803563806967,126
-39.00827294399025,-24.34530629405304,25.883927411762535,52.28590878632554,-13.20909294260643,3.1904928590727595,-2.172539917353653,-37.42973124609836,24.816786103565565,-30.144909382913603,47.774107647067204,13.83707877668199,2.928913684273565,1.2701993928744089,127
-37.4440371231364,-23.701128254940766,25.967725683523877,51.838587587003545,-13.30681762995692,3.108469596511338,-2.225582257065048,-35.84185995941365,24.180413506692382,-30.15455342114383,47.11026817313743,13.909868555622522,2.842279051890106,1.3599548796153325,128
-36.55589735509365,-22.889874327836328,26.60162368984628,52.08499176309009,-13.468893562510281,3.1836464752910567,-2.329524129291351,-34.829195728460114,23.321064296951032,-30.616316798136953,47.12280707695904,14.025639041508656,2.8775375290890297,1.4669367890765304,129
-35.60646631580878,-22.15156153212247,26.56294842453948,51.571633674084566,-13.547480666449157,3.129235600422097,-2.443868165795249,-33.78415972851663,22.611561288234327,-30.759311704725373,46.728933435400954,14.123992550759748,2.810076038817396,1.6268400300049821,130
-34.786874411210256,-21.606515284806868,26.55068200647584,51.17574602895702,-13.664182371084967,3.062003262500256,-2.566443129090604,-32.93695368192373,22.070476420428886,-30.848769974612342,46.37779851387728,14.203773956013045,2.7607389538836515,1.8229557378465835,131
-33.8760721583338,-21.184407703040065,26.774059790846547,51.08416643472232,-13.841551046234711,3.0204913595230547,-2.724313404549404,-31.72919670743352,20.639319887961268,-28.13072943223756,46.990833645667394,14.369478487653751,2.7136019149406354,2.022004696093956,132
-33.05767311688667,-20.904883924398476,26.628310754060685,50.611602400877615,-13.996987522920913,2.9278959074721143,-2.8849018982640198,-30.96304380950355,20.392138589458497,-27.972111719078846,46.42365292442697,14.45875154917032,2.6017847351149594,2.2308477997208267,133
-32.04516943856352,-20.595245544232014,26.51625440135428,50.10927071337735,-14.169537377935374,2.811419607169317,-3.0138697564030195,-29.85230076643209,20.1433254680736,-27.93578691718548,45.92565515593277,14.601693886699316,2.476632541534994,2.384722733698474,134
-30.942485276546762,-20.155662922851302,26.553416360519805,49.70816401335973,-14.35482664539842,2.7316538659119076,-3.0599400188343657,-28.900796677441882,19.946654152936098,-28.270672178124308,46.059613501521184,14.827621400851214,2.4363543670642653,2.5702293781035466,135
-30.01872855939177,-19.683522611558317,26.926676568466604,49.76776202581019,-14.613876279273132,2.7312327623255435,-3.1369009943483968,-27.96403890499444,19.582366262099,-28.627725566248337,46.14669334339104,15.08410298972813,2.4095899353688615,2.661131122453798,136
-29.20697832476768,-19.29211588756057,26.76868443316805,49.18877274292509,-14.788198662344808,2.6268630706842933,-3.1812811573589435,-27.334410008405545,19.288884861491145,-28.684132487096235,45.89766534657594,15.28399674613666,2.3212496292562284,2.764873293446207,137
-28.194682975039957,-18.81148098822976,26.831623872687793,48.79963369795964,-15.015565665781315,2.5644805034736873,-3.1794829440304717,-26.41808655737003,18.827076591915482,-28.884452661367625,45.696249167493484,15.498005325837706,2.2485392758822917,2.858958887202452,138
-27.463859778143522,-18.289895509431673,27.195966614533514,48.87652215765597,-15.261493180917745,2.5284885700798565,-3.248168760322675,-25.497430241726875,17.300116615582816,-26.1315432386964,46.31413749141212,15.632534866042446,2.2198057763519423,2.9503408877243684,139
-26.731070173299404,-17.843249056856457,27.682938917761618,49.1529138586251,-15.518799095489735,2.53693979249978,-3.278360295921028,-24.92878768766929,16.67875393482897,-26.463384612074037,46.340550761520035,15.809069921282905,2.196666654354675,2.9937486356273957,140
-25.629774176354537,-16.627083172600223,25.33071575693873,50.332844476221815,-15.841637423510294,2.526350178697865,-3.203540426753857,-24.13995620885297,16.218194484669336,-26.877692576418514,46.503184203536684,16.065365930962397,2.1852211730752007,2.9340974089784995,141
-24.619017461343798,-16.318880662871216,25.783226766498466,50.51845388288987,-16.106261441505207,2.527815193531683,-3.191324541827296,-23.350068697856297,15.788361809140145,-27.135436492818414,46.44036680717973,16.312046530077385,2.1354854990283973,2.902263168397118,142
-23.51216747605016,-16.159693519127373,26.205084106961372,50.69091096795352,-16.410075188427147,2.4822041068437994,-3.116075449643975,-22.17098120145937,15.563369100190293,-27.400358850855117,46.354462592942824,16.552425105968112,2.07858538363614,2.7869739717064594,143
-22.267562572320163,-15.734214809594848,26.985023493349022,51.17463285956456,-16.707348646300996,2.509790257936871,-2.983245337501278,-20.971099150453725,15.207348016778624,-28.14542802339853,46.93772503779446,16.872113399578744,2.113280190979562,2.6880252316932727,144
-21.365451556804228,-15.429808116375824,27.52866180639161,51.494836815794436,-16.942721400873406,2.515195453473771,-2.871590001508193,-20.138908879712947,14.904587088639909,-28.800602157250697,47.52023541900743,17.187475523200522,2.1398451015203586,2.6626765752668815,145
-20.588487908480207,-15.237356350009069,28.11631790870686,51.9360234738548,-17.234382530527547,2.534434434041986,-2.7682673631860215,-19.270016144065334,14.80462877396955,-29.386324084573364,48.06248472846415,17.517630137364705,2.1578328103430784,2.588434163157392,146
-19.183631542166697,-14.880498194373919,28.648308081269857,52.07896970035377,-17.515056544614243,2.489192970967973,-2.605475177381459,-18.025656228882127,14.720031367862518,-29.990188603970285,48.502765919486734,17.816517131298347,2.1556286848158597,2.478223589243322,147
-18.224977460705272,-14.589020149967016,28.86285651895754,51.979637811301096,-17.730147321718704,2.443938429058302,-2.446740036253593,-17.283378530278505,14.625525405903383,-30.19634300141262,48.520866959347906,17.98291139440605,2.124316534773439,2.390319469495866,148
-17.15986998677949,-14.157702925956716,29.00448574175172,51.712969078384425,-17.84997943145261,2.3740137840676003,-2.291771249994826,-16.38473489805447,14.350588127152992,-30.36196758183159,48.35555863568846,18.16977262214571,2.0629313924899115,2.320717393330422,149
-16.356014828294033,-13.92134391353779,29.337254599868086,51.817632935997025,-18.041964076555768,2.36030076562074,-2.197777721271296,-15.61001584547393,14.157223067498414,-30.550726504137355,48.29537485060401,18.284825442070932,2.0213362499230807,2.2219165419831106,150
-15.176018211489255,-13.862734143359631,29.77709156363584,52.00007729769761,-18.224728407981985,2.342940030107974,-2.073898009780816,-14.318057524100997,13.223445281514154,-28.060823024560612,49.272325340351536,18.464470948056444,2.0049238453347984,2.0721173231229724,151
-14.027383215321807,-12.95566238440712,27.49547277553313,53.15198092860622,-18.385682820294882,2.368696948581556,-1.9423459645987504,-13.26549951925951,13.066815179764186,-28.573376183866714,49.576648589844,18.601880765945015,2.02952541624996,1.9433375882611021,152
-13.032423738013232,-12.81244557647512,28.32735013164286,53.778460237412716,-18.593191538213755,2.4201840506242447,-1.8672407434999376,-12.344825184135471,12.944494434109338,-28.972380178335285,49.77701413966554,18.71997920440933,2.061707500958398,1.8125869577378937,153
-12.094771910104448,-12.661144053977361,29.0766217523785,54.31027743412912,-18.762545865051262,2.478480359534869,-1.7485757425121335,-11.41980096657234,12.737376834034023,-29.758762490572547,50.46518549703815,18.894371299427576,2.134116991577295,1.7137696674440852,154
-11.428278375048125,-12.355937454679468,29.547355578757145,54.5638974917126,-18.846104097826185,2.509568712234287,-1.6415726767044057,-10.630445668506562,12.451383457196428,-30.387791382822417,50.94870966966146,19.02310528291503,2.1853263130025926,1.6028135445115015,155
-10.73041039702436,-11.41145213785531,27.373941640587727,55.817071401001556,-18.95581700329557,2.5419902126632987,-1.5112355600785865,-9.912501157059372,12.219575497791478,-30.92596761495907,51.34799804530439,19.138667202301345,2.2163856302870815,1.4663685366421437,156
-10.060482349598335,-11.150419672249892,27.95342683819156,56.1629302056208,-19.059338373356642,2.572625382828689,-1.3527308949744004,-8.924271669160529,11.077409104560024,-28.772139762371733,52.6262994995459,19.290193330170776,2.2603056741705445,1.2887346466585856,157
-9.571901297948155,-10.931297098444148,28.395554497059187,56.424857468747476,-19.15842219824191,2.6027777163949986,-1.1913717492654161,-8.31912292938825,10.856051495651707,-29.37594895610801,53.10275075819108,19.408871179767395,2.306932332382063,1.1338329869606212,158
-9.397228143563565,-10.613792900584235,28.38260316888043,56.298298172298395,-19.19022999618938,2.556463227121606,-1.0981717602354708,-7.946266199192961,10.47613047081271,-29.56694520999394,53.11247714132313,19.439480893971307,2.29310358659086,1.0548026084850985,159
-9.027784471366026,-10.335492254046118,28.73788489676686,56.49262144726312,-19.281980595311985,2.555099476697315,-0.9692131104656612,-7.440732170831415,10.147904781481826,-30.027653859181566,53.41654015452263,19.55619074508059,2.3057296987001723,0.9146710153096289,160
-8.512927345121467,-10.064400182042544,29.048785989738775,56.60917051250973,-19.37467009455645,2.5608405848857183,-0.8459325916041469,-6.848441753376863,9.765725798856618,-30.467205561419494,53.65529025708359,19.652108776583002,2.3335839935616476,0.7412030919313889,161
-7.913101974994028,-9.835930031906042,29.382038364321545,56.73566279218015,-19.460017224703403,2.545440031610341,-0.6645844932200369,-6.159675540999282,9.455216934157814,-30.884287719118426,53.85904830282817,19.744906405295197,2.3458111251589053,0.5700504212167068,162
-7.345534264482262,-9.666659099912607,29.980518475261672,57.13441763385707,-19.53166683362062,2.608102316833618,-0.5299146218416615,-5.585744786609705,9.199166725032024,-31.446953514425136,54.27468634093107,19.813088431137043,2.4040960271121588,0.3931488855119765,163
-6.663940743460045,-9.544896938974928,30.23876412774173,57.190105480217376,-19.569832037805423,2.610458986703041,-0.41592971840804405,-4.973925532984829,8.965383892128632,-31.584413195177156,54.200304795326815,19.80885966230176,2.3824043313102963,0.20973409874959206,164
-6.5176446477548255,-9.330236738647137,30.6191467623268,57.46908645637971,-19.68040748194794,2.64940603988238,-0.3494047942850245,-4.525369760087635,8.729756685102073,-32.01358769596156,54.502817379472894,19.87956601378264,2.4086862444391617,0.09696075047517554,165
-6.361630699951851,-9.158154636426511,30.921343140666586,57.678767486276186,-19.745202567975983,2.6384283331397134,-0.30978248636670996,-4.19814658273432,8.57885564890688,-32.13224723598877,54.50876598331223,19.887639639307878,2.3970316393532896,3.971125176004978e-05,166
-6.051202669223384,-8.914882274293134,31.216818154724113,57.831680317325514,-19.85377540436911,2.6450376016563637,-0.22003617242603044,-3.897017072643323,8.436666641619237,-32.41706258651821,54.71079037973765,19.984994400778152,2.4014395919673373,-0.14627683778944575,167
-5.617415682381669,-8.734573552910426,31.31310866431425,57.78573091566106,-19.87743947786802,2.6045652211699593,-0.1218847944860072,-3.5334765390828013,8.391831707844652,-32.51826081908453,54.712468461078466,20.04380572640583,2.367942911293377,-0.23397930159369512,168
-5.339986535356228,-8.49659445445149,31.34620367150809,57.707317179454016,-19.939417668176485,2.577565189457368,-0.02266692610491095,-3.346674917614819,8.320059169061075,-32.62361329344639,54.761579256286566,20.137831977213395,2.3360734034987676,-0.32249407341172076,169
-5.293385092066816,-8.314545776749759,31.42892105240016,57.73895781985776,-19.989582954132544,2.544089449861947,0.037838754536184675,-3.355171552570051,8.297125949588516,-32.727804739800376,54.87456037655025,20.252363242456454,2.3228183640970945,-0.34153445984335506,170
-5.0310287071807185,-8.110127170403443,31.430825399187434,57.64120576316881,-20.06271053002794,2.5015066377140482,0.08992711341624855,-3.2618924979217736,8.356668045975653,-32.76063592176475,54.898906465234575,20.342390975648055,2.2877930710205505,-0.36576836222434345,171
-4.792417872332054,-7.991073352534232,31.543013960068162,57.667128614685566,-20.139676767189098,2.4672625213289665,0.16938333387094529,-3.1937123570547223,8.375034027371122,-32.86132706232614,54.99558225029657,20.441904572354424,2.2710428205817434,-0.41594183615135116,172
-4.4818433199665915,-7.912966126222213,31.8214301108914,57.83743523257146,-20.239467583195072,2.468060576004801,0.24936011826453341,-3.0846805831043023,8.393709268108708,-33.03720664753537,55.16292238201505,20.549275549975267,2.270990631109814,-0.458932245883138,173
-4.058116697471585,-7.835139584532517,32.11142168973055,57.99074011188095,-20.299396759769387,2.4655385341381186,0.3220506771768438,-2.8134484688878967,8.442883815818892,-33.202508265296004,55.28030586285773,20.62595504086218,2.267126412492023,-0.5352276721730536,174
-3.7648144832258335,-7.847652455437168,32.20444615498685,58.0099820629711,-20.335670166926576,2.458020027191638,0.35033388306093205,-2.709364001092819,8.41256416790659,-33.265965375104294,55.31437325337179,20.686560165853077,2.2478795773227698,-0.5674548282501711,175
-3.5713977607785354,-7.885312440053873,32.253604382920514,58.016736457566,-20.39498655586218,2.418550405796139,0.4122383485771243,-2.5879522731737676,8.42227663342237,-33.29339283985213,55.31351295503434,20.74224321518518,2.2225674072597594,-0.5974516419910739,176
-3.1135619563368295,-7.971105860099284,32.390794987063884,58.05090138444563,-20.44723753206372,2.4027440522419603,0.4579978428031177,-2.1053680520891507,8.442344254303851,-33.47305958981022,55.3823154237522,20.811910749360976,2.2102536711062846,-0.6939602296885796,177
-2.9240830485070037,-8.054302718141408,32.54239318931977,58.15904836770761,-20.47874809025344,2.4030804798281293,0.4961849297694707,-1.8886606017062209,8.42667901453231,-33.6524670962782,55.51387683763303,20.859915132419516,2.2196337795583174,-0.7505507392866292,178
-2.713754472034481,-8.133237527252193,32.691756461451696,58.25882524442763,-20.51360374191226,2.42053587880276,0.4844191910442319,-1.7240622218475967,8.333972648980065,-33.83248332525738,55.6428012489133,20.902972931178315,2.2193949035601768,-0.7626919123166279,179
-2.511035369008623,-8.145801047035118,32.78801146388791,58.30093579464611,-20.513874346706196,2.4113294052469176,0.5205147923002315,-1.515307399155631,8.193543663686054,-33.961903819585636,55.695848840522764,20.913766508696813,2.2235548573017683,-0.7721872000503496,180
-1.8934866383878417,-7.523530309243658,30.641873594345505,59.39627180153627,-20.570056021455695,2.462826907504503,0.6119667318277962,-1.0695663459722529,8.015423528037397,-34.4548104995105,56.06220079261392,20.975608465235876,2.30193627536626,-0.8978035978480036,181
-1.4487796200044314,-7.526365390650496,30.99566003432347,59.59086679132908,-20.560148864261812,2.4953225893289828,0.7063002264154926,-0.6406171643930474,7.772495236995416,-34.786720768157195,56.2485981022803,20.971006745875524,2.3521515936302015,-1.0344774950107678,182
-1.1272266781940983,-7.375069838354635,31.56795492298692,59.96025777841211,-20.555971655177107,2.573496793988302,0.7854940654727177,-0.3600601365670148,7.539644542129214,-35.21206088204185,56.56948604554116,20.969271082455148,2.409700813718249,-1.116754341388651,183
-0.923898004718858,-7.122547713231024,31.73452149386928,60.01275899250345,-20.523457157070467,2.5739162364948824,0.8486424184264892,-0.19665395366428273,7.2636430313882245,-35.41677263092746,56.68476068385435,20.943729089092717,2.4353825350323466,-1.1486945234685038,184
-0.7613144074952729,-6.762625670685333,31.901620457890267,60.05863199580413,-20.5589718427702,2.5891314643503,0.9224398915111871,0.0027702172412408313,6.976302877085777,-35.703177125014285,56.871534883854146,20.960056680622717,2.46068217042763,-1.1963228150546013,185
-0.7218537684154333,-6.427160838638158,32.003356734205774,60.08213034623917,-20.531152179982808,2.5842882591164575,0.9858306997127859,0.10797214102593651,6.645508776935235,-35.81085741411951,56.893546993941094,20.938032376613684,2.4679387441944036,-1.2279160355589804,186
-0.7325872564791905,-6.161052959137512,31.998008907905568,60.04118157775546,-20.55213272549275,2.565276490017465,1.0026472654531382,0.21834789489005363,6.414428354681927,-35.773979279547454,56.78635658955075,20.90700093979194,2.4564447097025313,-1.2596719766466853,187
-0.9166221703415779,-5.896018713803728,31.812114545506667,59.89122780666951,-20.578101424626304,2.5319327181940054,0.9576975349741101,0.14512810803861875,6.18097764784095,-35.597574478936195,56.58047728632262,20.864382266730697,2.4207447488772913,-1.2503268362251914,188
-0.9341396193343984,-5.855361596035091,31.86044728060517,59.92783296720117,-20.62794656601884,2.5095825865456023,0.9438180942251413,0.1348816504425456,6.027324972425464,-35.532699514034086,56.48678401112906,20.874989839613356,2.401673630415558,-1.2690588792384745,189
-0.9560582968710213,-5.869801775549247,31.807951192076484,59.89223626458526,-20.612177717562332,2.4991354636345693,0.9315490562388701,0.12335262792440072,5.9904022294276835,-35.50384667608552,56.452666025084035,20.868882676285228,2.385363760927176,-1.2520796042669322,190
-0.8947745276782302,-5.903434779689496,31.86015818233156,59.92649729609149,-20.632973932598187,2.5199538892796296,0.9057473029819638,0.214642831619351,5.963446457703944,-35.56247902141725,56.48524907473397,20.882938836147215,2.3812190327359257,-1.2442767881807382,191
-0.9252305038531645,-5.939347032210535,31.877242667433826,59.95195447651816,-20.658660713379504,2.502061758057173,0.8845619291800542,0.24391132896989218,5.984786568789886,-35.57520704619985,56.49508352906069,20.899523590374272,2.375412888415681,-1.2252336496638832,192
-0.7869237792988282,-6.032075165546102,31.981375092223637,60.020269428976704,-20.666282620339892,2.479749639410162,0.8949309849828193,0.36593151357686576,6.0737627511755266,-35.67971842301153,56.58918679472412,20.918899166495905,2.3825325212172954,-1.187682919252834,193
-0.7735987062055821,-6.162059886896287,31.971601963852795,60.02878188120516,-20.665128653794138,2.4927991162573617,0.8568164951724127,0.4009542312124785,6.145714441535324,-35.66354889901015,56.57716882254331,20.92913243650734,2.3775079701464215,-1.1790205781054133,194
-0.6621297861630483,-6.282332955719627,32.138570446805836,60.15588530984101,-20.675780321579694,2.5089290851426456,0.8520500745494455,0.538832395242016,6.232238060844564,-35.869456246439476,56.76995739539635,20.953815181627625,2.384081336646812,-1.1803063035272965,195
-0.6400743678181865,-6.316049938911894,32.15760481668007,60.17125161972698,-20.671261742461578,2.502053702370832,0.8180753554635949,0.61374847113784,6.26274969059299,-35.91160476603201,56.7998158253872,20.938099046069,2.3835801103259486,-1.1954757169031005,196
-0.6298238926121704,-6.389333551311811,32.170946726684576,60.19022897067904,-20.661655889438535,2.4922448418579175,0.8143496169118829,0.6775850953552218,6.310184263954264,-35.97203089249047,56.85402079438484,20.964442889511968,2.3794447818732074,-1.1688603923484338,197
-0.48012204261103675,-6.558625240104446,32.27141337003457,60.262734611614164,-20.663708874316224,2.521356258831964,0.7950417631825654,0.816990532664116,6.4248726839661,-36.10553131664576,56.9751973069519,20.97991526537694,2.393608241160402,-1.1976670984326148,198
-0.4697124481128193,-6.607654988528111,32.15781261368825,60.178397459645694,-20.68149975767506,2.5005377880513473,0.7908274905412825,0.6827820495095254,6.449265755620953,-35.92794598218485,56.833412589338735,20.982645811810986,2.3675239580793845,-1.16799245465327,199
-0.5269915069183277,-6.72217038959848,32.02964836025153,60.10562293741892,-20.686768521884918,2.4765269207629874,0.7616832810833947,0.645985496215787,6.543675001862143,-35.86663424811753,56.79763821147434,21.010694841508382,2.335732431726509,-1.1403730454412349,200
-0.46573768279924094,-6.897233657872539,31.862546128426207,59.98591147855083,-20.674006038724713,2.4443837748356287,0.7887489725906869,0.764959714725429,6.752478779405365,-35.810575445255516,56.749372299468234,21.052750658809625,2.31316013515389,-1.160868703975077,201
-0.3234096695668783,-7.151808589074887,31.998839662168912,60.10169155571557,-20.72050160021149,2.4485393372665394,0.8005369788039771,0.8915465145462378,6.911799559894809,-35.890203662318505,56.827822184142335,21.082527867658445,2.3316763837191075,-1.2297188595285733,202
-0.18948595432342258,-7.429830282396491,31.93906410022343,60.06733474795603,-20.74282885125607,2.448816576612542,0.8021087816556709,1.080644062411919,6.47108777088001,-33.26440656312868,57.607430640529486,21.098627999351972,2.3081330101415225,-1.189880543516981,203
-0.12448297252893757,-7.1038620262375245,29.261237419377977,60.85929407903214,-20.759923053142757,2.417308672734941,0.8333712363931651,1.242490368965199,6.84950449369272,-33.25319397808071,57.625410144140595,21.10780695639898,2.299218608470055,-1.2453905726997436,204
-0.14541839757640748,-7.43561756187315,29.165469658637612,60.84000976375497,-20.73340412568547,2.4200823559338343,0.7909920846020223,1.3521681758751072,7.3115268704253324,-33.05067790426453,57.49011956447031,21.070022368899263,2.2796292714298665,-1.2907762447298903,205
-0.1958748627511888,-7.9131295641150325,28.914944427664917,60.733302558742864,-20.73468729919288,2.393283831972021,0.7529647733834112,1.313662235406995,7.830303718060477,-32.84006666808479,57.39373763844321,21.06269033407098,2.234789609917154,-1.2527651976734118,206
-0.3131382549327107,-8.637304374304517,28.76830490168943,60.7538031539485,-20.770992289688753,2.40503121352085,0.6739897074958715,1.1926275826172557,8.689584811859222,-32.529415974358514,57.28630470384415,21.04714549362627,2.211946447892758,-1.2387367477863984,207
-0.4179892898351945,-9.394750427636396,28.46031212907259,60.65871986937408,-20.777897299465163,2.378892007994095,0.5786619881437486,1.0725826585962783,9.665697500032083,-32.24553258743719,57.2285400986199,21.05500021122936,2.1939822286253934,-1.1634426050500746,208
-0.5910404178980128,-9.73387624521894,25.58192396617889,61.528383423958466,-20.82315964616348,2.383342637575188,0.4610366492917495,1.021496528765387,10.238220994626065,-29.31920502321599,58.074462458649364,21.095676589457334,2.188689782762163,-1.099794049852893,209
-0.8912798126423221,-10.826861658994776,24.775178956210745,61.49427230009929,-20.8790159322009,2.3348905336978185,0.296922454199293,0.7769977226996136,11.965492491815139,-29.63822643613642,57.68126425579341,21.148783832854576,2.129415226823786,-0.968961595112759,210
-0.9335958686359538,-12.076584969632199,24.89857184845899,61.57179746063263,-21.035482682277483,2.327448197742202,0.17221400494594089,0.625366247954094,13.106645180970594,-27.070762529857184,58.68166438361604,21.364448781939434,2.122419200379556,-0.8474068697368791,211
-1.1036297482008621,-12.878473830442754,22.171028838873458,62.42649137382522,-21.214509762840432,2.2806846828257457,0.028237869190698664,0.38660048418246257,15.01709176460549,-27.026319499791786,58.6614515427953,21.528890717028272,2.084836153618919,-0.7104036549721746,212
-1.3138462011572365,-14.361382496703024,22.298034078471822,62.49075900481744,-21.401954654690854,2.2319415360809565,-0.10202504198311502,-0.022794131860216286,16.25242871426709,-24.20483634362737,59.45631526934628,21.721636620742252,2.0581654325292367,-0.5991733064453404,213
-1.5715128784758996,-16.05355219174116,22.226852253991662,62.40123909476355,-21.572103647403917,2.1856481006660657,-0.25942538312239255,-0.276781471917124,18.257922563302888,-24.441350878255893,59.64322380654907,21.980762571417813,2.0589314030222776,-0.4380394101266756,214
-1.7480952438969033,-16.955476514704653,19.394755538871493,63.21294839673587,-21.71508886440478,2.1625649479861835,-0.3661266742869566,-0.37210238113605426,19.292180788799076,-21.643612128265318,60.49446148153062,22.202847993301685,2.068400847723107,-0.38303645253139657,215
-1.9438380541558755,-18.278278379062517,19.38057438031286,63.15746837947066,-21.915964917069548,2.1546149929308966,-0.49334579179146687,-0.5158518666534685,20.696827335079718,-21.599471434204567,60.43506770338951,22.38534674652257,2.0652739181220654,-0.3404947799992443,216
-2.1726455283977346,-19.652280342839997,19.075015809430333,62.890362805454366,-22.037796458380914,2.1039802289719316,-0.5751641123393625,-0.5561101924562332,21.986232739347248,-21.241610288630525,60.12452359743567,22.542017737564613,2.0225814803370534,-0.3507679007159829,217
-2.2084577609800817,-20.505686816261218,16.421735521554407,63.88620871618758,-22.283223165458942,2.1353132780915294,-0.5612237882971238,-0.4252285315363316,22.664593713322223,-18.480054645677853,61.10434394032711,22.776772349483885,2.059598724385921,-0.371334573469219,218
-2.4846993558000188,-21.891378660730936,16.532484078839616,63.88074270305785,-22.488643102710903,2.1304603451665107,-0.6368570218365758,-0.5528527106456376,23.972085945731386,-18.379529187952823,60.994518383131194,22.93204538845902,2.076270460032472,-0.36620751625954895,219
-3.163489285922848,-22.649876150226397,13.52292076488492,64.59832140192958,-22.610070754399707,2.0951541312064252,-0.7617753870203061,-0.9068504185424008,25.264836020554718,-18.315953657396104,60.865049270110966,23.06514655252303,2.0424684327881013,-0.280792556104168,220
-3.3344325005867,-24.23228757833985,13.439824577530223,64.44861773084592,-22.823900471076584,2.0852178834839994,-0.7657151425784695,-1.0482712349892056,25.97017678728037,-15.29299565804332,61.650862837567864,23.269173714094,2.0288676444689497,-0.2749795680022744,221
-3.573821177504694,-25.924843552931357,14.440715774906918,64.95296814780605,-23.201905430918266,2.18688850064189,-0.7745425012675802,-1.1458366429554714,27.600993663097313,-16.06670058069568,62.18895459387169,23.593810688383318,2.127086346132882,-0.308891017615355,222
-3.859967903478795,-27.19010356378755,11.976611487635358,66.03076210592072,-23.507734808767655,2.2095483515722387,-0.7650686833855134,-1.0595614271527314,29.39873150035489,-16.462962729581925,62.47137847875849,23.88445645989566,2.151685997476923,-0.28845545213095597,223
-4.056711716924977,-28.88190939641328,12.397303575106916,66.1445584548947,-23.745864027237378,2.2027526400152397,-0.7938063369008099,-1.636530054760791,30.474144945498487,-14.029359917177949,63.5666026085417,24.1732941221318,2.1590612001860787,-0.21599621742437192,224
-4.196275320525539,-29.7921736851635,10.05447895418654,67.33627552298451,-24.110991040367175,2.2528584789869583,-0.6829142198153041,-1.7052439313391947,32.13466255507646,-14.651859911905994,63.926967683610904,24.57182654540089,2.227015872442502,-0.31103565936646077,225
-3.9657942129423973,-31.434132718145655,10.68339279864495,67.6352168323001,-24.466896777068122,2.3122342474037842,-0.553786538966798,-1.6786777890409523,33.92785622998727,-15.408013814037632,64.38257514180373,25.004488498225076,2.30054829086291,-0.41697243412368845,226
-4.071619941507634,-33.10830088886825,11.286108649273487,67.8329933294747,-24.802819518329855,2.2978709354904643,-0.47731272381579853,-2.148751936739053,35.17064915078151,-12.867766050949264,65.36980662453699,25.403425467577872,2.304399305829008,-0.48440145969148984,227
-3.9759940636165547,-34.379841725435,8.821999865562567,68.98425808275093,-25.155802919361637,2.334729231693477,-0.3438992766896129,-1.8209079586495853,37.14520640085947,-13.518881902601947,65.80452122065849,25.849075424976782,2.360441542591707,-0.5516709142671438,228
-3.803882246036938,-36.072358132163856,9.058448949449192,69.06994027549354,-25.436453737806143,2.3040621708714224,-0.31116478866505204,-1.5424949015546037,38.939417950222804,-13.815659990347896,66.0276298086585,26.16387064312216,2.3786013311456586,-0.5781683212717155,229
-4.003130733099204,-37.58021501264451,9.415978779347062,69.11249065126451,-25.735520288287464,2.290080249720216,-0.24263995216069278,-1.856277469597525,40.08983468640306,-11.158769997499709,66.98947510440277,26.51270492711468,2.376934645996386,-0.6478734671618087,230
-3.9448635438922466,-39.234439790758664,9.883160138821108,69.26987342971663,-26.069963195592315,2.278656258497726,-0.19916273075515614,-1.8103341913984083,41.854450499806354,-11.54634677618992,67.17285386741088,26.894855480809024,2.374764055511748,-0.686618435237597,231
-4.205523157003313,-40.384797279779455,7.160732065588069,70.21420984508273,-26.390425755509092,2.254411984094876,-0.16288500953381108,-1.6666050010018623,43.61625341907461,-11.71519361302684,67.28004176662655,27.264770607250174,2.3339629771303523,-0.7207675634565841,232
-3.823365975922671,-42.07979947578583,8.237385870743136,70.69564190127785,-26.854378219360743,2.3183330727145353,-0.055408164804797044,-1.65307792256358,44.750728010638696,-9.793286118527993,68.71530043484096,27.74477141116885,2.4159967715746116,-0.8007469824703618,233
-3.6748312374699523,-43.87802679175633,8.78525880624937,70.89051292426814,-27.20475597348924,2.295069711128596,0.0005617052725190236,-1.3914145422899036,46.62134778796778,-10.284679750383015,69.00407912855614,28.143356930769876,2.3977665429837347,-0.8186485001391439,234
-3.9307117505903393,-45.17350953030128,6.949751692820637,72.1286087991405,-27.627968904255116,2.2975812260867516,0.0715335764945555,-1.2728279693859927,48.511592673664005,-11.094163841112804,69.37237361854818,28.590348765161597,2.4252668890387055,-0.8936246495084643,235
-3.651096305076771,-46.920289136944945,8.097513431662026,72.53343674564806,-28.082832400402705,2.332355334995923,0.15216413110061863,-1.0268299083155017,50.27358142479068,-12.091509646427017,69.85062689886557,29.05109263973307,2.456132529907506,-0.9585594697149219,236
-3.409398209313608,-48.46013007324842,8.430752275501005,72.67330144572774,-28.397485977534302,2.2864794178004937,0.24659340160961796,-1.076945348307915,51.38124443106393,-9.880372679732794,71.02790370527423,29.45787714709745,2.477465849079275,-1.0323802472204702,237
-3.172521572385293,-50.32703261002072,9.447788456465718,73.00563361784452,-28.847285550550698,2.3243757702438756,0.3652871693027661,-0.6824004406927473,53.124466520110005,-11.04676834541732,71.55800302411298,29.92367752126617,2.560449674577443,-1.1475122673033777,238
-2.9555355170736584,-51.68203197693154,7.196252729241513,74.18177300296958,-29.25231426981405,2.3270984480328387,0.459427269047674,-0.11592590377285654,54.94001107991736,-11.428695555097171,71.87812619301798,30.375451478797473,2.587549364802403,-1.2135498218922571,239
-2.251981263987116,-53.461183306024886,7.102734564979094,74.35717561247382,-29.620370790397434,2.2924972757692412,0.4740213072183026,0.5957348606283308,56.686933476722714,-11.066443502718782,72.02502741076825,30.730419780892362,2.537313934565301,-1.255750540977988,240
-1.6742902100839447,-55.369303518789074,7.435739952406992,74.60541528107125,-29.950293263063266,2.273641693983158,0.5123471053743999,0.9632009304794767,58.07270358527817,-8.747659712370403,73.28415825193015,31.142576224062797,2.55521001516791,-1.2591969565966912,241
-1.3558035132813933,-57.29446352590604,7.22657122519266,74.64620215300847,-30.25525304878342,2.2213845870658964,0.554697330920333,1.4608664892538665,59.9516575961365,-8.061610671276203,73.29121336223865,31.45157319408332,2.4805910897168135,-1.2657784068177726,242
-2.174861135540537,-59.07865763736601,4.9034703599515295,75.46560170538146,-30.655101541202605,2.170613597144204,0.6176103144018303,1.231416620967119,62.053382267220826,-8.299900205419181,73.28498279282462,31.844655506247847,2.442916161506625,-1.31865652929725,243
-1.9799201792678631,-61.28396462788592,6.100263214984318,75.76580930943162,-31.174228473637715,2.2134524501742856,0.7865520481323551,1.437284301810838,64.0411962938913,-9.236598224007528,73.62903539948736,32.365161292123666,2.485381838451938,-1.442299853854273,244
-1.8209649702220252,-63.245144311989854,7.209204038631589,76.02520290189922,-31.669930991396658,2.246320068932674,0.879235947699754,1.684432899903851,65.84013074570055,-10.059708271509905,73.94448093436641,32.80093878953489,2.5240013162301755,-1.5235456945888957,245
-1.7664793910922214,-65.00870968372564,8.323621095554707,76.24073608702103,-32.10028238960777,2.262728612212933,0.9796662958769502,1.6695888100081306,67.51733233026525,-10.515182593197027,74.0622161368573,33.17040544020068,2.5173073536192057,-1.5692852277561953,246
-2.0722510349821452,-66.31983016959767,7.771639108049472,77.4617807866956,-32.62988137240142,2.3678761512960764,1.157696133476115,1.1945778700701715,68.57757606831437,-10.349958343886405,75.41690149613795,33.7210779325705,2.640771163002406,-1.712284085277118,247
-1.48156120329963,-68.06245207217677,8.783840465329245,77.78527414202875,-33.062539323818655,2.4255477232869267,1.310841790791437,1.6366919378067346,70.05265988922473,-11.534301353974511,75.80384464432666,34.14776297485802,2.7142625202396444,-1.8058003040378676,248
-1.3662953582527753,-69.93326059297989,9.543822707147141,77.91680333558345,-33.44588555370897,2.4531681984614293,1.408103169264849,2.138370584008498,71.62224054395736,-12.225125661613454,76.10599892519058,34.47326545912161,2.740259679481439,-1.8766702343622297,249
-1.77597026761811,-71.74464078803607,10.109337534628574,77.85531771533267,-33.7836459340856,2.4472791198005837,1.522353244753649,2.5099188195798843,73.33113393432991,-12.445775767256368,76.28024281691899,34.80169780289049,2.745679273366507,-1.9636701716559584,250
-1.9622621583825852,-73.14990495001143,8.883270359983866,78.90640216251332,-34.19360785962834,2.526700082575418,1.6291100739995061,2.6152611628665254,74.51816901697676,-11.051601016127398,77.44473503858622,35.173988058046085,2.815802212666065,-2.05760925071701,251
-1.9538403014574428,-74.88491315195026,9.584803408495766,78.9779966578194,-34.537011050166825,2.5728144074617765,1.7127951579664473,3.1727243354364236,76.10611915035017,-11.55770170626139,77.70509735863293,35.45871369685708,2.861556517471,-2.134593924714739,252
-1.5549643043274894,-76.47692398397496,10.3087712009759,79.16965662999209,-34.85946858268173,2.6304273361248716,1.7887810314013128,3.52052092527596,77.5581568900934,-11.988212182055927,77.88326555561426,35.76674734653949,2.914487824797792,-2.201512008175462,253
-0.8937430354373413,-77.98600290053496,11.106801424670701,79.44297078316251,-35.18987559586169,2.7308793139892162,1.8915952754549243,3.5027582077220942,78.64684791058178,-10.532742614833086,78.94615429542125,36.05686084027205,2.9839702058324495,-2.289238172246348,254
-1.2310935058458798,-79.36778994906388,8.740989364898706,80.2891365603123,-35.340075220985646,2.743767594335755,1.9321612480870494,3.9980258051294073,80.19064029893853,-9.691166481391923,79.0235363473227,36.19492336485855,2.9641772750900004,-2.306423970335842,255
-0.3937076352925595,-81.03592686092526,9.983690247290177,80.2724631459358,-35.627724373339404,2.8424790988592927,2.075616365965207,4.576491903557247,81.66126585702185,-10.017924687591885,79.25109781668783,36.47621570598953,3.023752453122994,-2.4193954062843397,256
-0.5729043544055771,-82.55527991667795,8.533204394124292,81.27297347154236,-35.93242492805596,2.967358740771329,2.217399408447685,5.195568293402928,83.11679995209015,-8.537225587445798,80.17967530407692,36.74889810008851,3.117723883986232,-2.528724660028301,257
-0.38840297685005676,-84.4620918545877,8.95658108757138,81.38930839957779,-36.17501593193062,3.018449722123239,2.2808463841929245,6.135001271142998,84.86650642229596,-8.32204557739054,80.48967897820339,36.949744424942345,3.15747103940596,-2.588829203260384,258
-0.5704295234455206,-86.16426963236103,9.269613007261432,81.38700169494764,-36.369021479898905,3.018270771122347,2.3186549847031146,6.666771219304864,86.41649785170831,-8.342193526646554,80.68639373708746,37.14407555957361,3.159244675430551,-2.6057382542478273,259
-1.356235313234903,-87.41812468303814,7.976906778545175,82.18623641427267,-36.59921004062087,3.033379652088661,2.367299664902382,7.60574800041761,87.75685691995531,-7.98863040918048,81.21841114700115,37.30336908433988,3.184596731654428,-2.6461446028524565,260
-0.355674539673864,-89.17393711051704,8.96768177108037,81.66771195881635,-36.72664456126745,3.002629053642859,2.4216778414723628,7.011435416833869,89.01489740816349,-5.575461507961888,82.0103741815195,37.42319331436154,3.1721427521325487,-2.689494637113836,261
-1.4680834750620742,-90.44985985655738,7.248211701963598,82.32316119284955,-36.877982038412874,3.0027497606946842,2.4390142118478404,8.260663481379607,90.2632120785849,-5.224123449190357,82.37323730825123,37.59424986338831,3.1808190665111997,-2.715503245803985,262
-2.064695194034573,-91.64512509296915,7.354237647362651,82.15222254819214,-37.02012504962184,2.9631168878351093,2.4613427688040983,8.872357205253163,91.32223615061912,-4.387064671581429,82.5182436346948,37.70399989702379,3.124105130243963,-2.7248316207180427,263
-2.1321638368751836,-92.39183422588361,7.462768436732602,82.13714947702817,-37.1486616841355,2.9381616395958075,2.432460207528107,9.244819004775561,92.04609573130053,-4.066244805575318,82.61776504487402,37.806051637147235,3.0610151014585685,-2.7302756898040443,264
-2.3823713736033523,-92.97486438617483,7.192640346742465,82.0475046925229,-37.198427911383504,2.8346059629508216,2.3978659452440545,9.577419312482679,92.48205332707751,-3.4534252681232056,82.68822476845227,37.847879442643936,2.992440454700261,-2.698872017090863,265
-1.6697304375392072,-93.28579278331102,7.332785418296251,82.26550869331118,-37.33456429058139,2.8710871898430192,2.4138217589525617,8.34638265536596,92.58601881549467,-2.239818257852827,83.3588692803786,37.96733326183703,3.017343690262837,-2.721275572987294,266
-3.198419028231794,-93.23626334924711,6.098155546364197,82.8265298769214,-37.45029389241881,2.8972639663928406,2.4358820474158263,8.638420913368877,92.71630570874034,-2.394277192544508,83.45339196293926,38.036125884589644,3.039168553761688,-2.7435822928740006,267
-2.846489543522968,-93.20733002442671,6.203784419802086,82.93378977234036,-37.54375769679175,2.901548046739357,2.4589198950931004,8.971616160417085,92.64999687678424,-2.5341483946539904,83.5576425514397,38.09170524321546,3.048950246527602,-2.7444109880901495,268
-2.8244172512334487,-92.94266825506978,6.028971192789348,82.93281421957235,-37.57062089815595,2.881323602623488,2.458408411368861,8.650188977013173,92.45092683671375,-2.5873422361112195,83.46396410462444,38.12775401381753,3.0159515559286545,-2.7672568844825745,269
-2.6964471666234107,-92.57967819698504,6.037473509326393,82.97090823807322,-37.643042930017465,2.889634896682893,2.439225737144827,8.238246909028428,92.1015056150027,-3.0994987585738794,83.36291762943952,38.18277460376652,3.004016200027711,-2.7439164733948265,270
-2.594370005413309,-92.21846441774478,5.938537286836178,82.99670675332209,-37.665593642358985,2.8933134093735253,2.439287115140465,8.129056767068407,91.7381866315708,-3.358349864638471,83.34017161670644,38.20120477817257,3.0183989653184895,-2.728077256924654,271
-3.07071011579426,-91.79100747697188,5.938700867759674,82.85905442546041,-37.668337013578615,2.875977955731741,2.46071274835156,7.296161966936826,91.3481846038645,-3.504472924095554,83.09887687648225,38.221137346439505,2.9904327423183927,-2.7258483240914737,272
-3.3425502694997205,-91.35525021593843,6.049210943256012,82.78588780218263,-37.7006662823359,2.878225635008483,2.464836565752181,6.503536400567297,90.9700943696648,-3.6786946547103674,82.86971257313554,38.21396453336556,2.9758056860580444,-2.7235522657195856,273
-3.6314261991964654,-91.05990622320101,6.1389511583605785,82.70656180264815,-37.68912365497496,2.91149942221106,2.491490009548075,5.9002887990911015,90.73122021709118,-3.9015692693228186,82.69957642396321,38.23208052062026,2.973501482833958,-2.750245067405218,274
-3.9686524554722893,-90.81251679218722,6.007252715958763,82.60204415939924,-37.70524538091659,2.919517326619946,2.515566708910145,5.242097580705411,90.48116496787898,-3.8041311987145545,82.49491963058134,38.209677675630815,2.961832825107967,-2.7527755038455948,275
-4.305658693782493,-90.65901739000932,6.061783233675551,82.50611017992645,-37.722378170321626,2.9392103793404454,2.5490759280634654,4.843302720954232,90.2935496915669,-3.7657253658722083,82.37084280326015,38.22107649888207,2.973808434941196,-2.7687423660907493,276
-4.585925128111071,-90.51659528598387,6.078310643058094,82.42471682676997,-37.708160644414164,2.953625628899133,2.5616646128586886,4.409340969765908,90.13581158917968,-3.7862501508712927,82.2388761923507,38.244017495976955,2.966821111638824,-2.7747394884693377,277
-4.773132801880172,-90.37993068472846,6.272167533997488,82.38006336075136,-37.73705457106696,2.9827279127201125,2.576181816353297,4.325287192188901,89.98385773143866,-3.949690103409983,82.22238147863527,38.26893660989463,2.975352460728101,-2.785672773851641,278
-4.90161976544166,-90.30775059291055,6.3742714548836945,82.34777229919193,-37.772293999717434,3.005655038323812,2.6064319102075766,4.210930915283699,89.8621854938547,-4.099896972898566,82.1959910618553,38.30003945552981,3.000079937823746,-2.801074364823602,279
-5.081409928060279,-90.26168488053472,6.513239362506243,82.30222893938954,-37.801324028690686,3.0325519056481753,2.619085107693172,4.209765447177818,89.73678878267857,-4.123651529739595,82.19658952476593,38.28257000193416,3.0084859766493692,-2.8120338257762936,280
-5.543840228141458,-90.18865692684214,6.483253913951254,82.16383803097096,-37.77354734214251,3.0266274608169916,2.6311812360529307,3.932812180030949,89.68245667852234,-4.065689271032424,82.10813664385397,38.267095645944394,3.018862765271157,-2.816075172804324,281
-5.788854282274873,-90.16509132508001,6.589474115983732,82.09697318815098,-37.791745372530784,3.0479541149513936,2.668464349676493,3.661332971974863,89.62343888886274,-4.2858783426245965,82.03829987547387,38.317406826253055,3.0295398175864645,-2.840227011319946,282
-5.691358679677452,-90.03511458315924,6.597427768325036,82.127034495425,-37.83289022749986,3.057733911997815,2.6669781653222357,3.7226937770469593,89.47659833181389,-4.385668094024211,82.06277804440697,38.32675816239759,3.032594921080193,-2.839440755960923,283
-5.6587858040454755,-89.87152152215788,6.470331544884023,82.1303495912129,-37.84514289186922,3.0540551280601407,2.6622715117004874,3.6513720608465055,89.27367563683084,-4.41621938740944,82.04215377386866,38.33925180779931,3.0437993100328478,-2.8606009292405976,284
-5.672191444608092,-89.74401003046587,6.612710670728508,82.13494047887728,-37.874479062566,3.0775324466714493,2.6845176895559915,3.590934069383689,89.15257540833605,-4.830494364866612,82.04873765594013,38.36675782960384,3.0775535760097683,-2.8587550058472027,285
-5.594610470585729,-89.55761987292944,6.256205039198695,82.13886908082264,-37.86606713943168,3.0730955905743738,2.693336636113028,3.3886098564134204,88.94282150044852,-4.654508229846251,81.97554266875167,38.34679564839281,3.060635938437638,-2.870937359887805,286
-5.418007155025172,-89.37191104144003,5.836442782043902,82.16865804642634,-37.83624122341025,3.064589393134106,2.6945022211673604,3.2442778338134137,88.77951468845653,-4.467421930161446,81.9189891867932,38.33952646869714,3.074897716753251,-2.857911175546126,287
-4.907822378631705,-89.08547133980127,5.120169924145752,82.28216143540166,-37.86034668233774,3.0475196259696107,2.671381764986378,3.1465074200349603,88.53067928114159,-3.9477176106559857,81.85420969584615,38.326139024481016,3.050079549091859,-2.8392930819110687,288
-5.3342337314957184,-88.81967386790393,4.913937177048098,82.14275478376044,-37.8273478720285,3.0405261184419174,2.666103227418133,2.867218861516636,88.2209849421864,-3.489254003869659,81.73504349523135,38.282359280595394,3.032973702351206,-2.8117775022354587,289
-5.271983898141345,-88.43089736191534,4.583543913077164,82.1437919774926,-37.822087643644736,3.0202041100824277,2.657061978455153,2.238660182997643,87.86241308627137,-3.3280699187341747,81.52416934964332,38.25089804646297,3.004115915427722,-2.814471265737501,290
-4.790639021641212,-87.91302925187578,4.0537925792027085,82.07229028409803,-37.77754048307524,2.977367108134128,2.5983646325726815,2.5841138905716976,87.33277333580014,-2.357271228788161,81.56056012240948,38.220678366300646,2.934289188119284,-2.7593984601999835,291
-3.2155473480117522,-87.462336647275,5.169891703396946,81.47856232312661,-37.757706968292474,2.915398517732643,2.517062941377277,2.5131488363125274,86.73262709682517,-2.2650609686647596,81.27382114272896,38.18257821039663,2.865141280736491,-2.6813226641617622,292
-2.9244147246276477,-86.7483758421409,4.344311542393492,81.49672591871885,-37.677770594503855,2.853373922468314,2.4344584255786725,2.5990684830988053,86.01859540327995,-1.4087690018726415,81.21652499979602,38.102800249468956,2.789820141123163,-2.5884482901159966,293
-2.9578798525384076,-85.69409636314043,3.4663800964676055,81.4027974556343,-37.559416819880134,2.73479534807185,2.3073177508687057,3.5434255908502736,85.24624097224198,-2.9172148530305346,80.40383678529182,38.028929950779485,2.6632915761515115,-2.452672375986444,294
-3.1888635182625444,-84.60023020976097,2.3231992914847828,81.21905742786673,-37.41791974449807,2.6320166146930646,2.1973646196659957,2.730042855434666,84.23179391063103,-2.0368109289855294,80.01399387922875,37.89125081536892,2.5481053636091224,-2.3381873113203904,295
-2.5137913306868245,-83.60318754679784,3.4073726749352753,80.27890954114811,-37.25529785562219,2.517371700417523,2.056610005963573,2.0878418663319533,83.06023044834008,-1.219062458467153,79.665663952708,37.74630430451368,2.4409349955992785,-2.185978412204187,296
-2.2432247963824263,-82.36195641395946,2.7508600572975097,80.27481001648852,-37.17052414267895,2.4771576669483513,1.9289343381522928,2.9461170188040877,82.22274274258972,-3.092324232607076,78.81724930544212,37.68520081482179,2.393820754810618,-2.052355611516876,297
-1.5110263799333818,-81.29221310344184,4.279073411532665,79.36543422023975,-37.02408034131288,2.449022324785192,1.8436689717348758,2.3152182248505757,81.02132195761988,-2.7047511763904506,78.49251645586845,37.58842964900087,2.3698492871700747,-1.9544339072467534,298
-1.5749436903588887,-79.95907598291559,4.156550881647085,79.29068434200512,-36.95054324772629,2.4457765783721928,1.7466189907936447,2.5297807709374593,79.94290285891121,-4.255481613515227,77.81998535799238,37.48994384256214,2.3805015812965835,-1.8298256188051905,299
-1.5814958570634894,-78.49195485909463,2.8885370282323346,79.60359358372985,-36.88430109941612,2.4769953660700876,1.6320897198418725,2.7745309338232396,78.60090495096755,-4.0047135221661,77.86375510178088,37.421592106810145,2.396591939884833,-1.7285175453246158,300
-0.9245480295252443,-77.36002163854795,5.022213058543703,78.76396579646112,-36.765745587966585,2.469360035755287,1.5610274151641803,2.5258799867523836,77.22756435557463,-3.8645548192863846,77.74094952258429,37.30111706923413,2.426005502219552,-1.6507971386151363,301
-0.5323268017203889,-76.01816963824693,4.298667930468,78.80758838313919,-36.67429195340676,2.4685188717945716,1.422324597438023,2.524898835713688,75.82072760266799,-3.7011263497930216,77.70517397470225,37.19076725296429,2.4192544801486884,-1.5385285954087227,302
-0.5924811918118961,-74.8705775086826,4.122429249895032,78.76586867598488,-36.61119851539765,2.5141498302812324,1.360945803047699,2.396249088843734,74.59454033841533,-3.7222351017859396,77.65273765335775,37.11329117304324,2.4697172204259883,-1.463238408449389,303
-0.5159884236679084,-73.8658697650927,3.5335279315399326,78.71569113446675,-36.53170440830408,2.5458928234341798,1.307936153229012,2.124524840104292,73.53583100733428,-3.761981552651047,77.55288783332577,37.01187060373139,2.5303730730385956,-1.3923458699970357,304
-0.360878087682961,-72.87810236467783,2.589156718110276,78.64176647745535,-36.44681058312973,2.5497874379175633,1.2375298285908598,2.818781086157239,72.86481239234898,-5.737366647659452,76.65664680386722,36.95441745578127,2.54500610340265,-1.309440362449702,305
-0.32172461349189363,-71.93320042505015,1.3547056698018933,78.48023442643876,-36.33155896508989,2.516699952273373,1.1345007811511705,2.5601970468039976,71.78324211268885,-4.739797985968742,76.36493788383373,36.817317310852864,2.514031337366009,-1.2072421783974572,306
1.045116558291459,-70.99613591301271,3.0565117156180666,77.77105557379147,-36.28192499937382,2.4851165072325823,1.0056579455888432,2.964231754280759,70.50006193042066,-3.6213236053988926,76.2880192686579,36.696152564461045,2.482392976085468,-1.0520968360614271,307
1.0535288979798134,-69.94030178496432,1.8373622264660547,77.57023798875352,-36.16138618852424,2.4465986641616437,0.9191356234597288,3.0321178178953017,69.15050801341815,-2.4955538571827556,76.06940734014916,36.59714280391313,2.4370898720351106,-0.9621090540467462,308
0.9884330811660187,-68.75663183310284,0.5113484077533353,77.30952942710707,-36.07805551275188,2.3916246047907044,0.8516654531593347,2.9559822419365815,67.8155149946798,-1.389900495737076,75.7840144487374,36.46986576737751,2.363466935843314,-0.8842159701355045,309
1.193246748780536,-67.51908309227399,-0.2931916185481817,77.23334098856971,-35.99932309408888,2.3473728353162224,0.7111650450273906,2.986716899817145,66.37482062289502,-0.6858735015349098,75.61787134331433,36.389430708708076,2.3160766343519383,-0.7542372362534868,310
1.5668416112554517,-66.27174649636999,-0.6904794157726317,77.29247183135286,-35.953678670973844,2.3321436473905397,0.5491459373030696,3.4135620534357223,64.84084972800599,-0.03625245043483877,75.61623645477859,36.29746613219674,2.2891184558525888,-0.5791454026421505,311
1.6700596362299394,-64.96192033069536,-2.0517439078016984,77.06072927518869,-35.82185063615591,2.2859258978252615,0.39858115485973517,3.983040655901993,63.702571924900425,-1.6353474610442214,74.41697020419377,36.08914100714517,2.234491115458141,-0.45827923470653753,312
2.162817014782807,-63.967499860441436,0.20916977267194814,76.02104933951709,-35.68585267060688,2.2318792322352237,0.2618339144798142,3.6279344025740423,62.25113121408764,-0.6505661097453206,73.96624671683458,35.93373229069756,2.175080507119486,-0.2976045507502762,313
2.0988773857337106,-62.42066774613191,-0.758966784716839,75.76056395189411,-35.522644117989316,2.175618991003518,0.14100692320458533,3.4285687135274627,60.620472348474046,0.23900071577831866,73.584449124066,35.789755870636846,2.1213232669809994,-0.13585350285708406,314
1.6711117793273587,-60.865906094468876,-1.5545815091761424,75.38387243316957,-35.36093497165124,2.142683911677087,0.039729915716819844,2.787992002578929,59.0661760809701,0.9900506722442092,73.03399796246785,35.59362662562355,2.082589547860079,-0.03257697553649042,315
1.1751150276880182,-59.58222786637257,-1.5687898102259739,75.1717101580428,-35.27190129900101,2.147206321105558,-0.041337650658660935,2.143415491475869,57.72606641523711,0.6756725533300223,72.82960524251183,35.51004180116069,2.100956062198086,0.05388534244246906,316
0.9445594510411802,-58.13839139004335,-1.6024939056731486,75.06263431176171,-35.151911168664405,2.1750675653055196,-0.09732587691929499,1.9317340275814447,56.23492897967605,0.8523497711878286,72.65541186174866,35.3876434717296,2.1182492897990826,0.08507228547022376,317
0.5163378410610524,-56.76817071195629,-2.1208985199375645,74.74850391236625,-35.02667542407497,2.1793832172090175,-0.11515999993465442,1.5117156804508776,54.755731870913586,1.0933617239077407,72.36867389338134,35.255819841696855,2.1500650651194357,0.1456143189894173,318
0.294587091815695,-55.28529242020505,-2.13812470800418,74.65237151068227,-34.867469143392725,2.2103982768739754,-0.19380592767280883,1.4350748408128615,53.16709678127338,0.9722684034862491,72.36100164547994,35.12691419222791,2.1747457191445085,0.18907522635097185,319
0.36831736875291,-53.971327418712356,-2.6993736325282267,74.52057006831024,-34.69314552108349,2.250061272464099,-0.22806605432922109,1.7712001504163355,52.26498661539068,-1.790912008054399,71.28409451110758,34.98475209754849,2.2230163301700037,0.22507742178202436,320
0.09068038107996126,-52.72614510227279,-2.5919899273690836,74.44194958058281,-34.5985113729513,2.306524343241166,-0.2752530608688103,1.5647369759339143,50.98752466670482,-1.922627138242165,71.23109443877075,34.857402906993535,2.272248899132307,0.28575462195005974,321
0.22840904972229295,-51.92161745537837,0.24851712115204794,73.33295299927043,-34.490922320080266,2.3365209010341825,-0.2904980501956394,1.5092708800210568,49.62801957075352,-1.477756019323898,71.0172213722621,34.7238226874802,2.3178961816704557,0.2631167514902921,322
0.02167254765041792,-50.62089410248987,0.2176364202473055,73.24352745627417,-34.404264505777505,2.39231767901137,-0.2774064168487849,1.3464312739866933,48.373354254782605,-1.3009977308368375,70.86458619748409,34.64032064387323,2.378976521583731,0.24762758081042863,323
-0.5477048391677641,-49.44324580382891,-0.03511474286446502,72.9496780683898,-34.29654949725284,2.4231965590992433,-0.2528678025780301,1.0154924940825296,47.244582466669556,-0.9605564242751162,70.57849737923956,34.53453383677608,2.4219341693269456,0.21698242799951722,324
-1.229842104937356,-48.1079454954089,-0.2824143906635686,72.61837242852441,-34.201800692177386,2.4286369083633916,-0.279024448265151,0.49089481349543795,45.93984852222993,-0.6442090001746235,70.22119549273519,34.40245331303481,2.4004384949127227,0.20533118525423966,325
-1.8643384294595031,-46.52501792399362,-0.9807251258880794,72.14935656699174,-34.05402392242858,2.4234693337873097,-0.29389374010993785,0.523361068974365,44.97209667027618,-3.2962373284924023,68.94937091186304,34.26285528043371,2.4129308921069996,0.20922441936697786,326
-2.63202404792953,-45.75810946980002,2.3956658703923224,70.90912076462445,-33.95035164521118,2.4339331281837384,-0.27375751896580014,-0.5436314765451801,43.75680809080752,-3.0958594441901464,68.41583547534375,34.157959671865676,2.4177534822678473,0.17495339914737423,327
-3.507462136084808,-44.110698912951,1.928140733831983,70.42950143452471,-33.85459426988079,2.4287342873761513,-0.22608063484025773,-1.3807001867632427,42.233389060994206,-2.6847531291053994,67.87483920874288,34.02199287642585,2.398166679970496,0.11878390930918338,328
-3.680451125248746,-42.30982801098948,1.475734239327358,70.23203323967391,-33.764283021270344,2.5186529972413907,-0.13146830599304418,-0.9856991467453349,40.931890027789386,-5.450223103301779,66.82458260396918,33.89020655348757,2.4897982484482153,-0.025201120143692305,329
-3.8505609561667242,-41.02418277893811,4.065037930233078,68.94599608137968,-33.60689324668523,2.5710565429119776,-0.06017873819721935,-1.4151172967808727,39.1329239670331,-4.94977081857478,66.39225531598802,33.72266740273434,2.5497401942497655,-0.1032812316777921,330
-4.253370771743882,-39.41349618165421,3.822387605761469,68.75131549473736,-33.42731746836821,2.6616552135178795,0.006132964864999009,-1.7872416870611312,37.43527047224664,-4.923627590377332,66.26793016272167,33.58829420050753,2.645469310414578,-0.18949989632839112,331
-3.804354874117722,-37.773272052895194,3.494518257520219,68.81989758737284,-33.3144815661438,2.790182112693476,0.09222441944464664,-1.4018405534354936,35.92654340800586,-4.644806367890528,66.2724989473558,33.440304885451525,2.778407553375006,-0.2880434965065107,332
-3.723624794983697,-36.3181279586141,3.5662022500318153,68.94142942542496,-33.184075705784515,2.9194797707021736,0.167002889782209,-1.0173214410067286,34.99929711841343,-7.895529343545429,65.50695123881407,33.29005894789023,2.918802981745406,-0.4133360056412806,333
-3.540738757605117,-34.89936766658554,3.48079371189162,69.01458643464989,-33.01388060176081,3.0417006830001556,0.2517112798983829,-0.9876077011819006,33.58971577302254,-7.798801075883375,65.47529814375862,33.11540445350401,3.0110973389679363,-0.5204140792432543,334
-3.1751545871112596,-33.97491589423822,6.3144366792841415,68.02723868603499,-32.87184585650541,3.1261927906271834,0.3811178547565464,-0.9097769229583399,31.99403276121068,-7.76215684901219,65.49627040383908,32.956781366640136,3.128556458961571,-0.6553817763389964,335
-2.926182784533989,-32.50593233030618,6.212391161711987,68.0972850155883,-32.74486995091786,3.2332328936598462,0.5007433685859387,-0.8223259193453988,30.47745354681045,-7.617783709722517,65.44960835243252,32.801355004523856,3.2360186721477224,-0.7926394115516938,336
-3.1483240264901804,-31.000371258991866,6.168139111015277,68.06878357228922,-32.6099049566571,3.2924934146774336,0.5938005588558755,-0.7095209536346655,29.548007628413956,-10.389728368866068,64.33372392876107,32.61017628538694,3.2736880118742984,-0.9282146950368041,337
-3.196502198541362,-29.50651301614056,5.917476278339237,67.98514835428173,-32.462009622510784,3.353408381030423,0.7013905329144884,-0.6770236960926873,28.043450901789303,-10.347124895630769,64.32824559297234,32.49553612637962,3.34771919279344,-1.0595198732168423,338
-2.6665086229438693,-28.794794677198972,8.761375868262599,67.0482351010289,-32.34157967752569,3.429092691876607,0.8337262818457336,-0.45067564692983,26.821285082562216,-10.227825321299253,64.31211693968919,32.37336901733757,3.439845321290614,-1.2064756958831453,339
-2.5179749180127153,-27.59484712875435,8.236177886364745,66.83444474164862,-32.18676826161207,3.476341782733525,0.9798430270782587,-0.46910632131528085,25.65625564478274,-9.598767824583788,63.892790504406136,32.22619547618643,3.459427093933052,-1.352485747627996,340
-2.280298248524135,-26.465991618942052,8.164021265126976,66.8789594539946,-32.06352472389071,3.5532102277751854,1.1529900147087953,-0.04088521569319881,25.255025606425683,-12.863539991023066,63.19377974118973,32.18969664544598,3.5422359324350015,-1.51899535800694,341
-2.1914413481747927,-25.40262901646085,7.749097404767825,66.69728580713354,-31.927478487745816,3.5684878399202353,1.2900130065717668,0.05933217164534215,24.187143215474993,-12.356422851856236,62.85176450817007,32.05067256452433,3.5504051288112244,-1.64328900094422,342
-1.7393494003775485,-25.014161942099253,10.715124629809836,65.79397252876134,-31.812136348691663,3.617518632770233,1.4089754802866319,0.2797577327834575,23.188088726280963,-12.194099583857485,62.771830378259295,31.94012923083913,3.5767946719435755,-1.7972680352479071,343
-1.5266988780630553,-24.088014930292026,10.748090719462194,65.87039189433867,-31.71347169437107,3.679633532056723,1.5487249125267397,0.4091337348910933,22.177317018908745,-12.167662359481723,62.76916510756764,31.828729459274097,3.6503806612486063,-1.9627857998211813,344
-1.1305089992631427,-23.14550127204848,10.613824068792145,65.87413672385254,-31.56716408085591,3.7361279318608944,1.6933054247008585,0.8235818447113351,21.776679605861766,-15.08058260908722,61.83072230183338,31.67879606831148,3.696643229764804,-2.1156996308862,345
-0.8570640074282508,-22.180366661560747,10.786575681161795,66.02745582190911,-31.402051486887377,3.785400559889577,1.7643981970447327,0.9916086071852843,20.773144912839317,-15.166454143561062,61.90530390427968,31.5476023427842,3.723462866146319,-2.1894704641823326,346
-0.4674880258922459,-21.071552208240526,11.107144465474057,66.27059798633128,-31.231886908304638,3.880833562168586,1.8896310810798587,1.2664273712321223,19.749668831125955,-15.510468096501828,62.17887864440742,31.407182088333617,3.829828750157139,-2.2836895021506787,347
-0.3290963968160324,-19.857325582624057,10.64533054420525,66.03312077365031,-30.964290637040044,3.8730314464713826,2.0057685367217943,1.4352217955990285,18.57371666597522,-15.328506543437994,62.03669311019736,31.20323926893017,3.8416052022644496,-2.3518820569591408,348
-0.18703819059914703,-19.149354973384355,13.202268710495762,64.85286473703421,-30.698061727924458,3.82398645807065,2.058641020866184,1.32246867780097,17.333519350483613,-14.997181141909108,61.749319125275505,30.976644071605627,3.8018505225450254,-2.372788763490181,349
0.07589224276948202,-17.934650732963185,13.259286173383938,64.91332623295504,-30.515875182441007,3.868495020671269,2.1583439730275304,1.628865333808733,16.9287592022452,-18.16437378075917,61.01702434149026,30.83723093012471,3.8621072259268976,-2.468761113996669,350
0.28917624442919776,-16.773254636753713,13.398897490225714,65.01192252754241,-30.319969441926784,3.918303825409503,2.2671254518089055,1.910181285403814,15.873827179417873,-18.410662278504955,61.196630151257324,30.685624585118806,3.92903365096114,-2.5952387846335676,351
0.6347151786723253,-15.787792451528002,13.693077655151784,65.20378779056604,-30.129766029341113,3.978257060696113,2.3633728830484317,2.2394854509980564,14.957280638708527,-18.799319356919913,61.479847830486,30.530199500603246,4.012023583236951,-2.686735621622188,352
0.8485815238779425,-14.905859495405327,13.459466430849583,65.06601543359886,-29.87268708127909,3.975407195105148,2.3991539343217694,2.3237204853099764,14.006926050688277,-18.57215341820321,61.27364327639937,30.300276582061482,4.003930050248284,-2.719314803661776,353
0.9981259565690703,-14.142514132906042,13.548639571655823,65.1160790878293,-29.707027415759256,4.0026708080244875,2.4231971935503784,2.3579094004345396,13.307612707693941,-18.647633690683683,61.307390192608096,30.201028322866673,4.0159076501702,-2.726336704394925,354
1.1676341419384184,-13.590552916281672,13.625071788896332,65.15897556952466,-29.5671161215554,4.024710575535799,2.4420814952549175,2.4966485776388914,12.74913045658274,-18.83939852486103,61.434389369423506,30.06636143873946,4.0580003130509485,-2.753154781422973,355
1.3324766100984893,-13.12425523733129,13.676946486364457,65.18603208457468,-29.437800569403347,4.03411330648145,2.459317902748736,2.597203005235915,12.259393440455002,-18.789029731951405,61.37589194545345,29.973597152784258,4.06122072596834,-2.7612737916662256,356
1.4367630346958131,-12.85873186191523,13.823408660155684,65.26982519774874,-29.352941394815275,4.059295850561935,2.4910271993991637,2.619900395536559,12.008342886515411,-18.94052749583667,61.48177660378158,29.91866750999449,4.084325031957707,-2.7754598138193396,357
1.5266042864384015,-12.668284518924565,13.880822655853065,65.30129469583795,-29.2999028952089,4.05657242281099,2.486380810055383,2.7525807053872557,11.826072399537514,-19.022586753062043,61.534584598748374,29.846443167622834,4.096023940841546,-2.794064571161369,358
1.5704534483970136,-12.613465300235704,13.821549577490206,65.2658948926277,-29.234976263439474,4.037195373832798,2.464522152130442,2.761701232016116,11.818009617992578,-18.90697067277011,61.44589506471721,29.787815687169935,4.072967757025362,-2.7796280326843488,359
1.5869105540340973,-12.602299730046013,13.857385266390192,65.28698143487901,-29.226277288529527,4.019105824015285,2.4374182921441423,2.765487661833554,11.836149516071478,-18.791707894401068,61.358065656680886,29.757552251140932,4.028651697137245,-2.7514552679989177,360
1.5173903038293022,-12.77586249250385,13.900266172690937,65.31469547682099,-29.21580331743476,3.9950389428953366,2.396859658535829,2.695830779602098,11.962927118841426,-18.780928495187833,61.35626960778062,29.740539565636837,4.017936087432925,-2.6960765075487445,361
1.4187657353022713,-12.913612376819268,13.756928823403674,65.23128280578007,-29.22627360462157,3.9692312466534734,2.374644571228866,2.57980456536427,12.121451825663385,-18.73212575146638,61.326793316459614,29.764785723275313,3.9925187139167573,-2.688333358856988,362
1.275678762117042,-13.072707016771146,13.69947588496708,65.19742930224322,-29.25645197966029,3.9338054780011786,2.3390232957881985,2.432684052619858,12.292073669365585,-18.626270782576494,61.253225307715624,29.775478377361807,3.9727127666854978,-2.6491329812974507,363
1.2258521697671878,-13.809254065832056,16.55547660086348,64.24389625013183,-29.27885569878299,3.900239580832441,2.310329029631863,2.1398223010379938,12.486417307881256,-18.507755956471225,61.170627904161286,29.818245685514235,3.9216718233445693,-2.607292513679806,364
1.0851935938032338,-13.984480630614359,16.305846157695978,64.08539998985452,-29.324660860458053,3.851610816181965,2.326176554407135,2.081490497861578,13.428817092430904,-21.184481737362084,60.13900021012051,29.87970516330103,3.8805509535827087,-2.5977011854295586,365
0.7650667953550633,-14.051842365928014,16.020745737725388,63.89487962847123,-29.376926696482183,3.782413595460413,2.3299594979136757,1.7305705417453323,13.620672224103156,-21.020238681810376,60.00886331139933,29.97997506442474,3.807763294242161,-2.599832498632797,366
0.32143115050135906,-14.095143730690246,15.464755015231582,63.51623219138169,-29.40788301660013,3.647797549889438,2.2790380944306063,1.3281611594633453,13.733448067833384,-20.635350613127777,59.68512878923948,30.01766832040869,3.6819423363352173,-2.564741346399537,367
-0.02923753273919015,-14.18580883620882,15.18580639605422,63.3172713744134,-29.468800196744763,3.564670072274123,2.26541943211917,0.9494645858063987,13.861611692912478,-20.37326759088322,59.459982907742045,30.133964643124457,3.6065157395023753,-2.5471703338346847,368
-0.16172030423207504,-14.980232084832389,18.022899129376828,62.353375092397165,-29.586632322817835,3.520479233458892,2.2445433942671227,0.5886186061107237,14.028530677493672,-20.22621655057858,59.33166630904073,30.224815717542953,3.5522442889701997,-2.5500615075442505,369
-0.45684077829652764,-15.088691680102668,17.968878585974668,62.30401706385648,-29.676827365585495,3.4658332755271513,2.267307879356052,0.2769274741490556,14.1034707182583,-20.124502126251276,59.24034020685278,30.32883236892364,3.4967576149228567,-2.5738540522319213,370
-0.7044682794089866,-15.102613764564358,17.967917164658203,62.29476277546826,-29.813014505392733,3.4314728338975806,2.269619508674144,0.12013038411387757,14.862928959352045,-22.952354601767787,58.33421508758073,30.416424160161124,3.4570046816114672,-2.604768957592597,371
