JMW9912/AVATAR/Dynamixel/dynamixel_control/data/csv/poppy/.data/1104_2230_Semina_collar_poppy_humanoid_motor_degree.csv
theta1,theta2,theta3,theta4,theta5,theta6,theta7,theta8,theta9,theta10,theta11,theta12,theta13
-102.489426518742,82.8344479053637,-11.4245662440809,51.9914434628027,102.924418213901,83.385096948902,14.2866188967702,-51.9914434628026,0,0,0,0,0
-105.037407377488,82.6005212311484,-11.3263497872711,51.9914434628027,105.109390502897,83.2859374895399,14.245631676425,-51.9914434628026,0,0,0,0,0
-105.577192094682,82.7930668076171,-11.4072000549289,51.9914434628027,105.607717694826,83.4313499628376,14.3057313038581,-51.9914434628027,0,0,0,0,0
-105.057954677803,82.6362956953289,-11.3413772965298,51.9914434628026,105.166799513681,83.1772634707512,14.2006908321164,-51.9914434628026,0,0,0,0,0
-104.846642730594,82.6080041774008,-11.3294933106773,51.9914434628027,105.043957549016,83.0142592452303,14.1332407861001,-51.9914434628026,0,0,0,0,0
-104.938092823876,82.53983332256,-11.3008510101873,51.9914434628027,105.08813922589,82.8289980799915,14.0565189612391,-51.9914434628027,0,0,0,0,0
-104.781645594617,82.5383994067616,-11.3002484399727,51.9914434628026,104.985701263215,82.7605651857293,14.0281619558706,-51.9914434628026,0,0,0,0,0
-104.649964669181,81.5794157589825,-13.537170730233,51.9914434628027,104.752694076969,81.8113275815757,16.2699991447949,-51.9914434628026,0,0,0,0,0
-104.68771150928,81.5597412374988,-13.528965966058,51.9914434628027,104.682611144596,81.8071722068304,16.2682942626199,-51.9914434628027,0,0,0,0,0
-104.864541525775,81.5235275944983,-13.51386160374,51.9914434628026,104.699181485744,81.8937033357943,16.3037886433298,-51.9914434628026,0,0,0,0,0
-104.780650829004,81.6089817959086,-13.5494988007781,51.9914434628026,104.490379528375,81.9976228719888,16.3463937870611,-51.9914434628026,0,0,0,0,0
-104.641614613157,81.6721620707356,-13.5758360941923,51.9914434628026,104.201662319469,82.1476777804938,16.4078722062201,-51.9914434628027,0,0,0,0,0
-104.329018119964,81.663332889447,-13.5721561228343,51.9914434628026,103.446693995738,81.395237873906,18.7332093356791,-51.9914434628026,0,0,0,0,0
-103.957573422387,81.6719722141104,-13.5757569645221,51.9914434628027,102.906142236928,81.5218592847876,18.7843739140318,-51.9914434628026,0,0,0,0,0
-103.603831814976,81.7204791384062,-13.5959712914046,51.9914434628026,102.509710009139,81.6889170118183,18.8518222293909,-51.9914434628027,0,0,0,0,0
-102.571762783405,80.8751417604293,-15.8848844285006,51.9914434628027,101.273325982742,80.9589596182942,21.1881113614262,-51.9914434628027,0,0,0,0,0
-101.762127967294,80.9938955457081,-15.9338522040752,51.9914434628027,100.518587651471,81.1345618488866,21.257866608249,-51.9914434628026,0,0,0,0,0
-101.011208392405,81.1185739491423,-15.9852255121318,51.9914434628026,99.7417593422083,81.3048084840784,21.3254258768573,-51.9914434628026,0,0,0,0,0
-99.8383753913034,80.3642338108331,-18.3151783805974,51.9914434628027,98.4052388789206,80.6550554513722,23.6942815026717,-51.9914434628026,0,0,0,0,0
-98.6234656679652,80.5265566930646,-18.381169267147,51.9914434628026,97.3341491052238,80.9390541583885,23.8048313750189,-51.9914434628027,0,0,0,0,0
-97.5143954368007,80.6557335723024,-18.4336367481829,51.9914434628027,96.1567047403941,81.3862554843963,23.9785321578735,-51.9914434628027,0,0,0,0,0
-96.753832794878,80.9774504099202,-18.5641263857788,51.9914434628026,95.2590823671563,81.9145629999337,24.1831704335579,-51.9914434628027,0,0,0,0,0
-95.7258397877302,81.5256721341964,-18.7859140248722,51.9914434628026,93.903425813313,82.7303674103902,24.4980550697274,-51.9914434628027,0,0,0,0,0
-94.5529701863722,82.2153456927352,-19.0639645199885,51.9914434628026,92.454524350816,83.8207609549308,24.9170378985707,-51.9914434628026,0,0,0,0,0
-93.2633805342767,83.1866692763041,-19.4539144375639,51.9914434628026,90.4776366831736,84.3770114345024,27.7149081650099,-51.9914434628026,0,0,0,0,0
-91.3645048081716,84.5208440078691,-19.9868134849568,51.9914434628027,88.0337448501332,85.042387139071,30.5298639850968,-51.9914434628026,0,0,0,0,0
-90.2634290507669,85.4850420491958,-20.3703039670829,51.9914434628026,86.9209005593944,86.3324326883754,30.9970289376272,-51.9914434628026,0,0,0,0,0
-89.2785310473556,86.3286293702336,-20.7049155496909,51.9914434628026,85.8608877279531,87.380924852417,31.3756400349925,-51.9914434628026,0,0,0,0,0
-88.5815582383374,86.9491610574885,-20.9506077881599,51.9914434628026,85.1470276412067,88.0843668594426,31.6292585805382,-51.9914434628026,0,0,0,0,0
-88.2576678679641,87.2778556538359,-21.0806227641626,51.9914434628026,84.7604919697621,88.3977018380972,31.7421519464355,-51.9914434628026,0,0,0,0,0
-88.0881852897171,87.4598729688989,-21.1525861399721,51.9914434628026,84.5281103719372,88.5257642714479,31.7882813446684,-51.9914434628026,0,0,0,0,0
-87.9194919244211,87.5541745772839,-21.1898610502265,51.9914434628026,84.2857831397225,88.5509216448748,31.7973426083316,-51.9914434628026,0,0,0,0,0
-87.7604439228185,87.6527365799347,-21.2288139464741,51.9914434628026,84.1401762547222,88.6290784837327,31.8254920392969,-51.9914434628027,0,0,0,0,0
-87.7661957515353,87.648041584398,-21.2269585637075,51.9914434628026,84.1594162106724,88.5036620561094,31.7803203178458,-51.9914434628026,0,0,0,0,0
-87.7459036690385,87.7004943661879,-21.2476862564949,51.9914434628026,84.2292534663856,88.4227448036286,31.7511731464714,-51.9914434628027,0,0,0,0,0
-87.7516046024101,87.7096152808162,-21.251290386922,51.9914434628026,84.2468220969888,88.3473856629288,31.7240258919375,-51.9914434628027,0,0,0,0,0
-87.2576396877433,86.9244079677683,-23.5264228712479,51.9914434628027,84.1271152435552,88.2275874643581,31.6808654265418,-51.9914434628027,0,0,0,0,0
-87.2697210092544,86.9274256640844,-23.5275940146348,51.9914434628026,84.1630492341558,88.11298878463,31.6395726646122,-51.9914434628026,0,0,0,0,0
-87.2454297104758,86.9186848006004,-23.524201737057,51.9914434628027,84.1866933971118,88.0750519795818,31.6259018282781,-51.9914434628027,0,0,0,0,0
-87.1164632871634,86.9361157519552,-23.530966527286,51.9914434628027,83.5811535671618,87.2112911778027,33.8459461789367,-51.9914434628026,0,0,0,0,0
-87.1632044287551,86.9422236258496,-23.5333368802738,51.9914434628027,84.1148988300312,87.9284424029765,31.5730636692506,-51.9914434628026,0,0,0,0,0
-87.2883625444696,86.8857057255131,-23.5114022116895,51.9914434628027,84.3303247854154,87.8039342905885,31.5281827378945,-51.9914434628026,0,0,0,0,0
-87.4796498219734,86.8242421840136,-23.4875452586097,51.9914434628026,84.5734863078988,87.6999244681942,31.4906846538046,-51.9914434628026,0,0,0,0,0
-87.5159743678535,86.8093890669979,-23.4817795945331,51.9914434628026,84.6087465777828,87.6062168872454,31.4568958002968,-51.9914434628027,0,0,0,0,0
-87.5856254464219,86.7784219990059,-23.4697582603398,51.9914434628026,84.8184688231007,87.4300474179606,31.393359563414,-51.9914434628026,0,0,0,0,0
-87.7321130055719,86.7514590345624,-23.4592906684259,51.9914434628027,85.0019030508955,87.3104554365766,31.3502176630219,-51.9914434628026,0,0,0,0,0
-88.0966728745104,86.5913414950315,-23.3971171031891,51.9914434628027,85.4579944113924,87.0824339027859,31.267935317487,-51.9914434628026,0,0,0,0,0
-88.3487764408583,86.4011568185925,-23.3232394778507,51.9914434628027,85.7433918403609,86.864310437972,31.1891914886739,-51.9914434628027,0,0,0,0,0
-88.6105956213246,86.2207834229945,-23.2531424422666,51.9914434628026,86.008062589384,86.5797261791983,31.0864019519792,-51.9914434628026,0,0,0,0,0
-88.9543016869872,85.8805781365425,-23.1208446911986,51.9914434628027,86.4331851487873,86.1808358925696,30.9422153339102,-51.9914434628026,0,0,0,0,0
-89.4917818999804,85.4589525098499,-22.9567144583235,51.9914434628026,87.0741509757073,85.7260529897349,30.7776501450447,-51.9914434628027,0,0,0,0,0
-89.7843339941301,85.0432177919554,-22.7946753821156,51.9914434628026,87.536118226412,85.2020622391088,30.5877823630706,-51.9914434628027,0,0,0,0,0
-90.5114056608271,84.5285818344896,-22.5937819129087,51.9914434628026,88.3810552866568,84.6512258734658,30.3878513638472,-51.9914434628026,0,0,0,0,0
-91.4001134929677,83.7813684485041,-22.3014272849504,51.9914434628026,89.3060404571805,83.9142700293484,30.119759167702,-51.9914434628027,0,0,0,0,0
-91.8658157232849,82.2871602809849,-24.3271469400657,51.9914434628026,89.679240248029,82.3635021011233,32.1348418804316,-51.9914434628027,0,0,0,0,0
-92.9905554270648,81.5516250549853,-24.0426517417784,51.9914434628027,90.7418652842068,81.6088293019083,31.8654118050911,-51.9914434628026,0,0,0,0,0
-93.9206519003515,80.9109240496862,-23.7938898656018,51.9914434628026,91.6600663105397,80.8559246335878,31.5955020732733,-51.9914434628027,0,0,0,0,0
-94.953115959774,80.3577746940724,-23.5783536712999,51.9914434628026,92.670334203695,80.1672583472372,31.3475587362923,-51.9914434628026,0,0,0,0,0
-95.7596564139546,79.8974132425973,-23.3983945171399,51.9914434628026,93.4751212662672,79.5217502745475,31.1141559303205,-51.9914434628026,0,0,0,0,0
-96.5312734039954,79.6045429110755,-23.2836222607608,51.9914434628026,94.1502439454714,79.0274903545717,30.934744316714,-51.9914434628027,0,0,0,0,0
-97.3592266401545,79.3608973869869,-23.1879644922561,51.9914434628027,94.9623434327063,78.6238802032283,30.7877648035779,-51.9914434628027,0,0,0,0,0
-98.3094844387313,79.1878250378924,-23.1199148838388,51.9914434628026,96.5189357151884,78.9969743404672,28.3059796000943,-51.9914434628026,0,0,0,0,0
-98.7332204349463,78.2110431627863,-25.3762273538913,51.9914434628027,97.5056493634268,78.6079931879416,28.1601141172998,-51.9914434628027,0,0,0,0,0
-99.7016316904851,78.0785881869793,-25.3249612191999,51.9914434628027,98.5114787822232,78.2028659862928,28.0077400537904,-51.9914434628027,0,0,0,0,0
-100.306978982963,78.0495979119814,-25.3137335221145,51.9914434628027,99.8332274406492,78.7362964989595,25.5790092126004,-51.9914434628027,0,0,0,0,0
-101.729699022011,78.7505819684914,-22.9476175829795,51.9914434628026,100.9790314584,78.3854154453575,25.4436367129913,-51.9914434628026,0,0,0,0,0
-102.770676899588,78.5285289682458,-22.8599026594091,51.9914434628026,102.486160389543,78.8209607968615,22.9753880198789,-51.9914434628027,0,0,0,0,0
-104.021310968296,79.1402449203711,-20.4610594799481,51.9914434628026,103.817910832208,79.3406855187084,20.5416268771431,-51.9914434628026,0,0,0,0,0
-105.253264300805,79.822922864502,-18.094610278486,51.9914434628027,105.458482150541,80.9296625009475,15.9073702517819,-51.9914434628026,0,0,0,0,0
-106.451955050927,80.418011566359,-15.6960540654889,51.9914434628026,106.73239891086,81.55308110397,13.5261883194948,-51.9914434628027,0,0,0,0,0
-107.845287585156,81.0207528761883,-13.3038337930617,51.9914434628027,107.869902758464,81.3910751399013,13.4585905500252,-51.9914434628026,0,0,0,0,0
-109.00805249829,81.5897484725979,-10.9006166388567,51.9914434628026,108.991521592158,82.1726630427515,11.1464135278332,-51.9914434628027,0,0,0,0,0
-110.410408918628,82.258192112128,-8.0707365368065,51.9914434628026,110.14829276083,83.4706265201696,7.24762394628302,-51.9914434628026,0,0,0,0,0
-111.94419765228,83.8734723474773,-3.39357156485383,51.9914434628027,111.138716633159,83.4410043145464,7.17709789754243,-51.9914434628026,0,0,0,0,0
-112.992311790614,84.6935848529916,-1.03127536983323,51.9914434628027,112.486028183541,84.387743672145,4.86946367321316,-51.9914434628026,0,0,0,0,0
-114.090732211096,85.507038387925,1.34488408795062,51.9914434628026,113.547460949968,85.1756418535946,2.51078057099891,-51.9914434628027,0,0,0,0,0
-114.802931138574,85.4886604500059,1.41704805244269,51.9914434628027,114.492040847049,85.0505076628756,2.39135351841851,-51.9914434628027,0,0,0,0,0
-115.192229843512,86.4900399474296,3.65006468659779,51.9914434628027,115.144773636329,85.8599816007509,0.0586194214070136,-51.9914434628026,0,0,0,0,0
-115.805957225677,86.5150736864237,3.6933928991295,51.9914434628026,115.734782417158,85.7984940480351,-0.0141824660994633,-51.9914434628027,0,0,0,0,0
-115.969697607194,87.4631686760714,5.931832135132,51.9914434628026,115.931131894568,85.6981228523842,-0.077590392553565,-51.9914434628027,0,0,0,0,0
-116.439613901229,87.4493911618236,5.9813326655281,51.9914434628026,116.284458820981,85.6645065855448,-0.121563180056928,-51.9914434628027,0,0,0,0,0
-116.76737832845,87.3426182339086,6.065085052049,51.9914434628027,116.44905312271,85.7381505769959,-0.0979887688671295,-51.9914434628026,0,0,0,0,0
-116.907277796886,87.2146134663349,6.14303472708097,51.9914434628026,116.491022819018,85.695133746719,-0.122604027118431,-51.9914434628026,0,0,0,0,0
-117.050440903628,87.9384308133149,8.49640717214989,51.9914434628026,116.673191806648,85.6474345502207,-0.160756657577059,-51.9914434628026,0,0,0,0,0
-117.229306071179,87.830256951202,8.57025937871242,51.9914434628027,116.784646753879,85.6068366667632,-0.190050496011931,-51.9914434628026,0,0,0,0,0
-117.516514162918,87.7668037635627,8.6334995724318,51.9914434628026,116.947836274301,86.5005152564437,-2.45315849631006,-51.9914434628027,0,0,0,0,0
-117.733106721899,87.7082868620267,8.68741311924675,51.9914434628026,117.128203178326,86.4814100641688,-2.4777156909953,-51.9914434628026,0,0,0,0,0
-117.816901164527,87.7639695846463,8.66726756271542,51.9914434628026,117.231692105813,86.4713260314961,-2.49144505981296,-51.9914434628027,0,0,0,0,0
-117.716898750255,87.7798129878252,8.6482004952211,51.9914434628027,117.189171484209,86.4481293421825,-2.49979553259505,-51.9914434628027,0,0,0,0,0
-117.749339104773,87.7855290697177,8.64868415575101,51.9914434628027,117.28535788447,86.4052148224797,-2.5298895735485,-51.9914434628026,0,0,0,0,0
-117.531844007961,87.7562168220588,8.64064230787992,51.9914434628026,117.104927459126,86.3336523505675,-2.55117003870486,-51.9914434628026,0,0,0,0,0
-117.49987624123,87.70399860793,8.66429719373892,51.9914434628026,117.094538501973,86.2577687886016,-2.58896469264466,-51.9914434628026,0,0,0,0,0
-117.460177562373,87.4651126462141,8.7836647359688,51.9914434628027,116.978137159008,86.0938075465876,-2.66194865053555,-51.9914434628026,0,0,0,0,0
-117.331263584256,87.2748390782052,8.866945041307,51.9914434628026,116.803722560688,85.9373680508349,-2.7248464442262,-51.9914434628026,0,0,0,0,0
-117.290404965818,86.9764247939254,9.01536080244522,51.9914434628026,116.664738437826,85.7635509724301,-2.7987113511,-51.9914434628026,0,0,0,0,0
-117.244043011547,86.8824408191009,9.05774839897727,51.9914434628026,116.545554000924,85.6302347142291,-2.85339491591734,-51.9914434628027,0,0,0,0,0
-117.153028116127,86.7880032992591,9.09445763374062,51.9914434628026,116.386224739271,85.520829296353,-2.891465113535,-51.9914434628026,0,0,0,0,0
-116.986591337733,86.7058327701775,9.11480914289543,51.9914434628026,116.21064498593,85.4679812792711,-2.89941868351227,-51.9914434628027,0,0,0,0,0
-116.730299969766,86.7676900219414,9.05076921177928,51.9914434628026,115.92155545906,85.4916944411804,-2.8582120018529,-51.9914434628026,0,0,0,0,0
-116.76923861391,85.9206678675393,6.7791599045884,51.9914434628027,115.788799806215,85.5359256487385,-2.82340416045936,-51.9914434628026,0,0,0,0,0
-116.724557945983,85.9453541117585,6.76121669922481,51.9914434628026,115.681905766414,85.5057423909178,-2.82706805795995,-51.9914434628027,0,0,0,0,0
-116.654235627017,86.0043807391382,6.72301691678047,51.9914434628027,115.549457609719,85.5251017769362,-2.80444267640836,-51.9914434628027,0,0,0,0,0
-116.635057269394,85.992746175655,6.72645423430163,51.9914434628026,115.509341911497,84.5522617676798,-0.589666473111115,-51.9914434628026,0,0,0,0,0
-116.62493548937,86.042149856825,6.70059097400875,51.9914434628027,115.378241559631,84.5406761453485,-0.581878924801716,-51.9914434628027,0,0,0,0,0
-116.116088834775,85.0380047208602,4.44180163608252,51.9914434628027,114.830234838911,84.4760346599544,-0.556399623652832,-51.9914434628027,0,0,0,0,0
-115.671272167752,85.036212288308,4.38843189839435,51.9914434628027,114.443078196859,84.3414887343443,-0.577976611923259,-51.9914434628026,0,0,0,0,0
-115.567272373209,85.0076814290405,4.38936461335695,51.9914434628027,114.229489731073,84.1922467980882,-0.622615870831906,-51.9914434628026,0,0,0,0,0
-114.698889577964,84.0174942523852,2.08054086924083,51.9914434628026,113.343116229285,83.1404151056861,1.64911960648011,-51.9914434628027,0,0,0,0,0
-114.031098179473,83.9621200270991,2.02465934039373,51.9914434628026,112.645909684622,83.0417258005351,1.68267695058027,-51.9914434628026,0,0,0,0,0
-113.499698003815,83.060001414302,-0.281563372417692,51.9914434628027,112.060743213092,82.0579465627229,3.9543525707976,-51.9914434628026,0,0,0,0,0
-112.636099190245,82.1107467784534,-2.6057147724983,51.9914434628026,111.025246164225,82.07766900124,4.07321244662477,-51.9914434628027,0,0,0,0,0
-111.916163447844,82.1021539193449,-2.68652354372504,51.9914434628026,110.258630766583,81.264664907191,6.42852009439208,-51.9914434628026,0,0,0,0,0
-110.931655642915,81.1290847855984,-5.01461383660134,51.9914434628026,109.264912519455,81.4791475032836,6.60482901191044,-51.9914434628026,0,0,0,0,0
-109.899272439832,81.145483490185,-5.1392153113554,51.9914434628027,107.979730892548,80.7620499949228,9.03145803853333,-51.9914434628026,0,0,0,0,0
-108.802909443822,80.1989543644627,-7.48956199256121,51.9914434628026,106.881468628206,80.5106564113579,10.44342700314,-51.9914434628026,0,0,0,0,0
-107.70742678696,80.1660713354809,-7.60179501944162,51.9914434628027,105.814600611686,80.6893028783471,10.5193226167082,-51.9914434628026,0,0,0,0,0
-107.282188053424,80.1403310737605,-7.64131334879083,51.9914434628026,105.099766086509,80.067263934788,12.9037554171059,-51.9914434628026,0,0,0,0,0
-106.590896863861,79.2287311622179,-9.89618485791923,51.9914434628027,104.350426849037,80.2971408167868,13.0004327634253,-51.9914434628027,0,0,0,0,0
-105.585393944861,79.3388890574935,-9.94340086183587,51.9914434628026,103.378803505981,79.627334426811,15.368123748303,-51.9914434628026,0,0,0,0,0
-104.811576443702,79.4585824681071,-9.99466184166843,51.9914434628027,102.633973180078,79.9086462282008,15.4849952594909,-51.9914434628026,0,0,0,0,0
-103.982241213113,79.6417837302655,-10.0730374681941,51.9914434628026,101.629053571263,80.157535300047,15.5882121344276,-51.9914434628027,0,0,0,0,0
-103.223408029357,78.8597434128688,-12.3934066873973,51.9914434628026,100.8073033228,79.5124285323696,17.9677305249666,-51.9914434628026,0,0,0,0,0
-102.405569940098,79.0810940817505,-12.487288465499,51.9914434628026,99.8969707905804,79.9013690051004,18.1266238212691,-51.9914434628027,0,0,0,0,0
-101.253479432487,79.3785119261352,-12.6131941254796,51.9914434628027,99.1009817063255,80.1687526919222,18.2356161203049,-51.9914434628026,0,0,0,0,0
-99.7778154718906,79.8642885590662,-12.8182691960849,51.9914434628027,97.6142015782873,80.5849462012592,18.4048904480415,-51.9914434628026,0,0,0,0,0
-98.2161539422273,79.4951405909386,-15.3131252908791,51.9914434628026,95.7519805340669,80.4202835853073,20.9736667045022,-51.9914434628026,0,0,0,0,0
-96.7967397690644,80.2808930016651,-15.6393071424853,51.9914434628027,94.5320499684677,81.1629499745328,21.2691365676366,-51.9914434628027,0,0,0,0,0
-95.4068121767133,81.2832912508102,-16.0530388205773,51.9914434628026,92.9834599197356,81.9911714125485,21.5971402853136,-51.9914434628026,0,0,0,0,0
-94.0700244116947,81.3818428434353,-18.7277945833457,51.9914434628026,91.3348107110047,82.164918215014,24.2799416394932,-51.9914434628026,0,0,0,0,0
-92.6606200864828,82.5649584131983,-19.2045328063673,51.9914434628027,90.15051116276,83.2482625997192,24.6973077500358,-51.9914434628026,0,0,0,0,0
-92.0005167343937,83.7075536815492,-19.6623131775418,51.9914434628027,89.3810540101427,84.5700203386497,25.20384857449,-51.9914434628027,0,0,0,0,0
-89.6252920440566,84.2615787003937,-22.4894101147255,51.9914434628027,86.8232513489036,85.1410938473568,27.9998521124758,-51.9914434628026,0,0,0,0,0
-87.9163085200262,85.6164072350123,-23.0180314699216,51.9914434628026,85.5214082478747,86.4279342375916,28.4782424052058,-51.9914434628026,0,0,0,0,0
-86.3725942526857,86.8980215676129,-23.5161822196862,51.9914434628026,84.2000322552609,87.6148098767415,28.9181891770085,-51.9914434628026,0,0,0,0,0
-85.1693648333981,88.1295593583657,-23.9936401494954,51.9914434628027,83.3556052796573,88.696635281319,29.3184797888816,-51.9914434628027,0,0,0,0,0
-84.5189028462423,89.1649514020822,-24.3944771311278,51.9914434628026,82.9694446865456,89.6029080086422,29.653518003208,-51.9914434628027,0,0,0,0,0
-83.6390691667927,90.0406502661324,-24.73330280131,51.9914434628026,82.3469215394021,90.2660311145015,29.8986068400844,-51.9914434628026,0,0,0,0,0
-83.1049334880883,90.6388993894875,-24.9647717429032,51.9914434628026,82.0269813713152,90.6947292352177,30.057063297841,-51.9914434628027,0,0,0,0,0
-82.7125040314182,90.8522437613896,-25.0473281479397,51.9914434628026,81.6703265234824,90.925776501161,30.142475090049,-51.9914434628027,0,0,0,0,0
-82.4483108110622,90.7710117359643,-25.0158933241053,51.9914434628026,81.4051545637295,90.9902272094512,30.1663027307298,-51.9914434628026,0,0,0,0,0
-82.2445972203546,90.5635098726201,-24.9356006687044,51.9914434628026,81.1256541004818,90.9266637323462,30.1428030959319,-51.9914434628027,0,0,0,0,0
-82.3265116354128,90.28496105589,-24.827825719527,51.9914434628027,81.078577731696,90.7004048752695,30.0591613061419,-51.9914434628027,0,0,0,0,0
-82.3630805028504,90.1481209932168,-24.7748825239491,51.9914434628026,81.0903508650703,90.5346722360145,29.9979000564414,-51.9914434628026,0,0,0,0,0
-82.2931261361565,90.0781586243022,-24.7478145106187,51.9914434628026,81.4680866729787,91.2054903156899,27.722666325206,-51.9914434628026,0,0,0,0,0
-82.2547601458561,90.1030133746886,-24.7574306461869,51.9914434628027,80.9129558215948,90.468287089284,29.9733625685733,-51.9914434628026,0,0,0,0,0
-82.1772868147068,90.2374182763867,-24.8094313759963,51.9914434628027,80.744419514345,90.5874095362575,30.0173933847346,-51.9914434628027,0,0,0,0,0
-82.0478937979848,90.4889494209624,-24.9067511899852,51.9914434628027,80.6537706425415,90.7172683707264,30.065394953072,-51.9914434628026,0,0,0,0,0
-81.8334391878592,90.7662865744236,-25.0140648421744,51.9914434628026,80.4150584919225,90.9227458227007,30.1413546614524,-51.9914434628027,0,0,0,0,0
-81.6951112226105,90.9719514100285,-25.093654741658,51.9914434628026,80.169248680105,91.0735642471757,30.1971141868867,-51.9914434628026,0,0,0,0,0
-81.1570769322467,90.3320925230634,-27.3919358596034,51.9914434628026,80.0401279578517,91.2612219486281,30.2665019700542,-51.9914434628026,0,0,0,0,0
-81.1180312061368,90.424660655469,-27.426982887772,51.9914434628027,79.9476892372231,91.3206632635592,30.2884829772309,-51.9914434628027,0,0,0,0,0
-81.0201627803032,90.5232036582972,-27.4642930423389,51.9914434628027,79.8842987029549,91.323214878499,30.2894265724317,-51.9914434628026,0,0,0,0,0
-80.8525799065319,90.6341579344234,-27.5063038435087,51.9914434628026,79.7495156404455,91.3626145665284,30.3039969662371,-51.9914434628026,0,0,0,0,0
-80.7934787217875,90.6593191970686,-27.5158309503808,51.9914434628026,79.687110813253,91.383843609846,30.31184788632,-51.9914434628026,0,0,0,0,0
-80.8461540584211,90.6141196250036,-27.4987165722803,51.9914434628027,79.6692635630825,91.2561471284228,30.2646253853471,-51.9914434628026,0,0,0,0,0
-80.9188033322695,90.4589003538594,-27.4399465262586,51.9914434628026,79.7677881465479,91.0835941737913,30.2008225799981,-51.9914434628026,0,0,0,0,0
-81.1145666666147,90.208109183195,-27.3449958523142,51.9914434628027,79.9348683396647,90.8301038881394,30.1071062948335,-51.9914434628026,0,0,0,0,0
-81.3381824978496,89.9112743800003,-27.2326167231205,51.9914434628026,80.238468919246,90.5391359288142,29.9995499602439,-51.9914434628026,0,0,0,0,0
-81.6844958188619,89.5448399173357,-27.0938843933214,51.9914434628026,80.4680430109671,90.2585627502037,29.8958465240868,-51.9914434628027,0,0,0,0,0
-81.7264763198006,89.206658252618,-26.9658354628267,51.9914434628027,80.5000217020147,90.0043988064016,29.80190864968,-51.9914434628027,0,0,0,0,0
-82.4704381010391,89.6174225529114,-24.5695569241942,51.9914434628026,80.8795217953306,89.5650129147886,29.6395114572416,-51.9914434628027,0,0,0,0,0
-82.7967760097779,89.125739925636,-24.3793028865548,51.9914434628026,81.2603151931716,89.1399408991259,29.4823856628286,-51.9914434628026,0,0,0,0,0
-83.0510711004872,88.5961332582833,-24.1743135464707,51.9914434628026,81.4817484229895,88.5457375718431,29.2626745184818,-51.9914434628026,0,0,0,0,0
-83.8282617386625,87.8403225525692,-23.8815875143561,51.9914434628026,82.2092937650824,87.7516717550864,28.9688608357073,-51.9914434628026,0,0,0,0,0
-84.6609913076482,87.0447572995445,-23.5731240170722,51.9914434628026,83.0147359982032,86.6809485585207,28.5721170976441,-51.9914434628027,0,0,0,0,0
-85.5636400743309,86.0281407039758,-23.1782426170192,51.9914434628026,84.102082420175,85.3981534911948,28.0955550165657,-51.9914434628026,0,0,0,0,0
-86.9632120963673,85.5662017428518,-20.4025302034831,51.9914434628026,85.6941984907462,84.6649650587505,25.2401359099849,-51.9914434628027,0,0,0,0,0
-88.2848789992375,83.8711662148654,-19.7276775595705,51.9914434628026,86.9791181486162,82.8138984354777,24.5302248487485,-51.9914434628027,0,0,0,0,0
-90.2561616184104,82.8616207615432,-16.6997374975391,51.9914434628027,89.0098176829972,81.7160283106494,21.4883410339628,-51.9914434628026,0,0,0,0,0
-92.389597794992,81.7244903080383,-13.5976426267833,51.9914434628026,91.1382249082637,80.5799445018609,18.4028588096232,-51.9914434628026,0,0,0,0,0
-94.741223355661,80.5613759428823,-10.4649832093758,51.9914434628027,93.0734656499858,78.5804524830008,17.5851992622857,-51.9914434628027,0,0,0,0,0
-96.1878532747799,78.8693233573467,-9.74187123384873,51.9914434628027,94.7737882606364,77.7983695123781,14.6024122421751,-51.9914434628026,0,0,0,0,0
-98.3944859494704,78.5065031994471,-6.92901154165804,51.9914434628026,96.8543578002776,77.1827697990266,11.6768537596358,-51.9914434628026,0,0,0,0,0
-100.387845194134,78.3725292180352,-4.21607813193893,51.9914434628026,98.6905318353934,76.8613705565808,8.87167607578323,-51.9914434628026,0,0,0,0,0
-102.564329993147,78.5758346362227,-1.65597937876244,51.9914434628026,100.799565356038,76.7412188572058,6.15425546966244,-51.9914434628027,0,0,0,0,0
-104.098920743241,78.4391352722945,-0.188208411607516,51.9914434628027,102.466852788813,76.8911752459511,3.56043960292469,-51.9914434628026,0,0,0,0,0
-106.054109113046,79.1385442929344,2.48133234780915,51.9914434628027,104.483147144403,76.4867012340559,3.31499571886789,-51.9914434628027,0,0,0,0,0
-108.013682551611,78.9883394853509,2.92311429221127,51.9914434628027,106.519214992687,77.3283861871201,0.64698620000475,-51.9914434628026,0,0,0,0,0
-109.910092027895,79.9865323257855,5.5236181967171,51.9914434628026,108.572083844132,77.4486912640037,0.256699712460286,-51.9914434628026,0,0,0,0,0
-111.202196746395,81.1100164483036,7.95535510460141,51.9914434628026,110.254575317573,78.6795546537995,-2.21951676575097,-51.9914434628027,0,0,0,0,0
-112.62567348036,81.5852230206597,8.06289764475608,51.9914434628027,111.820381477188,79.2478681554988,-2.32606790841241,-51.9914434628026,0,0,0,0,0
-113.274636842326,82.0317239596208,8.00777051717987,51.9914434628027,112.632663984188,79.9470848885886,-2.20458044048249,-51.9914434628027,0,0,0,0,0
-113.977866067771,83.4135093742488,10.1851379809863,51.9914434628027,113.433107089323,81.530199530963,-4.3096957332409,-51.9914434628026,0,0,0,0,0
-114.685313761425,84.0156028181946,10.0481629285582,51.9914434628026,114.240283535397,82.371318111885,-4.08186946938062,-51.9914434628027,0,0,0,0,0
-115.509942301505,84.5998871583044,9.9227086711897,51.9914434628026,115.050615753946,83.2054955672868,-3.83038311213866,-51.9914434628026,0,0,0,0,0
-115.86656427173,86.0516954981568,11.9713132236403,51.9914434628027,115.79739044493,84.8198270440883,-5.84693345187091,-51.9914434628027,0,0,0,0,0
-115.999275079308,86.6280501882324,11.713828771021,51.9914434628026,115.991259438275,84.6485614403409,-3.27397409125191,-51.9914434628027,0,0,0,0,0
-116.518334371168,87.1412385672159,11.537128495437,51.9914434628027,116.415365383088,86.3991169546746,-5.15222584418993,-51.9914434628026,0,0,0,0,0
-117.325745536286,88.4527202918039,13.6944286386275,51.9914434628026,117.14129844951,87.0073357413104,-4.91757956998953,-51.9914434628027,0,0,0,0,0
-118.136423763089,90.0715365732716,15.6783905505234,51.9914434628027,118.094237844151,87.7890428848208,-4.8781987092339,-51.9914434628026,0,0,0,0,0
-119.051102030195,90.2587222124698,14.2907397893129,51.9914434628026,118.724581684401,88.4021938063208,-4.61734868982332,-51.9914434628026,0,0,0,0,0
-119.481357546346,90.7293214031014,14.0965827467142,51.9914434628027,119.1603442391,88.7161405324168,-4.48385757779851,-51.9914434628026,0,0,0,0,0
-119.676189273501,91.0471767465912,13.9654206715895,51.9914434628027,119.462275933129,88.9424430242397,-4.38765573655466,-51.9914434628026,0,0,0,0,0
-119.549706252042,92.0638924260108,16.152972007091,51.9914434628026,119.555861033211,89.9950302697799,-6.56301690527903,-51.9914434628026,0,0,0,0,0
-119.788811540119,92.0639179492214,16.1529615964285,51.9914434628027,119.676748952415,89.9441686191518,-6.58453775903595,-51.9914434628026,0,0,0,0,0
-119.682137496027,91.8500932011615,16.2401663112213,51.9914434628026,119.487741234909,89.7172531198365,-6.68055247290679,-51.9914434628026,0,0,0,0,0
-119.575308275879,91.5201835721403,16.3746705038254,51.9914434628027,119.263369106825,89.3806712713747,-6.82297879404513,-51.9914434628026,0,0,0,0,0
-119.50360377187,91.1867845226891,16.5105521467382,51.9914434628026,119.235681541879,88.9937047791996,-6.98675065042117,-51.9914434628026,0,0,0,0,0
-119.271362771393,90.8329290633299,16.6547325144387,51.9914434628026,118.727590112325,89.5846828615317,-9.35403729934657,-51.9914434628026,0,0,0,0,0
-118.997325555309,91.4954642906585,18.9801337244965,51.9914434628026,118.85442173376,89.2441639754919,-9.49722864898155,-51.9914434628027,0,0,0,0,0
-118.960818539049,91.3712446478354,19.0300149289041,51.9914434628026,118.796893985945,89.0023079001408,-9.59894557031032,-51.9914434628026,0,0,0,0,0
-119.00454500363,91.275818983365,19.0683298982439,51.9914434628027,118.791955817241,88.8148143441732,-9.67781035416974,-51.9914434628026,0,0,0,0,0
-119.045229942401,91.1872215738118,19.1039004568917,51.9914434628026,118.746723013242,88.6608048666303,-9.74259945592928,-51.9914434628027,0,0,0,0,0
-119.061785383849,91.1765872340967,19.1081698188832,51.9914434628026,118.664970539871,88.5861340917221,-9.77401527623896,-51.9914434628026,0,0,0,0,0
-119.106106347462,91.2209864506305,19.0903446552745,51.9914434628027,118.681576199202,88.5114184817818,-9.80545216166757,-51.9914434628026,0,0,0,0,0
-119.12073191411,91.1850950301276,19.1047542019386,51.9914434628027,118.65046261781,88.4931933032832,-9.81312082427408,-51.9914434628026,0,0,0,0,0
-119.096057751956,91.1677531506886,19.1117164062964,51.9914434628026,118.665619294415,88.4539598289479,-9.82962968627539,-51.9914434628026,0,0,0,0,0
-119.480332865563,90.3084798951639,16.8683741852666,51.9914434628026,118.824591457006,88.492421826067,-9.81344544410847,-51.9914434628026,0,0,0,0,0
-119.413143901099,90.3139357901299,16.8661518350845,51.9914434628026,118.919434490212,88.4566002749917,-9.82851860522551,-51.9914434628026,0,0,0,0,0
-119.357190278294,90.3033901311182,16.8704473970825,51.9914434628026,119.01805936799,88.4150737010303,-9.84599304544716,-51.9914434628026,0,0,0,0,0
-119.303609202465,90.3445716128488,16.8536728947986,51.9914434628026,119.205198186987,88.4299929935871,-9.83971489957599,-51.9914434628026,0,0,0,0,0
-119.297420319885,90.330287746609,16.8594911759792,51.9914434628027,119.323896052458,88.4364775190613,-9.83698619497078,-51.9914434628026,0,0,0,0,0
-119.248897110405,90.3555960650323,16.8491822656135,51.9914434628027,119.372539981365,88.4356419863886,-9.83733778818634,-51.9914434628026,0,0,0,0,0
-119.221663790654,90.2907023742139,16.8756154875645,51.9914434628027,119.326593841905,88.426016565085,-9.84138819978588,-51.9914434628026,0,0,0,0,0
-119.02736096493,90.256658382575,16.8894825297293,51.9914434628027,119.057680984625,88.4935528441153,-9.81296953786286,-51.9914434628027,0,0,0,0,0
-118.676909353787,90.2452387371369,16.8941340429536,51.9914434628027,118.78025609678,88.5498527701202,-9.78928050205714,-51.9914434628027,0,0,0,0,0
-118.562474436792,89.8050323763338,15.8748140764436,51.9914434628026,118.518742416194,88.5427521663841,-9.79226811554371,-51.9914434628026,0,0,0,0,0
-118.198914578006,89.7663771853487,15.8494876851303,51.9914434628026,118.274092387849,87.5930462997001,-7.58001009537378,-51.9914434628027,0,0,0,0,0
-117.715888680582,89.5955735176655,15.8780544854928,51.9914434628026,117.810282284869,87.4837558170559,-7.45177142686554,-51.9914434628026,0,0,0,0,0
-117.424424920998,89.4086240328285,15.9372410500131,51.9914434628027,117.619887111468,87.3619347180737,-7.49560550413636,-51.9914434628026,0,0,0,0,0
-117.16488929415,89.1615558298257,16.0293369096679,51.9914434628026,117.332423568315,87.2217494474975,-7.53743271815931,-51.9914434628026,0,0,0,0,0
-116.792717267324,88.9247295442416,16.0974797717726,51.9914434628027,117.047811697195,87.0451807212261,-7.59643935389738,-51.9914434628026,0,0,0,0,0
-116.765813600194,87.7518490286993,13.9722275355635,51.9914434628027,116.773309772134,86.7853566683857,-7.69633899840812,-51.9914434628027,0,0,0,0,0
-116.069353582893,87.4125122134667,14.0354241268078,51.9914434628026,116.205645828091,85.5264293844207,-5.55764046294398,-51.9914434628026,0,0,0,0,0
-115.664545033358,87.0948266239883,14.1254925898384,51.9914434628027,115.832716177837,85.1316700192399,-5.70197159603916,-51.9914434628026,0,0,0,0,0
-115.417549841636,86.7297724616963,14.2586490023857,51.9914434628026,115.524046638863,84.683260226992,-5.87437619201038,-51.9914434628027,0,0,0,0,0
-115.146938314826,85.5647814663397,12.0825550606682,51.9914434628027,114.806199636165,84.2815245157356,-5.95937058756942,-51.9914434628026,0,0,0,0,0
-114.271054446747,85.3640869958721,12.0248220155921,51.9914434628026,113.906343369981,82.9804495285078,-3.76046019561282,-51.9914434628027,0,0,0,0,0
-113.639638976228,84.3374037774406,9.72186953488069,51.9914434628027,112.989443373463,82.6485387167008,-3.76248040465101,-51.9914434628027,0,0,0,0,0
-112.61350497767,84.3505821645274,9.54227058596836,51.9914434628027,111.801842797542,81.5499461108779,-1.41629280542197,-51.9914434628027,0,0,0,0,0
-111.66833940246,83.4650822701228,7.13314374848276,51.9914434628027,110.732938195564,81.5169549602369,-1.26335997802786,-51.9914434628026,0,0,0,0,0
-110.547917285847,82.6330022136473,4.68259870398584,51.9914434628027,109.538723548195,80.6326685600751,1.16421838586346,-51.9914434628026,0,0,0,0,0
-109.236700765435,82.9001306389645,4.3825528303324,51.9914434628027,107.906814130158,79.8700483293202,3.69030214320734,-51.9914434628026,0,0,0,0,0
-107.843229466597,82.2615827927899,1.85070724451495,51.9914434628026,106.581806287269,80.2832945944128,4.00236593563807,-51.9914434628026,0,0,0,0,0
-106.000135322575,81.7792196470788,-0.76660602167364,51.9914434628027,104.554758533554,79.5571005452311,7.38499147311097,-51.9914434628027,0,0,0,0,0
-104.607584898993,81.5609150138943,-2.96171000157991,51.9914434628026,102.707585463085,78.4751316363682,12.2299092129217,-51.9914434628026,0,0,0,0,0
-102.275605694481,81.2610914780781,-5.47370401867001,51.9914434628027,100.325648439205,78.2797109152626,14.8049703987789,-51.9914434628026,0,0,0,0,0
-100.254682111049,81.0745872579717,-8.03779499593384,51.9914434628026,98.623128181254,78.2842173321297,17.4630494488006,-51.9914434628026,0,0,0,0,0
-98.372574943462,81.0377730337603,-10.6671244318276,51.9914434628026,97.1229944021641,79.174344371291,17.8292629575288,-51.9914434628026,0,0,0,0,0
-96.5311777060383,81.9390888615,-11.0480154791466,51.9914434628026,94.9376484200692,79.2826524520506,20.5183122587179,-51.9914434628026,0,0,0,0,0
-94.0501532371614,82.1306063986142,-13.766671288266,51.9914434628026,92.1767046091808,79.4728319135003,23.2319313118863,-51.9914434628027,0,0,0,0,0
-91.4141754212074,82.5397040879968,-16.5682635198087,51.9914434628027,89.8561719395331,80.6934316929489,23.7092310974838,-51.9914434628026,0,0,0,0,0
-89.6309503138221,83.8257994282278,-17.0923582534877,51.9914434628027,87.3894529994085,81.2134498176255,26.5253545670682,-51.9914434628026,0,0,0,0,0
-87.9987351402624,84.2211291386606,-19.8673466494625,51.9914434628027,86.0580815405687,82.5665792455662,27.0363529521356,-51.9914434628026,0,0,0,0,0
-86.7152373639852,85.5789761255026,-20.4076018534066,51.9914434628026,84.5462421225731,84.1270940402645,27.6215397975407,-51.9914434628026,0,0,0,0,0
-84.642595076097,86.1174078957613,-23.2129544210723,51.9914434628027,82.170951615245,84.8972558814553,30.4771951824499,-51.9914434628026,0,0,0,0,0
-82.3717311346594,87.4914571849358,-23.7463727051127,51.9914434628026,79.8160003547501,86.6233595072965,31.1021660415323,-51.9914434628027,0,0,0,0,0
-80.9397423447031,88.8028952965723,-24.2543525778475,51.9914434628027,78.4054163255337,88.2565350815499,31.6912950999176,-51.9914434628027,0,0,0,0,0
-79.1968509230428,89.9862559387106,-24.7122580562379,51.9914434628026,76.3568384856489,89.1648058520468,34.5297821735879,-51.9914434628026,0,0,0,0,0
-78.0212316015012,91.0982981534174,-25.1425544882795,51.9914434628027,75.299697432739,90.6414197377432,35.0461073166637,-51.9914434628026,0,0,0,0,0
-76.4083268730823,92.3290022534185,-25.6191822051314,51.9914434628027,74.1176323790543,91.8213370049299,35.4588793319377,-51.9914434628026,0,0,0,0,0
-74.5514249533368,92.4252466026454,-28.1849699757173,51.9914434628026,72.7213597283565,92.6998650012876,35.7665682053496,-51.9914434628026,0,0,0,0,0
-73.6031493688755,93.1278930574149,-28.4516592501275,51.9914434628027,71.800552344331,93.1847805068366,35.9365937965404,-51.9914434628026,0,0,0,0,0
-72.7330233555807,93.6139220548661,-28.636350547312,51.9914434628027,70.9767365773138,93.4007282282784,36.0123645689603,-51.9914434628026,0,0,0,0,0
-72.0499948118663,93.7047955280638,-28.6709052054977,51.9914434628026,70.844160991264,94.0406174230419,33.7759602369323,-51.9914434628027,0,0,0,0,0
-71.3405808240554,93.6118100293015,-28.6355475380917,51.9914434628026,70.091680663852,93.5471532796743,33.5975128089688,-51.9914434628026,0,0,0,0,0
-71.0914491970821,94.2461474424551,-26.3636174995031,51.9914434628027,69.4601390268949,92.9761612102284,33.3912808531328,-51.9914434628027,0,0,0,0,0
-70.8325080855525,94.0562854439242,-26.2897452147415,51.9914434628026,69.1458914145705,92.4499550527886,33.2014271835259,-51.9914434628027,0,0,0,0,0
-70.6338950548892,93.8536823939564,-26.2109567092155,51.9914434628026,68.8232930183772,92.1501784855379,33.0933418735977,-51.9914434628026,0,0,0,0,0
-70.5109919235786,93.7012395389826,-26.1517012749571,51.9914434628026,68.6659264502264,91.8195891935099,32.9741991152358,-51.9914434628027,0,0,0,0,0
-70.8675345240248,93.6013391761575,-26.1128813665423,51.9914434628026,69.4572236806176,92.3284700685002,30.6613753169297,-51.9914434628027,0,0,0,0,0
-71.2033673962937,93.5934051416528,-26.1097987057352,51.9914434628027,69.7997498107822,92.2345503587965,30.6266043853324,-51.9914434628026,0,0,0,0,0
-70.8710461005283,93.6399878564071,-26.1278986122441,51.9914434628026,69.4670592234773,92.1943820864966,30.6117347600304,-51.9914434628027,0,0,0,0,0
-70.7941805101536,93.7521906466285,-26.1715037852701,51.9914434628027,69.2911689591439,92.1758430792769,30.6048722171948,-51.9914434628027,0,0,0,0,0
-70.7040748482961,93.8425787534271,-26.2066398985986,51.9914434628026,69.13062665689,92.2130993128652,30.6186634582984,-51.9914434628026,0,0,0,0,0
-70.6236932036717,94.0151592465056,-26.2737486440762,51.9914434628026,69.0231768233798,92.4061036433611,30.6901205299174,-51.9914434628026,0,0,0,0,0
-70.7990052919401,94.1228161060157,-26.3156268988845,51.9914434628026,68.6339335205333,91.7209396664343,32.9386557022639,-51.9914434628027,0,0,0,0,0
-70.5652037809961,94.1949546250191,-26.3436954125105,51.9914434628026,68.3586873294587,91.8661451822007,32.9909746568779,-51.9914434628027,0,0,0,0,0
-70.6633603109778,94.2429529976637,-26.3623742734331,51.9914434628027,68.4673504628356,92.0179476832693,33.0456804188457,-51.9914434628026,0,0,0,0,0
-70.8003485393214,94.1987918380678,-26.3451885963388,51.9914434628026,68.6268131672606,92.1015323650729,33.0758068041169,-51.9914434628026,0,0,0,0,0
-70.8774839710973,94.1910571850824,-26.3421788085977,51.9914434628027,68.7099040708922,92.1642913531002,33.0984292452236,-51.9914434628026,0,0,0,0,0
-70.9272630793838,94.141580137218,-26.3229273004536,51.9914434628026,68.7619723799794,92.1731138236982,33.1016095988163,-51.9914434628027,0,0,0,0,0
-70.5513881902116,93.2636766413067,-28.5032373878145,51.9914434628026,68.802229761795,92.1782431668302,33.1034586597001,-51.9914434628026,0,0,0,0,0
-70.4800306756185,93.2573523341123,-28.5008347381279,51.9914434628026,68.7047633472715,92.2156828250903,33.1169555733301,-51.9914434628026,0,0,0,0,0
-70.862538900803,94.098268939089,-26.3060770489801,51.9914434628026,68.604113954416,92.2447075728817,33.1274194298906,-51.9914434628026,0,0,0,0,0
-70.4209726047213,93.1797071436021,-28.4713393909737,51.9914434628026,68.5820880112938,92.3569048662481,33.1678724488234,-51.9914434628026,0,0,0,0,0
-70.4625234406597,93.1560125604834,-28.4623394010609,51.9914434628026,68.6274810063493,92.4425427951644,33.1987540771752,-51.9914434628026,0,0,0,0,0
-70.5565375414422,93.1126297338926,-28.4458622999204,51.9914434628027,68.7290116309406,92.5402624069509,33.2339975751813,-51.9914434628026,0,0,0,0,0
-70.6614575405167,93.0571042027654,-28.4247754337944,51.9914434628026,68.8090122571417,92.630723275866,33.266628197324,-51.9914434628027,0,0,0,0,0
-70.7452504965108,93.016205532199,-28.4092448921431,51.9914434628027,68.8997158119598,92.6160519323686,33.2613356808526,-51.9914434628026,0,0,0,0,0
-70.7480211463355,92.8867248262582,-28.3600850764576,51.9914434628026,68.8039743362455,92.4880525834274,33.2151669180788,-51.9914434628027,0,0,0,0,0
-70.7338609414455,92.6616087084932,-28.2746437243995,51.9914434628026,68.7911988442378,92.2091951837997,33.1146167413466,-51.9914434628027,0,0,0,0,0
-71.7167107894604,92.9381241649249,-25.8553851421799,51.9914434628027,69.4096604201443,91.7890652309089,32.9632009032211,-51.9914434628026,0,0,0,0,0
-72.225907438859,92.1201773813539,-25.538258333193,51.9914434628027,69.835181271246,90.9537080253492,32.6623385410797,-51.9914434628026,0,0,0,0,0
-73.1437193198717,90.8880559440495,-25.0611870387461,51.9914434628027,71.1957696724248,90.544716136831,30.0016125624604,-51.9914434628026,0,0,0,0,0
-74.3614158156377,89.1866536899877,-24.4028754453717,51.9914434628026,72.3425642621848,89.0285620873992,29.4412095984008,-51.9914434628026,0,0,0,0,0
-75.8468085729275,88.1962750444471,-21.4435273118766,51.9914434628026,73.5502363748367,87.1546281477453,28.7477291608589,-51.9914434628026,0,0,0,0,0
-77.9500390000374,86.6439000481939,-18.2319693009019,51.9914434628026,75.8363749165619,85.3541299699607,25.5031836369154,-51.9914434628027,0,0,0,0,0
-79.4646592587106,84.6361871270532,-14.8023126941091,51.9914434628026,77.7668320277336,83.2450807644258,22.0910539858781,-51.9914434628026,0,0,0,0,0
-82.6393276443005,82.2810089064715,-11.1920156019158,51.9914434628027,80.4415366296361,79.9429354421982,20.7830240785863,-51.9914434628026,0,0,0,0,0
-85.528485411451,79.5079397598173,-10.0157873812884,51.9914434628027,83.9372201968113,77.9244279207444,17.3143113619129,-51.9914434628026,0,0,0,0,0
-87.2657999291505,78.2806697729985,-6.83052197484411,51.9914434628026,85.9665540162365,76.4054054050841,14.0115878757006,-51.9914434628026,0,0,0,0,0
-89.2251050883977,77.5098511388604,-3.83525422803068,51.9914434628027,88.0283930531774,75.5979803018073,10.9901017908194,-51.9914434628026,0,0,0,0,0
-91.1783556993069,76.1797904390641,-3.24256450247773,51.9914434628027,89.7417371004469,74.1241132588566,10.3418312705141,-51.9914434628027,0,0,0,0,0
-93.8220707838197,75.0052720802647,-2.7130124759504,51.9914434628027,91.7364509627418,73.8706524165855,7.54565207101382,-51.9914434628026,0,0,0,0,0
-96.2639992493792,75.0521319955783,-0.0747361068439864,51.9914434628026,93.7017486300697,72.9481400964138,7.12812048120894,-51.9914434628027,0,0,0,0,0
-99.1871876782305,74.8844740370431,1.822373460042,51.9914434628027,96.2717279047893,73.1932736995934,4.55760399062205,-51.9914434628026,0,0,0,0,0
-101.509691597878,74.4977993922295,2.51314326150371,51.9914434628027,98.5488278423613,72.7909793883301,4.37267294715451,-51.9914434628027,0,0,0,0,0
-103.946506606059,75.547060234373,5.38437661361652,51.9914434628026,101.268693402181,73.1303733634366,3.30290002661956,-51.9914434628027,0,0,0,0,0
-106.426082902787,75.656198034426,6.04676035342725,51.9914434628026,103.795465287371,74.2603982596384,0.471000270452541,-51.9914434628027,0,0,0,0,0
-108.544415376656,77.0640004903647,8.72569005988654,51.9914434628026,106.508331264064,74.8230223595963,-0.0733218011346086,-51.9914434628026,0,0,0,0,0
-110.453991771454,77.5729037380457,9.0812234134449,51.9914434628026,108.779958869455,75.4759988751644,-0.439907275999453,-51.9914434628027,0,0,0,0,0
-112.057664471483,79.0603999032622,11.5458495463001,51.9914434628027,110.782740231342,77.1583451610635,-2.8925035099735,-51.9914434628026,0,0,0,0,0
-113.114932102931,79.6818316789737,11.5780322698453,51.9914434628027,112.290089463309,78.0138187672869,-2.91504589983005,-51.9914434628026,0,0,0,0,0
-113.732782357285,81.3912925043275,13.6483450777622,51.9914434628026,113.306380508636,78.9128013818863,-2.76941045020389,-51.9914434628026,0,0,0,0,0
-114.549848009206,82.1713669316234,13.5067845544331,51.9914434628027,114.021948851602,80.7486164099641,-4.75790645869331,-51.9914434628027,0,0,0,0,0
-114.906434339155,83.1636245154414,13.1408011505843,51.9914434628027,114.8334438404,81.6811157290195,-4.49439209639774,-51.9914434628026,0,0,0,0,0
-115.045035670088,85.2859145669582,14.8649894715554,51.9914434628026,115.288719499331,82.6211915564359,-4.1387035255404,-51.9914434628026,0,0,0,0,0
-115.322737373455,86.3158263521471,14.4371795159995,51.9914434628027,115.712659063626,84.3646478939886,-6.0526163426799,-51.9914434628027,0,0,0,0,0
-116.013890933316,87.2906443598929,14.0860721297653,51.9914434628026,116.437090947019,85.1078136866965,-5.79266261520949,-51.9914434628026,0,0,0,0,0
-116.168866082623,88.1839820626538,13.673380752438,51.9914434628026,116.745990333989,85.8612145636768,-5.45634444367638,-51.9914434628026,0,0,0,0,0
-116.654995796592,88.8978903374579,13.3826875424449,51.9914434628026,117.240127044912,86.4313109752885,-5.22202876583243,-51.9914434628027,0,0,0,0,0
-116.861099559385,89.3067026286842,13.2011888516292,51.9914434628026,117.496979147699,86.713479233076,-5.10274828986536,-51.9914434628026,0,0,0,0,0
-117.138739884452,89.3944751849216,13.1878523333487,51.9914434628027,117.628891732129,86.6949753840607,-5.12546453407255,-51.9914434628027,0,0,0,0,0
-117.088015573089,89.2222088842882,13.2701582629865,51.9914434628026,117.514588112234,86.4896160057165,-5.22060221080681,-51.9914434628026,0,0,0,0,0
-117.366424025001,88.8208400367914,13.5098447039073,51.9914434628026,117.777900221594,87.0343054608247,-7.68420915199549,-51.9914434628027,0,0,0,0,0
-117.324880940292,89.2753948686213,15.9927317806253,51.9914434628026,117.999455794685,86.6357405819794,-7.92023619057529,-51.9914434628026,0,0,0,0,0
-117.362911488328,88.822599295669,16.2317194014573,51.9914434628026,117.933121109987,87.1869391511837,-10.3482836123108,-51.9914434628027,0,0,0,0,0
-117.371499055453,88.4762180384485,16.4117174739946,51.9914434628026,117.90337353219,86.8904362833458,-10.5005050329119,-51.9914434628026,0,0,0,0,0
-117.622175319362,88.2854018037624,16.5497616517043,51.9914434628026,118.147715744606,86.728539759779,-10.6203479572585,-51.9914434628027,0,0,0,0,0
-117.847886616635,88.2170233826656,16.6215845050212,51.9914434628026,118.25009409691,86.6467166503499,-10.6785852629479,-51.9914434628026,0,0,0,0,0
-117.918844098081,88.2883714900973,16.5953558722518,51.9914434628026,118.119861983503,86.6122930660913,-10.6780994055147,-51.9914434628027,0,0,0,0,0
-117.683216776408,88.3515872679433,16.5248669600032,51.9914434628026,117.806567421613,86.5647281945017,-10.6578356593224,-51.9914434628026,0,0,0,0,0
-117.587923888381,88.3857854867881,16.492098567653,51.9914434628027,117.713883418031,86.4830177807878,-10.6870469959797,-51.9914434628026,0,0,0,0,0
-117.448931291932,88.4389026918886,16.4429299767116,51.9914434628026,117.509508080114,86.3937022199831,-10.703362367021,-51.9914434628027,0,0,0,0,0
-117.307607838484,88.5045124967159,16.3873537830973,51.9914434628027,117.431204155608,86.2740677396718,-10.7534267655636,-51.9914434628026,0,0,0,0,0
-117.281262256394,88.4739085271318,16.3990537200039,51.9914434628027,117.330631576972,86.1027653369488,-10.8261650042081,-51.9914434628026,0,0,0,0,0
-117.312476806761,88.4170278213285,16.4331058050203,51.9914434628026,117.267198236873,85.9252258287683,-10.9071583694521,-51.9914434628027,0,0,0,0,0
-117.14473955247,88.3751443931838,16.4285768603887,51.9914434628026,117.120785006994,85.7500334964421,-10.9730752709528,-51.9914434628026,0,0,0,0,0
-117.211543147249,88.2236360170661,16.5165255533592,51.9914434628027,117.174605494292,85.5198164896411,-11.0987886273121,-51.9914434628027,0,0,0,0,0
-117.439264131922,88.0383368943179,16.648497526954,51.9914434628027,117.167140357282,86.2616172347565,-13.4331248350237,-51.9914434628026,0,0,0,0,0
-117.587404368818,87.905104274092,16.741993867128,51.9914434628026,117.269258501009,86.0953468279886,-13.5354570079787,-51.9914434628026,0,0,0,0,0
-117.413212644556,87.8056834735613,16.764257558314,51.9914434628027,117.130204335991,85.9649578885663,-13.5773937475832,-51.9914434628026,0,0,0,0,0
-117.454308264225,87.7726816760788,16.7882310293624,51.9914434628026,117.106034653597,85.8986178381188,-13.6067354745395,-51.9914434628026,0,0,0,0,0
-117.482317184847,87.7633575490802,16.7977967988444,51.9914434628027,117.122790032885,85.849408866193,-13.6346677654139,-51.9914434628026,0,0,0,0,0
-117.394172710252,87.766862691036,16.7810517724134,51.9914434628026,116.961426658482,85.8292294011286,-13.6159379244814,-51.9914434628026,0,0,0,0,0
-117.257189195019,87.762045873657,16.7603599583664,51.9914434628027,116.787339799282,85.8231132230127,-13.5878438739696,-51.9914434628027,0,0,0,0,0
-117.191434899853,87.7795748852622,16.7403035609235,51.9914434628026,116.820772408593,84.9387093127865,-11.3308819672344,-51.9914434628026,0,0,0,0,0
-117.26292606447,86.8406410917074,14.5123049246417,51.9914434628026,116.625498476337,84.926789253341,-11.3021984448924,-51.9914434628027,0,0,0,0,0
-117.171416121843,86.8155290815229,14.5096899743657,51.9914434628026,116.412259818092,84.8571497406399,-11.2986842662055,-51.9914434628026,0,0,0,0,0
-116.989262970966,86.5996360068084,14.5880574002633,51.9914434628027,116.205419409773,84.7215732233827,-11.3278642842182,-51.9914434628026,0,0,0,0,0
-116.643714201231,86.2507347539114,14.7019686150566,51.9914434628026,115.894171221031,84.3842427893739,-11.433574251496,-51.9914434628027,0,0,0,0,0
-116.354562492208,85.7955744949016,14.873399644389,51.9914434628026,115.762924169448,83.0701784777769,-9.35443430088662,-51.9914434628027,0,0,0,0,0
-115.887548683312,85.2230194036856,15.0603654604293,51.9914434628027,115.421362708232,82.6762705770881,-9.47260603109971,-51.9914434628026,0,0,0,0,0
-115.487237663328,84.4157169717927,15.3602610100304,51.9914434628027,114.913274497932,82.2274776077887,-9.57573030380192,-51.9914434628026,0,0,0,0,0
-114.835757396064,82.6654385435514,13.3513032753889,51.9914434628026,113.832238277755,81.6931312500165,-9.58384310839224,-51.9914434628026,0,0,0,0,0
-113.596939036214,81.9417517202898,13.3799578292779,51.9914434628027,112.549580506783,80.2949426147055,-7.26610894461399,-51.9914434628027,0,0,0,0,0
-112.393632036622,80.4904928403629,11.0658420079022,51.9914434628027,111.066694969371,78.9781811796446,-4.85684053466307,-51.9914434628027,0,0,0,0,0
-110.703006773259,79.1820889077112,8.56169193856848,51.9914434628026,109.287113897585,78.7083951792021,-4.55651634648828,-51.9914434628026,0,0,0,0,0
-109.418984293832,78.9248053098345,8.33688763079139,51.9914434628027,107.819644593043,77.5689155994265,-2.06870662287899,-51.9914434628026,0,0,0,0,0
-107.795166404563,77.7820842960442,5.7754519988059,51.9914434628026,105.924592455099,76.4160455026348,0.515534958480583,-51.9914434628027,0,0,0,0,0
-105.94803115367,76.8182115559136,3.10702688717579,51.9914434628027,104.098536928171,75.4840073490576,3.14602394094909,-51.9914434628026,0,0,0,0,0
-104.257283258486,76.0655372668851,0.431366357829659,51.9914434628027,102.326289344614,74.7278148217047,5.79776322569156,-51.9914434628027,0,0,0,0,0
-101.904816938548,75.4909678163619,-2.41420176239025,51.9914434628026,100.162044525412,74.4535728390634,7.80728308744528,-51.9914434628027,0,0,0,0,0
-100.174370742115,74.9584353634989,-5.35923360160316,51.9914434628027,98.5784478522153,74.2336729027914,10.3903645189435,-51.9914434628026,0,0,0,0,0
-98.471138841702,75.6112098115769,-5.65192804833211,51.9914434628027,96.5261802744456,74.1811689870542,13.0520494272994,-51.9914434628026,0,0,0,0,0
-95.7691801165059,75.5254289201417,-8.28420432868465,51.9914434628026,93.9364363998639,74.4867096110804,15.8691446200483,-51.9914434628027,0,0,0,0,0
-94.6603709889476,75.6519476196115,-11.0136561872134,51.9914434628027,92.9266299295686,75.8948987385222,16.4667553872989,-51.9914434628026,0,0,0,0,0
-93.2788089876385,77.0076147206298,-11.601435671856,51.9914434628027,90.8759569612852,76.7535559497228,19.4920822065345,-51.9914434628026,0,0,0,0,0
-90.8714381749298,77.7591279457691,-14.5858638159012,51.9914434628026,88.1880448660975,78.0989506854206,22.6897872628366,-51.9914434628026,0,0,0,0,0
-87.6940974426646,78.9381741613603,-17.7323358471661,51.9914434628027,84.635621099735,79.798423448715,25.9866822507198,-51.9914434628026,0,0,0,0,0
-85.1203563082376,81.2105870293505,-18.6585300790208,51.9914434628027,81.6592755741602,81.5824614039002,29.265845197285,-51.9914434628027,0,0,0,0,0
-82.9286785791179,82.8233080365614,-21.9252513066767,51.9914434628026,79.2797505823655,83.36425080245,32.4905860659269,-51.9914434628027,0,0,0,0,0
-81.2518624525679,85.3667468716788,-22.9207938561074,51.9914434628027,77.7199720530693,86.2692925778541,33.5154375137638,-51.9914434628026,0,0,0,0,0
-78.6083519074494,87.3277053997683,-26.253716087064,51.9914434628026,75.9077891361756,89.0050885479385,34.4739223809685,-51.9914434628026,0,0,0,0,0
-76.7957803810477,90.190249004662,-27.3382340772289,51.9914434628027,73.9600629068948,90.6002155879727,37.5115130842115,-51.9914434628026,0,0,0,0,0
-75.4997808415056,92.6298170416503,-28.2625801659121,51.9914434628026,73.0402763615674,92.559470474059,38.1758462892605,-51.9914434628027,0,0,0,0,0
-74.3376546774716,94.7233094518418,-29.0587600406471,51.9914434628026,72.6631213227945,94.6333671612797,36.4456269051189,-51.9914434628026,0,0,0,0,0
-72.9420418173224,96.5202651810902,-29.7462013991036,51.9914434628027,71.1082760004379,95.5873478303627,36.7820237863394,-51.9914434628026,0,0,0,0,0
-71.2780245672709,97.5390438861764,-30.1382046877369,51.9914434628026,69.4786272361522,95.9476980208651,36.909384337704,-51.9914434628026,0,0,0,0,0
-70.0493844121295,98.1530224273406,-30.3753904764708,51.9914434628026,68.4140409930278,96.7996722773632,34.7787747617285,-51.9914434628026,0,0,0,0,0
-68.9729717139129,98.1674122838716,-30.3809585624526,51.9914434628026,67.2039928695036,96.5501157054664,34.6876396973238,-51.9914434628026,0,0,0,0,0
-68.4259827636813,98.8273142475657,-28.1621498562797,51.9914434628026,66.6115836877118,97.0220252421171,32.4095477368063,-51.9914434628026,0,0,0,0,0
-67.9599080126289,98.3837588868804,-27.9863088628364,51.9914434628026,66.0557646908915,96.5728092817174,32.2409972135915,-51.9914434628027,0,0,0,0,0
-67.3213535309844,97.7374665248169,-27.7308615877582,51.9914434628026,65.3413138662582,96.0162157563666,32.0326062414543,-51.9914434628026,0,0,0,0,0
-67.1237112821394,97.0002211157183,-27.4404883405914,51.9914434628027,65.6871716486047,96.2429575235999,29.6398065483083,-51.9914434628027,0,0,0,0,0
-67.4909563989802,97.3612745537875,-25.0764211780419,51.9914434628027,65.8111934087994,95.7719308965104,29.4593612374227,-51.9914434628027,0,0,0,0,0
-67.9889308581812,97.001151529154,-24.9319301888839,51.9914434628026,66.4109046812466,95.3435305556902,29.2955253652944,-51.9914434628027,0,0,0,0,0
-68.1545306764007,96.7330749082286,-24.8245275534667,51.9914434628027,66.616357315965,94.9477933571837,29.1443997169338,-51.9914434628026,0,0,0,0,0
-68.4437619373865,96.4230049309361,-24.7004598834159,51.9914434628027,67.3577646429504,95.3791682020435,26.8053320747733,-51.9914434628027,0,0,0,0,0
-68.6411739474624,96.2392300794074,-24.6270038811259,51.9914434628026,67.647751983046,95.1294909532785,26.7078550453272,-51.9914434628027,0,0,0,0,0
-68.8834483549212,96.0474531915771,-24.5504086280153,51.9914434628026,68.04474047033,94.8554064168581,26.6009433627828,-51.9914434628026,0,0,0,0,0
-68.5852629463585,95.016192024843,-26.663649056932,51.9914434628027,67.8460112163167,93.844637464242,28.724095063499,-51.9914434628026,0,0,0,0,0
-68.8637447768142,94.8389725680432,-26.5945360614814,51.9914434628026,68.1719881562549,93.7681162455779,28.6949874093446,-51.9914434628027,0,0,0,0,0
-68.9444101588165,94.6991181254427,-26.5400224197806,51.9914434628027,68.3371869785257,93.7654453681078,28.6939715428585,-51.9914434628026,0,0,0,0,0
-68.9847510573078,94.5190246265193,-26.469858604177,51.9914434628026,68.4167868869579,93.7017394379961,28.6697430039866,-51.9914434628026,0,0,0,0,0
-68.9693960808815,94.4411442082793,-26.4395283551239,51.9914434628026,68.4634717427889,93.6863672057987,28.6638972229375,-51.9914434628026,0,0,0,0,0
-68.9565520801235,94.4005607784158,-26.4237260209912,51.9914434628026,68.4395369999113,93.7046101142189,28.6708346941597,-51.9914434628026,0,0,0,0,0
-69.1444715039152,94.340500839657,-26.4003433380498,51.9914434628027,68.5219608861907,93.6232568583846,28.6398997632319,-51.9914434628027,0,0,0,0,0
-69.1554169603011,94.3508872562421,-26.4043867155912,51.9914434628026,68.5519723772128,93.6033119710003,28.6323165479808,-51.9914434628027,0,0,0,0,0
-69.4068056828301,94.2210706836777,-26.3538583288683,51.9914434628027,68.6839710062076,93.2977930901393,28.5161990323432,-51.9914434628027,0,0,0,0,0
-69.612544454268,94.0726095171371,-26.2960951603293,51.9914434628026,68.8036414360057,92.971513254362,28.3922752269194,-51.9914434628027,0,0,0,0,0
-69.5339001976899,93.9655886780044,-26.2544698270364,51.9914434628027,68.6514194939537,92.4864957217642,28.2082040083844,-51.9914434628027,0,0,0,0,0
-69.9332396717895,93.515390999402,-26.0794904255561,51.9914434628027,69.0922997103123,91.8001434276915,27.9479643671352,-51.9914434628026,0,0,0,0,0
-70.6444607558788,92.8476491882472,-25.8202849736042,51.9914434628026,69.9300039345183,90.9262189281739,27.6168974865501,-51.9914434628026,0,0,0,0,0
-71.5186335354581,91.7489329320189,-25.3944500518194,51.9914434628026,71.1712371779668,90.6062634339526,24.9521435426587,-51.9914434628026,0,0,0,0,0
-72.7263002212948,90.3868428058127,-24.8672444433657,51.9914434628027,72.3137974421027,88.9999294346001,24.3306137653365,-51.9914434628027,0,0,0,0,0
-73.3928589287106,88.7313643320592,-24.2266640228445,51.9914434628026,72.998049374763,87.1680468407115,23.6209548152717,-51.9914434628026,0,0,0,0,0
-75.6576659917485,87.2182721129163,-21.0570604693762,51.9914434628026,74.951396590304,84.684982711891,22.65487232773,-51.9914434628026,0,0,0,0,0
-76.9567693674392,84.5203033048667,-19.9865980784175,51.9914434628027,76.8483411098841,82.8411036250603,19.3153908714936,-51.9914434628027,0,0,0,0,0
-79.4743134604466,81.3503510862936,-18.7150628507072,51.9914434628027,79.8893982541789,79.5742588719457,17.9930184242335,-51.9914434628026,0,0,0,0,0
-82.5332617806805,79.3908889801767,-15.2697160789071,51.9914434628026,83.2944284746396,77.5939025559074,14.5161284172883,-51.9914434628026,0,0,0,0,0
-84.9605333872146,76.9219967997704,-14.2315371977915,51.9914434628026,85.8667115801284,74.9716042665219,13.3955006752046,-51.9914434628026,0,0,0,0,0
-86.9464784300437,75.2802380647552,-13.5288471574134,51.9914434628026,87.91533472529,74.2070498205253,10.3785761732614,-51.9914434628027,0,0,0,0,0
-88.8906795028113,74.0389952390053,-12.9899675797557,51.9914434628026,89.6441503726409,72.7117483537087,9.71083842576275,-51.9914434628027,0,0,0,0,0
-91.7730356888324,73.7698422870867,-10.1844977249158,51.9914434628027,92.3695960151333,71.4663170485342,9.14561004169333,-51.9914434628027,0,0,0,0,0
-94.9263067132033,73.7419784065329,-7.48767467186363,51.9914434628027,95.0384639779619,71.4871783158843,6.45747161657442,-51.9914434628026,0,0,0,0,0
-98.5288231806824,73.7968361380488,-4.83345500554353,51.9914434628027,98.4749507742908,71.7164803546775,3.80828278596624,-51.9914434628026,0,0,0,0,0
-101.80449416172,74.2111260453557,-2.17651217820614,51.9914434628026,101.807303474586,71.5805628904478,2.85277789024537,-51.9914434628027,0,0,0,0,0
-104.871040113566,75.1386591283495,0.814172572682975,51.9914434628026,104.676786029178,72.809078465021,-0.122175800421847,-51.9914434628027,0,0,0,0,0
-107.511311461536,75.4752287701199,1.38518852967039,51.9914434628027,107.59333904306,73.5176703930144,-0.748123241344928,-51.9914434628027,0,0,0,0,0
-110.080849552197,76.8478828302254,4.11525740846024,51.9914434628027,110.316274102308,74.2860400975236,-1.24764516790656,-51.9914434628027,0,0,0,0,0
-111.922780631264,78.4130215336482,6.56778362806697,51.9914434628026,112.330844942948,76.128912563552,-3.67502194451395,-51.9914434628026,0,0,0,0,0
-113.017287916522,79.0532382522899,6.57472920834205,51.9914434628027,113.457232430616,77.0767635972213,-3.57679972272444,-51.9914434628026,0,0,0,0,0
-113.970937510622,80.967069946779,8.60969305898202,51.9914434628026,114.6579024669,78.2884144453589,-3.33854901613165,-51.9914434628026,0,0,0,0,0
-115.053602297556,81.8979959542788,8.42507545365295,51.9914434628026,115.812697444764,80.4738781779307,-5.24502334678351,-51.9914434628027,0,0,0,0,0
-115.508106596261,83.7932721655056,10.3022434702869,51.9914434628026,116.317294053645,81.5790266340611,-4.81408051382586,-51.9914434628026,0,0,0,0,0
-116.075586556545,85.711102103672,12.1701553200958,51.9914434628027,116.983961282344,83.6046324703083,-6.62284589292118,-51.9914434628027,0,0,0,0,0
-116.470385084132,86.7107657420833,11.7434500890464,51.9914434628027,117.340842545852,84.5998524280521,-6.17309001152167,-51.9914434628026,0,0,0,0,0
-116.670806302129,87.5863182500337,11.3359870547875,51.9914434628027,117.560716410014,85.4176924512264,-5.78165287909202,-51.9914434628027,0,0,0,0,0
-117.114210269878,88.2995557436621,11.0300608959529,51.9914434628027,117.803812248924,86.1889837481044,-5.40850136752529,-51.9914434628026,0,0,0,0,0
-117.857777228411,88.8511282627412,10.825683963095,51.9914434628026,118.289988516229,86.8278509502682,-5.28761248305906,-51.9914434628026,0,0,0,0,0
-118.049589133497,89.7914780571747,11.8790505180139,51.9914434628026,118.641099111959,87.2227755713351,-5.1193106341128,-51.9914434628026,0,0,0,0,0
-118.704943994729,90.059661287806,11.7672375749005,51.9914434628027,119.205623511468,87.4643733951594,-5.01641244207025,-51.9914434628026,0,0,0,0,0
-119.247807670755,90.090149676972,11.7545261539887,51.9914434628027,119.647989743175,87.3803336992919,-5.05220057563192,-51.9914434628026,0,0,0,0,0
-119.18691681604,90.0276133980325,11.780599176761,51.9914434628026,119.723045657839,88.0873331103814,-7.37053932857893,-51.9914434628026,0,0,0,0,0
-118.82378314445,90.6158308365245,14.1434089713064,51.9914434628026,119.632361456856,87.7314585596632,-7.52133799049288,-51.9914434628026,0,0,0,0,0
-118.777649069181,90.2443476809853,14.296669958316,51.9914434628026,119.451810984671,87.4405994804166,-7.64464642066436,-51.9914434628027,0,0,0,0,0
-118.544343270225,89.747897001489,14.5014762749489,51.9914434628027,119.136706435472,87.9366447400633,-10.0473767152874,-51.9914434628026,0,0,0,0,0
-118.410858735254,89.7036704415178,15.9103757748617,51.9914434628027,119.288588103673,87.4899610801274,-10.2355164171013,-51.9914434628026,0,0,0,0,0
-118.723371273444,89.3523535803497,16.1431308899433,51.9914434628027,119.580602860803,87.128589357281,-10.6010883694053,-51.9914434628026,0,0,0,0,0
-118.935482898156,89.1043598289886,16.3092575975707,51.9914434628026,119.740725079738,86.806166220316,-10.8061401276997,-51.9914434628026,0,0,0,0,0
-118.966024887707,89.7880665802783,18.6968104461269,51.9914434628026,120.033494519756,86.5378853060878,-11.0026651681146,-51.9914434628027,0,0,0,0,0
-119.009432284278,89.5898483646714,18.8131403245462,51.9914434628027,119.714384318776,87.1275517072374,-13.3875273174939,-51.9914434628026,0,0,0,0,0
-119.267437366162,89.5311780976021,18.8859135388992,51.9914434628026,119.84086176766,86.8557757114294,-13.5624576175688,-51.9914434628027,0,0,0,0,0
-119.516042702303,89.47257392134,18.9580512168175,51.9914434628026,119.971129841311,86.6723754038434,-13.6889957792517,-51.9914434628026,0,0,0,0,0
-119.51275014716,89.4482707186393,18.9712662060079,51.9914434628027,119.823827784653,86.5568993536491,-13.7295852212307,-51.9914434628026,0,0,0,0,0
-119.537787877483,89.4046726487552,18.9999188489558,51.9914434628027,119.822966648204,86.4046511483341,-13.8159409201545,-51.9914434628026,0,0,0,0,0
-119.43161217997,89.3493172950065,19.0141002304362,51.9914434628027,119.795417409801,86.3246316025409,-13.8564918000744,-51.9914434628027,0,0,0,0,0
-119.430715811359,89.3223681412346,19.0291324130165,51.9914434628026,119.636370304218,86.2527411400727,-13.8687900346254,-51.9914434628026,0,0,0,0,0
-119.30034701238,89.277685280214,19.0330928992305,51.9914434628026,119.496167712913,86.2715133288704,-13.8332437760949,-51.9914434628027,0,0,0,0,0
-119.11743327269,89.2133767617462,19.0391850243085,51.9914434628027,119.512775926084,86.2978429900399,-13.8214340203841,-51.9914434628026,0,0,0,0,0
-118.89032995637,89.1252615759794,19.0506952369185,51.9914434628026,119.36217378579,86.2751046133128,-13.8074440114736,-51.9914434628026,0,0,0,0,0
-118.734065380894,89.0853757270784,19.046831535159,51.9914434628026,119.199176744991,86.3475042490171,-13.7385049783276,-51.9914434628026,0,0,0,0,0
-118.702740555648,89.0386438344703,19.0671872061922,51.9914434628027,119.047792926559,86.3615231618621,-13.7043214422295,-51.9914434628026,0,0,0,0,0
-118.671709146768,89.051940082739,19.0547876867566,51.9914434628027,118.98748951965,86.4441314460467,-13.6484593209569,-51.9914434628026,0,0,0,0,0
-118.721892177996,89.04743971957,19.0655584073895,51.9914434628026,118.967217212518,86.4804979122995,-13.6250131395939,-51.9914434628027,0,0,0,0,0
-118.66416501802,89.0812645209022,19.037549144239,51.9914434628027,119.066507727942,85.6011391029679,-11.3734769295317,-51.9914434628027,0,0,0,0,0
-118.58265130661,89.0743628538282,19.0278729421912,51.9914434628027,119.004282144198,85.6252222539825,-11.3496861152339,-51.9914434628026,0,0,0,0,0
-118.609937500285,88.1459668111929,16.783506557624,51.9914434628026,118.753458414672,85.5731275875561,-11.3356256666858,-51.9914434628026,0,0,0,0,0
-118.639555501491,88.1409322607284,16.7911200593891,51.9914434628026,118.750042374815,85.614487995018,-11.3125835811934,-51.9914434628027,0,0,0,0,0
-118.52358097696,88.0370374677158,16.8282096975062,51.9914434628026,118.547067037689,85.5687617369947,-11.3030342440927,-51.9914434628026,0,0,0,0,0
-118.149910339475,87.9087747200257,16.8343676000496,51.9914434628026,118.17540923886,85.4556680600381,-11.3003761856627,-51.9914434628026,0,0,0,0,0
-118.025241108698,87.7629167501793,16.8905810045571,51.9914434628026,117.991452095176,85.3412844463648,-11.32923964081,-51.9914434628027,0,0,0,0,0
-117.905983700487,87.5727370420077,16.9702647831523,51.9914434628026,117.918205737134,85.227728124799,-11.3761399706806,-51.9914434628026,0,0,0,0,0
-117.564793853613,87.357584387144,17.0222310015173,51.9914434628027,117.54832034459,85.0596893032538,-11.3984400827456,-51.9914434628027,0,0,0,0,0
-117.438074954774,87.1817596780865,17.090205554482,51.9914434628027,117.580655353052,83.9976770696085,-9.23447055597124,-51.9914434628026,0,0,0,0,0
-117.240450671728,87.0081410997024,17.1429198959859,51.9914434628026,117.220341000365,83.8503881888271,-9.24472978540544,-51.9914434628027,0,0,0,0,0
-117.101086112953,86.8635217725743,17.1904926130863,51.9914434628027,117.008586922454,83.750398327944,-9.25661335818727,-51.9914434628026,0,0,0,0,0
-117.222501825403,85.8832824409522,14.9933755869596,51.9914434628026,116.728364623536,83.7725168409497,-9.1944639153164,-51.9914434628026,0,0,0,0,0
-116.848127181999,85.9256145158814,14.9015893212496,51.9914434628027,116.389264207702,83.9185640249422,-9.0615519951037,-51.9914434628026,0,0,0,0,0
-116.2787437797,85.9645848768098,14.7765901509788,51.9914434628027,115.855261353439,83.1519361431818,-6.65440297449399,-51.9914434628027,0,0,0,0,0
-116.051881896128,85.134884354098,12.4447941465845,51.9914434628026,115.308048259126,83.3301113191343,-6.47757650991194,-51.9914434628026,0,0,0,0,0
-115.619079562257,85.2015191283342,12.3351313693852,51.9914434628026,114.75547259791,82.615751983514,-4.05542643380908,-51.9914434628026,0,0,0,0,0
-115.169741737345,85.3511758037418,12.1857424456045,51.9914434628026,114.205229787423,82.8346582793918,-3.87039430757151,-51.9914434628027,0,0,0,0,0
-114.695965352396,84.591869178244,9.78838226830466,51.9914434628027,113.541469614684,82.1558062560527,-1.42968600555457,-51.9914434628026,0,0,0,0,0
-113.923712650839,84.8353265214989,9.5521649393855,51.9914434628026,112.781834897126,82.4386430148241,-1.20085164711967,-51.9914434628027,0,0,0,0,0
-113.505942832095,84.1179737141202,7.15903326032344,51.9914434628027,112.107028871082,81.7393310420141,1.21562534288509,-51.9914434628027,0,0,0,0,0
-113.028930832112,84.4090134317696,6.96256761173595,51.9914434628027,111.644307068702,82.0412945079465,1.39609592307954,-51.9914434628027,0,0,0,0,0
-112.554913318142,83.7785575942943,4.53728934777853,51.9914434628027,111.194132513192,81.4152557960108,3.79990445585126,-51.9914434628027,0,0,0,0,0
-112.360654546248,84.0381525304318,4.40407606434254,51.9914434628026,111.121865326489,81.7084834671034,3.92110901525803,-51.9914434628026,0,0,0,0,0
-112.037305175085,84.3483295838614,4.23581365624184,51.9914434628027,111.192210107319,82.0581401043407,4.04790144179549,-51.9914434628026,0,0,0,0,0
-112.012759680634,83.661013964641,1.90510299535538,51.9914434628026,111.050563642893,82.3247973316834,4.16516683003008,-51.9914434628026,0,0,0,0,0
-111.379703396282,83.8050911812263,1.77130452083991,51.9914434628026,110.558688740399,81.6529964686743,6.5426891809283,-51.9914434628027,0,0,0,0,0
-110.84352390917,84.0346384572181,1.62065044345039,51.9914434628026,110.158561093613,81.9423060184277,6.6867420600944,-51.9914434628026,0,0,0,0,0
-110.476344844008,84.2043471930204,1.51587417725735,51.9914434628026,109.824457143082,82.21415695975,6.81432906929494,-51.9914434628026,0,0,0,0,0
-110.264357670775,83.4892054673672,-0.815391760822235,51.9914434628027,109.698156877946,82.565600068025,6.95048802018032,-51.9914434628027,0,0,0,0,0
-109.7893859262,83.7874398973331,-0.972044301984386,51.9914434628026,109.355102558595,82.9391992752274,7.10782568058371,-51.9914434628027,0,0,0,0,0
-109.402554149868,83.9553504026447,-1.06907832621209,51.9914434628027,108.872448232562,82.6670827325235,8.71654987384561,-51.9914434628027,0,0,0,0,0
-109.169453386551,84.1831720752496,-1.17009410371295,51.9914434628026,108.562446455312,83.0624429851134,8.88419805579472,-51.9914434628026,0,0,0,0,0
-109.134248511293,84.3900744450991,-1.24478666538391,51.9914434628026,108.540794262327,83.4125947064164,9.03241984219321,-51.9914434628026,0,0,0,0,0
-109.114429504159,84.5746432622315,-1.31023878553212,51.9914434628027,108.490142539189,83.6555749211558,9.13514067722112,-51.9914434628027,0,0,0,0,0
-109.123401709403,84.7508432390856,-1.37039429063425,51.9914434628026,108.420571236229,83.822570510852,9.20567737405785,-51.9914434628027,0,0,0,0,0
-109.082751846295,84.8735433464645,-1.41594112296332,51.9914434628027,108.453664236995,83.9505333351069,9.25969432401938,-51.9914434628027,0,0,0,0,0
-108.998121432974,84.8610461090712,-1.74824059409953,51.9914434628026,108.356010837481,84.0495441939462,9.30147066171251,-51.9914434628026,0,0,0,0,0
-109.031387778386,84.9728370342448,-1.79615162095212,51.9914434628027,108.413481144297,84.0502296558782,9.3017598260299,-51.9914434628027,0,0,0,0,0
-108.909336892658,85.1171835234212,-1.85798873546126,51.9914434628027,108.468006414986,84.0686656759725,9.30953682630616,-51.9914434628026,0,0,0,0,0
-108.919569207943,85.247841253445,-1.91393661443688,51.9914434628027,108.427964138693,84.0916410597974,9.3192279077776,-51.9914434628026,0,0,0,0,0
-108.927997132706,85.4061269251392,-1.98168389524303,51.9914434628026,108.489289931425,84.2030199828616,9.36619551097967,-51.9914434628026,0,0,0,0,0
-109.066105309672,85.4755677206906,-2.01139457963537,51.9914434628027,108.614426198301,84.2035488243576,9.36641847080282,-51.9914434628026,0,0,0,0,0
-109.171395479961,85.585700298601,-2.05850279209471,51.9914434628026,108.684807288835,84.268065039251,9.39361513987558,-51.9914434628027,0,0,0,0,0
-109.268916469133,85.6598461732326,-2.09020940557091,51.9914434628027,108.740323105188,84.2644975207769,9.39211143566801,-51.9914434628026,0,0,0,0,0
-109.357562216196,85.6633552169932,-2.0917097903519,51.9914434628026,108.802275667282,84.2772592348978,9.39749038666593,-51.9914434628026,0,0,0,0,0
-109.305575359842,85.7329594038695,-2.12146778212628,51.9914434628026,108.77945869209,84.2349275618699,9.37964694909801,-51.9914434628027,0,0,0,0,0
-109.17348202487,85.6881172258535,-2.10229701290549,51.9914434628027,108.702441689358,84.2289578627306,9.37713039850663,-51.9914434628026,0,0,0,0,0
-109.204733942759,85.6814433373208,-2.0994436053172,51.9914434628027,108.673425272919,84.2036013540721,9.36644061733032,-51.9914434628027,0,0,0,0,0
-109.235763012645,85.6175042790082,-2.07210380189093,51.9914434628026,108.61860685797,84.2189580754945,9.37291481890812,-51.9914434628027,0,0,0,0,0
-109.256410106806,85.5691227509059,-2.05141288065896,51.9914434628027,108.606425996402,84.2152752149873,9.37136220588885,-51.9914434628027,0,0,0,0,0
-109.172424405227,85.5211750193438,-2.03090456317103,51.9914434628026,108.432795083022,84.2189031061066,9.37289164518437,-51.9914434628026,0,0,0,0,0
-109.260260615784,85.4692709914752,-2.00870074188425,51.9914434628027,108.452248599464,84.1471077417928,9.34262031060793,-51.9914434628027,0,0,0,0,0
-109.18145158982,85.4262104131811,-1.99027738751306,51.9914434628026,108.434475667801,84.1038209154295,9.32436504998178,-51.9914434628026,0,0,0,0,0
-109.238415104571,85.3853244375054,-1.97278219452047,51.9914434628026,108.485953593798,84.080113634535,9.31436571700539,-51.9914434628026,0,0,0,0,0
-109.118045969553,85.3379899978472,-1.9525249428172,51.9914434628027,108.451785518712,84.0460361909196,9.29999078708447,-51.9914434628027,0,0,0,0,0
-109.051069767075,85.2913923942323,-1.93258011886772,51.9914434628027,108.40981778772,83.9711417553865,9.26839114053741,-51.9914434628026,0,0,0,0,0
-108.916969800299,85.2335095255253,-1.90780088387532,51.9914434628027,108.321250400196,83.940498710722,9.25545942077045,-51.9914434628026,0,0,0,0,0
-108.701978169663,85.160360391056,-1.87647974889761,51.9914434628027,108.172728400164,83.9278178518655,9.25010748452698,-51.9914434628027,0,0,0,0,0
-108.454616122008,85.0744953257708,-1.83970444710745,51.9914434628026,108.033600653805,83.8228322616172,9.2057878957179,-51.9914434628027,0,0,0,0,0
-108.116612351372,84.9846114022401,-1.80119679362995,51.9914434628026,107.775055348537,83.7663826449284,9.18194984443938,-51.9914434628027,0,0,0,0,0
