JMW9912/AVATAR/install/dynamixel_control/share/dynamixel_control/data/csv/poppy/.data/waist_test/3DoF (3O)/0410_1411_WMCA_Dance_three_DOF_waist__poppy_smpl_motor_degree.csv
theta1,theta2,theta3,theta4,theta5,theta6,theta7,theta8,theta9,theta10,theta11,theta12,theta13,theta14,theta15,frame
59.26585508352457,41.39993617972136,-74.69118613462076,61.8107772129983,-52.1594108718241,32.58665426170997,73.38836860046138,-82.45810280819566,-90.0,0.6600833544861594,-4.975333174475474,-1.2148182201712452,1.1558548581943344,-0.023586464409511298,0.10086228904518892,0
68.5326992308172,35.93550218307668,-86.81431216714445,56.58410199984828,-63.26647058204895,28.594934293494077,86.57053589006648,-74.55093948868786,-30.92872273812689,0.053666891922505705,-6.191323934672109,-1.5794654912603847,0.22941722562729827,-0.006313151086067775,0.024900060390881225,1
69.97307346745288,36.988637834077,-87.54476379739017,54.002829371749606,-63.06275780192738,29.75568593455698,85.44780670127562,-70.61806244738682,-35.28872769267613,0.35621008059551423,-6.882471335017854,-1.3146581877689218,0.5387779949108525,-0.012148137242658862,0.06508882079810101,2
74.60096722417121,46.44360246291228,-89.67601690566818,40.46763027421205,-69.76133727763312,38.27656612840125,88.24013975786723,-54.38917007978785,-80.34095365078878,0.6714011170784588,-6.0714878007679784,-0.23939131635551958,0.8775838288493759,-0.0029723883596152376,0.09336928879516185,3
77.80193355794763,56.29961609476294,-90.73923799358876,28.33562498402104,-73.98568737797986,46.58238442051591,89.40357551746082,-41.50907184876125,-90.0,1.113722302630533,-5.042665929981131,0.9794284456153214,1.1669573390151013,0.02107526252397583,0.10276180412431768,4
78.9594609907766,60.27542350860149,-90.28157044304301,28.298822862089594,-75.59488740631585,53.652368160374074,88.65473381965789,-31.882030369724152,-90.0,1.3507619915640523,-4.403916781951703,1.8250566266628376,1.4490841951956308,0.047718154400389866,0.1110066149605291,5
77.59920069081078,62.20918598862958,-85.15103914552213,28.298822862089697,-74.98135701147795,55.97589979386622,86.5814571571486,-29.63336704431802,-90.0,1.529901776997063,-4.551753664670595,2.1944211976320003,1.1947491148721463,0.04691581249036394,0.09463208008167445,6
77.19626839044426,61.35974779890006,-84.77466429210122,28.29882286208985,-75.38367501794636,54.6256880279322,86.05343936903745,-28.99485512523779,-90.0,1.7305760590804133,-4.7976463996699374,2.0994901397670738,1.2711627043786282,0.04794523818012562,0.10616612622763892,7
76.51249201590247,59.56354935928179,-84.11233177378732,28.298822862089697,-75.70440517384216,51.76806083815692,88.05998247271846,-30.904608291884553,-90.0,2.0260034544809318,-4.60033958524314,1.5340561566321544,1.2828783400813464,0.035621051418715015,0.10283364802605738,8
75.81382594406531,57.90792043807569,-83.33225239939169,28.298822862089697,-75.90671209228711,51.135445139803345,87.69117382626712,-29.902306913271577,-90.0,2.25243958835057,-4.771110604427213,0.566395192601425,1.275925952502456,0.013842200475781568,0.10634595541434604,9
74.14538129559556,56.76990721854023,-82.37152118663937,28.29882286208985,-75.66924468218377,50.74946912852602,89.77574121686074,-29.80726779178602,-90.0,2.406466437331687,-4.8472681841418925,-0.4803207470146785,1.288311239157697,-0.009609941569276042,0.10936476216702784,10
71.94562641683588,55.247727639358175,-81.04358687412933,28.298822862089697,-74.0397292585394,49.59607501857789,88.90233821072137,-30.889985192618262,-90.0,2.44431387059866,-4.520406669301247,-1.47895705192068,1.229303520973729,-0.030792020074439857,0.0975208160053067,11
70.62691586510621,54.902939524320736,-80.46480734930438,28.298822862089978,-72.6970616289685,50.12055395755679,88.42562364001189,-30.639260048490637,-90.0,2.4811400542909765,-4.2454368812422745,-2.1418500804637652,1.2628392211713222,-0.04632154895038402,0.09425548174141707,12
69.8999305333665,54.88251754827989,-80.40623480386881,28.29882286208972,-71.76936099920579,50.98631528873721,88.23237708427236,-30.358395088639245,-90.0,2.4415835082136073,-4.015063753429792,-2.469337968238958,1.3508497162482336,-0.05727329570596699,0.09549372332636073,13
68.78185635101462,54.77363574958514,-77.69906963797317,28.298822862089594,-70.14391260782426,51.68856499567464,85.29301428510573,-29.777567964014246,-90.0,2.3620440869882433,-3.61696269974773,-2.4917140391617694,1.4069816894151856,-0.06024835069509359,0.08967923654146216,14
69.54220686598644,53.20990068434515,-79.64207140371305,28.298822862089697,-70.05322587365153,50.8839153690949,85.32086476189383,-30.40358241312129,-90.0,2.312905160741615,-3.4578652441554016,-2.576757284074924,1.208302027129042,-0.05370128380542344,0.07357794291341588,15
70.36409016564333,51.38742215021036,-81.73235541563935,28.29882286208985,-70.09845389250077,49.3103950752165,85.18046044234023,-31.471912451390992,-90.0,2.331969176217291,-3.2671243707911786,-2.5480631893276766,1.0634215878591489,-0.04683367624762126,0.061139260385137985,16
70.69659104403095,50.31093981950681,-81.39502830922473,28.298822862089647,-69.97752946769349,48.239174455010804,84.9634541201246,-32.04553681813973,-90.0,2.3249274917354827,-3.218606853740581,-2.438978663323437,0.94409154767308,-0.039836112585641445,0.05341883094609354,17
72.03631492494024,46.74289071049136,-83.21705719773611,28.999064928770533,-72.77160819641594,44.20297388980796,88.95123186398818,-34.296200873741974,-90.0,2.4448829029228007,-4.692473932806253,-2.4688599852013833,1.5658741357520785,-0.06597412718786776,0.12943462584598173,18
74.26678509943848,42.5487576074224,-85.28378527649846,30.782668218238907,-75.48405202927538,41.218832239595045,91.12460870735671,-34.87982776031121,-90.0,2.5839397878310484,-6.021179864567087,-2.6607956914094095,1.8247221447889337,-0.08218561061192937,0.19377826299364515,19
75.43865307016272,40.36268942800201,-85.47194340843045,31.121201177833708,-76.49904683888597,39.75182010027927,90.66700360764216,-34.61956957229856,-90.0,2.644266499593781,-6.4373183120008495,-2.6213191189703418,2.282518556636857,-0.09999589368327129,0.25953108297933536,20
77.28117657580125,40.246492835219705,-86.40211417913834,30.84215549245672,-78.42246262391005,39.939429596342265,93.23937012478359,-34.2810452742627,-90.0,2.8623079447601687,-7.4506862680792185,-2.641237775528942,2.7926260487398697,-0.12095669060702499,0.3681797916233716,21
78.64942692574422,40.63177120889122,-87.23080837163907,30.15991552170033,-78.59653461116437,40.32003462595898,92.57966180223181,-33.794040026621374,-90.0,2.96196181668974,-8.147843320615506,-2.6257145347030604,3.1980984798578826,-0.1352830796313096,0.461696653015748,22
77.99331490800583,45.49577313584352,-86.61214962982187,29.03174231331791,-76.66320873238098,44.319847375045384,89.1660813503844,-33.99271727309044,-90.0,3.3053871919188693,-8.252149494828732,-2.5961388159229974,4.115278198746199,-0.16692518858602148,0.6029656378514704,23
76.332448827966,51.62909716858096,-83.85862930923616,30.42963387019405,-75.05487827542235,48.691948243549106,89.45544946969167,-39.39605755218388,-90.0,3.3924649836620953,-8.767847535035045,-2.66615448580265,4.808754162201307,-0.19515261444642634,0.7500937230846701,24
75.26766026950175,57.96395410754974,-84.52365596877193,37.608959395186446,-71.31863853862963,53.48497846817177,82.7669621800973,-49.09794242483512,-90.0,3.331289761691224,-9.20480252292275,-2.6254085270762544,4.823062370437933,-0.19084894451032472,0.7898541155323099,25
71.72040129104523,60.37597867974645,-81.27692439189093,48.830397277956415,-68.49775564298095,55.49545080238568,80.4001305217419,-59.060286324211546,-90.0,3.2952202349309623,-8.554786980001538,-2.2110341055412692,4.490585703161632,-0.14866059294738446,0.6815466454902288,26
69.81247922810937,61.429859770486445,-78.30645461042553,53.127835418652616,-67.0156082394437,56.11374051917212,77.77502126041605,-62.981038202722736,-90.0,3.2733075322586482,-8.10566043007447,-1.8524341383407121,4.1992610002866035,-0.11513842179722736,0.6024638932161699,27
68.29942219526664,64.38672345963454,-78.12596158521082,61.92741480563188,-65.0610061793795,58.896933688897114,75.7152768496249,-71.7708515814337,-90.0,3.0553005103230304,-6.317112317998696,-1.622113726861764,3.7750226770253166,-0.09370851363637558,0.4211070467677411,28
67.22261396988996,64.65899498906359,-77.57761638198065,71.6641097677451,-64.12517411933445,59.34596920204266,73.61104074376257,-81.37232874065955,-90.0,3.01524643877212,-4.504995188982509,-1.3685894661641897,3.1052187624586565,-0.06774871516677479,0.24654276811151318,29
66.05466438845542,64.04641054459155,-76.3872642661507,79.44926758652687,-65.57523374851209,59.13106470090201,74.8474902825058,-88.19593052127982,-90.0,3.0007664263702427,-4.1500496084638625,-1.2085596002189902,1.9408051452796555,-0.038658132813560626,0.14148754917690476,30
65.66773075564367,61.36312237924489,-75.2657129427797,84.93879169421268,-64.3453784741737,56.24434255124975,72.17954549416797,-93.18011596474294,-90.0,2.7804222453218768,-4.519725029433952,-1.0489524785963467,1.194507299051564,-0.020953187305792445,0.09464400622425509,31
66.11203351221671,59.69535616120406,-74.56671109513913,86.03726933782916,-65.24328090747419,54.13609358636949,72.10349698365852,-94.90157317979832,-90.0,2.5653983142534225,-4.591238619230337,-0.8936343938884294,0.7771682170096786,-0.011737661794599829,0.06248990514743203,32
68.84092553334885,53.87317668887674,-75.59980517347172,85.18400059678522,-68.263254513459,47.060163822748464,74.38124473722152,-94.97778748900971,-90.0,2.2316488021423444,-6.778033899565485,-1.068783981886141,0.12251346423575159,-0.002286118612940701,0.01456362626521261,33
72.80957773988106,48.90354011305118,-77.22833840924663,83.8858798386375,-69.21977358932743,39.67347290505453,73.00678966688882,-97.47206885654296,-90.0,2.2307197330483977,-7.956948394083785,-1.6098046961286292,-0.3011226356011474,0.008655608015060367,-0.042067114551241847,34
75.22711780640066,48.35864774163292,-77.29708436749945,77.49044829468389,-65.38684769626335,33.06222797975443,70.76848920464552,-98.5141103286648,-90.0,3.024870899321286,-8.415301767378997,-2.853161036708874,-0.11698107524145494,0.005911295459524143,-0.017300289833703623,35
80.03595869646693,49.59150763671132,-80.98508838384157,70.09984909483748,-51.110228535780884,26.211569854503537,60.04340293533024,-102.58036196469868,-90.0,5.301168347171272,-8.922527336202819,-5.05058680907163,0.15368605204747282,-0.013716268143746988,0.024146460898739282,36
80.90604070003216,51.5839173142219,-81.20924708133079,65.5998027737129,-36.6025622684116,24.821792350625667,48.474100471807795,-107.11383489760958,-90.0,6.000000000000009,-9.298645840398567,-6.4977925005096155,0.20612185601402133,-0.023727612636868185,0.03379031615560537,37
79.41152420457965,55.822680820977396,-78.72802495755047,51.627455663121204,-0.6914341340168991,24.968813153461777,21.074036072409694,-111.74211247450339,-90.0,6.000000000000009,-7.782833662304184,-9.11230143159334,2.933708585355417,-0.46418693324963595,0.41271651783458213,38
77.19967723645149,58.73883682974319,-77.4108901257662,44.064268242443035,30.08720935992988,29.492876671283263,-0.7887707087417505,-119.08371542297289,-90.0,6.000000000000009,-5.409854441467226,-11.093083218738704,7.023298715088011,-1.337300685708866,0.7471830904119591,39
72.33971911953635,58.87261690366837,-73.09771663142841,45.07211884914146,48.92647784820098,37.36790120821304,-11.072220488654542,-123.98956945135383,-90.0,6.000000000000009,-3.8351790281788096,-12.312316143985944,9.120645834011103,-1.9352388033351189,0.7662045303271438,40
69.84047730732388,56.928661205105314,-73.78223901585332,52.592573459372964,61.28476676947548,45.04644699674832,-19.260759678998777,-129.7154454965804,-90.0,6.000000000000009,-2.2304504161868897,-13.189377530801472,10.798329947442125,-2.4744289133024613,0.6551709137695386,41
69.38836205577725,56.5598394209433,-74.05120942591932,53.48132419384384,63.98720071753875,47.255826992980694,-22.42763122206989,-132.34817227280018,-90.0,6.000000000000009,-1.4976629040665874,-13.39410344847332,11.273434209013589,-2.6357579071665893,0.5555508292962275,42
67.64568341290014,54.44318210500511,-72.85055990575357,66.2019155485914,72.53595379344812,54.36027648381804,-24.118629391072226,-134.96612212470507,-90.0,6.000000000000009,-0.9284112195701216,-14.143983581906763,10.824650760272492,-2.692426934120193,0.43091428452519515,43
69.35131158869454,53.06701477202744,-75.40134973392841,71.62270646943098,76.8134083395382,59.905967832384285,-24.85132136128365,-137.50876370716972,-90.0,6.000000000000009,-1.1191614092121471,-13.95540027652249,10.363717692010287,-2.540836844204495,0.4332857313994495,44
72.12131096691003,52.86406772639039,-77.61533922515007,72.98821615419278,73.96749789464396,56.03406679464024,-25.478600390491916,-139.96319933505038,-90.0,6.000000000000009,-2.1814335348327463,-13.410298623959068,9.144367846683535,-2.142300633086768,0.5200296031835757,45
74.88594929424127,53.75696463982635,-80.67584339522402,71.28679915606878,61.00621285479148,45.525032653327955,-25.49297465601454,-140.23861365622884,-90.0,6.000000000000009,-4.032974765671373,-11.922564544984033,8.544904725990389,-1.7547050954136347,0.7338754512026823,46
76.14606670773816,54.36840784974962,-80.9115187949998,71.73552880129998,57.33512524370029,40.66914293231521,-24.63795132533093,-138.72838965741946,-90.0,6.000000000000009,-4.686533028482905,-11.241305130980745,8.301725284951308,-1.5982939674976313,0.7968316370389863,47
74.74358479714319,56.192427288553425,-80.48752187478442,67.55076483257476,24.60453726107962,27.434083084985197,-5.0392925602354115,-131.6766925358787,-90.0,6.000000000000009,-5.563335674465542,-9.016368681181268,7.702217347029448,-1.172572803398439,0.8294593601162148,48
74.3843070741364,59.0430283936824,-80.62067899372646,65.15551768719124,-15.147758649050719,24.839748745196918,29.699781219377243,-120.48871658471356,-90.0,6.000000000000009,-6.249774451268513,-6.936037293404292,7.265634186555124,-0.8356694410874125,0.8491190438635644,49
71.65051271251403,62.89853284418451,-76.8554394930327,62.05869789216988,-36.725522307933936,36.32143946992438,47.073232917348996,-106.612846024551,-90.0,6.000000000000009,-5.664847291539473,-5.448389316170019,5.87921907003119,-0.5323685170020307,0.6107441001867123,50
69.38028670354035,68.56284505272025,-74.59726441416664,58.46123808607043,-49.28089872331607,47.532851265439014,59.03857018062394,-93.80905938136043,-90.0,4.400373048345378,-4.888914015240589,-4.187467620664869,5.485350176892757,-0.3799079492839125,0.48760842412615485,51
67.91579115907696,69.85198688685288,-71.84105798988315,59.30660849071221,-49.348576830150215,52.767138351119705,58.67150841561634,-89.18741187661317,-90.0,3.963735795954819,-4.494167000514705,-3.905471742078689,5.09977118283131,-0.33086378862765004,0.41574146987927474,52
63.58057208836638,78.05771691009018,-66.84678384320799,56.37699472116826,-53.52089070523506,66.44581059051558,58.729066808539834,-77.22543132745136,-90.0,3.075305976283673,-3.581978705898225,-2.7248151996722862,3.7329263541108357,-0.17025667661866814,0.2392854011071375,53
58.07435999241393,83.95969462636488,-61.732266597192584,56.74843459239653,-52.65879654829109,76.3472401500996,57.60877500148412,-68.33655166507792,-90.0,3.1901017348786067,-1.7633663444833525,-1.5997738447574559,2.0484250976139773,-0.056096458164809584,0.06407199333558358,54
54.424678572496326,88.5759194273859,-59.05981220505576,55.694193019409845,-49.83693333442389,83.89009522692527,52.550339404521445,-62.55897269698585,-90.0,3.511926794941723,-0.19492659665391696,-0.8291653279843002,1.2689755499397513,-0.018316259028222027,0.0045202269719746115,55
51.01790035144567,88.27647416290695,-55.8642285160529,56.08552179349974,-47.103992600897186,86.47013043864172,49.76838322049834,-59.47130051101938,-90.0,3.780582612886862,0.05949498216437495,-0.3400184309344979,-0.5411561358828713,0.003208797150117148,0.0005770854585950856,56
49.86027233378141,88.03772481830698,-55.51042754020896,55.714309200265134,-45.87574526528731,87.00292323418746,47.714100437357374,-58.870772184187324,-90.0,3.8606410335895625,-0.13297351192739193,-0.09708152873910351,-0.9414335076103795,0.0016130416266329248,-0.0021717038041158326,57
47.56296290012415,86.40449880886726,-55.07345800776042,60.156163038222424,-43.98303965832031,85.47001242097788,47.828321727012494,-61.72064809777325,-90.0,3.7979101920768503,-0.8542397955599705,0.14749776720631838,-1.475547658449763,-0.0035152612665173013,-0.022047481279067558,58
46.74688905818072,84.10910980552765,-56.42491406001762,63.15961645098016,-42.8692870941038,84.44912496138767,48.289045091401164,-63.429482246663525,-90.0,3.573916792311967,-2.460934542022524,0.4838009515100392,-2.3729452474105615,-0.017938508314583126,-0.10236945227553453,59
46.24003286627704,83.14544713508738,-57.71240688018845,63.50068735519891,-41.44252290332833,84.35199636386395,48.96163968457859,-61.440979808795845,-90.0,3.282172980101449,-4.311899849318263,0.7566479150664487,-3.53216814175051,-0.03854378724396084,-0.26758837198181146,60
43.84060824464097,80.25503311570927,-58.98721045241803,68.31573365081982,-37.03021259336501,86.83156993947699,47.9634418058971,-60.78174639645606,-90.0,3.3049838914788494,-7.005734138787039,0.8419692659439606,-7.196925224843526,-0.05080830876301809,-0.8886960869978442,61
41.56293027024348,79.13916249766623,-59.805827518736265,71.19519182141615,-34.495412290203646,88.26378188755446,49.7586099018142,-59.20293625081588,-90.0,3.2816121088324612,-8.989648767429864,0.982357553736806,-9.188363045573688,-0.04252271242826483,-1.4599676634176852,62
36.99055754893476,75.18188849816569,-62.86496914655593,74.94626879702865,-27.9400297547394,91.74000362146464,49.05927178685223,-55.539559935879964,-90.0,3.003120757773196,-9.626004978358276,0.3240565265164138,-10.701053301984391,0.10798001041827143,-1.8102638915946765,63
29.289711923088607,69.64414458440345,-64.20305129275296,83.64172599384976,-18.735280628200076,92.9626435664311,49.66308541810048,-58.562437056402445,-90.0,2.6625520339727022,-9.218903454203895,0.04756237096188386,-11.89218157609155,0.18971045385269725,-1.9176763869996436,64
20.466286706054714,64.84468555791454,-63.336263645387,91.6733754747023,-10.178232621725678,95.37375514385515,50.56578414422312,-58.994726059086595,-90.0,2.6326548523219393,-8.336212922292512,-0.1980274051003012,-13.040580350825188,0.26176298639466417,-1.889668141262575,65
3.5832231908099508,62.61210746137628,-56.424199727221755,100.61492816847021,1.281609344115048,99.04592582991367,50.31602040280734,-62.48807221630906,-90.0,2.7893528948232458,-6.922058640740473,-0.4763741493586279,-13.381227842644426,0.29999292674920947,-1.597171339003173,66
-3.2664200696144463,61.88673247812787,-54.1941175135631,106.31727325013296,4.288657646643071,101.31163913575249,51.88672380453446,-62.92830685658179,-90.0,3.254236359652628,-6.263870925993104,-0.6316548917620511,-13.684854899492844,0.32897395199913887,-1.470177671804162,67
-9.094163012956326,62.70770462156191,-52.3398623715743,108.4817707560582,6.002934960888984,104.79917765555717,53.08425950096192,-61.86162886063499,-90.0,3.705322936670249,-5.43125330397809,-0.9724047427259588,-14.154764877319641,0.404413559798763,-1.3028671059740553,68
-15.39067005552606,65.57783195461997,-49.683087173699995,111.54964874344678,8.787370902718154,106.77110554253723,53.64951957213836,-66.49435271857416,-90.0,4.5963009787246065,-3.9919628822746,-0.8325231981979453,-13.531168163741938,0.3063161445715471,-0.9125090049942003,69
-19.657582663077388,65.73025475501632,-48.005528885560814,114.99841581533141,8.474057048522535,105.72649141725918,56.809357545515105,-70.99105473532171,-90.0,5.466335331715877,-2.476487019444309,-0.6154515546374807,-13.404969775819916,0.21034819092815213,-0.5577416066440536,70
-24.37429473603388,67.93738675129,-45.051434610622145,114.63944037764901,10.08614749878577,104.17912007598677,57.08900760003447,-72.64228222557237,-90.0,6.000000000000009,-2.2965918093611855,-0.04421869688943732,-12.84406118405238,0.0673337268936201,-0.5097032985888857,71
-26.43264302544808,69.69878392711686,-44.29144334341958,114.94799208555882,11.219540031441287,103.0578389395845,57.59205004745565,-74.2366140748879,-90.0,6.000000000000009,-2.6195816390191204,0.3911506190925707,-12.241453137791193,-0.023420606367773364,-0.564715458119395,72
-26.483221362660554,71.81958044126189,-44.75054438263521,113.88063841856737,11.550780382181404,101.22140692118886,58.03904619791263,-74.97203581009873,-90.0,6.000000000000009,-3.372497465914717,0.3581998112641653,-11.058513034619775,-0.006133272862840809,-0.6542850665415623,73
-25.45675419659078,72.68157975919048,-45.092714903185204,113.16310248081874,11.988103672423632,97.39468235384179,59.26713773840468,-77.9131587758849,-90.0,6.000000000000009,-5.550289302395469,0.06534482476686791,-9.201406059941165,0.06114840190247835,-0.8911807011055253,74
-25.081157656585706,73.9593509100744,-46.14884184986711,111.58468394420846,13.280014798571244,92.81837087415612,57.98548896381939,-81.11347188423693,-90.0,6.000000000000009,-8.058942286967884,-0.5010980573228928,-6.642995408647721,0.11302911152656797,-0.9351871558186504,75
-24.846782031367983,78.06612976464632,-46.29139150506206,113.08629998226296,16.332541910012974,82.98663658067677,56.678666275447334,-93.30706159156128,-90.0,6.000000000000009,-9.422488215196218,-1.2017925832699015,-1.9748776615436199,0.0476388284929394,-0.32696832835509726,76
-23.768950178808005,81.3385321659372,-48.57177021860396,112.57194884975911,19.092216969048465,80.01888817571307,54.27200506242594,-99.4059029136574,-90.0,6.000000000000009,-10.382429411281777,-1.7991129708934404,0.3732918790631909,-0.011697462627878515,0.06843061509838182,77
-21.152800877943683,86.68375553807658,-50.907151648395505,107.51544862411419,19.65514057684338,78.20282280415637,53.99498944754588,-105.80492902940863,-90.0,5.41189275466402,-10.827360568137452,-2.5701521169028734,3.940742618281731,-0.15400652959192487,0.7590766750816508,78
-21.967389179855573,92.25328650975125,-51.93990003021154,100.0895864860499,22.967271687500094,73.90333580019154,52.03384866916247,-109.01783576931514,-90.0,4.767117464603401,-10.331024401208598,-2.6980944952636654,7.31289431871216,-0.26428226709969416,1.351139720601753,79
-19.037040103104843,97.27466790965133,-53.36234428175088,86.0600768145524,23.20164743877854,68.90276866907293,49.95590753673801,-110.81528578106236,-90.0,3.901402330652127,-10.779085694160447,-3.043588701933842,11.212476201408965,-0.3945475826929006,2.1785299680146686,80
-17.22056018479806,102.82669536206733,-54.974475024392056,77.09014130077418,27.41895261951473,61.522503061776234,44.53972496094211,-117.01395331671452,-90.0,2.771979226238777,-10.067105108873834,-2.7151118094328877,15.83230230878718,-0.36679583463884524,2.8775701544582017,81
-15.729501842091393,104.99999999999999,-57.59417100808671,70.6141232871825,30.093933029437068,58.47145802579709,41.09762051346737,-122.09096472565157,-90.0,2.254758632193813,-9.16612480165398,-2.318801723583569,18.166042190646635,-0.2717768799795931,2.9976580666970642,82
-17.49341910539525,104.99999999999999,-59.19254379536506,72.12719308958651,34.45553416396443,58.6156729116112,37.36869007016482,-125.75141133046492,-90.0,1.9710137949415423,-8.447307931954043,-1.7852832122371318,18.10832465134323,-0.1396855614870756,2.7331418209735636,83
-19.911072795569062,104.99999999999999,-60.79118446126667,73.96409955704166,37.92240576391888,60.42483980117697,35.68802416579071,-127.64590778312824,-90.0,1.8820507071870454,-7.3252939829040296,-1.3553585001692539,18.040510878428165,-0.06116609358532914,2.3477103753652315,84
-21.5062785214453,104.99999999999999,-63.64397336175987,76.67107140723603,39.60476262481206,63.16686350050713,35.51104870830154,-128.7259928848095,-90.0,1.8147262631468553,-5.808520756608765,-1.0892525637071382,17.05673386139109,-0.06481380690129747,1.7575319015410489,85
-24.003155515089983,104.99999999999999,-62.11657983022801,77.96382421595018,40.96578068211957,66.59396625793794,35.124437948499384,-129.0469348523352,-90.0,1.8229793176676563,-4.873935582475146,-0.39378310470380706,15.894817894675674,0.07856564076548238,1.353191032667339,86
-24.358869552460256,104.99999999999999,-61.736313304506794,79.44467143478408,40.85761319689759,68.07321952748438,35.82892414902988,-129.05894445345882,-90.0,1.7419761228968063,-4.462793316122305,0.019880750032000703,15.012706123286641,0.15781304223022838,1.1577575681136443,87
-24.92032091697078,103.17187066800423,-61.88114302905112,84.22367311644199,39.63196849262176,71.9862602144783,39.0806992882853,-127.80401187377623,-90.0,1.6741840903108858,-5.797964086110374,0.16320655719246435,11.899649997039731,0.15887186781009982,1.1962247272347002,88
-20.80492116788125,98.67043912178914,-61.50216092580352,82.40694271545456,36.04439601292641,75.11537464021781,43.35192836938628,-121.58350300665592,-90.0,1.800673426968886,-8.030800533940699,0.3137891824146082,9.243901830539329,0.15591621511073378,1.2946384518201475,89
-22.189195746008608,93.91507736851098,-60.319618134010945,89.38198009257474,35.101714108792514,78.34448808356512,46.39650759584585,-117.00181856162811,-90.0,1.845178340657435,-7.907666211079113,0.6579661266566161,5.835019499841641,0.10878474174613324,0.8057216850536952,90
-21.3248555220044,89.38528722920559,-61.017161665838096,95.929876449451,32.411126094663985,83.09838872909943,49.69676106802484,-109.31502753971459,-90.0,1.6831243752400693,-8.46264324902588,1.031951135744335,1.6491858460636843,0.0335620595995097,0.24491748828459428,91
-20.804278360186164,87.32681516503676,-60.0444503541444,98.70678045989621,31.219108152829854,85.13071533264342,50.761467477371355,-101.63002369612914,-90.0,1.5757197423977172,-9.086265773359667,1.302065890260937,-0.184217254597216,-0.00419293481752361,-0.029468126949251272,92
-21.80426685909524,80.03715977602822,-55.55698218753337,99.08297202964322,28.79182826261997,88.29728397597043,49.33646613590338,-87.28077724832337,-90.0,1.4842309709400827,-10.090955437904615,1.132744912228136,-5.012548562097717,-0.061538606180437265,-0.8952137500023735,93
-25.13903085323012,74.15044549600513,-52.689125501387124,103.02390606113283,27.060192642777547,92.28061016135324,48.60954916715993,-77.30512165657791,-90.0,1.8097496153553125,-10.897816660922825,1.3385667342561844,-8.91024927010662,-0.07804033627951787,-1.7246811690870196,94
-28.67238102224686,71.29499777320366,-50.53643036840084,108.9989127234616,25.377274553523872,95.6435896744399,50.57401903300739,-73.35851063033519,-90.0,2.2676323969067993,-11.359559622849389,1.2703275418631805,-10.875874918809481,-0.03776091167146655,-2.1947390722560214,95
-33.57650829974718,71.3282709742289,-48.31273642887111,112.29569856973716,25.608820603615236,99.72854105228873,50.70009310511569,-69.8782448848315,-90.0,2.701350707531187,-11.44722745601661,0.927384787293952,-11.85792666606099,0.053141416979471154,-2.4041123665330533,96
-35.54301482563791,71.19720057313664,-48.458140751984104,114.1890884315962,25.287987842193203,101.23769114469128,51.54987150099087,-69.20040530222269,-90.0,2.9875318291257473,-11.308986659102066,0.630310219413685,-12.073008611987776,0.11900761923385458,-2.4109277419985777,97
-42.879262946908646,72.54236255318277,-46.83879726890225,110.62004252401175,28.627737990823373,100.24494849147014,51.53879010086297,-66.3602332346589,-90.0,3.2598541471884968,-9.065134373663744,-0.07740751434754416,-10.998685607596215,0.18291690268336883,-1.7429474992864942,98
-48.28805453489771,76.31641868201761,-43.738305013771566,107.46232920576169,33.40584123610018,100.19651215298873,50.261966710400365,-65.679686714247,-90.0,3.8395277311872347,-7.2044700153534285,-0.3383022901913488,-10.347748778175621,0.17908288670632833,-1.2955971352331803,99
-54.75272900894876,80.18012105097075,-38.66139674448242,106.02105952706947,35.93243637613906,97.85962717594009,50.219738941250924,-69.41784956458586,-90.0,4.762621416450194,-7.0903489840274805,-0.043553081840532595,-9.762488461812769,0.11065693415867159,-1.2079088933897182,100
-63.26492987510665,79.93808327532967,-30.812852126709377,111.31368427481719,41.42439414530508,92.98662683264973,48.33084888601029,-84.18703812898957,-87.62321283391337,5.704875102210423,-7.85875178675785,0.27354164740741677,-9.016442198954435,0.054448893666887814,-1.2428337020916502,101
-66.97496887476248,81.93931652185323,-26.88331367310593,113.31778202946131,44.26490642019522,91.88568380930948,46.55001922662674,-89.64206989866835,-81.98689355398275,6.000000000000009,-8.686254723123067,0.6371050757312094,-8.474376536446838,0.0005893826891362921,-1.2969486639062757,102
-66.21930392703139,78.39551130812643,-21.6332506547782,121.06267527809123,51.48243356674643,75.79990344639417,40.22361830872402,-104.40931747403613,-79.16296705499491,6.000000000000009,-10.672168100819635,0.8778944085501005,-4.60608044082871,-0.036871861772198374,-0.8698920311887505,103
-54.32787833474612,65.7040785153226,-18.659417387829784,124.20127947673274,55.01299277093313,56.670581657931294,31.76034033368622,-113.86368759852107,-80.7515336240037,6.000000000000009,-13.24675250983828,0.03626801100848392,0.049063445565031755,3.685115117953869e-05,0.011549958606043683,104
-38.44396636065318,54.79160437840635,-17.29341349804324,119.36385083112607,50.82967025771278,41.051141746269344,25.56546104898645,-117.87727530193068,-83.71753930078893,5.549653575044986,-15.653148926041444,-1.8269752058263253,3.957562023863281,-0.09269025785743537,1.112286019077082,105
-13.53420670667008,38.143323716011814,-28.205773660802908,103.80494861880432,34.7334084606925,24.259255397543328,26.148280537514424,-111.70330507182791,-90.0,3.727357541934182,-15.582930422163756,-3.368468695597504,6.55569089381485,-0.2950157548061483,1.8456850065145378,106
-0.6983185307500476,35.769943012237924,-37.225603014073236,97.55520222626278,21.588424183351048,22.539544129873804,28.271124513431207,-108.53970949929925,-90.0,2.7770785598158705,-15.293575059187532,-4.446358022181014,7.646808324614822,-0.4747388567240083,2.1231962179729407,107
21.301688716925987,30.18784217326509,-53.82768672779144,88.97395286393123,-4.48897288823995,17.438861961110607,43.13068348981282,-102.04196621197177,-90.0,2.8453475240499944,-14.814961140024295,-4.854217815557792,7.327522870100451,-0.517545514863465,1.9712981320811305,108
44.16158758210048,30.182273083056405,-71.1269138335509,76.28015359706859,-37.634260347500074,18.33352650189021,68.00565232793453,-93.22976813320558,-90.0,3.0603401717673404,-13.662726091036845,-4.9344944487646965,7.000804219762686,-0.5160636359890556,1.733445865002483,109
60.16946170547797,34.07410485092103,-82.64838668485513,59.08780303053732,-56.24801149202286,23.26149424941969,81.35556991923917,-78.81773445482347,-90.0,3.2924733641034942,-11.850573909225373,-4.493524364559799,6.5022102755465285,-0.4433003024172593,1.389824384401209,110
72.02636860814367,43.663863032242695,-92.29990649290745,39.31479341696898,-69.9011317586919,33.41243726980304,90.74620341336706,-55.40679783037601,-90.0,3.593947369151679,-9.10616670447856,-3.4183473273386364,4.60215748454552,-0.24840984483835243,0.7477625271118106,111
77.14159771325996,49.06163029964716,-96.94289042643396,29.865927757183766,-75.35407317672886,38.956782749524315,94.54331544515128,-46.409771323872775,-90.0,3.858313056532945,-7.605621220913311,-3.0333751596201584,3.241342590628079,-0.16092714664147512,0.4373956420489076,112
79.11762962237977,51.09354074387396,-97.95266252561495,28.298822862089697,-77.14007242302951,43.61393326417737,94.8518695427647,-37.94834442352635,-90.0,4.090927298647165,-6.508555296870188,-2.6116069799951593,2.348106963001602,-0.1022690957814972,0.26999357792910683,113
80.65192409221231,51.082885131921124,-99.87130702930779,28.298822862089953,-77.51278991103108,46.43230099544097,94.27620412491609,-32.12386672899004,-90.0,4.312905353301456,-6.0743537866021535,-1.9876634018482746,0.8810642987190237,-0.030027225446446378,0.09398983337437411,114
80.2588498766316,52.52354144057768,-98.93751002159915,28.298822862089924,-76.51139676246495,49.468809937276056,92.788971074237,-28.29882286208972,-90.0,4.420162778161388,-6.0495327141345605,-1.3147276672587282,-0.2508834767500736,0.005848333504306808,-0.026575604482703876,115
81.9038446395822,52.81589432323501,-97.33694055081769,28.29882286208972,-78.44588733073901,50.70896746779956,92.56999908490302,-28.298822862089825,-90.0,4.4786714795495195,-7.673370884484623,-0.6751659664123794,-1.9911591347198294,0.02833391707222822,-0.2678160506787026,116
82.90195646351204,52.52925230506769,-96.43993247994197,28.298822862089825,-80.03976524885756,50.81343069783814,93.69972250647733,-28.298822862089594,-90.0,4.402465820848908,-8.704980282776466,-0.22878653358142512,-2.8034156699739925,0.021819710120932822,-0.4287945082426776,117
83.70844267346004,52.02812371035078,-95.78241180430054,28.29882286208972,-81.03118592044069,50.11600987324302,94.16006098601589,-28.298822862089647,-90.0,4.466896329346888,-9.461308996233136,0.1932013140445842,-3.344282181663494,0.004834449704203624,-0.5573362564921085,118
84.61067011026809,50.40459713541469,-97.5657585551621,28.298822862089672,-81.40027439370854,48.505173940632616,93.79230509353222,-28.298822862089594,-90.0,4.425652286294157,-10.229022813283914,0.33748929466286925,-3.710901171101856,-0.0005183140027162122,-0.6698800685436178,119
85.89743066738436,48.13149320882057,-99.48012236837606,28.2988228620898,-81.38628056187518,45.81220861342519,95.95604020098362,-28.29882286208962,-90.0,4.385680752439494,-10.338163082035798,0.37163954231431245,-4.466191924497431,0.0023196029508641865,-0.8150296478940903,120
84.88161019888814,46.92415507874575,-98.59036466460783,28.298822862089672,-80.48112331934547,44.45938922178821,97.78678740999382,-28.90427418416418,-90.0,4.199116623368168,-10.185731672277091,0.11093634139949739,-4.738785357261062,0.025878945189336634,-0.8508575852660828,121
84.79729486529128,45.882887914778834,-98.314974373636,28.298822862089825,-79.19183975277498,43.18683127072617,97.29816609824151,-29.672928533436433,-90.0,4.109786468958149,-9.706708481167409,-0.18967014169397198,-5.14983845854462,0.05683871794547562,-0.8789933702836457,122
85.34907911923877,45.069497422821584,-101.40358518473049,28.29882286208985,-78.50226440268916,41.737160766619084,99.35725941627904,-30.390126412738475,-90.0,4.039019489704246,-8.928570628238655,-0.328018738832527,-5.148773325470225,0.06612544608349762,-0.806538470822523,123
84.34191654100404,44.588155622881004,-99.37164053998953,28.298822862089697,-76.02722164208568,41.57252825815281,95.98911566659797,-30.36202291558279,-90.0,4.080094168200394,-7.496066318218576,-0.4554287929135644,-4.89209996685349,0.06664400858139898,-0.641302358934877,124
82.97426955569613,44.618317186521374,-97.1621957707995,28.298822862089647,-74.66013682211688,42.102575327183516,95.58304658415716,-30.039687816371796,-90.0,4.139308536599455,-6.38780592634241,-0.4948969918036033,-4.443947230882966,0.05787443059912783,-0.49553983112895056,125
81.10164333964818,44.86377321518421,-95.28241838678412,28.298822862089594,-72.86343266048812,42.897074738483894,92.01832380763238,-29.850612862181308,-90.0,4.204644890819384,-5.260461900895797,-0.8364730133428558,-3.3478838855307425,0.058064457532434464,-0.3066482143126279,126
80.15302997722232,44.73549826362666,-95.48871999305554,28.298822862089544,-71.59990395253233,43.03764542036309,91.20858067143169,-30.10190572316021,-90.0,4.321321216474244,-4.702359148880851,-1.0066840899888898,-2.822600633363958,0.05546542554397069,-0.23086637580785313,127
78.58829446684122,44.44929885830719,-92.77502535744577,28.29882286208972,-70.14525479958745,42.98623225620659,87.45592848772654,-30.64974974977447,-90.0,4.492088117889409,-4.5012291710450905,-1.1297974803231619,-2.145256685582137,0.04559077032532047,-0.16805294559890283,128
76.19494338019747,43.48024842450223,-89.16547811293258,28.29882286208962,-70.33249106102936,41.83612829614343,88.744598199783,-31.35771356223459,-90.0,4.7231177678402965,-4.857493447956867,-1.2106434038879006,-1.325895945421885,0.029422803817923365,-0.11234554725016045,129
76.8209872323776,40.180297897100964,-91.25475151531984,30.576274512509322,-72.46322430580794,39.63778027590371,89.88473613442403,-32.13099019850278,-90.0,4.801263707483208,-6.536336355978866,-1.2285135681682557,-0.27294320284403945,0.005966035962483485,-0.03125934160558179,130
78.91847780752678,36.74140898813104,-94.50760679972475,32.49279171490799,-76.50471971987483,36.82086096286865,94.78494721856747,-32.63565888062927,-90.0,5.081088880530499,-7.876274663824731,-1.3362650351764593,0.9188393734036419,-0.020616734680592292,0.12727653826716062,131
80.85962052755548,35.35794922004889,-98.25504284323902,33.08932904249099,-78.73015790794986,35.61946318424662,96.97510021031434,-32.46337966262747,-90.0,5.159927889226603,-8.753394622660625,-1.3166443542828323,1.9955852593976948,-0.04104454015597138,0.30799917506766045,132
81.86598893082714,35.25302776392624,-99.29012571948341,32.88372047572871,-80.79243016510702,35.490271293651084,99.26258517445511,-32.20257750793239,-90.0,5.248735521174662,-9.591907646512823,-1.3253378758184557,3.2127551636253218,-0.060120256476278264,0.5447060401940176,133
82.3030796568904,36.67336863271903,-100.16676460207489,31.995704605139817,-80.31931301473925,36.566410267620746,97.77019229889954,-31.800514069777556,-90.0,5.1799592171031605,-10.36767652387093,-1.4363908975596682,4.209064947482819,-0.07891548187368239,0.7731909922683767,134
79.60689002059915,39.479499627106065,-94.94582242066656,30.767809324736294,-77.9967064886542,38.78590667206746,93.49406041619508,-31.337669900711944,-90.0,5.182034549483604,-10.389390939843242,-1.4823681436055645,5.07169030998516,-0.09211729637191592,0.9343875367029912,135
77.06679251084434,47.54085036407796,-89.31006512424429,28.29882286208957,-74.66344546180981,45.57729248381353,86.62350610913188,-32.13618264960425,-90.0,5.182024667500234,-9.509716634172188,-1.4466035595817925,5.113749612900981,-0.09254947153071424,0.8612089635665368,136
75.42403969284975,53.14670874394595,-85.28492066936809,28.29882286208972,-72.50443987282536,49.76621505570513,82.81585312358129,-34.65069781556871,-90.0,5.063898441487003,-8.906874396110668,-1.44800083683067,4.9935692002356475,-0.09351198446605735,0.7870461808906132,137
73.17476409609732,60.06042109106868,-81.82277143316085,29.147253240343368,-69.78289266187737,53.797502338167014,80.17220372757446,-40.45358613057572,-90.0,4.737645826781486,-8.249325063901388,-1.4285944829582469,4.413129982499458,-0.08646111937689949,0.6433911030375138,138
69.06812254574326,63.5962415413139,-78.36925658732069,38.71685701265797,-64.8543274993063,56.114369370020206,75.36038146422196,-50.004191979285075,-90.0,4.419556535254865,-7.044462341413212,-1.3642807676335331,3.880458931424158,-0.07680928310307877,0.48226002943588153,139
64.88378710923274,66.54268871018043,-74.92910651747202,48.006290003156764,-61.55961050850064,58.52904675253931,73.72562724805891,-57.37719202127998,-90.0,4.0904471231410895,-5.729935082813931,-1.164363665091315,3.048988446847228,-0.05411090755816332,0.3074354579114203,140
64.51950889531626,66.50753646447524,-76.86497767305312,64.81612298511612,-59.76756001114875,58.972711026784445,71.62165303301728,-73.35035975281028,-90.0,4.051878069500589,-4.370286859889261,-0.7985366207215182,2.196105681126048,-0.02747443532118068,0.1683794886665708,141
62.87045805146833,67.23254679905587,-76.78684729970101,71.43727531765576,-59.60321859178979,59.4952311359848,71.97812612712913,-79.77589434051498,-90.0,4.1085833133636855,-4.007982483289879,-0.49790771923861393,1.8702830187998873,-0.014151610988473536,0.13128621165971893,142
62.7779867301553,65.74830456327547,-76.04572782946039,78.79006106806615,-60.84681562928031,58.02658685010969,72.39656141383686,-85.99578018431588,-90.0,4.230605672897631,-4.165548448292592,-0.09266659206928851,1.092212655153708,-0.00101288250558803,0.07955883067058352,143
63.703842843237595,64.35931007855383,-75.25369370848772,80.87236999640741,-62.55440157805426,56.244288891925514,72.67277575615903,-87.80138047413213,-90.0,4.082371777193637,-4.880806070827526,0.13111278445283317,0.4436097482664481,0.001165466747418253,0.03787678394074743,144
65.18061850133186,62.24101309076296,-74.47450110301533,79.00643475175968,-63.82266019039669,53.30917162420497,72.42779746707177,-86.37128230786325,-90.0,3.9196591442136373,-5.697122015930147,0.29241366267175517,0.04057140696005352,0.00020952216124132906,0.004047433293017332,145
68.28804450200809,58.42392057957732,-75.86275654291974,73.2786697778809,-64.34146987233215,48.125680270441016,72.0685103775747,-82.55317542172823,-90.0,3.9174612840110616,-6.891288603696614,-0.03445725723253866,-0.5378781968465375,0.0006309599601003141,-0.06500498945024306,146
70.91985882744142,57.398466348880014,-77.54212360928409,69.58121574892459,-65.17401257237776,45.11160367259512,72.61093062050223,-80.67369999274675,-90.0,3.975178992746404,-7.901913691544136,-0.413077795536778,-1.3489289791804522,0.012021704049086377,-0.18709497103667588,147
73.72101087493499,58.800144426643186,-79.80066127390964,62.5185095153461,-61.479982365061545,43.298229248445516,69.90310523719718,-77.23613079810936,-90.0,4.3197537241986135,-9.024795118517826,-1.2978265199913526,-1.8396933843291134,0.04688746991382804,-0.2914855817612886,148
75.43460888344939,60.055016619385356,-79.86693996917913,55.320413539598455,-55.78766371899628,39.18169308165365,65.6222561702035,-76.84898683174244,-90.0,5.057133032354081,-9.661352801257586,-2.688203661306481,-1.685424711302729,0.08449215201885642,-0.2857381427029643,149
75.12029741262322,62.77405239906766,-77.62349545540063,46.422881590168544,-36.31306857198693,36.28342085286845,50.13444648644773,-79.16219401801874,-90.0,6.000000000000009,-8.736500180713183,-4.8786015460065775,-1.124917090121382,0.09884706724526111,-0.1719278084776886,150
70.38773708732839,64.44623147426157,-74.60171922914033,43.961605526455436,2.3668116183629233,37.278199214155705,21.900486189588005,-90.52434294490878,-90.0,6.000000000000009,-6.212698059412153,-8.303853131687061,2.0610415925866925,-0.2984046335237778,0.22968941177092173,151
67.2978227865141,64.74522181948844,-72.29519735245299,41.96726623713795,16.295493752752556,41.54107405745347,14.236937542500678,-96.4398085995995,-90.0,6.000000000000009,-5.309239067820946,-10.34509050690265,3.3645637056440414,-0.606973177882447,0.3304215222053146,152
64.32561899186992,61.839834009853284,-73.84894225913692,48.37450603076441,29.81660638259108,48.465515029622175,3.7295820060512708,-102.19073467038177,-90.0,6.000000000000009,-4.095163184605712,-11.497558776806446,3.6505865555674126,-0.7352535814860424,0.28475609567554744,153
60.819931500570696,59.876058158488185,-71.08335624576385,55.13153997175969,42.030869096012324,53.64752956786905,-4.038532659150595,-109.60268566188564,-90.0,6.000000000000009,-3.0723071607892525,-12.622852357718623,4.812733566617164,-1.066572858040416,0.3031379353673861,154
59.56253171579616,59.89617246077018,-71.07848521289507,61.862416245876986,51.90487123551237,60.73166160854369,-7.771580681999916,-113.36558339847834,-90.0,6.000000000000009,-2.4118603985598654,-13.744557435901166,5.44110263550892,-1.3183148701537262,0.2918552491772374,155
60.02797230710576,58.01104136654806,-70.43404409282931,67.59398646739463,58.40772806528112,65.98230291672772,-7.7066441467745745,-119.53990718253453,-90.0,6.000000000000009,-3.566849811608489,-14.502479897046436,5.095103335955669,-1.3034754086825198,0.37553644145789516,156
63.17655773235731,57.70030451615258,-73.70133305104109,68.90522443190221,60.771009724967826,66.95619456805213,-7.547478932109681,-122.56618390210646,-90.0,6.000000000000009,-4.113856964031497,-14.612965604044941,5.037543357487117,-1.2978988037501158,0.41930629217977616,157
64.38197716494624,56.74346129340449,-73.95407490567288,67.69302644671727,60.14337664755787,66.84395780596931,-8.547621215199394,-124.77870660892225,-90.0,6.000000000000009,-4.813278202799918,-14.377454338653788,5.037244505938324,-1.274096356787917,0.480031488285463,158
65.82876064838051,57.06211472333607,-75.12293923559814,65.42602161303158,54.352606282410356,63.329896418414,-9.224179564502856,-126.8713708355345,-90.0,6.000000000000009,-5.848039221120557,-13.29227058349233,5.46924073569974,-1.2685209572910043,0.6204873142391629,159
66.91876114415442,57.941341736570095,-76.51546093572487,63.72729002593478,46.96847695097944,52.4930460470875,-9.787064233097658,-127.14492203468056,-90.0,6.000000000000009,-6.481956669627599,-11.54961223805224,5.972559297772386,-1.1892372980023895,0.7403557510791424,160
68.06919694386616,63.101823498848525,-79.30930121141871,59.60024371619143,14.873538889371597,36.2699812618121,7.696581238123113,-120.4576489144914,-90.0,6.000000000000009,-7.055520909763814,-8.408835405239367,7.077392025259518,-0.9963128396568802,0.9376564372473261,161
67.86341139722718,65.32525447113741,-75.39015645155607,59.578782344093554,-1.2306033468540345,33.03159965590609,22.53247970078986,-114.31877174328831,-90.0,6.000000000000009,-7.948170291858339,-7.314618765222952,7.599424920059381,-0.9107076498011032,1.1217835738501367,162
68.60178860483367,68.81063077706584,-74.05249768667738,56.71291867413039,-21.93815796639925,37.2145696248806,38.23913089935413,-105.49168359677445,-90.0,6.000000000000009,-8.003116708332012,-5.9766032047976845,7.879775799271324,-0.7536328929054245,1.1604095693557683,163
68.00628677698286,73.42313193808867,-71.8437904451031,53.48184300678874,-36.179299848224716,45.975865054227164,49.92385764651701,-94.87253693016697,-90.0,5.999743532646714,-7.550786935997185,-4.691427489152473,7.324298217079244,-0.5423447114489878,1.0062471582988355,164
65.46743142591149,79.19901585192308,-66.7350469708244,51.703914578908936,-44.09572856890669,56.317626242299376,56.292753398654625,-83.5648466708218,-90.0,5.135485799234152,-6.426237588880069,-3.4501049438776086,6.095708336563831,-0.3325278667461335,0.7046846610499243,165
62.236217783614656,85.70706575061872,-64.82778043036342,52.935323179223005,-48.41812644654714,70.38566199540885,56.820595272677465,-72.49841345701442,-90.0,4.585159015387409,-4.766776911000561,-1.9424084287572807,4.10801131520785,-0.1273973368770285,0.3472432446930156,166
60.19804078594784,88.22542404538191,-62.88190760281474,53.76649809096825,-49.06747960406375,76.85916537176836,56.49127469586526,-66.70298694666468,-90.0,4.600499282847626,-3.544881943431901,-1.272316495074806,3.280750994661978,-0.06714489438419009,0.20520976138738684,167
58.25716352550864,91.24016490452844,-60.83643526301361,52.528376343509706,-48.82359690317146,81.97307567037636,55.743165036349986,-61.74536473714687,-90.0,4.6354990345745435,-2.070880360044736,-0.6775831621739322,2.4208407128717053,-0.026791295315730018,0.08811455000738488,168
55.26119903874522,92.1771398585013,-57.80882005745713,51.00719225439809,-46.724451563129435,85.4131419604581,52.38254580234989,-58.13456304636577,-90.0,4.790012025055142,-0.48558186254070784,-0.31253291731819527,1.4096150701198755,-0.007541687444830666,0.012040149423654481,169
53.16008490978767,92.4308364702991,-57.15805107007974,49.408546464157205,-45.872728752789506,87.72932770782944,51.20053017380009,-53.731479124840575,-90.0,4.874840717310834,0.1411930921609241,-0.21597872760085002,0.35242342042947455,-0.001331147094797577,-0.0008643821147722457,170
48.766056588796694,89.4164100917907,-55.738420472529725,54.93636603004436,-42.26681314725099,87.38696767532112,50.059317910346465,-56.38401743126419,-90.0,4.720184016866483,-0.8797477569483135,0.08178189973822272,-1.0980569341171602,-0.0014058486227082657,-0.016875419303524146,171
47.34696707824561,87.76053856182882,-57.46088914767536,57.22378724165207,-40.6393540357041,86.70589513993258,50.376919556500255,-57.939935907022324,-90.0,4.4417406509186454,-1.6125741469184225,0.34417821508990637,-1.7197024046290086,-0.009606473335230195,-0.048561035495073214,172
46.91831667112102,85.79878967690297,-58.77777932846968,61.718324971285945,-39.63363913283939,85.24826462074087,51.0114110177255,-60.68274937380565,-90.0,4.191023425744514,-3.6659243443261533,0.7758887113398862,-2.966431667579144,-0.035318045813379606,-0.19101198835957184,173
46.441072406230525,83.94413151930574,-59.64117078605892,65.17928573905232,-38.379342514860916,85.08069685927687,49.86886670618873,-61.74014465821764,-90.0,3.8600019848855176,-6.314833491624561,0.9879371728930185,-4.526284550468814,-0.058670224050133314,-0.5034401412831484,174
45.9613630915737,80.85387258571834,-62.34092792360185,69.8411577558575,-34.54389802390585,84.64984856894758,48.85557747587854,-63.079946245991614,-90.0,3.7911892816894257,-7.961538633282725,0.7382640968207261,-6.232132161642253,-0.03357077638746078,-0.8742384831851968,175
41.729813508849205,78.48842373348518,-62.09335140577517,72.02735380249017,-29.7094791633862,89.60878172592584,47.37786926018451,-58.3123234516647,-90.0,3.6210851291378927,-9.222673204503376,0.32378141206815514,-8.85396581222157,0.0603744933970298,-1.4358666169002605,176
37.59002558338355,76.18436237575526,-62.71813741368045,75.3094609409095,-25.89220248591158,92.9809172694538,46.936635594683835,-53.595175115016595,-90.0,3.4269620675205936,-9.831852255151826,-0.1985107041653149,-10.655158441080404,0.2085227054871748,-1.8328829261883468,177
32.152660415113296,71.29941295533935,-63.32810332886837,83.01658759623191,-20.563890240820513,94.49393704223709,47.71219928596645,-54.978592413558616,-90.0,3.401507826170932,-9.330399894716855,-0.8582161912019624,-12.031281910961589,0.3882970133579583,-1.9440259051766702,178
25.992200030618065,67.02005136480874,-61.72764003509094,89.9709406701559,-13.216566442217403,97.51196467869039,45.31985309288195,-57.26954217404562,-90.0,3.3590488273316557,-8.248352411310673,-1.3497791934284444,-13.163154017265601,0.5292183430623169,-1.856637458947014,179
18.419624808404524,65.11395565799326,-58.89530344599506,94.86696640566068,-6.942665747767951,99.8503779076194,45.58401442767322,-59.27502635321897,-90.0,3.1389499197844812,-7.767598722271545,-1.796880539618219,-13.358452738396654,0.631045988499089,-1.7577672741674952,180
2.541190359275195,65.00917205863367,-52.95234974387557,101.47318682256267,3.27255481303944,103.19226613012763,47.1654173030483,-65.27483776564345,-90.0,3.103546272164656,-5.894892425966239,-2.295787579269047,-12.511466034565078,0.6410871901358324,-1.2273507514884883,181
-5.061041930819795,64.9757454200971,-51.34522018292774,107.01696985852205,6.649629410782939,104.43384740005688,51.062700335714844,-68.29805368022072,-90.0,3.376401170191798,-4.910936591980395,-2.4906144803777055,-12.41597434660428,0.6532418956853943,-1.0004131959229503,182
-13.199171932161518,65.59097191843308,-50.23642488930521,111.4259588740728,12.741974705702455,104.86264746987398,51.004376156504904,-71.97900376863939,-90.0,3.736552421690358,-3.0374792795845935,-2.817712917259211,-12.126904108251075,0.6612686754875119,-0.5758399779039011,183
-22.37672808894347,69.74167030991465,-45.909089657938786,113.61381643441663,16.330593967494437,105.49884044495445,55.42370752584969,-74.8425606836253,-90.0,4.544324999650063,-2.3404766686517826,-2.524704294480709,-12.057236377747355,0.5799256199895934,-0.4334687277620002,184
-28.031246302676216,71.19343686824084,-42.26261542998362,115.09804398166267,19.221946201492628,102.78398895067615,58.74063454138325,-79.02216661012059,-90.0,5.324879830858009,-1.6098552780685813,-2.2673697981511287,-11.531287440315044,0.4862185484316716,-0.2761197726142421,185
-34.0051227954813,77.21791990323582,-38.503726418745494,114.64167781412377,22.80353097800789,99.77110950877983,55.449978286286026,-81.39995269881058,-90.0,6.000000000000009,-2.913702590060758,-1.7697569152388262,-10.304651116677544,0.364179512134175,-0.4931393975679509,186
-35.68267748692139,79.94747981507062,-38.96526315800415,114.06165153226284,23.19224503888679,97.89384434379028,55.55394276407373,-83.02134965040395,-90.0,6.000000000000009,-3.9169362105805376,-1.426241222272539,-9.198932570052941,0.2790816764853937,-0.6088525952098965,187
-36.26829854515877,81.77932684635489,-38.623183221275035,113.32706834279391,22.22941602360391,93.87090821820726,53.57981163672121,-83.61153771398108,-90.0,6.000000000000009,-5.1609089933352275,-0.9204406160320214,-7.762749966798453,0.17228850110667301,-0.6905964933100851,188
-36.020660343926956,84.70527987741265,-39.51966953066509,112.44181571672279,22.351667353540417,88.97645326180398,54.66828272220304,-86.74804368920417,-90.0,6.000000000000009,-6.7033710110195655,-0.3112481356396697,-5.312701156622897,0.05794942349757655,-0.6222058925607176,189
-34.297891935262825,86.28791515618859,-42.29684375835749,112.76102678773917,23.55950529804923,82.86634040158036,55.22092850429346,-94.93194370391186,-90.0,6.000000000000009,-8.235842794281746,0.25550506727422373,-1.9070281611577005,-0.003998109932826342,-0.27611492636075985,190
-27.725457106309765,90.18322460017008,-45.44350413876107,105.6368443664725,22.732634981990348,76.74774819080056,55.0979987888226,-101.23038467785115,-90.0,6.000000000000009,-9.66693617717657,-0.6480511036037836,3.5370740813017627,-0.02196659571151706,0.6033469615168061,191
-23.583431087113244,93.7080645593438,-48.580305153685515,100.36332912852635,22.18601838005145,75.23601949982744,54.26043790736218,-104.91550595511943,-90.0,6.000000000000009,-10.239648491142354,-1.245105856994232,6.25972810410557,-0.07626191272448361,1.1358977669824568,192
-22.601340294361098,96.6598701786835,-49.49931796579736,93.55713627536133,23.523312390475073,72.76608971454417,52.96110020141622,-107.46754118703922,-90.0,5.3768557650319755,-9.972650014417669,-1.5601174321827613,8.540521268583724,-0.12356384002567035,1.5133592594953826,193
-17.53313763525126,99.1247280353489,-50.648217905895564,82.05058146969156,22.876296898525563,70.62719456052263,50.92795960376152,-108.7881875608125,-90.0,4.480263000800123,-10.396277260138815,-1.9743983309528368,11.372440808732803,-0.1895308581647073,2.1113387781997934,194
-14.719214448206943,101.4350015677884,-49.89973956548345,72.36032711092871,23.458018596984505,68.98472299155418,45.566780929595275,-110.76120514600123,-90.0,3.6325693064536786,-10.672568470709193,-2.5858188710526275,13.767274452010374,-0.3162448479860175,2.6434174176514222,195
-12.321754307948389,104.32022999112215,-51.67825579602911,62.685540655198686,30.478009054513464,67.76010887224736,39.73833227983244,-113.13597807156016,-90.0,3.0463073386802626,-9.685756113090392,-2.747172098153465,16.675731996916593,-0.388828015331213,2.9210928525705966,196
-11.841917900945342,104.99999999999999,-51.70214239091664,56.87089601069517,34.95241303040988,67.45445325318431,36.59247968159986,-115.58806577619968,-90.0,3.2843712831455023,-9.06337365185,-2.775304591931644,18.076272964918115,-0.4213465471381795,2.9722691052346653,197
-15.144102298798341,104.99999999999999,-53.761728318680206,58.70798529890406,41.22263306687967,69.58616878281818,33.56501054246888,-119.87511030352128,-90.0,3.610481633699743,-7.629334594289896,-2.1802545703278327,18.48500318746933,-0.30169952141317,2.5455399399941716,198
-18.70542152758984,104.99999999999999,-58.30931267349626,65.47873513948062,45.11123266822844,73.27602844108588,31.372076485187357,-123.55638465279091,-90.0,3.9210023670027323,-6.707282298277208,-2.340905635930355,17.584664501040866,-0.39746342010297425,2.1447272014913534,199
-22.874413333299202,104.99999999999999,-58.122007765737386,68.93635370509202,49.87963018997653,78.96007866027087,28.07178730709566,-123.31339674227992,-90.0,4.315334320450995,-6.408917079134695,-2.590497815255574,15.810021562789803,-0.4670126998800532,1.8510610235437979,200
-26.965341284447263,104.21523928786846,-57.56466034642122,74.40163129142555,49.88915209281674,81.24737391419116,31.892378033831168,-120.28165972091261,-90.0,4.0108497355165555,-6.9553618601103055,-1.5144990307609112,12.135007770941963,-0.16459192807583192,1.5031004487576674,201
-27.7587373624714,101.42092431914942,-57.65488666056381,77.62597461240024,49.71846338100161,83.41261630660136,32.88581142102925,-117.80669675500715,-90.0,3.557302057585648,-7.66008771114187,-1.091877914359931,10.23309309732476,-0.0731605417709743,1.3863446859700612,202
-29.003116236744596,99.27079152322327,-58.738451313522205,83.2926639019863,48.746728472996324,84.17602776202523,35.713934481066275,-117.02630743246374,-90.0,3.1038248647194786,-8.424021105070826,-0.6300133180782277,8.537573960069793,-0.0005269599131257772,1.2667084271374083,203
-28.61128312283733,97.25880955518797,-60.99761975208388,86.09000871351492,47.41561754311208,84.17062024999751,38.21208391260664,-116.8189838166533,-90.0,2.7513537594133703,-8.62902720350127,-0.34226368953252084,7.61140227854034,0.030756310263959204,1.1547246685757813,204
-27.921820792903645,94.63914478739429,-62.24797979608695,89.06137790913671,45.61081132616218,83.75166687265882,40.72482533180043,-115.20209432642437,-90.0,2.395751260881152,-8.568321522103652,-0.13645143649261102,6.362646070313327,0.03788407794188631,0.9575678615436796,205
-28.125982542048572,93.89484309555404,-62.12678051893711,91.40418487378867,44.07377381731674,82.74483698649614,42.682421937818376,-114.3972468761161,-90.0,2.0933839635848566,-8.595733021535356,-0.07902488743971925,5.867291315217413,0.0372028067424305,0.885792602876046,206
-25.778514906917103,88.64451531491862,-63.199710062302394,93.55233115094863,39.2920475374897,82.30754187188117,46.715506792206085,-106.68418055272991,-90.0,1.9816489442817813,-8.326268342029005,0.10162568588558087,3.262531992612933,0.019436367760980962,0.4770642714766667,207
-23.596845257203416,82.90229286077981,-61.67627875506513,99.65138176751044,35.80405748565116,82.86933267237669,49.73290900307352,-103.70206704184204,-90.0,1.6842692718593435,-9.074519310759658,0.03851674694523394,1.1694397551000915,0.002702150704957414,0.1867599653179353,208
-23.604985502059716,79.69596788588736,-59.08362270630299,105.65676290564352,34.8446632815277,85.0654645987421,51.09368013639692,-100.83905978747458,-90.0,1.4600322809862918,-8.633894065492939,-0.018971837146165575,-0.12540964621223172,6.28417285201546e-05,-0.019042257371122976,209
-25.55470496429114,76.5083494366877,-57.50888313182765,107.00369974408471,33.4267578135346,86.28900204682972,53.41917452184575,-94.4670447265755,-90.0,1.8672652889698913,-7.521291766589737,0.26703901678168046,-1.4579081071347795,-0.004404312737768265,-0.19255370174408068,210
-26.995469417844326,74.63012056633426,-56.840914152174555,109.89256771852571,33.56908629706062,87.01684654994745,53.53276729069776,-92.05225785845083,-90.0,2.2167665789637225,-7.011212535170721,0.3843012728805599,-2.2410021645869427,-0.00975145720906818,-0.27582809302234423,211
-34.782363890819276,73.58491796223451,-52.26822507216351,105.9593661900007,35.001999296503776,87.58804419939335,53.581488555319204,-86.2172563520151,-90.0,2.8425581000338025,-6.075130658408694,0.57225438362634,-2.5402588985332075,-0.01951448181374114,-0.27083176511544216,212
-45.57436701330129,73.5817280911019,-43.89126862207588,107.06552383177453,38.66805981926523,88.59119469774909,53.16385847641054,-85.06655447740332,-90.0,3.5652800661579747,-6.042839614717875,0.9163600955500991,-3.4584667306677876,-0.04454491512756457,-0.3675537691039687,213
-58.02408000130055,73.60266730340165,-33.78808386229495,111.58674603482996,46.385816720664515,87.57314260502827,50.62019567129117,-87.63918732794095,-90.0,4.082304744393864,-6.227429603346319,1.4090109153286439,-4.733881494950885,-0.09566035043130953,-0.520754345588586,214
-71.38290081909896,75.95295811481766,-20.582785965806256,118.10141770088913,59.52081608977223,85.00969123195951,40.6573130660272,-95.49067358592517,-75.77196755318373,4.473319636871797,-7.703829790564554,1.619013763754653,-4.811376284278437,-0.10974352157887708,-0.6557522391892195,215
-76.69233321568673,79.25805995418894,-13.716984586896555,121.45066461149452,63.665522828627225,84.11802333921949,37.87365994495839,-100.37957103510544,-65.44961573106885,4.718582875080363,-8.610765389314825,1.4211694384089597,-5.191007400437427,-0.09447837449534352,-0.7907734034345119,216
-72.93664985319234,80.23645451439657,-2.7717667993064605,132.2304754677596,74.11309567425853,80.00843268587752,17.516851976511603,-111.0969081434515,-54.67697918339673,4.533157237495746,-11.419644616044403,0.46564734510398414,-1.585558400917412,-0.008713514203302703,-0.320405682159418,217
-64.1624006950552,77.57869277340075,1.775779336819843,136.64893739877834,77.72709422431552,75.57695505362443,-0.7430630655667829,-120.67348189582411,-39.70544545126209,3.5792005676783742,-13.725966930494364,-1.561679331758318,1.6846100943817712,-0.041218977968586056,0.41207028196194,218
-53.63547180694296,73.77944442636026,-6.234667196625071,135.70456113863625,73.96289797078417,72.48377677707519,-4.653202960710821,-128.50747689271637,-8.094794839029847,2.4565190989198062,-14.851005817416086,-3.8019473707727363,4.077414058625795,-0.24149728776511326,1.0895947672601733,219
-47.9942079738713,73.29155090911951,-17.884955382140625,132.3353151567231,68.1155834356509,73.46528748285454,0.3332350384166962,-134.01460623875573,44.72094614619729,2.496762920355294,-15.217689350206516,-6.210248001886714,5.136948005086805,-0.5152731566235697,1.4196231414595955,220
-47.54460367621313,71.77536270141377,-22.01748958272563,130.28977225358202,64.57092197516383,73.08537070914527,4.7926445692664945,-136.93899666106824,60.849378331900155,3.1460157518390326,-15.63807287417617,-7.0790415360777,4.761038286623743,-0.5571554246467336,1.354739238426799,221
-51.749078172128954,77.91760390387329,-30.604450884738984,125.25608466646872,67.67772135651762,78.30234041353451,11.85459874389809,-137.50736297496496,69.99801390372522,4.489168306823065,-15.612503877196671,-9.072043173327515,5.84966394225979,-0.8827931043897708,1.677426695402198,222
-50.75429524616965,81.28683120502221,-36.5706228081029,111.42995521517464,73.12916893486268,80.12491711334141,15.77215998132895,-133.39373553589326,75.40578818402193,6.000000000000009,-16.055622891499283,-11.382677685279187,8.19149452964065,-1.5356863365007987,2.4616022061207805,223
-49.515524295257364,83.7160438161154,-38.11765939089689,96.68802867830853,75.57672503850891,79.45562065681001,15.993760354501246,-128.54070745019627,76.45948841226608,6.000000000000009,-16.830385083950606,-13.709311302732686,10.04147418021912,-2.265880380530829,3.224256827647667,224
-50.71097230939851,85.84956905218914,-41.0229262312475,91.82148761691376,83.64690755845416,76.7173194483076,12.740463365640684,-130.31755222808124,71.79805898137222,6.000000000000009,-18.197397517294753,-14.920805456742197,11.916041719753867,-2.8861346627401727,4.196006618719919,225
-53.11176861997227,86.5908713004371,-40.42712077809547,89.81855367287766,87.94937141312343,74.88328920554935,11.364833502974069,-131.1806448750947,70.11758159068243,6.000000000000009,-18.417669420460875,-15.48387448574111,11.905394826490724,-3.0115719487444945,4.253683079094414,226
-55.97328998058183,88.50712910732094,-39.82052303919891,72.59855998051411,90.81587063963805,73.24671343270019,12.761163555945094,-123.44201564966973,66.07327669240527,6.000000000000009,-19.415669743693133,-14.871981036918186,12.061090364277526,-2.8968928363656037,4.530202039180625,227
-57.85568053723788,92.05342954832653,-37.23953469416717,57.610888623454294,95.21265734089147,72.10322540780746,7.8671500743282365,-116.37249049335944,61.34812093879872,6.000000000000009,-20.115101163983127,-14.053379767827673,12.880272183574002,-2.848434049730076,5.010072996036243,228
-58.96956591073464,95.1954826580513,-38.20757576404966,45.54513842289157,93.71782819088344,71.39301615489612,6.122152836139976,-105.56416416902259,58.486392921711676,6.000000000000009,-19.7089274886849,-12.597890423088206,12.690896195650987,-2.46619192817275,4.799364244429379,229
-60.182848144455185,96.46735728630016,-38.19670381278915,46.13299873107815,91.01099085089744,72.3317846285626,3.6822307856523615,-98.21568327295212,55.134920651680126,6.000000000000009,-19.058701575438892,-9.52432623385817,11.660316873803675,-1.6385213883414305,4.187057050194583,230
-60.9628501700653,97.06754486758562,-39.09825255628565,48.64659685599617,89.58899784773253,72.98128926685543,2.4657114902463593,-94.18110434933722,53.149286584635746,6.000000000000009,-18.59518913137347,-7.66603190877555,11.167175716160681,-1.2064564498541508,3.8718200873227997,231
-63.56077005888968,94.17560065195697,-36.87456048930927,56.583106669796884,92.0322177625609,70.0921658262302,-4.95229494962102,-87.66726811547719,47.18525860908326,6.000000000000009,-16.131191961400198,-4.688852501885095,10.781119473183372,-0.6215753813131445,3.1802485018751874,232
-63.07443819789013,92.5990672098051,-32.85851824433244,65.01009104682983,88.8448448370663,68.55060393789135,-12.031939768353258,-83.90185013311748,45.20591103430384,4.9458390445562195,-14.647123937995271,-2.226332049249529,10.215240824275078,-0.17086018673044745,2.6906678578498977,233
-63.185075597668366,88.25315474318388,-31.78059055130717,75.41899083661063,88.19319406220357,66.83789155542998,-14.482350698139584,-87.63281646992115,47.73817181097748,4.425332480769917,-13.106436288472013,-0.8441857423133029,9.502762640437,0.03994955057187677,2.214156789184123,234
-62.405220434885045,86.17937993985034,-28.479350787855235,83.33220694036018,85.12351137877461,68.27124277114548,-17.37265947910888,-91.40560339436703,49.285457654770426,3.6969274251698176,-12.241378790231767,0.05529686495064626,8.274619045347269,0.13759124197335104,1.7887870670897332,235
-61.67808494434479,87.02411598500734,-27.051325299108747,83.8685949732124,82.6301224525834,68.68036102525582,-14.20697391736087,-91.36225654638265,46.41522426255912,3.395187049872923,-12.209460330152243,0.11676169467699271,7.49800207253001,0.12162432918049049,1.617035256371111,236
-60.59222408694727,84.73625526707596,-22.788496673593762,93.13569729697934,80.59006217500054,68.38851278246244,-17.626288084217478,-97.48093242109934,51.08052337425555,2.7976570002518506,-11.713866942696692,0.790405716855958,6.275035013640511,0.15945702833063125,1.2939610004879576,237
-58.86432189968138,83.99255643082913,-21.475617340270738,98.85545095902286,76.26642590862176,68.28494880971162,-15.369655805774364,-102.60695403744326,53.88828809642394,2.0040616882451427,-11.124426454026894,1.349151018987651,4.945764841924952,0.1605544750381488,0.9664241396315139,238
-59.448868084196576,82.00729805847217,-21.586148930282594,105.97597741240092,73.73872724884036,70.16181090556091,-12.914787576088433,-107.32964740322258,63.256432602617885,1.3923201300017407,-10.028479676859849,1.666812181166316,3.3118108943914715,0.1147546649962884,0.5826029493276085,239
-59.15121861145201,82.17506698136805,-16.306507401924822,111.76738020809626,70.8149652617064,73.17335028081239,-11.337945625478772,-111.5725910859066,80.15641142910627,1.018931620284099,-9.419150308868344,1.7478139646989224,2.026633802057288,0.06862613024962527,0.33505658831783225,240
-59.013112092926704,82.8763752866852,-13.699848328163803,113.97722047497058,69.6145281803242,74.86159140572715,-9.611865467376921,-112.76509887947574,90.0,0.7779742637403028,-9.097493876015523,1.5814288716987956,1.435213713195409,0.04300501281895522,0.22930644766619068,241
-58.51962678727015,80.20259767283216,-7.711183690434708,120.70391399115529,69.51741455935601,76.79071898196634,-8.529942532950514,-117.2287603101015,90.0,0.7163517171115013,-8.899645261121073,1.670309637993187,0.5290749328768352,0.015998818393462583,0.08277608358505814,242
-57.92149230970914,77.76344943709495,0.47549094051597224,127.03679848335887,72.20245796466412,77.87540929949043,-10.448950493829898,-122.91045922232095,90.0,0.8979308249586129,-7.908724667987915,0.983782354312222,0.7954227666215279,0.014556912963691696,0.11040012920420436,243
-58.49183868710054,75.92905955533887,5.545920877811755,132.21496416966772,76.57130869543937,79.19877987812391,-11.296478725770902,-127.33883338985764,90.0,1.0378052030995444,-7.30712540365774,0.18052303743654924,1.4768166711317847,0.007131105871865132,0.1892911701922789,244
-58.876245654793195,75.22682846780131,8.358302679081316,135.49454026850833,79.34627748051918,81.68421325826435,-10.90915608660259,-129.3451241041693,90.0,1.0281906918632409,-8.04202160623223,-0.27237730623975126,1.9828605131599437,-0.00467079047174596,0.2802626312756797,245
-59.72797044957503,75.3050871968923,10.176413214185745,136.87079244138258,80.05946916636573,84.18887765122027,-11.259708839604379,-129.85460245403308,90.0,0.970118437680836,-8.912701833371734,-0.624753815925862,1.6326158571598017,-0.01437012876063588,0.2562482486774516,246
-58.09349781210488,76.74774716411136,-0.9831621130331214,134.89583323794258,74.61362446953625,84.50638959771409,2.9570745787758166,-131.73820402692905,90.0,1.1332552776348688,-12.298820182415435,-1.869641869133808,2.0842387885107123,-0.061347584133756336,0.4555030775057679,247
-57.53943982814665,77.87354724309799,-11.412709509126046,128.2897707275915,70.44755245780398,85.61315577910389,15.088195040805514,-128.82894535664477,89.30461566246827,1.877624091368893,-15.031918384627412,-3.6939881882162875,2.5296472028842487,-0.15400009962680997,0.6825836550558652,248
-60.27041760280087,79.20398343392135,-16.57490011271252,125.78922556113797,72.91013343471332,84.71370386046323,17.902908000583977,-129.05161929521663,76.22474169234887,3.385445021664256,-17.514121317983985,-5.818433547877445,3.588231869331096,-0.3473872156499555,1.1424583328155873,249
-61.14726399867056,81.29702306030111,-22.743451013329366,122.3542451926013,73.49722173629316,84.8212119923041,20.909412430370967,-128.05806179268146,72.62152325825794,4.586066899780839,-19.30680504123208,-7.492164013817627,4.238724609155999,-0.534337155306731,1.5028559383247484,250
-61.24177974525617,81.84988964650417,-25.491903351418326,121.74027693624683,73.56045830925895,83.20568017462445,23.758103333007387,-128.7141905250503,70.76303938017624,5.659981324026799,-20.03504852933545,-8.319338972824449,3.9518523781662505,-0.563902787124512,1.458425261523365,251
-64.23616883438207,80.11056259736688,-26.16024145925664,113.65286489449129,85.38100861648238,76.6702963761179,12.277970362018431,-130.84030330402626,65.40595949206222,6.000000000000009,-22.186676492848555,-10.020989351303186,6.000375948220436,-1.011221707541189,2.492953338429206,252
-63.78095860955811,80.81210589063308,-28.196216146759216,96.57400180853197,89.71809619776803,71.47436204187068,5.811822530528555,-128.73340658021573,63.109145574007826,6.000000000000009,-23.939538191237535,-11.738114064623966,7.672288380073404,-1.5022110408546299,3.4906562243114028,253
-63.67214682930983,84.7708230124638,-30.812395777043296,76.83987826605302,88.61866405731882,69.93651530391956,5.392010085994239,-126.34959431828963,61.12605395681243,6.000000000000009,-24.874615594933143,-12.52937999086041,7.931724664218249,-1.670819372234797,3.772364374945697,254
-63.0315385929459,88.04824364651223,-33.50511159369163,62.86004630781595,90.8205713955444,67.39394496577187,3.0504469137099486,-121.82932991888265,58.488083980173826,6.000000000000009,-24.295884388472846,-12.709828923149411,8.264037088576009,-1.7566175184574857,3.83604327019885,255
-63.931231981469104,90.32852224792855,-34.25943614394897,62.286831320608975,92.50790683807281,66.87389761699573,-1.1927919915764909,-120.09612258160602,57.77831493640829,6.000000000000009,-22.97606535044523,-12.664502671252063,8.479381809415115,-1.7841298519508648,3.70816842061676,256
-62.70273442736257,93.19878379466174,-33.406631707624,50.42748484966935,92.75761272748237,64.52260443626088,-4.129831371745486,-104.16275521201693,53.9689427150872,6.000000000000009,-20.76351267162796,-10.355467095722998,8.692899203824453,-1.4356263494802841,3.3941275208059576,257
-62.98273307526522,94.60065850673693,-33.53928548026737,47.99797118108303,90.37446379452922,64.41759111829056,-8.779820135979108,-92.61587456804126,49.79362449123055,6.000000000000009,-18.605059721540297,-7.661123005622681,8.225727434102557,-0.9622434751749002,2.834438687723673,258
-63.58312265736314,94.34216124004807,-33.580026692213984,51.185975611305366,88.28938798827853,63.76964831522995,-13.075790862262364,-84.58069965460183,46.306004913196176,6.000000000000009,-16.4291748339843,-5.171766961608083,7.779667922907359,-0.5754881867279081,2.332869972970789,259
-66.65793009969754,91.8744176553358,-31.44561474861559,62.056780425893926,87.1284965511813,65.21231454934257,-14.115554032261882,-88.07815824280367,41.875405258371,5.6740510372720205,-14.421339355743765,-2.3425042931835915,7.416457951227936,-0.18904108957466145,1.9210916653266426,260
-67.3977343196601,90.41362955192801,-32.154346315634804,65.72845707329958,85.96795673635536,65.71758232708656,-10.734763361551689,-89.35843306542668,38.29285627913388,5.2414222455179615,-13.562126203710895,-1.2224554094655644,7.40865287533395,-0.0467876138821563,1.7923593751387712,261
-68.18455224073865,87.08796891971609,-26.233564151448338,82.1920442968794,83.86170833799424,66.12919895765997,-11.282907989237673,-96.4269326986568,27.15216392662684,4.015983797532761,-11.527878933393948,1.9343210222482028,5.8115108626412475,0.26015043292017437,1.1736251449187796,262
-67.27282921849594,85.10825867994659,-19.01979597698942,99.09924620414628,82.60176555564237,64.73455505588628,-12.51219168819898,-101.29801801288964,9.692748109210461,2.9304430657524385,-9.901149440774686,4.1152844109933895,4.208272117686864,0.33421251245096334,0.7229576994125174,263
-63.20164066023792,83.92064229280595,-16.855460081863846,111.58992564109907,81.19067726433029,63.2122670123424,-8.129473389085529,-101.21949333826892,-21.779005154553563,2.5259368257515162,-8.868436318942544,6.277078008920122,2.8232825501757612,0.32517222236257576,0.4327864833927837,264
-58.19560592376386,81.92019942043503,-12.756509376732511,118.9466664691721,77.76334220227314,64.29077680175233,-10.626051401841668,-104.2878823836926,-36.64472403276787,2.017668632329121,-8.232029355705453,6.3534453014359205,1.625158942724819,0.1861905300838502,0.2325457549214705,265
-55.58133940312399,82.08797340911092,-12.314945196354605,119.46026409261697,75.56879415755287,64.75131974644681,-10.644031762518173,-105.03666357067968,-44.45223755920828,1.953435757568687,-8.118389722388516,5.823374449542501,1.8301060136541467,0.19272164006867534,0.25806748739870744,266
-51.01291781076857,80.09896869336758,-8.463091815701457,117.40731503395348,64.49558847093004,68.39166110301582,-8.0562786617388,-109.56234770293042,-39.458338305922524,1.058461572682082,-7.79129711335058,4.570501449027903,0.5181697440397566,0.04213055287324782,0.07071376436758312,267
-49.48500014906418,80.58449557883272,-7.307166467924674,117.607424573582,59.31004112245874,71.97754594501494,-4.550338655152266,-114.9170050995656,-41.67361278258289,0.6785869717126749,-7.891520074225824,3.4232192476120815,0.1652868278017212,0.010014749117727303,0.022896356942939344,268
-50.46902590699817,81.46722757933709,-10.445160297959053,117.61264236399599,58.23737594640602,76.70952081759354,1.1998098819170104,-117.68945184074634,-46.1116331471434,0.6572345935036548,-7.959348567462155,2.4090911578257352,-0.0670530492894852,-0.002842957559945343,-0.00937681451829912,269
-51.966982732767455,83.88774711744378,-15.446474099944588,116.50952913986906,57.173390577417514,79.97801120974889,9.986044772024531,-117.74848796380174,-53.925131633197104,1.085790708359885,-8.330077252054801,1.5522461629377868,-0.5308821585836718,-0.014178888762476067,-0.07779679260512468,270
-52.09707092961047,84.53954087720273,-18.57293934057752,115.82590609161332,58.08898266749471,80.84203898387648,12.114013204880951,-117.51669759462969,-55.32670945571777,1.490872419689377,-8.614013426802387,0.955216225143126,0.5062072068870754,0.008875131522504643,0.07664546765386127,271
-54.362027631891564,90.40139399456831,-33.5886357455888,113.9175584364296,58.16333841597005,87.6825207821051,30.206188191742328,-116.47312494548117,-57.42289769112621,1.9252213622622174,-7.923526369292463,0.23342781979959687,0.24845909063425464,0.0010969821298492319,0.034578259323430297,272
-57.5906781929676,91.48297860002296,-40.45741160752532,107.59966448586644,59.36536877475872,91.44146600559111,39.076729925271245,-109.75658871386715,-51.543729706390316,2.8317881273823073,-8.960081849177,0.24566152503263697,-0.23041101013203366,-0.0009270702348163933,-0.03633084746173608,273
-59.80677451031398,90.91241766493216,-42.963015942442844,112.91447176053103,60.06225169426216,91.67139114762544,41.560747736471114,-115.82744900096135,-48.55025447030472,3.522141188562342,-8.856185090783654,0.25521521885060355,-0.9806674835868323,-0.003113116541751121,-0.1528298363681308,274
-60.42729109615688,88.42447582274528,-38.318519318140886,116.2288372627474,62.20048354604322,88.64788030704281,36.82271998525606,-121.0118517818359,-47.72560585760368,3.6569217845879964,-8.718255659371593,0.5271852324079462,-1.3974527679375648,-0.01039413787666892,-0.21443018408131692,275
-60.20552970672368,87.62806362352744,-37.23757413980848,118.81154118913156,63.14095956678756,87.57807260339565,35.08416043234106,-124.41920539414,-45.3074259275529,3.8638375505628657,-8.981897198940027,0.7162501541165632,-0.9329853969191939,-0.010607274594341104,-0.14755559304962748,276
-61.00473316669339,82.10313838747636,-28.993553749835314,116.79108151154111,62.346369901004486,82.75672326798467,25.8830472896879,-125.35493930206188,-54.080990965346885,3.768896767913128,-9.665661756621724,2.076386098516035,-2.718673827709615,-0.08895392284549983,-0.46516830953674604,277
-62.46865666636998,79.08510243215122,-22.526617588566584,116.95317143898723,58.75734959982369,78.58161257024227,18.514867024076775,-126.52879109769633,-62.92104104517311,4.890941883640563,-11.634041667250921,4.029163251755663,-4.155177061168869,-0.2674227016131807,-0.8651526782827887,278
-64.04695160243514,78.08548079498424,-20.290289269823305,117.10677546763786,57.409989774225146,73.27369674724311,13.895283153406854,-123.66904812295788,-68.75734034380866,6.000000000000009,-12.916951045856566,5.535716571761311,-4.4227843463534695,-0.3998841018983818,-1.0294241221201443,279
-66.60106192064995,76.8011318908077,-22.33308139424917,122.00136952776128,59.20650124590513,70.30483996399848,10.612365236960626,-124.1533994998877,-70.5801742855488,6.000000000000009,-14.528295978429776,7.733578299035703,-4.32920783013503,-0.5636571421666193,-1.1422357184911327,280
-66.34622793059039,76.65775852136325,-26.574291943025223,124.77289625478653,60.69812138856283,67.14233132237418,9.311296460103687,-124.69465280267356,-71.0799308643893,6.000000000000009,-15.188440473737016,8.621383889706353,-3.095453130557567,-0.46286338839854363,-0.8521061714170172,281
-77.2629624896548,76.06862763022187,-19.889032197952098,127.20870093359135,64.41260282326691,68.28711295075665,10.217538278327831,-122.8057613372992,-69.73679013887931,6.000000000000009,-16.581069695909324,10.639569344205455,-6.041145520569506,-1.0840107617252261,-1.8522622772753625,282
-84.68844020886436,73.04550043228242,-16.471429400257154,128.8315582241657,69.10239451710021,70.57893402234129,12.891594619628798,-117.54336853765527,-67.46521492828043,6.000000000000009,-17.202484882247294,12.19209593896813,-8.136477738185029,-1.647785146467463,-2.6283288925478328,283
-95.57424429958589,70.74504165157514,-6.7247339864428275,126.6156897170481,72.04667278670426,72.12254934240913,13.793203341946752,-111.17270928566309,-63.216871711179564,6.000000000000009,-17.563756244124793,11.846925541985936,-9.542651828955744,-1.8290921687572907,-3.1633593774657425,284
-101.92943063323295,68.92224952784724,-1.3138273822286421,117.95619646218275,72.1052666211262,76.36843651669113,17.968340402250302,-104.19372268287916,-60.188922119541054,6.000000000000009,-17.04009785327762,10.866723050735272,-10.65933624653074,-1.815423028571032,-3.4281990309696653,285
-105.14647623378755,69.87519401845745,4.132335285258142,114.06645919030103,73.42235901344861,78.82456922464858,19.828921803176385,-101.98297441411354,-59.20017033127802,6.000000000000009,-16.5257298378166,10.564465165365537,-11.046147662573997,-1.8115636455792048,-3.4455818481162503,286
-99.03898480902107,71.19755021632741,3.113565493145344,102.25040179699045,72.00006260720025,83.1174650754172,24.129513530462688,-84.00626463859336,-58.98065540479776,6.000000000000009,-15.18418546611485,7.652929196318579,-11.491901574295007,-1.2735222031477322,-3.246858645947089,287
-95.24094844005982,73.60166747012298,3.8653512293094203,93.5567010039399,71.557047004635,86.5387665807693,24.18035402804842,-73.26371363081887,-60.226007033732586,6.000000000000009,-13.79144328883392,5.106125678250089,-11.962967456259317,-0.7858885564648364,-3.023758132583091,288
-91.43894323043564,76.00122244629716,4.551351111097941,93.07137038542429,71.089522426324,88.10878202989099,26.773486833530747,-72.82419782686821,-62.053645518861536,6.000000000000009,-12.56512805722172,3.1360194096132483,-11.678103379580822,-0.38635490554545504,-2.648999982613132,289
-88.86993309421281,76.3108093527047,4.0506090060788225,96.07772241140356,70.37411455076412,88.64807274752403,29.21285491713773,-75.53271969040856,-63.96058998941087,6.000000000000009,-11.226586502942537,1.734424686461795,-10.95713328970448,-0.12885049139903088,-2.1931084673247163,290
-87.53997337461237,77.43669111711793,4.405865593329795,95.92117306010991,68.80510907796244,88.42265982568823,32.70997375035396,-75.26968638495842,-64.46995559171545,6.000000000000009,-10.594466464955776,1.1627844870764996,-10.367411680681482,-0.037946169960819946,-1.947614625449525,291
-86.87256806162722,75.8719864028298,4.910863348287482,100.52090025100384,65.8886479217824,88.46831792939133,34.77730021374733,-79.07108560963847,-67.05120055550725,6.000000000000009,-9.626077730874668,0.4396864944231571,-9.772415885597447,0.06531497806518483,-1.655946853942698,292
-85.808096532352,75.87064239648852,4.079477020998219,103.75552241627126,64.002063294545,89.32667885500254,39.61674008953589,-82.12456723953106,-70.24218428995636,6.000000000000009,-8.464902173615007,0.10080232075686296,-8.459779629440728,0.0777943425733209,-1.2556403039079382,293
-83.54705127309263,74.4016100303738,4.262524663238569,106.77987262128836,62.00445334433528,91.13748165503144,41.64075927148994,-82.30164646105065,-72.17312577553705,6.000000000000009,-8.164422302395872,-0.489544268082566,-8.019655822162285,0.1494170333490582,-1.1421512695494513,294
-79.45282977544635,71.19800074277487,4.4960926999605135,111.87524315270241,60.8800931449097,90.66323514225502,45.800831060231545,-85.62563977010582,-74.98647560746741,6.000000000000009,-7.9008181353686515,-1.2778352092903562,-7.091442115557636,0.2201729808915416,-0.9719734722180026,295
-76.85291316442384,70.34333512763757,3.102125084256014,113.19460095667355,59.85417323314838,91.24166752709387,47.08523383939324,-85.72626285628735,-75.54516470153585,6.000000000000009,-7.934471707409873,-1.638697567954665,-7.110356874101791,0.266352748655842,-0.9760222422206233,296
-72.92065183188943,71.67098475256655,4.581399467690063,117.30291699496743,61.130176523237985,90.61234291342763,43.824878537098336,-90.57792066472473,-77.57164960353268,6.000000000000009,-8.183747594535724,-2.092644892748844,-5.9620819121641215,0.26435397863257476,-0.8446958419400628,297
-67.00752435235962,74.30075958570936,0.5749022323993487,121.34860127454866,61.745539516248876,88.77915296749428,40.22581104069109,-96.25241084225631,-79.03391582421011,6.000000000000009,-8.13758737356465,-2.5765999394974366,-3.859731744398436,0.19395253157222755,-0.5457062472030245,298
-63.65500878547657,76.90934684270776,-4.336947438946671,125.45292276822649,62.524303314537285,86.57273003229618,36.43713029255462,-104.39613127562478,-79.77768668459326,5.3820218705736895,-8.012579290794328,-3.3228828374953316,-2.225433001346083,0.1365560866979123,-0.31070088690947967,299
-65.35514749196751,74.43169019494069,-4.179456382780958,129.99111277120932,63.83360111421266,83.66955655317796,29.9366482139495,-113.46913465970847,-78.8447801549067,4.521193381131728,-7.623481129847069,-3.8633091740736347,-2.5752473274254863,0.18318125877514194,-0.3406981519637892,300
-65.18400289682204,74.3451660026461,-3.6258511260627704,132.23258352397005,64.49362065626754,82.41174712767767,26.22343860204023,-117.88923947466337,-77.53732076212049,3.9356158836642434,-7.712685351041673,-4.100267794027549,-2.9672837484102033,0.225019739093236,-0.3962270610018609,301
-56.483343528194396,75.6820459511095,-11.898937991041926,131.888339709752,60.624552030959144,79.97507843842195,19.020283362753496,-124.62136082961297,-81.55012171520131,2.752206359075593,-8.705277320058983,-4.583964891597433,-1.5049099682088634,0.1250971190287417,-0.22883366664904706,302
-48.498852525132556,76.19236255510198,-22.301901881507266,128.19326279391535,51.96899870440862,78.05491185473232,15.082522006883027,-132.02495673771907,-81.54046662515657,1.296680506403232,-10.893132457093419,-5.3446768293682725,0.10270033819937964,-0.009766419595200826,0.019772635673076213,303
-42.326512387365725,74.4352550227943,-33.48967506005067,120.62673053350876,44.1349709525425,74.46139545390596,14.244575953441013,-132.623783747738,-51.46558169674433,0.23626236798792577,-13.026628167054033,-5.376666958167155,1.2212628738927698,-0.1149307545894948,0.2837178560187598,304
-36.33988844967816,70.54863126713784,-43.231716341237664,116.24862530330022,37.612734495207576,70.54172008523614,15.815195077817858,-130.5926772672872,-51.46558169674433,0.3449655029081795,-14.836944238764744,-4.707902018049176,1.2090990825244028,-0.09959830552864453,0.32127996046240076,305
-33.13416612761595,68.76441566783717,-50.58750744718782,114.1404579664078,35.2532589400034,69.11415817372783,17.81100415955073,-128.45964005502296,-51.46558169674433,0.7731199869786045,-15.54449043052359,-4.671847746793059,1.3120966139763242,-0.10707932687697357,0.3661197142512362,306
-31.61425927792253,73.59759269297828,-57.60908046663272,107.67202631196024,32.955705183549505,72.85421977255949,22.764321218133276,-118.11642268021801,-26.920500776979992,0.8303198592826606,-19.056002406273524,-2.6617686712084905,0.7965330391255115,-0.03725989862366451,0.27537144544859066,307
-36.210717846105304,70.7452282795876,-61.333615377743406,100.63367829359206,34.668266537321784,73.85996604634607,30.350882090071575,-102.95850512534558,-49.867061183184234,1.8662470935148778,-20.66273128315206,-0.523250230087452,-0.9774791191567801,0.012685201539287937,-0.3685470089172653,308
-40.673828488758524,66.9156920848985,-62.88460534646502,93.6120954379586,36.77820922289879,76.80359153386325,39.77248219325283,-89.41139016330504,-54.43210397196165,3.2899237824606993,-22.043234001781027,1.8369403685450176,-2.615390298494528,-0.06628241209681285,-1.0604009875243308,309
-45.49979906994034,66.02345411039937,-59.98199452549952,84.57515393362478,39.228668417732656,81.26408934270893,42.62636122684279,-71.78100345063123,-58.79056615659077,4.652976183925958,-22.53870496861751,4.087629833471341,-4.020506564470972,-0.2520768630031578,-1.6764139257639616,310
-49.33504222694942,64.71293041934553,-58.31825237106208,83.55644190618979,40.03619840168697,83.41448824544308,46.64203079298903,-67.88492730447629,-60.792729186433846,5.563001922422656,-21.384690261032766,5.125039367597939,-4.815437039946269,-0.3835717838124606,-1.9002387718695375,311
-64.77875783142652,57.90743351289168,-38.602291036478334,74.83621545610497,42.65794705530315,87.10606679241239,46.19447263922584,-55.79751373025984,-62.81816974769001,6.000000000000009,-20.2905837149404,6.71677745091779,-7.443882953496073,-0.7516406534930243,-2.7976171969379573,312
-75.0887732225956,58.6135052906593,-18.83531900125847,69.79771057575091,46.730828001364394,91.04021139237773,43.51119256841145,-45.32070332096584,-64.39187396314001,6.000000000000009,-18.473559907181137,7.788464483217838,-10.019139588248567,-1.1416319440298663,-3.443346566163352,313
-81.91826025040565,62.075956302307084,-4.869487325723897,72.75705018754793,50.86991411958001,94.91608538491293,39.7823501336996,-38.51916331633018,-61.70203130046649,6.000000000000009,-16.821439664557193,7.016569337265145,-12.647118199616578,-1.1888085769682895,-3.956911116243251,314
-86.64256980168427,66.17297313307321,6.302814976605851,83.35259978317788,55.09162458925683,96.05777747254245,39.79644906123766,-40.947660026751294,-60.54786836673889,6.000000000000009,-15.082258963598301,5.494410669743467,-14.264937884338607,-0.9282780124800419,-3.9701187932785453,315
-87.93809386280543,68.67835409838311,14.435600474758216,88.59924463586351,56.836869503805296,97.13892486233858,39.16816687824257,-41.84961466478371,-61.11558715307144,6.000000000000009,-13.767685703033562,4.996118046191515,-15.207735546551016,-0.8595055142625627,-3.8545192092992973,316
-88.57945051165574,71.18284842680929,17.900013278964625,102.69646842262534,60.64100318761142,94.77204539351057,41.069047541495785,-58.04265997861557,-61.60987355715254,6.000000000000009,-12.124234770149874,2.7639039585017238,-14.639951018978666,-0.31524478865751787,-3.2000064039175724,317
-86.17386044554107,71.25699953660707,17.644920034639203,113.94595592540014,61.29711818072167,93.48880400054425,41.24269246791289,-71.8001432812397,-62.276360669310996,6.000000000000009,-10.743221117937418,0.8468405604458932,-13.813184145663172,0.10860218503124905,-2.620449432778492,318
-85.61415056992078,72.59793301040266,16.002297148334222,117.04559291794139,59.56599178488218,92.97182573723943,44.466599513232694,-81.19077702297145,-63.46219186885656,6.000000000000009,-9.20145753662555,-0.9785313400167994,-13.430129768860043,0.4843882535192838,-2.129754316365056,319
-83.54951736935149,75.25685314450502,11.146018206421864,116.55060582985675,58.94972816100862,94.0361004142764,47.79296863065144,-84.3857445510882,-64.82556500448192,6.000000000000009,-7.904096631162533,-2.492568872369102,-12.289752211465931,0.7188635474581793,-1.6367311853462643,320
-82.97278095367018,75.78920562317143,7.537295439684261,115.97579799006495,59.056833867436254,95.09914251095047,49.11455454364014,-84.2749480710251,-65.43292367667225,6.000000000000009,-7.217033570247406,-2.9458480375046068,-12.292758894076224,0.7997619687311034,-1.4777464823506872,321
-72.59265988882889,74.21110244351654,7.420501350716552,121.68164699305416,58.99581220785044,93.5754053742629,46.760229522144186,-90.75666772090995,-68.90173399089565,6.000000000000009,-6.870548175528715,-3.212137222350116,-10.00273088477629,0.6679358365140855,-1.1506332443097929,322
-88.4377443648817,71.86242746252437,2.869181753106641,121.78965160370865,78.54890360659509,73.93293084480293,33.336670289156466,-101.55538064713717,-62.45972463965159,6.000000000000009,-9.784252984437979,-2.3746833228046453,-1.7861792196027937,0.07996403444213021,-0.30683580251861087,323
-100.62531093860636,74.0365909370982,4.832043839187538,117.83578227080318,97.25972643636813,64.91365392726364,14.091388609657379,-99.09902629951246,-58.820109594375246,6.000000000000009,-12.006815757028416,-0.7594911613329249,1.4912237199649223,-0.016080615113901343,0.31737169379588503,324
-103.8800127152257,78.60903396797146,7.350809884879338,118.88105191069896,104.09970628191037,68.4716075221975,7.670605927075159,-97.9665010318825,-50.33889773338361,6.000000000000009,-12.225793137219418,0.17999433563624184,-0.3326984148637528,-0.0008601223268210477,-0.07209130551514573,325
-106.39797440447786,84.2827734692717,11.048840408638041,121.7468380094421,107.04307029807347,75.17811939778711,2.650727168935887,-103.22649759483977,-42.0537644130593,6.000000000000009,-12.25006777246466,-0.03660734695265567,-1.128072718161528,0.0031485955637288645,-0.2449079976058592,326
-89.12114901563788,75.3506773014545,22.163378695210344,130.35140974654013,97.215305806242,77.23995276562901,-6.026330494866954,-116.21567803043341,-30.490900731421508,5.153863054769755,-14.983633653976339,-2.4070200059675098,0.600509190032764,-0.02528673849228878,0.16084649822111965,327
-70.75090358413927,57.00537501044028,32.30130873939312,138.11062277709308,78.05488369493489,68.95644822856573,-11.81291956376593,-133.03306485082894,-18.80251829450469,3.5788673671598277,-16.92420194068392,-4.232568817944843,0.8920873767633968,-0.06688153642920112,0.2719258848132005,328
-60.10637693380434,39.49917614928843,29.55135829229228,135.21943490868844,62.56203555178304,59.83785640903309,-11.399686295046683,-138.68436048706099,1.3041053990808296,2.120120440895423,-17.222706465949415,-5.695389155355479,2.000878363199181,-0.1979411022899857,0.6234240265513358,329
-57.3627657227317,35.55953878563979,25.3194930941229,133.49043634755319,59.624246124795604,58.97811355335442,-9.842619854243324,-140.5743584455313,21.385171879238445,1.7842567226699615,-18.11958712532865,-6.664793251724581,3.0008646485454022,-0.3427300129357587,0.9901774418341601,330
-45.533817506673806,26.526619047809533,18.72128736581191,127.13110787202871,47.7701970852581,45.776688672471785,-8.37522198048544,-138.80876441531092,38.283833001115866,1.04399364846795,-18.14448083964465,-6.428518142860592,3.746403870711776,-0.40329022379645496,1.2398824491176188,331
7.976720050904416,14.309897517921677,-29.427192006812536,110.54143965067315,16.002974664706542,22.604860861644372,8.978788584810541,-123.25985725752169,90.0,0.31386217429659463,-15.43684063667227,-5.0021522902597155,3.9396718320587842,-0.31981233924928515,1.0984404363303453,332
54.76442975077816,20.333130252116174,-71.43977343739571,88.20405368027004,-27.220755201690622,17.919640992111827,45.249310542447574,-101.70157139719008,90.0,1.2908253958653988,-11.400538025966982,-3.958498422473585,3.0106217816220546,-0.1964128999604386,0.6121610449347575,333
73.32812482078104,30.869348489390553,-88.45836238182206,58.770599662536064,-62.10797168613989,25.334175585361418,77.58669088116305,-74.4372231496969,90.0,2.2498077719860263,-8.535736518843771,-3.2616672171568,1.918631398438099,-0.10570798652378027,0.28972115469192394,334
78.26440018024051,34.23194840877563,-88.62710219928687,50.9927033276694,-67.97783997979137,28.818921931632374,78.30499192957373,-68.33368538281998,90.0,2.6517320021556188,-7.893418510922291,-2.880176463267313,1.0885603418716032,-0.05384986863144213,0.1514289296701168,335
84.26480250632599,39.49056534007845,-96.9440545673437,35.85851979358234,-76.43618334659244,34.31205015627024,88.39675017264277,-51.16689677092072,90.0,2.9330133944013257,-6.052006572257483,-1.9675701156108363,0.024688586854562624,-0.0008523426863553001,0.0026177158587566726,336
86.17979192585575,45.706560073148374,-100.209414635889,28.298822862089594,-80.505002447395,40.43924791712717,92.54936993973286,-36.894929060151306,90.0,3.0990832947764266,-5.159051953267679,-0.5777892150255975,-1.1526417571140093,0.012717382495622733,-0.10394467892063346,337
85.59739932170496,51.04115178211919,-97.44772597091854,28.298822862089594,-81.49990665993998,47.03261324872088,94.28654739093638,-28.656506445017104,90.0,3.350404681838117,-5.318033581721729,0.6321475875852669,-1.7524807729257301,-0.016921749607439366,-0.16339824565926647,338
83.38514217161895,55.32434819702642,-91.28179072306392,28.298822862089647,-80.59381334183942,50.51475096194443,89.3675195257847,-28.298822862089697,90.0,3.643590651635503,-6.800690885613024,1.3635022948295281,-2.0473159017964533,-0.04470155789930096,-0.24496562329737107,339
82.65419093397296,55.659342296722485,-90.76658671719574,28.298822862089953,-80.95879127285737,50.046747133370765,89.04238052165371,-28.298822862089953,90.0,3.703265356309,-7.542842181079848,1.8364898124895859,-1.9573749959748246,-0.05886555691859731,-0.2601950871806747,340
83.32814754895904,55.21041036133658,-90.05501262793815,28.29882286208962,-82.16619505464332,49.39364023613173,89.32975303095515,-28.298822862089672,90.0,3.8802555572806376,-8.63945883895635,1.922110782400223,-2.3596123442459604,-0.07268574199056023,-0.36003190848546995,341
83.58420336732094,53.596555374429315,-88.676255144206,28.298822862089875,-83.47319095490704,47.24389287642279,91.92799744716265,-28.298822862089825,90.0,4.46364373086361,-9.69911208500598,1.6773353304540275,-3.047844740249027,-0.0766418493120869,-0.5230274420530084,342
83.7949958835836,51.10098905678928,-89.2701708561295,28.29882286208985,-84.25929902087151,44.73991191160554,94.26837830134716,-28.373605409406135,90.0,4.682816727778038,-10.832235953255541,1.210030884853663,-3.9969341286647793,-0.05921508559353207,-0.7670760575892283,343
84.30339478937162,48.62215249756474,-90.5047343272912,28.298822862089953,-83.9402326060341,41.81039432370594,96.20582661994487,-30.31804855862129,90.0,4.662442304550403,-11.366043812187264,0.870292181976104,-4.753634621703357,-0.03395130466382923,-0.9574478812897425,344
85.0587044983111,47.72922934039354,-92.95683497756264,28.29882286208985,-82.968234637745,41.612797948110014,95.88774406746681,-30.375673879023594,90.0,4.698267752049259,-11.254874130706801,0.6209941172659302,-5.110041100919658,-0.011080591032115606,-1.018024967820206,345
83.9199619536689,46.901114182564996,-89.7320063341344,28.29882286208985,-81.69353324004258,41.724687658066415,95.54732755368649,-30.204409011362984,90.0,4.664971611508508,-10.8673531336835,0.5178043874836558,-5.358301933777163,-0.0011728153005913626,-1.0294558603858106,346
82.90005515685485,45.44974263717189,-90.1234432736909,28.298822862089647,-80.1800904359202,41.54789593280782,94.99895185418075,-30.08363095523333,90.0,4.2708421116037405,-9.418734242898992,0.11629474625114813,-4.9376326749058395,0.02512588856612483,-0.8185184297227761,347
82.67246831685844,44.07906703618637,-91.89501407031439,28.298822862089697,-79.20813220153038,40.96445600262946,94.49665776643995,-30.53696947465632,90.0,4.105237981330194,-7.44687952853218,-0.2642220007447193,-3.8160048213920295,0.03433966804343041,-0.4978446232363242,348
81.46983262000687,42.269582633834744,-90.34221159907166,28.298822862089594,-76.78274574725809,39.51169739052601,90.3958532915655,-32.054235752294,90.0,4.122633904130582,-5.766457466132789,-0.7629095989154993,-2.7490728304342036,0.04343932484354317,-0.27663574888051523,349
79.65721893584191,41.869534459444715,-87.65112012306156,28.298822862089953,-74.01566965164754,39.493504514588125,86.19974130072434,-32.97386620386043,90.0,4.102383097516323,-5.052915390303845,-1.1353047304885142,-2.1489305502179064,0.04630675804948024,-0.18916742836878578,350
78.4507103230117,39.482227218955146,-87.10673305231026,30.467485078625796,-72.60936585692237,37.84498927836944,84.83699882095796,-34.88024246288003,90.0,4.133393788943667,-4.767236603312009,-1.3662204580922692,-1.752055469224333,0.044159561673417745,-0.14545606591202156,351
78.6797914445814,32.681876318440054,-88.85878409973064,34.886976439405814,-74.56285051684114,32.38924859688024,87.80532576682079,-38.58136303205222,90.0,4.170442745607574,-6.140190058454206,-1.8562738695456935,-0.406556243077856,0.013407511923415872,-0.0436899485634417,352
81.28688477237417,27.61122366982323,-94.48860852605954,37.25499241190302,-78.00521633342248,30.361925820622112,90.06106635349279,-38.07982373035524,90.0,4.225145794325573,-7.824871805799962,-2.06218680935826,0.6883301572113524,-0.024448472931819083,0.09473912592765593,353
83.66316870816321,27.00060692114253,-98.5355397212304,37.199274786820226,-82.036966031583,30.15776855026424,95.57605687274902,-36.98585189717035,90.0,4.302500910452809,-9.366860582407426,-2.221329715536615,2.12035424747407,-0.076859081055258,0.3511847824800407,354
84.50734785717802,27.137989166769515,-99.30106986407566,36.88509874443455,-84.11870990194457,30.435602000868574,98.11814947656896,-36.27359716562128,90.0,4.309901456611093,-10.224946762542453,-2.308534421724466,3.1831001032024084,-0.11435962139967777,0.5773773930746764,355
84.94734416135105,29.030070944235643,-100.2926423543559,35.9673132027362,-83.80386304875267,31.568453309434116,96.33128336845431,-35.517948625121235,90.0,4.434498491343872,-11.118694473422634,-2.5203579789458597,4.474109162479211,-0.16613815466399878,0.8859683955244233,356
81.43447002004221,33.554592745193084,-94.52969272236476,34.563142180390244,-80.45603396486807,35.40042722901583,91.19987382471092,-34.65282584895089,90.0,4.715662203388313,-11.363956788327982,-2.6423245723980826,5.3898332293235365,-0.20235460625955579,1.0931562248372977,357
