JMW9912/AVATAR/install/dynamixel_control/share/dynamixel_control/data/csv/poppy/.data/waist_test/3DoF (3O)/0410_1217_13_18_three_DOF_waist__poppy_bvh_motor_degree.csv
theta1,theta2,theta3,theta4,theta5,theta6,theta7,theta8,theta9,theta10,theta11,theta12,theta13,theta14,theta15,frame
-97.099104089024,22.036573542586765,97.1767163078459,28.29882286208972,0.0,7.195600481468796,-67.37306584565091,-28.624566344912036,28.880907609534308,6.000000000000009,1.2498088126880578,-1.3807756505068154,0.16477843651807952,-0.003977889875868406,-0.0035892133048849675,0
-124.10911530959957,92.04598474625102,52.67872760011109,28.29882286208972,41.4751808783709,103.12673286108735,-67.37306584565091,-82.3421001820755,90.0,6.000000000000009,1.2498088126880578,-1.3807756505068154,0.16477843651807952,-0.003977889875868406,-0.0035892133048849675,1
-68.60682213274912,78.84423175429266,-22.982535678966766,117.59760059993728,66.98363263817969,65.07528795739391,6.544957309189413,-142.37127179706968,90.0,4.999982293134677,-2.994391824445905,-0.279793772587142,-59.08248680075385,1.6983767119005642,-2.4360190035954363,2
-68.41578707240362,78.66092246552712,-22.621319976462924,118.5241467488289,66.68540273241697,65.14012476359149,6.696795768829136,-142.57311814819704,90.0,4.680056472026839,-3.082875972557981,-0.08906927775929334,-59.27986373777247,1.586920485144674,-2.610188623395151,3
-68.34590480945457,78.46596019734488,-22.06921837313302,119.45919602840345,66.47064315719635,65.23980454936891,7.058081210704357,-142.91820524598342,90.0,4.545924274410357,-3.2262112471096414,0.07411741933976382,-59.50314131782371,1.527439927338382,-2.820439620827998,4
-68.46047313472506,78.2802075101148,-21.592358569671482,120.35427365185994,66.45550802631259,65.50953708873159,7.772124833848033,-143.13867282592278,90.0,4.490737036503291,-3.365599187804575,0.22163077907528556,-59.68564319239735,1.4778879778974905,-3.0198078996635958,5
-68.47510004900478,78.0744449199333,-21.51296090702207,121.20981293050151,67.17618709549339,65.95778331566184,8.293546350068915,-143.3198080436679,90.0,4.139401007689609,-3.3761171468624513,0.4598085880354029,-59.92948680811115,1.2884283252190076,-3.1558248032150487,6
-68.51559284715557,77.87292764744825,-21.488808401085866,122.14146023418867,68.03246426586513,66.29308247050905,8.514958358847906,-143.69355672027643,90.0,3.8889160247407215,-3.403609735867724,0.7369037582488904,-60.2187194280895,1.074816132940717,-3.329761452700554,7
-68.63115169553507,77.73265944669593,-21.300703307667884,122.9581809631307,68.71187174234323,66.53351754249573,8.885167578579695,-144.09368913867337,90.0,3.992338238437777,-3.502894480263583,0.9336775530985386,-60.48112362276201,0.9655333935672424,-3.527027974368076,8
-68.93527273954116,77.51830856270244,-20.97055293142082,123.86083237445852,69.41475807362856,66.84270547773285,9.48192065250202,-144.66567213526795,87.35350444155597,4.121221791492932,-3.6225724804585298,1.1643915898039308,-60.665858113527435,0.8333953767768673,-3.7577015485280922,9
-69.38947918899979,77.20315664248695,-20.74635533986272,124.8341039315644,70.27290338722975,67.21708224918456,9.950773372455263,-145.02431166623197,80.32844581943829,4.094309238878475,-3.636173510941871,1.4329378257163934,-60.81471825766675,0.6119286449416348,-3.9143355945844207,10
-70.26774713019708,78.67735568750126,-19.36837710147968,125.74657270972857,71.78254292992965,67.60122524873312,9.80046450012541,-145.22822013729836,72.85215869717298,3.838754667266988,-3.518784506295768,1.7854050333716665,-61.11297308465083,0.2545248989006387,-4.008674056517621,11
-70.59139386524544,78.40326995341165,-19.533799308860907,126.48797529066105,73.7850990406951,69.92342843512165,8.301628828356453,-145.54515649839223,65.07275838457511,3.871739951937339,-3.451023350799165,2.125022677543163,-61.464257838184054,-0.0664920125831571,-4.1459168355983085,12
-71.13056674035845,78.07091326505154,-19.43559020777513,127.15378657249872,75.55246033335906,70.3704539063831,8.785427108876897,-145.84203076557833,59.14457225125735,4.112151461935371,-3.4020089474176674,2.425291977947928,-61.65814278906176,-0.35048061557808274,-4.271881034337545,13
-71.92117991140043,77.71142888773133,-19.388651022710125,127.89577689507371,77.12521145246174,70.00319610714055,10.21014019448221,-145.98315451681947,53.2130381453574,4.342994870380382,-3.3593340392148727,2.734970396452188,-61.73387357884584,-0.6440951167051816,-4.401746984471838,14
-72.55889161677067,77.3769447905465,-19.698000571670992,128.54287111463708,79.27014439802134,71.72102276276361,9.37478952181219,-146.0376623513836,45.89468919274455,4.432322903392335,-3.256475854042117,3.0987283610217533,-61.935055984037696,-1.014588522483699,-4.516810526278247,15
-73.8178761919415,78.89693743842797,-18.522075315092263,129.0407274163068,81.03194260732604,71.37902731348603,9.768165439577158,-146.03725091895114,39.93625884783878,4.581349291457264,-3.1720993329395846,3.449917295370624,-62.19962575342958,-1.3645561210415977,-4.648516547735027,16
-74.75548855907822,78.49739845282045,-18.815557579231385,129.49564206581627,82.96707817225058,73.1734303159785,8.991333399603546,-146.06208439538793,37.45704030672209,4.906360576174766,-3.204216404726228,3.7395373669998007,-62.38770716682717,-1.6009583865937234,-4.846912680947935,17
-76.05745990118174,78.6672190737271,-18.51181631808791,129.95214193777244,84.73442209644459,73.15107337930336,9.918559362487787,-146.18347257448465,34.38154143478105,5.297476821454422,-3.2289470496418042,4.041879367600396,-62.567438312818545,-1.853519276719461,-5.046568334226383,18
-77.44585352212212,78.82715535274444,-18.228040507897862,130.43470208342615,86.54777461183191,74.95331899191436,8.900938527674734,-146.12611669439713,31.79507774532689,5.52200612241383,-3.1746472847340277,4.277618084135553,-62.70970483232752,-2.090549280884229,-5.138035044592677,19
-78.87641041730403,78.93975391721608,-17.897274771779117,130.75703355408174,87.53290669379835,74.7186927087056,8.914802321536813,-145.98367718511722,31.949365567862575,5.62393534712736,-3.1256576747218894,4.381138652857018,-62.88445259273464,-2.206914153382556,-5.166506889568026,20
-80.36096551045365,79.12891444935207,-17.571311149671807,130.83416415794719,88.18607284745524,74.50148125689313,8.783247022296786,-145.86250606442064,32.87370115669256,5.580122929915269,-3.087805910189087,4.410307811703506,-63.04475733899981,-2.2513812714141883,-5.163471150431809,21
-81.67574407117655,79.38948120633933,-17.469016619026075,130.85208318116182,89.16720722502092,76.06470445369715,6.8901703291051115,-145.73317053230352,31.488440625244753,5.290387420709911,-2.935338014026713,4.491165278822233,-63.168398704203476,-2.4053068056179283,-5.082840302746413,22
-82.8008031255702,79.47176081741297,-17.328689134802058,130.89509922294678,89.81194919881744,75.56502939442842,6.278631578398523,-145.55155509541072,30.303516942517618,4.955325589270434,-2.7475715647282164,4.5702299584433455,-63.27075873618847,-2.57778230461447,-4.967754571060828,23
-84.0166516489913,79.52041476435151,-16.91594086449399,130.87206141194264,89.82469419898675,74.99333419564022,5.507679419560933,-145.2970893077322,32.9253281458976,4.672522264501479,-2.6841431301742067,4.548768116510904,-63.26784214385333,-2.59325184939379,-4.898976450514703,24
-85.11641780416495,79.61400859097591,-16.530607241739787,130.78967523954037,89.42423508618806,74.12406833109195,4.2163535317057415,-145.08887100382435,36.416230840845635,4.378270423066149,-2.6796069257186894,4.530384946502581,-63.25816004934021,-2.5793197353358677,-4.883942825088545,25
-86.32189041785836,79.63836638872844,-15.999969002315522,130.81019103750137,88.82865220292395,73.25860773014689,2.900709867229583,-145.15856168372585,39.61705236789308,4.209007193546966,-2.7357376307969634,4.568444130558462,-63.23350163061312,-2.5829000582829864,-4.952737827938185,26
-87.30911698331246,79.6446777810782,-15.6431070800917,130.7105206636884,88.22372272889679,72.5933320673808,1.662539819744421,-145.19643855723803,40.63497347226162,3.8668932377842147,-2.6877950756322613,4.658233004160217,-63.223849877614235,-2.6895689584537488,-4.958202285036208,27
-87.45054243954823,77.94679649668991,-17.16298735253826,130.5508514492467,87.7420920805346,73.82850075447271,-1.107546483251314,-145.17916938543982,38.52308609495036,3.4384101516526258,-2.5520411040385116,4.838231070158997,-63.20477061315903,-2.9249351801507073,-4.933746022275818,28
-88.07522795703834,78.04181633292202,-16.999470766697847,130.39652655910507,87.21663845585721,73.04541939887673,-2.412226290366552,-145.29860080749876,38.114372063510544,3.04527542726636,-2.4883205596792775,5.002514730609807,-63.14828029127111,-3.1067745867812477,-4.961362143954284,29
-88.89884841997345,78.0538040205585,-16.49157041916575,130.3766395559291,86.30097309494285,72.49480982512324,-3.3930271805599137,-145.40317203676167,37.497459053024436,2.7584435520887807,-2.498336778419342,5.168763073025157,-62.9256806572788,-3.2496624683084723,-5.038988927244394,30
-89.62741218267735,78.14032745453625,-16.08965628551705,130.4416087253637,85.29579810147722,70.88010765120805,-3.741110197947173,-145.49297495796432,31.874443845002197,2.4394691391768624,-2.4528140838846437,5.423074443416254,-62.651074054579354,-3.500049930453157,-5.108276707271766,31
-90.2439639352435,78.25816641301435,-15.78689336056263,130.42671029660443,84.07911373170268,70.59668347069942,-5.460855393974176,-145.72781087007203,24.43868556496167,2.1970380907213616,-2.4155951493262675,5.722066628520837,-62.4224215368004,-3.784546362666849,-5.211883818584368,32
-90.91571105926508,78.17475936238938,-15.227812718865833,130.7231933511707,83.00020737419563,68.2324026195423,-5.664485042754775,-145.92498181980474,16.75826376230937,1.9739489051937422,-2.4304871674841353,6.001217382165513,-62.14052070087596,-4.021828321117611,-5.343072050439382,33
-91.50828347193897,78.41541287927552,-14.81740935894397,130.402022969924,81.80243881844966,67.80377838266672,-6.923560537202487,-146.12447403731719,6.333030404977315,1.8823214701896192,-2.502021696899986,6.302645849572989,-61.79862589425692,-4.247140335319803,-5.526388504360382,34
-92.29126524213406,78.43548993975097,-14.08022592231474,130.7103413456314,80.58905910364908,67.3032478294833,-8.26717305329102,-146.32094126521653,-1.3842240357586206,1.96382816873171,-2.6159574933247,6.631189480874871,-61.361544675795145,-4.471941196262302,-5.745752367123839,35
-93.22025968295117,78.41950063584308,-13.06002161367755,131.11110098503016,79.41036921239088,64.67415593195109,-8.072206702679287,-146.61360476443107,-1.6141013718322448,2.1583097261724373,-2.848455106509803,6.9522030026980355,-60.808985791452244,-4.626963349382246,-6.0445283469594555,36
-93.90567484545205,78.42630261131374,-12.175990832059187,131.2602507570835,77.91983568741554,64.06118855831345,-8.613963409172756,-146.9331434364966,-2.9951130688283287,2.3742169219346727,-3.090652978311414,7.273370199755142,-60.309269906283255,-4.778661952360491,-6.35150248154511,37
-94.24560812696252,78.52033583977344,-11.734924777968725,131.08685342931747,77.23576975498055,63.82539652909455,-9.24976633634493,-147.2276825260614,-10.598026769802761,2.545818359291357,-3.2155851868145624,7.596091268861726,-59.984957977090666,-4.992963534853353,-6.576100363859167,38
-95.2195618491626,78.58421504362265,-10.835772664955272,131.10122726054755,76.6277454622852,63.7646522418092,-9.038040642314629,-147.51933390100473,-12.301461253002488,2.753870842128787,-3.4295233890606514,7.853387933589721,-59.525446986942015,-5.103950919555312,-6.8212545800713995,39
-96.2492905122935,78.57883942677996,-9.872933014856413,131.13885834133123,76.24018055531008,63.8993739745112,-8.434331013545052,-147.7015897097561,-13.629404344258965,2.950496693695588,-3.6440808674742833,8.091456390413812,-59.08406742411464,-5.198909802692812,-7.055191804739631,40
-96.40574590773889,76.73681535911024,-10.914870009015425,131.055867232768,76.78090038516284,64.26438941571574,-8.677069004450672,-147.98520171941638,-17.55689153517608,3.183037401310155,-3.8093891523628116,8.374380984945425,-58.821243694110855,-5.35980709869121,-7.29215511295478,41
-97.21698708039011,76.77556864245932,-9.970501762018728,131.01267269869905,77.98846163175213,62.98683215501463,-6.767802925450496,-148.0,-15.238088647669674,3.3959176943551164,-4.145470706307455,8.621771698772752,-58.34684217970726,-5.4063698427772096,-7.619802647245717,42
-98.42206910105783,76.89358986765782,-8.655363732705432,131.0160828876567,78.91824998070673,63.86569656693319,-4.80987850613806,-148.0,-12.139419098447812,3.6372286082358514,-4.53622294525792,8.817503506875113,-57.62441552231744,-5.3821595897824,-7.920904623906388,43
-99.47051273597103,77.07957076749224,-7.639084178345939,130.99322270158717,80.47558906282106,65.00813873580091,-3.6965176865454676,-148.0,-11.965898980121088,4.068545879501686,-4.81443484782337,9.027501562595711,-57.00452288730795,-5.426003600730156,-8.143152722947889,44
-100.77161004476196,77.26450625048301,-6.429049726574499,130.90858372179636,82.12129693903222,65.25723237152127,-2.0273477472710364,-148.0,-9.983812184715216,4.302776012374899,-5.10487014347913,9.105378955846207,-56.32152267967712,-5.353866474017089,-8.2987482736676,45
-102.17841815506863,77.39716579972593,-5.20236304629726,130.81677742868612,83.93964141988766,65.73902895435383,-0.25019464862635626,-148.0,-9.323942480923067,4.433707545951275,-5.358453973757794,9.139636482449081,-55.69343987399809,-5.264964299370155,-8.410004129059812,46
-103.3732075863299,77.55122210723044,-4.306517506004195,130.746394164468,86.30103443144992,66.34747308565107,1.2382471020091557,-148.0,-12.02863239230997,4.744902729170179,-5.486800591181589,9.20247898638442,-55.20744429414978,-5.256771786542099,-8.453200510972334,47
-104.51295322756742,77.71872026659305,-3.5733683578798967,130.54829965740404,88.86144191754427,68.71112433239362,1.2720986695153078,-148.0,-15.495866351807354,4.962900910072582,-5.542158177931063,9.17153517105377,-54.82081574698183,-5.202769641652393,-8.413716439623313,48
-105.60488847926725,77.78950839941353,-2.87331915918416,130.34862814466572,91.77516519470224,69.06589555691198,2.6290449525847532,-148.0,-19.24811756144681,5.082401244226898,-5.552034844709079,9.11243372755829,-54.515503547167384,-5.1455707627364005,-8.340400616646903,49
-106.63600523906241,76.04611160740367,-3.5329016195236864,130.22249205702045,94.73117386954557,69.54193307539379,4.389215817420702,-148.0,-20.05104639203928,5.216000274810017,-5.645935351674656,9.040328549862991,-54.059032041026086,-5.04189963431832,-8.302692706698513,50
-107.80781599291718,76.42672280078295,-2.6380148841596713,129.92472465925042,97.13353632244153,69.76463158644121,6.675702556473251,-148.0,-17.752923472917587,5.317760627540917,-5.894330799855165,8.859904745572077,-53.46747235240351,-4.788625822309376,-8.321537412312262,51
-109.18560013680572,76.78241555429274,-1.6180206428035449,129.6489739837294,99.40346041853806,71.43835851885737,7.521291661955977,-148.0,-14.27564981854002,5.432661975844791,-6.188520328703351,8.59930122540737,-52.87876636596999,-4.4580061049004245,-8.346502607373557,52
-110.60060499128404,76.96479349069506,-0.5918490312409573,129.38397101187002,101.37262291971564,71.79071943334226,9.092040076014998,-148.0,-10.600254581635301,5.524394650530282,-6.4500226243395415,8.291879400358878,-52.43452938367544,-4.108960708366354,-8.354895147239715,53
-111.55865461597274,76.96486346023624,0.16537620631469507,129.00610429165252,103.90305733286057,73.66497010001308,8.767211097947094,-148.0,-7.749623679963139,5.696604656176174,-6.691737825737096,8.019229003790675,-52.226548210233645,-3.7991811947329572,-8.40543455211111,54
-112.44807952407287,77.03293671612768,0.876872124841447,128.67452988102505,106.02061286663896,73.51036008717749,9.809375844450496,-148.0,-4.013141722416211,5.843455407211317,-6.981955473262026,7.740970177458993,-51.992435804351196,-3.4693737692035644,-8.488678290310492,55
-113.23924997037913,77.27757303664718,1.5891909991748978,127.69667816535255,107.54777677795424,75.46527889541423,9.449094984058812,-148.0,0.6920163671082621,5.864807964272799,-7.403962842598261,7.359860966528031,-51.64421479406086,-3.013823901419188,-8.618539091715032,56
-114.06529659224891,77.53759057704279,2.1937203362528903,127.94289533992328,109.46447780458556,74.79534944620681,9.91948675970001,-147.51865066978678,-5.346020350929947,6.000000000000009,-7.423352743339515,7.526828558538293,-51.13699208938869,-3.1489905675104772,-8.603253762735955,57
-115.15733974100579,75.81252561265931,1.7087235015613713,127.52709477295006,110.7112600793139,76.59400768648432,9.378908574465944,-147.0580033860598,-0.016250225938849366,6.000000000000009,-7.845621524094506,7.247718140204058,-50.668931582678916,-2.7867328880796776,-8.748725760360793,58
-116.08243628807952,75.81654527967561,2.6479837220104434,126.96181306065176,111.40674395431125,76.39463039715247,9.962945114101643,-146.98039484014166,3.6311554547132063,6.000000000000009,-8.287186067075137,7.027661324585461,-50.36141120323974,-2.46579365859357,-8.960317664967686,59
-116.80524422063394,75.75785734285242,3.4128903768420358,126.83523060265198,112.53029684251135,77.62655883293515,8.313687778128623,-146.63195244632107,1.5231536549893414,6.000000000000009,-8.551245038787947,7.107875708335313,-50.089565134707684,-2.4446821929585174,-9.144779957704639,60
-117.47285370367246,75.73302733039912,4.1679458874324755,126.57585333018069,112.81520278920763,76.79661028981482,7.90272440701001,-146.22859165886058,2.02884716425613,6.000000000000009,-8.936937452085777,7.1223688258931475,-49.82951594466224,-2.3310755887123347,-9.401990809074011,61
-117.98386761521468,75.70511113636367,4.723371828258838,126.3243724157923,113.45555186102979,77.85256097825825,5.8002822192938925,-145.84584038966037,4.174480284704222,6.000000000000009,-9.404482434483553,7.067399949960809,-49.70957700259441,-2.1314925845439325,-9.725910805820465,62
-118.57931830046276,75.74873005905688,5.402275175509224,126.06921481831239,113.6114781694827,76.86085011542167,5.156758574074537,-145.35006804448153,9.61084690932473,6.000000000000009,-9.99182680190583,6.768777167486035,-49.534918154199374,-1.705216006945222,-10.049139785358303,63
-118.86714873320982,75.98128168722953,6.04862435331386,124.0319007548155,111.95419145543316,75.94892396364624,4.65187998870447,-146.330693780281,17.726418565682007,6.000000000000009,-10.84897584637502,6.022397325287102,-49.26871041795336,-0.8470237436101554,-10.415330661895103,64
-120.4117860821897,76.11360999634655,6.859195779182823,125.22716850311748,112.28697882682127,75.13206319227318,1.8250022864592235,-144.87211928276395,6.925792498012121,6.000000000000009,-10.744397608723943,6.528480576027073,-48.80008564312314,-1.3076887637834524,-10.405591914343402,65
-121.15652285458248,76.28252533936256,7.8305289867449765,123.27683533116209,110.37375261236811,73.39324334318744,1.8537040448626925,-145.30826838221932,17.145297033612312,6.000000000000009,-11.549916141848456,5.569648046579342,-48.48298922124218,-0.32202388696353806,-10.652886553817861,66
-121.88692255807943,76.64687608777484,8.353412874677035,122.66210796048615,108.68479732643256,70.83765238553768,1.031508800505661,-144.97295287453005,16.498177140695358,6.000000000000009,-11.831141638467177,5.254175770049309,-48.04251492189815,-0.025467515076849186,-10.67797332409997,67
-122.32161134918222,77.01816844963311,8.709441171908367,121.88718619556052,106.32879049493884,69.86253124384523,-1.0964609059315678,-144.71521817188497,16.704188616778836,6.000000000000009,-12.155374271247586,4.849468256005123,-47.66686924895809,0.3544058193416399,-10.722541141963896,68
-122.74881094517937,77.26207515758479,9.047877357618082,121.21664375426714,103.81256519281315,66.81821085543014,-1.7425230978808532,-144.38082602078657,16.381170345817864,6.000000000000009,-12.379370873317209,4.480694973013376,-47.39304237577467,0.6799707330756589,-10.723002358552383,69
-123.43207548977412,77.44176280254469,9.5596227430293,120.61485426509205,100.99455220480793,63.60474876512656,-2.10950895407255,-143.81560037994393,16.203485995131107,6.000000000000009,-12.500856443771662,4.12929400813449,-47.092097875164576,0.95289434636814,-10.6448957411232,70
-124.47703615283942,77.6139733395479,10.281398826496856,120.01032921402249,97.43475540078052,62.00101760833007,-3.350962921081824,-142.9112431857233,15.9640275491637,6.000000000000009,-12.58295595155864,3.708314308346734,-46.7322672244362,1.255692154423982,-10.504558496006883,71
-125.51804825929635,75.9338733546357,9.402919965073611,119.37542226244453,93.47411524294344,60.295311128769335,-4.143936859549242,-141.66832653786892,15.437475215384946,6.000000000000009,-12.626952460030784,3.2575031390022495,-46.429017050362425,1.5717750841950326,-10.33976665621083,72
-125.99349634513739,76.10881960860736,10.020877891879739,118.62641743426119,89.16592439551869,56.51242519062763,-3.036700270876386,-140.27640193017325,15.384931786684696,6.000000000000009,-12.758351911227964,2.8197934265474944,-46.063667293368006,1.8944759512427058,-10.236494493678984,73
-126.49704051625164,76.30798433959087,10.697633770959815,118.03501582912033,84.16540963100572,54.576983560024,-2.66384949474036,-138.22598670811027,14.756375171686306,6.000000000000009,-12.84426110442165,2.390086561551547,-45.648089480580246,2.185904310131107,-10.093739456860533,74
-126.80693333405911,76.39704827246673,11.330553847996544,117.51892299977737,79.0487149651027,52.90360172730286,-1.8952674920282688,-135.62346773338479,13.594806524063344,6.000000000000009,-12.884435435082366,1.9678978096240456,-45.33253261028551,2.4669837497292075,-9.94033556074476,75
-126.89031537413958,76.46457306752248,11.922178123402043,116.93557046120128,73.78585045641098,51.42245058521252,-0.7897661318003211,-132.57512333789109,11.90263763982289,6.000000000000009,-12.95716204302996,1.558143313565889,-45.031184312480185,2.7477981587311815,-9.820221619149784,76
-126.92332104826285,76.63319069130624,12.572773022533674,116.42008654792156,68.04626338051587,49.978410525289746,0.97568242875016,-128.84701985513658,9.659171718337067,6.000000000000009,-13.069790453799923,1.141381117453936,-44.61047252696591,3.024882962693326,-9.708514388216706,77
-127.60631890314713,75.13001756121793,11.8688842842469,116.26745494454744,62.021560507713595,48.61340923892189,3.513197167570608,-124.35356818586493,6.736840660026429,6.000000000000009,-13.225215422940979,0.7818233254563742,-44.07852342086427,3.251470335874627,-9.627094189381086,78
-127.82710307837667,75.36781658661923,12.668351256164744,116.10097903109761,56.27340224730225,49.45240365498439,4.607413029195678,-119.3822973345166,4.029002354879805,6.000000000000009,-13.380437569988228,0.44839832860317863,-43.56712145687793,3.4568758709525325,-9.558058166657524,79
-127.89892390794806,75.5765439237018,13.489850747539347,115.80569809419181,49.8402199228828,48.846960192551066,8.126044036922941,-113.99685703228191,1.7207688806494132,6.000000000000009,-13.485861708015843,0.05060349310792019,-43.04864080112901,3.6871870416967116,-9.43545412498576,80
-128.47928166212603,75.8363673952992,14.517043618154517,115.881422134443,43.135806141810065,48.76033237007633,12.187366891422327,-108.33450949033326,-0.4827432992797654,6.000000000000009,-13.5663257738548,-0.42825194847321557,-42.49411680852338,3.955674772391447,-9.26986838893074,81
-129.10146939076535,74.34514922917859,13.924280629536451,115.62328071527791,37.34149907988272,50.844967924694124,14.168993528231887,-101.88280574439905,-3.6562094882460063,6.000000000000009,-13.490909309621713,-1.0143140668472932,-41.90731637289237,4.242621911331914,-8.963692183950073,82
-129.31838726121745,74.73796210754388,14.935274773560465,115.90900194283515,31.256006620890783,51.843245354305864,18.256886989764226,-94.90863489588244,-7.010433363477126,6.000000000000009,-13.402642966549443,-1.6677071307472493,-41.18658027084896,4.540797289106791,-8.6179042313748,83
-129.94731269606524,73.45281219052977,14.666595149005246,115.99442401363063,26.376114652408063,54.60563030441754,19.8653929264088,-89.05753139731013,-6.4556438997596866,6.000000000000009,-13.575645541337481,-2.3505104283767095,-40.361866800085075,4.898884515248093,-8.440878242725221,84
-129.99579843534266,73.90823991198673,15.947405917742838,115.91724517359496,21.829437434120628,56.20656701838142,23.199042204305865,-83.89098896374601,-5.346785014438302,6.000000000000009,-13.71612798864371,-3.0712895462591163,-39.48162765735514,5.24701713050792,-8.230470145594087,85
-129.8237563400748,74.29084926316793,17.19650600604519,116.0667434056749,18.78567340253361,59.27283312443654,23.652800337129186,-79.25688085006654,-5.654832650533328,6.000000000000009,-13.773159027565288,-3.7527980522144953,-38.61869121683793,5.5349016425454804,-7.9829240018374925,86
-129.9882537192625,72.98689748196931,17.025830723091634,116.22236882259678,16.418098057251086,60.902136294356396,25.830071791401288,-76.91947553539987,-3.260445051891085,6.000000000000009,-13.970058632591153,-4.474069287067537,-37.69871323880864,5.854980293153419,-7.8189848259405865,87
-130.13293753896502,71.76976340818568,16.96331909139643,116.26635176361525,15.424804030122901,63.85715159326877,25.57421856279457,-76.2165060863954,1.7653544629287339,6.000000000000009,-14.288803378473668,-5.304983081166163,-36.69177026023098,6.233787431019617,-7.704180319316768,88
-129.64660482254774,72.2549865306442,18.30155290798084,116.41609284081032,14.648675249165933,65.53837375577953,27.31970289503788,-76.84903456893808,5.923429903007447,6.000000000000009,-14.5615815033897,-6.166204263438602,-35.68936037279898,6.596216419813621,-7.559194415250147,89
-129.68490417742584,71.04380866266068,18.303358641606913,116.80090377006857,14.487813516753745,67.28150550173216,28.783025145592887,-78.38012080255896,8.097369034774667,6.000000000000009,-14.798477025983635,-6.916262455119238,-34.568690083045375,6.826712496899899,-7.39966204754233,90
-128.8830856027223,71.61445164409962,19.703804920009333,117.12973405348636,14.5427748519725,69.28189100793128,30.290431565519896,-80.35218539737774,9.634695823180529,6.000000000000009,-15.036504312299273,-7.667687318718214,-33.28447825959599,6.988609286857605,-7.218927894923678,91
-128.66625752664237,70.52593961623128,19.778911715106535,117.68431957167662,14.804105796009473,71.46532772047298,31.817427930395585,-82.43217969745764,11.024970991810086,6.000000000000009,-15.244311561025386,-8.41108157155836,-31.848965382167265,7.067957674791144,-7.000307023840436,92
-127.96397329066417,71.32012264309637,21.421090562930292,118.3769924688625,15.265005530362364,73.67927585219925,33.48400744281885,-84.58409132468569,13.974342655318397,6.000000000000009,-15.552052674514552,-9.222636327206104,-30.240904533829603,7.120456410586568,-6.800562123847815,93
-127.90110821586202,70.55524306087479,21.81362367639866,118.98759528744134,15.787933319093504,76.23614824074934,35.43465214224174,-86.79477481898142,17.124896846833472,6.000000000000009,-15.867331018913804,-10.157732114248214,-28.391033019028093,7.123013541769166,-6.543820031908206,94
-126.92674612868008,71.58340892090041,23.562015179917605,119.56204774549441,16.578375357152677,78.94708059098988,37.507213379653706,-88.6555317395888,19.218961825152842,6.000000000000009,-16.081937284026605,-11.152427962440933,-26.25155082596366,6.9921008579870225,-6.173799038670845,95
-126.43028283909929,70.83843581917446,24.010313686284057,120.0629397842342,17.58960023135764,81.48169537560486,39.60599194232925,-90.1863597075947,21.204358109126495,6.000000000000009,-16.275737878169256,-12.130827643905022,-23.95690316882873,6.735601386803156,-5.761713786246555,96
-124.85102118622265,71.51848183051077,25.713000024620477,120.53586184326471,18.852238689721926,83.72630294282823,41.76568074455293,-91.88284013948625,23.48351736441997,6.000000000000009,-16.48272721917397,-13.081145279172041,-21.699972681158243,6.414775859884976,-5.3527259983634785,97
-123.91634478362533,70.27160070774107,26.042500677879783,121.0735454576401,20.593338076040865,85.61827631927102,44.030451487651256,-93.99829282350329,25.90239580978919,6.000000000000009,-16.604674625860003,-14.01351146664794,-19.446090284345477,6.014887316409766,-4.8973810904155375,98
-122.11604350718132,70.50818556594466,27.80249877933679,121.49706094806183,22.61949422865079,87.38380602905937,46.537611983125174,-95.86740714697486,30.070042644600065,6.000000000000009,-16.589784371244033,-15.012027643082288,-16.99125258622923,5.4920781562923935,-4.338392862471993,99
-120.05849310810119,70.40873089924074,29.464582554067434,121.69114372700022,24.726137227490298,88.86062394482276,49.15457742440289,-97.31115356030791,35.81843346723022,6.000000000000009,-16.48486987619944,-16.02690810471163,-14.46985731728245,4.876390206104297,-3.7312030887747474,100
-118.21764651372841,68.04279168497474,29.315843005234743,121.54894186138141,28.09945945473849,90.79408600242101,49.912767849090265,-98.94343118523201,41.29436730015894,6.000000000000009,-16.395617035319063,-16.958593841139766,-12.209223629731033,4.271936117130018,-3.183033346323107,101
-115.0015675089457,66.81790479563522,29.95861035539777,121.2429384487923,30.271889219757334,91.29888705461411,52.48966890942516,-100.7205569691013,47.34216664159159,6.000000000000009,-16.277722283122042,-17.853558330151532,-10.079317132975664,3.651963353953374,-2.652822253331945,102
-113.6740237570082,64.09755203831156,29.96458783329702,120.15992655410832,31.186810227763235,92.19993705474492,54.599455383762596,-100.60831532639973,52.14135321800335,6.000000000000009,-16.141942056364833,-18.84762564244095,-7.85038179171876,2.9559166038471636,-2.0881835555405024,103
-108.28353038579657,60.85875678820501,27.944128120109404,120.52803856386595,35.297970038254704,91.16197574912324,53.552639417096216,-103.29079080961257,47.09156930258453,6.000000000000009,-16.03304638907237,-18.481817392876827,-7.170514008064038,2.6314853409463104,-1.9108097970344602,104
-103.57101434299301,57.382042555033586,25.877143397210258,119.99211834278003,37.66860895391933,89.93483951588559,55.21998990179433,-105.34919169000722,49.82431809006861,6.000000000000009,-16.02436303266045,-18.735721615029004,-5.870954517149588,2.16520505049534,-1.585108526349203,105
-99.5118153940665,54.24587057914383,24.50916163236011,118.65150896410776,40.91265882578538,90.30676349229101,55.973561283121825,-106.59777767385262,57.33285646249157,6.000000000000009,-16.065688237162046,-19.501689979064775,-4.037350178564897,1.5332067488223253,-1.1133949732686557,106
-95.42674433606156,51.46009620731637,23.435530267109677,116.53839451312473,42.4186855083164,89.953517129239,58.71753022922259,-106.90706390375668,65.17296987365773,6.000000000000009,-15.967621844367557,-20.55149656486644,-1.8513691872708615,0.7316799249629617,-0.5189077362885587,107
-91.38660283841054,48.92699598688857,22.414730590450162,114.01321968198701,45.027569381553924,90.54901112143352,59.53129181707071,-106.4393584731868,72.15667520168569,6.000000000000009,-15.716225865632559,-21.663982954113322,0.46219052814713985,-0.1901055164267362,0.1307635170860626,108
-86.76168345525865,46.33662051233284,20.67034397475227,111.32548157123908,46.04353185334563,89.98903051749929,61.52320588041129,-106.08862125582431,77.45652284111836,6.000000000000009,-15.476994999863521,-22.52149224913147,2.4966233877374293,-1.0559718389185047,0.7125883592640687,109
-80.72365693876893,43.705431660296135,17.316245972227634,107.88127636471839,48.50362343547499,89.93229698166388,61.18179837820825,-105.80728491081831,81.30926875681257,6.000000000000009,-15.225598722159665,-23.101037390793294,4.267719940827644,-1.8330571608710202,1.2250238127935624,110
-74.03661983892853,41.300856576305364,13.401430598999701,104.27865915887287,50.76882210179965,89.8475148382469,60.616785343377444,-105.91222002639715,82.12502347172426,6.000000000000009,-15.197801032987927,-23.489658250673852,5.8607803786315715,-2.5365104104666742,1.7129210725622874,111
-66.88155799564228,39.247940258834404,8.820669633446913,100.45434214537417,51.47194754745376,88.99650727003629,61.485173044640604,-105.93653082109448,82.93196252525436,6.000000000000009,-15.12190194734728,-23.732742170382824,7.422002954098493,-3.213214389472625,2.1999799316528192,112
-59.23118706801865,37.78282645276638,3.3929028730088184,96.08151011203323,52.24818217090361,88.08296833648258,62.120799484015926,-105.84492357408074,84.64139312061103,6.000000000000009,-14.949529913597749,-23.861421722074752,8.899082245642878,-3.83370598818064,2.6551181414953424,113
-51.807076107174105,36.87173242403409,-1.9649752995362257,91.28544748481205,54.41926879451409,88.0791691269901,60.98893013756262,-105.79442849406844,85.95277390124834,6.000000000000009,-14.818973195270516,-23.986675172769758,10.321345322348805,-4.425400435319983,3.105448455420292,114
-44.44267632317464,34.93160293274663,-9.268533034199521,86.06955492670586,54.92574136995777,87.52510967240984,61.659423635528476,-105.6912604094806,87.17727263213654,6.000000000000009,-14.658448220463939,-24.13674371385799,11.785832620606406,-5.033430649639609,3.571368361188366,115
-37.345574899309646,34.8623328169926,-14.583791458759707,80.37150844122833,56.77885003760088,88.09547785049368,60.50826168330459,-105.274098559841,88.51564522367508,6.000000000000009,-14.42086387831694,-24.266674630910828,13.339353047083707,-5.664970683471495,4.055391338784361,116
-28.825330948063705,34.28645157601852,-23.32077335527534,74.35513774317567,57.33170139183312,87.57312972338875,61.0722619895541,-105.25936579798015,89.52890025675961,6.000000000000009,-14.269478891419505,-24.274523494522196,14.630030955950591,-6.1535031168443,4.468496139494303,117
-22.2558771392257,35.38217626863694,-28.337329683478572,68.19015427079724,57.74300188395885,87.16731969854484,61.90506477159574,-105.25322924630619,90.0,6.000000000000009,-14.066975223311033,-24.47995631455684,15.918041643633932,-6.696093935662789,4.877212627415448,118
-16.839063061532567,36.59994183250144,-32.39398558766251,61.75496597926733,59.41917442269125,87.86008465859558,60.803273450572156,-105.23155724459197,90.0,6.000000000000009,-13.74431841890265,-24.757555282326887,17.225512696761555,-7.273750551474569,5.2628791728483515,119
-10.058643125324148,37.4593787080375,-39.93689392054358,54.81800240914939,60.14868324030651,87.3972757723115,61.8192064623845,-106.19003755573154,90.0,6.000000000000009,-13.513247521207866,-24.713988611209313,18.43729161817986,-7.6987285582793925,5.6253628469896375,120
-7.732093218617139,37.44873470896098,-41.78649130213345,49.442853131667675,59.557585267701285,88.41988576841119,61.79231305753454,-104.72772990739594,90.0,6.000000000000009,-12.687946628026522,-24.884184701139702,20.814414436633722,-8.625003201540386,6.21376380776106,121
-2.2490769228414247,39.91365939306104,-46.384688549604206,44.67395202874616,61.021652834495406,87.53954349996106,61.091373892444636,-106.72831648794954,90.0,6.000000000000009,-13.169873438082453,-24.224243082182838,20.948262418539997,-8.37474626189059,6.391860430152882,122
0.1718331055277619,40.61318001983488,-48.25058755330752,39.74455148547254,60.66219495539915,87.56381250405701,61.80218349030935,-106.76623378033125,90.0,6.000000000000009,-12.798671223779506,-24.313020935985843,22.401072302606874,-8.902800330333182,6.792886477521073,123
1.851533079052221,41.765365188785374,-47.2551890929525,36.459833089455564,60.44431617700074,87.40926069749628,61.96948921524534,-107.57512411986619,90.0,6.000000000000009,-12.883158089179402,-24.180319859309577,23.233100081484714,-9.103077581467605,7.1241378837420655,124
7.0471473781926175,44.60064540323625,-51.49080149241316,28.298822862089697,63.91701857272539,86.91316156521779,63.557902312218886,-110.1778225049742,90.0,6.000000000000009,-12.973229860859465,-24.026442773413024,23.994965314231013,-9.262055674660067,7.43333141098083,125
-0.9278892430007561,37.53467195102458,-42.30818412859671,28.298822862089697,58.04741345816595,91.11130884592075,65.35285726566876,-102.88966278594691,90.0,6.000000000000009,-9.595824595158765,-25.830853517780877,30.164554597008635,-12.394764027641616,8.404508698684584,126
3.500199769322601,41.9545379551962,-43.980782673026845,30.021155983432575,60.685992753372254,88.51559866093497,62.01548198534116,-108.5989700062099,90.0,6.000000000000009,-12.057102778112835,-24.342553280826625,26.748711992285333,-10.306798929814837,8.106769198435495,127
3.0789547753774498,42.215718963055124,-41.389866165390316,29.962457758612736,60.60551015461725,88.30979875957031,62.08134821141564,-109.45977407274832,90.0,6.000000000000009,-12.081749342292802,-24.300368074843814,27.13310360872689,-10.395780332734995,8.258883007407848,128
2.5811665061243096,41.58375231363201,-40.97836294793341,30.68279618314653,62.14164052286006,89.01190305767366,60.7808505000847,-110.3500504853427,90.0,6.000000000000009,-12.054691847560433,-24.391411694228285,27.608614895409783,-10.584357674238413,8.438260352862592,129
0.28554210156189264,40.764792211517246,-36.86868146637562,32.78958001051172,61.6732512833441,88.99542432212463,61.114289388767546,-110.6845739014275,90.0,6.000000000000009,-11.866025215938755,-24.53520309880349,28.284529273407546,-10.87365593297471,8.625584937849107,130
-1.3400115861025517,40.17447388400397,-35.63763883918034,35.21241001945488,61.70701220914154,88.6389593882314,61.04800605389506,-111.67757420694176,90.0,6.000000000000009,-11.917689957265734,-24.571943309422217,28.296591679088067,-10.892426490994806,8.659521643334749,131
-4.286876260283874,39.98144662757967,-31.023522466201467,37.6612419688899,63.22829989104069,89.2956114116268,59.580371939174974,-112.432179498221,89.21366904465175,6.000000000000009,-11.784993259562679,-24.723689862325134,28.42710960846584,-11.024971592215174,8.665496700218142,132
-6.963038771054902,39.338881343974364,-29.033910831790177,40.15615876509087,63.192000409127225,89.06752965291773,59.60680712640209,-112.9387145780021,89.01203272259256,6.000000000000009,-11.604370307850232,-24.798980250138612,28.563638427238402,-11.122705032134801,8.640913252450899,133
-9.900480002129532,38.75434291221616,-26.794578298409867,43.21105138390508,62.30311604704992,88.86937430193696,58.870186236978114,-112.67117648126168,88.37650827887188,6.000000000000009,-11.579851367808441,-24.852497614031584,28.36026722547436,-11.09445466201513,8.558211604829038,134
-11.704642627627882,39.52745317481281,-25.31756207820005,46.12392977623841,64.15758676518207,89.04214338809119,56.49267282219285,-114.8542623641058,85.70079102953846,6.000000000000009,-12.14156412639258,-25.01705145328618,26.704383932241615,-10.636556377232507,8.204736922844402,135
-14.327966468256015,39.48609826717227,-23.536683010984973,48.27929993206275,64.8929836314826,88.70416059900586,56.522814318255335,-115.93995119796217,86.31624661361734,6.000000000000009,-11.972313285232225,-24.989540765706106,26.390188695366493,-10.538621213122072,8.005149412795912,136
-18.094316573402622,38.85879584106109,-20.813758085262506,50.09786019715849,65.04499543254246,88.72882294537816,56.87594159316798,-115.6483351389542,88.2640975616315,6.000000000000009,-11.327906943432819,-25.05506853413974,26.83628254060452,-10.761892064058603,7.8899177636927,137
-22.465902156036034,38.70402054191599,-17.55899344003375,52.23443494955102,64.44280156290145,88.79165153856161,56.88678423195172,-115.48646495534948,89.23768834843904,6.000000000000009,-10.775680668271594,-25.259849883638413,26.810641426176694,-10.906149719556018,7.654282352641805,138
-25.089395266394167,39.1190674005381,-16.169215884671374,55.69142794337737,64.80096952645557,88.30522420007973,55.56968846756601,-115.81929964228688,88.64822829660056,6.000000000000009,-10.978206561654364,-24.878398716486867,25.85383212140496,-10.38925652402165,7.353318528745986,139
-27.533627375594406,40.3590267788681,-14.669126959896703,57.98687478714602,67.09519093624264,88.92377776583605,53.704800553584874,-117.9098327620525,87.19418952180406,6.000000000000009,-11.191063901183982,-25.035533423652264,24.23325090945747,-9.925318607981657,6.876773400704515,140
-32.43899501159436,40.06281731914484,-11.54035812891499,61.733359627586545,65.60337848032708,89.25093551967277,52.38145504304586,-115.82966836912269,88.45233162806386,6.000000000000009,-10.753460799357164,-24.669365127689957,24.257110836809524,-9.786977760439768,6.669214765618634,141
-32.54888897217437,42.369902579758254,-12.619273069915696,64.43542758150042,68.03348146154774,88.18765796921214,50.8812016666363,-119.2703569588892,85.52080366065547,6.000000000000009,-11.659256088646204,-24.39079335774219,21.07575831670585,-8.551218554958966,5.8960954176346085,142
-36.85147452596675,42.73403296094552,-9.714489090240093,66.03589280601251,67.89465592779025,88.30771421932181,51.137146285868646,-118.5984055841991,87.78231366309109,6.000000000000009,-10.884775497004197,-24.623295416269414,20.970266154855356,-8.647587657650616,5.59567177471184,143
-40.84779236269015,43.365753368175746,-7.044389277855288,68.64589533107186,67.75169463494593,88.39254491640898,51.20119436993592,-118.92398536072486,86.96776707000568,6.000000000000009,-10.609839993247357,-24.8327223428494,20.20742631529166,-8.47625669741011,5.26143121910901,144
-44.241944956416,44.04862599968731,-5.440575735572557,71.74137140161416,68.5308127128447,88.48357075444066,50.111354186930456,-119.48817728574555,87.43929825969506,6.000000000000009,-10.461418235496533,-24.511228127438795,19.222403334254654,-8.00039688234556,4.874012270034679,145
-47.2254734400043,44.86924543589746,-4.281544888087441,74.6415199107638,69.02515668493588,88.19617800838772,49.26969115056875,-119.72824090279072,89.30630597144548,6.000000000000009,-10.341229498102997,-24.163973370796782,18.023471460655568,-7.44113450084902,4.443020069409688,146
-50.00353289296367,46.05701068867741,-3.2490242045949147,77.5132269949204,69.12554119980456,88.10972088466124,48.65561741206414,-120.60260736067819,89.408917812908,6.000000000000009,-10.383111429785378,-24.063255154430205,16.481889788303867,-6.840449639484412,3.987568122405258,147
-52.27877165191794,48.22288765699313,-1.0421465464801813,80.85777193903381,69.91865768879562,87.65153305045624,47.627766752690995,-121.45595493424385,89.55766489458372,6.000000000000009,-10.493000834143938,-23.43218666744666,15.045352940117587,-6.10808924926478,3.5735993047513492,148
-55.74604602944365,49.2456965488459,0.552892798351643,83.88904696929747,69.8673644381733,87.77234092066766,47.0387161644479,-121.87375837251483,89.16972907792749,6.000000000000009,-10.489036729669637,-23.332441279840957,13.759217355984312,-5.604604534146011,3.206554110715939,149
-58.38606311804719,50.15108265668362,0.9476897343028919,87.4585637189818,70.19916323807264,87.63921681630676,45.71337962011293,-122.65383756541014,88.5134194188786,6.000000000000009,-10.75016280292637,-22.713848476006685,12.132601477567322,-4.837411534829094,2.8034798271851957,150
-60.51882764918861,51.08494832994881,0.7792805602194973,90.831342138275,71.09960349899039,87.0474797097534,44.701509186996645,-124.02306776223857,88.14601372350994,6.000000000000009,-11.061759776596809,-22.036304754961975,10.347207911447144,-4.027754753706504,2.376539859971793,151
-63.74391904573862,52.00054811433494,1.9315326616374155,93.73202473174466,71.79693157745155,86.73314975149104,44.55256288124944,-124.64858064069172,89.3427836305825,6.000000000000009,-11.044380316445844,-21.74345124617178,9.205346966586884,-3.5544037683868606,2.0740644115606583,152
-67.61243959790147,54.76844695185912,5.621220061457116,96.42190193172183,72.04792302750595,86.71562781568865,44.55038582176284,-124.57863420982764,90.0,6.000000000000009,-10.86725089322904,-21.726588096557332,8.468529763927014,-3.2821208227760477,1.8613899846229967,153
-71.54513071868939,56.06995327577553,7.533481255393924,99.36341286423486,72.31539834801518,86.6312301212958,44.64019887701057,-124.8289856440652,90.0,6.000000000000009,-10.882682877699157,-21.658281528765432,7.664482456062529,-2.974166089139145,1.666579347994953,154
-75.28391771320582,57.33765809882345,9.324826329798361,102.1189020805525,72.49857726540164,86.63375022976808,44.39197913945144,-124.87074587854914,90.0,6.000000000000009,-10.867494240953734,-21.512062355833788,6.886272809729448,-2.663994647742203,1.4772651282160818,155
-78.78527200178856,58.81818612224145,10.827062105369842,104.95804070237946,72.32050575118917,86.75317783316413,43.72811627007518,-125.10906425251018,90.0,6.000000000000009,-11.1205458700868,-21.30569074017915,5.720929490573344,-2.204544680875456,1.2309305891653515,156
-80.96774870252578,59.95446296733362,10.565427324966878,107.57988680675113,72.94980352952776,86.34030215902422,42.59050985520866,-126.08084075605791,90.0,6.000000000000009,-11.494772426181795,-20.641819651135958,3.9741418970444005,-1.4941915175151417,0.858047122890842,157
-82.85719836992511,62.78388292358738,12.207966200859511,109.86668655134204,73.4836623714161,86.032497695391,41.79472538840125,-126.94466652417174,90.0,6.000000000000009,-11.794437297510425,-20.11024008786219,2.5164278595088634,-0.9277750740849138,0.5449908220070832,158
-85.36607607796324,64.07108735172052,12.830292506702461,111.81571985231268,73.66257785605137,85.99750516887816,41.18278973672923,-127.51367927731056,90.0,6.000000000000009,-12.012607057015407,-19.744343683458215,1.325811510322105,-0.4827696112734536,0.28745501923492106,159
-87.54305071508726,65.1765211604608,13.204939963947353,113.82193547884008,73.95611753309254,85.86137056113303,40.43894540045415,-128.0588638403629,90.0,6.000000000000009,-12.259564732520884,-19.29825762969329,0.10921182276133289,-0.03910858839308173,0.02376681953749864,160
-89.52885644680221,66.26685897341878,13.721636129933055,115.66133153380932,73.83510569607792,85.93622978187231,39.62243657634113,-128.71085858753395,90.0,6.000000000000009,-12.567828893563423,-18.948491887136093,-1.105828026559132,0.3916228079630511,-0.24294302399875445,161
-91.01918386442374,66.88593459499977,13.89759823040907,117.32344215750835,72.49768445136007,84.62599830427739,39.90748356428715,-129.3205808920149,90.0,6.000000000000009,-12.84295361634136,-18.38162530774598,-2.3424121168730974,0.8102998082639667,-0.518370300053794,162
-92.51501117852416,67.55889551300668,14.473146293654723,119.00493493889633,72.22030048804095,84.83063831111167,38.91540555669958,-130.16217426588966,90.0,6.000000000000009,-13.28478350451276,-17.827252824588022,-3.5690671942134036,1.2076361130295263,-0.807332590373909,163
-93.80420710611736,68.06520023841549,15.01621402763253,120.2985803433518,70.6010685099572,83.69145805139985,39.426411894115596,-130.91453857309745,90.0,6.000000000000009,-13.566958526890131,-17.32123433684202,-4.750707663449057,1.5747232315937711,-1.0853157532470326,164
-94.32947141662046,69.57317107490643,16.347847233039406,121.47956554555648,70.06764357970228,84.07523749675332,38.04389010143195,-131.7747009050204,90.0,6.000000000000009,-13.819667417600659,-16.78175889570364,-6.010725748873685,1.9481562771299907,-1.3833488315748224,165
-95.36227625614542,68.5785629833654,15.971787147152348,122.82376780783117,68.39517922395727,82.87806890192635,38.019922296046666,-132.80053494186637,90.0,6.000000000000009,-14.090043411464244,-16.120279218336222,-7.437974725710367,2.3419001241809037,-1.7260231487383026,166
-95.70968021461364,69.01421251714775,16.915676367648043,123.95624421094429,67.65251741184994,83.3415126456655,36.088702290210094,-133.67588729486596,89.80026647076932,6.000000000000009,-14.279150971332571,-15.414295576553313,-8.933576264285746,2.7226778800612195,-2.077905661495563,167
-94.96115018548156,69.27726588640819,17.252819465951028,124.7208530569239,65.52016079989767,82.24018591145875,35.1267882061187,-134.280461297453,87.49015966245646,6.000000000000009,-14.480951542760673,-14.552385118486324,-10.497423750686192,3.0646839053446673,-2.4536814199486856,168
-94.14813329956054,69.3521306475911,17.782742270632014,126.10094571283908,64.2444864086736,80.67995196039439,35.21254741514912,-136.48405946414263,84.00133700265796,6.000000000000009,-15.004711288511306,-13.551688943979117,-12.168216834190947,3.381588495851745,-2.9358985988461166,169
-94.56157997018046,69.44777043059285,19.68912463505445,126.4351579496297,61.368537846384065,80.00375981453561,35.84087692583607,-136.59760103089377,85.71886877609607,6.000000000000009,-15.021334063735226,-13.291321279814992,-12.976890185858512,3.5647940033490038,-3.116996445784981,170
-94.17280934273187,69.22696445963537,20.938880485562557,126.9929671598792,58.30593517748576,79.14930099382379,35.35038526937154,-136.79454700018712,83.95391744325097,6.000000000000009,-15.181271537049671,-12.591792251438438,-14.206217356579273,3.758033775869627,-3.4357291353997974,171
-92.43980260621674,68.653804293761,20.958909884223722,127.99278133273192,56.09450750947128,77.61232594203771,33.98485623756579,-138.33150895896785,80.12211525717166,6.000000000000009,-15.482672823465235,-11.34174518419779,-16.00677470874067,3.934959575164715,-3.945444700060908,172
-91.346584449574,68.1692574367057,21.74678156170063,128.78390010571678,54.2586406862492,77.94655199972081,31.37922918231419,-139.17030804812376,76.78325926362828,6.000000000000009,-15.661092055342934,-10.351939406236474,-17.415009168121216,4.022520970098993,-4.3447072366725505,173
-89.6837207629769,67.44123176061234,22.15820746450037,129.60076012654494,51.684156493914735,76.34196791328442,30.26776107867069,-139.88623624402933,73.07789176589016,6.000000000000009,-15.758476407939844,-9.282102347586893,-18.830112114847118,4.0393266861723935,-4.7363837361476335,174
-88.43555958125614,66.88111313951512,23.228187045578558,130.2882228983126,48.580388452400406,74.87188516330065,29.929733376649995,-140.28616721691597,69.16369177600683,6.000000000000009,-15.993162813473507,-8.400991523364407,-20.025434096814877,4.041353033161669,-5.133454463308098,175
-86.91810125449392,66.3320436893834,23.97956014858592,130.7897083988889,45.584833177369624,73.21652447008208,29.49060219543105,-140.71540685429812,65.54959914446121,6.000000000000009,-16.125960994253752,-7.46810883663709,-21.29357020065284,4.004106562999558,-5.526954586458792,176
-85.33761231130332,65.8323500798015,24.694893983280007,131.32550366767046,42.82743993452486,71.4542414122672,29.260003776322762,-141.0231183355726,61.755857034262725,6.000000000000009,-16.18038260513925,-6.568222114245032,-22.476888381875142,3.9219872048454865,-5.880432942904741,177
-83.13914596877662,66.60685757941691,25.94197303574374,131.67167866512753,41.15648380390287,71.34670774623794,27.63866228637494,-141.04212616359433,59.41995117191901,6.000000000000009,-16.15964496833428,-5.8274812094300685,-23.601955695318594,3.858258469486762,-6.185363859459289,178
-82.07276326854218,65.36830823504587,25.676042871669615,131.82997019056685,38.65529186197797,69.55727522445427,28.146559572720584,-140.81610241561881,58.415135337203225,6.000000000000009,-16.100228199160433,-5.197110282446085,-24.655138065556276,3.8012629625236256,-6.452340960500947,179
-80.14273568255676,65.97806212220875,26.482644498767083,132.0468223228211,37.35384853564451,69.35760292653404,26.950613273970013,-140.56703039186368,56.55688846762678,6.000000000000009,-16.04610536365311,-4.607456691802688,-25.633955337828493,3.730219760999052,-6.704496553680177,180
-79.16684384242467,65.01092899580962,26.098161350417268,132.20337136729793,35.416851176207466,67.24327150845713,27.596709667542275,-140.08090813510978,54.16085420618636,6.000000000000009,-15.979675054554285,-4.132266621494788,-26.51611630789122,3.677027052124228,-6.920281785337238,181
-78.13175458564491,64.29405429328797,25.524955954802657,132.0939808005706,34.761397652095695,66.7291785830667,26.69986224943862,-139.40636709784286,53.1952534497413,6.000000000000009,-15.984630029611127,-3.81170006428809,-27.356011811415815,3.6891115776987986,-7.14722530612178,182
-76.64634691368525,65.65393533677326,26.648699165687706,132.27828212899982,34.332116185562185,66.29562823143696,26.16416080258248,-139.33323670513343,51.67208454934234,6.000000000000009,-16.183479625631062,-3.501226368849129,-28.169180336265434,3.7225686697357343,-7.469485910145383,183
-76.12429784800217,65.39359387823062,26.191792804262015,132.29499516689663,34.88554898737524,65.64454579945055,25.386603827627223,-139.34225380908904,50.87804046712911,6.000000000000009,-16.209001467768353,-3.210023640531442,-29.03342128468966,3.747425170382866,-7.716439383411154,184
-75.69484638136053,65.3196192491701,25.554254227047753,132.21380143623335,35.74522812424964,64.8399529674454,24.409018511291816,-139.2522766010404,49.760770674712084,6.000000000000009,-16.22988616027623,-2.919098955912521,-29.88493081792241,3.7645492693990046,-7.960450459254195,185
-75.30437389986591,65.36992753526607,24.89043486987981,132.23040694257554,36.85556119987321,63.9910891656446,23.33590348957284,-139.29419186372178,47.83409754512119,6.000000000000009,-16.320934288219657,-2.5925295306122598,-30.69563399324192,3.761375897216931,-8.241942210670773,186
-75.6210554151604,65.86733199366185,25.03603764072831,132.21907466134965,37.55893542099663,63.47351054062224,22.974376704630462,-139.20040481133356,48.19044101906393,6.000000000000009,-16.581613974141106,-2.445123197667457,-31.30046619586858,3.8419792911879016,-8.551982904297498,187
-76.19395658079047,66.4008627988825,25.17736851232264,132.38305744357183,38.612126117534345,63.05378130362365,22.599494610613654,-139.20397492208974,47.80625081716193,6.000000000000009,-16.83427419064054,-2.2129107331674405,-31.876818292107373,3.8698023307774267,-8.869245102599375,188
-76.73907448058935,67.05916216964543,25.1029907691024,132.49628397942112,40.2186619820177,62.67562569671037,22.09422406533209,-139.47348368660332,46.869127283777885,6.000000000000009,-16.99462403494099,-1.9045286671042712,-32.52592359187665,3.8516745197057576,-9.16747027785683,189
-78.55124995273557,66.03152013461961,24.301689274479937,132.6698785600113,42.04497059279538,62.575137094418054,21.939431223639787,-139.55561451049806,46.27469888604167,6.000000000000009,-17.118094823957165,-1.6521163701393355,-32.93882324869672,3.810307071469593,-9.382092670058858,190
-79.88459949563862,66.87103799651844,25.007933327142865,132.93975540814566,44.65209218189638,64.44648708149684,20.348499430248363,-139.55132050787864,46.07307818999768,6.000000000000009,-17.287610050122066,-1.4452425677043315,-33.20139732561648,3.7733515579720236,-9.583138973059617,191
-81.30545452459948,67.71743391955889,25.690089796433334,133.35432529585577,46.79279807578637,64.41745614712241,20.42046318590907,-139.68222519048092,46.02282264068544,6.000000000000009,-17.44618238775348,-1.1999161016693822,-33.527521801266936,3.7235080261823272,-9.802279349835729,192
-83.3616434082557,66.8277343261577,24.79788857214342,133.52814265000342,50.01040532121337,66.04000636918356,18.506952428030935,-140.1426644726939,46.669641343975975,6.000000000000009,-17.553716940814805,-0.9714270944700661,-34.02315111173041,3.705620117003912,-10.03343667333598,193
-84.75287594164995,67.71053196731995,25.317698809322046,133.5768814371805,52.39166948876373,65.89243013492332,18.614563646306284,-140.5849816345017,47.86398397942337,6.000000000000009,-17.69474675907826,-0.8306208283819886,-34.336078610545115,3.7103574205317544,-10.226680173583201,194
-86.07028739698046,68.47251414209185,25.950911362704122,133.72356270029016,54.6406014548314,65.75923369035911,18.66162611770966,-140.89778709428754,48.441101118022104,6.000000000000009,-17.866921799426283,-0.6446517643077266,-34.4990467012728,3.6646098967509877,-10.410203744173286,195
-88.09266993747316,67.43789565660417,25.425197427286772,133.8450959950638,57.166605407266815,67.37891683341863,16.89898203002992,-141.15874276084995,48.605258318394036,6.000000000000009,-18.14781165275741,-0.45333950401440326,-34.65734403139646,3.6364930261591493,-10.664683448665192,196
-89.22100834640898,68.20875250579942,26.033825366759906,133.89835348549218,58.66694169656545,67.11166363970163,17.02438260048349,-141.6547180670738,48.880331241932225,6.000000000000009,-18.511998264723857,-0.3129618415212177,-34.80511857688942,3.654606467120607,-10.963882009062939,197
-90.10011052628866,68.82319612228008,26.356524114954848,133.91465589689145,60.07462756884223,66.93595895531762,17.202822930342943,-142.11804725180218,49.44603952641372,6.000000000000009,-18.75448808338477,-0.15884261236923192,-34.989532186495815,3.646967676913223,-11.199677672747018,198
-90.80544010803037,69.31223372018106,26.492935515403985,133.95674453643812,61.31681911995304,66.7184910836591,17.039210282813386,-142.6347021686274,49.38293510460209,6.000000000000009,-18.98397392066748,0.06846074826038628,-35.29302412183885,3.6153203310218998,-11.476403552365888,199
-91.47103585131195,69.74463155145135,26.56468460530935,133.99554108111514,62.57821383328752,66.41365872631488,16.401767276668018,-143.29431029662797,49.06377528427171,6.000000000000009,-19.21549866259484,0.32186290968175624,-35.664740001210326,3.581168453470071,-11.782892430926347,200
-92.89390724975496,68.3333716892725,25.431717789634394,133.94054875714173,63.7469936207315,66.13047983505213,15.572425177757887,-143.99141476376792,48.356999296237895,6.000000000000009,-19.400754357470294,0.5510866267037822,-36.01275319802001,3.546923179266778,-12.051343117209553,201
-93.51764807285926,68.56637329555785,25.75277243881367,133.832824011826,64.5001433894067,65.93893916392332,15.06608094984856,-144.67375260948748,48.86331455918817,6.000000000000009,-19.605794647026382,0.73941903712333,-36.22459425977782,3.5150227781208665,-12.288259901140615,202
-94.18536331583681,68.74257031985584,26.33317358145625,133.72083493257213,64.76485471028361,65.79462426721956,14.83610120881201,-145.26132446667427,49.556623419115915,6.000000000000009,-19.84769049829067,0.8784189480107337,-36.31101057637351,3.497245833349659,-12.505258947904771,203
-94.65765771292806,68.92925259462493,26.813045445222585,133.43552274901614,64.48174576875942,65.6145899786325,14.629151540530849,-145.84951546032346,50.76980525656773,6.000000000000009,-20.12225256718971,0.9393968801381251,-36.357929607314205,3.5288815899855774,-12.719384614916894,204
-95.2626027404557,69.13010221125903,27.569380238033634,133.16583766125518,63.617653723193065,65.49146343869279,14.569579105095857,-146.3755879743309,51.593896661729445,6.000000000000009,-20.44013271618462,1.0005565751158096,-36.269362262421566,3.5420139676443525,-12.921655317229558,205
-96.00444810968801,69.1912968578869,28.609236792770922,133.0993802912851,61.83050310056476,63.57310706994779,16.021879889077518,-146.96036109384366,51.29183655171815,6.000000000000009,-20.756726871909258,1.1916247823871766,-36.17071625759335,3.468725742568208,-13.14334618613519,206
-96.85609836967268,69.1511127039545,29.709371506965624,133.00876197361163,60.20947255232802,63.580069012673576,15.686682005972523,-147.4368470877661,51.631139729548146,6.000000000000009,-20.983818810308236,1.4090565583417398,-36.15647114848723,3.3759640842674874,-13.335293504539173,207
-97.29652110291381,68.95167262012774,30.127917645292783,132.86174296440183,58.749750065297434,63.50939289697983,14.728500950343197,-147.8056514906646,51.12707964419189,6.000000000000009,-21.035825291732326,1.6933618469768559,-36.43114472167464,3.26073282209725,-13.514956852842408,208
-96.84356432410415,68.42380180007001,29.782955457148844,132.82609736986836,57.595736596204,61.3656447883143,14.34032583829601,-148.0,49.276591568660855,6.000000000000009,-21.028498889850198,2.1721014747944545,-36.927941851632106,3.0482222625206488,-13.765980322582076,209
-96.60715130252893,68.04963625138272,30.09772301785084,132.7726468574197,56.123022286135786,61.08521744721648,13.026094616817925,-148.0,47.20004224191292,6.000000000000009,-21.258697211227112,2.564016199627739,-37.08219319991647,2.8735662387933263,-14.055534347844407,210
-96.80770068247031,67.92764048333015,30.915176958532637,132.53707803244114,53.12131832895619,60.78674518499995,12.739593856626415,-148.0,45.85892202416202,6.000000000000009,-21.609397489189956,2.788279605617044,-37.01514097982707,2.791564901619423,-14.323800232660158,211
-96.96044123177549,67.75027434912315,31.671322093566705,132.26447784819504,49.8810876288151,60.2788144020468,12.085033065193473,-148.0,44.980881365721956,6.000000000000009,-21.90763284005338,3.003149403742436,-36.98860621490929,2.711523557162853,-14.567426889421034,212
-97.02943622466397,67.54069142413722,32.33528097258282,132.18552078322455,46.807925295976595,57.96344098184041,13.272403177746646,-148.0,43.757739354611864,6.000000000000009,-22.165782237430705,3.261295049122936,-36.96417431895906,2.5937957299269794,-14.79143151119481,213
-96.7434963712193,67.35553153819362,32.5313457211385,132.03838072473343,44.50802764643923,57.364440689373055,12.601195463722478,-148.0,42.26725942933307,6.000000000000009,-22.425267307243992,3.486003835129752,-37.025054686552366,2.5150246177123328,-15.042424785849006,214
-97.64022150738953,65.6887722903414,31.779179353288423,131.79647295078732,41.94305531063598,56.775186500272476,12.405317632096336,-148.0,41.166117854501124,6.000000000000009,-22.758755620010128,3.6165147637807022,-36.996147822649775,2.4972073166678523,-15.29674331749873,215
-97.97330589486114,65.83319628486701,32.62532145283987,131.59215007121324,39.24294817942794,56.54618314927655,13.060995404401643,-148.0,40.55189439641658,6.000000000000009,-23.15270841761251,3.6845752446915965,-36.80107091091542,2.5004690120388515,-15.51951973597825,216
-98.44203462293027,65.97532699878629,33.342288156990016,131.36112993565234,37.31024791585568,56.46989619349756,13.720896762860868,-148.0,40.34540780759689,6.000000000000009,-23.42540691915391,3.7357738193594847,-36.741559377818945,2.514897609826752,-15.703685505777079,217
-98.7814363179684,66.03664197540232,33.657993517767075,131.06880817912733,35.374680036963206,54.50892050921181,15.970991418255966,-148.0,39.912299819616464,6.000000000000009,-23.591167887492226,3.8137138547041665,-36.92263553152812,2.5373302346877074,-15.911139582920717,218
-99.0231424300298,66.09109156703832,33.62525430756558,130.7311981367062,35.08564970066783,54.56033548357977,16.359563930566487,-148.0,39.732009877585924,6.000000000000009,-23.630654501084987,3.836926759729146,-37.186393868189306,2.5857451642164517,-16.050026233510238,219
-99.40724098754272,66.31551730054613,33.56036200827802,130.23416429143856,35.50539422839053,54.82683672675635,17.096496624662205,-148.0,40.46177590917512,6.000000000000009,-23.679827227642075,3.727799608062435,-37.40624919717369,2.7174802029105787,-16.154250677819483,220
-100.14750191763287,66.66155928258547,33.70186639960643,129.78989218761745,37.40310146312984,56.937929886316624,15.831584648080597,-148.0,40.81369002643658,6.000000000000009,-23.743528970981163,3.6250637984051743,-37.618109796331716,2.8480470299888276,-16.26717488254693,221
-100.98359355979494,66.84840362323415,33.75823813060196,129.3933269159965,40.06874111413371,57.122149186232555,15.752434843466455,-148.0,40.91626583933389,6.000000000000009,-23.634692925102964,3.5903707695739246,-37.985982815321016,2.9264250675221657,-16.324868799767895,222
-101.66153654663493,66.86854603408248,33.57670023679853,128.9881474464713,43.80966907859961,57.35113073517894,15.367816649582444,-148.0,41.353878941414784,6.000000000000009,-23.38000806692638,3.57393456598626,-38.45112446893372,2.9781580896331574,-16.311361874004355,223
-102.39327823754542,66.98924844213968,33.40512270431789,128.59860419513393,47.8093623247928,57.7341331701466,15.32429124690133,-148.0,41.702747919089234,6.000000000000009,-23.118672481961895,3.5009686087868896,-38.787867277809866,3.038287261779939,-16.227960671726237,224
-103.45465389736896,67.23871934294104,33.550719071895514,128.31302978044934,52.45766032964501,60.019392146779516,13.77276682486648,-148.0,41.63610336712864,6.000000000000009,-22.86040804169286,3.391530384571362,-38.96377537673261,3.088616170627099,-16.075751641887265,225
-106.04371361190711,65.99498877888038,32.819351943732705,128.24087239815847,57.19523847185453,62.24818078709097,12.383190450840152,-148.0,41.11122841350929,6.000000000000009,-22.566696292018033,3.276439483393642,-39.171508764618416,3.1403616393641456,-15.905786162358723,226
-107.36592240790009,66.27357319493987,32.51742313557817,128.2207254500797,61.62071770278182,62.41718288727205,12.491409552633854,-148.0,40.335450813268935,6.000000000000009,-22.18681949573536,3.165880064102757,-39.71931872009183,3.24025738977059,-15.791871325836635,227
-107.8804680306126,66.23858186904057,31.239388913765815,128.19827465426462,67.40071054160403,64.73651912998733,9.935715389301263,-148.0,39.98450864838174,6.000000000000009,-21.665681828960533,3.1101263524739293,-40.57702316587247,3.329045925921818,-15.681236557519526,228
-107.86443268501182,68.1410565448317,31.736499836487212,128.25110887753692,72.60787806450752,66.46486679500478,9.32818777265697,-148.0,39.94318516860358,6.000000000000009,-21.35990992537675,3.0529048524420324,-41.09153592105979,3.3988011343945255,-15.607397946361637,229
-109.21082280519168,68.53816048492708,31.49838014152072,127.98443373270268,77.62021387566635,69.81631229546595,8.513074089514342,-148.0,41.55333827725697,6.000000000000009,-21.111853268837997,2.8607927755756912,-41.44429244513928,3.545846612533301,-15.487503125452427,230
-110.43206245883226,68.8961164382697,31.00394276010142,127.57742132708862,82.57120314921539,72.29735675976607,8.465265219131274,-148.0,43.284611672350046,6.000000000000009,-20.860741642777917,2.686129783067521,-41.87010516830671,3.695482146289609,-15.388827719062528,231
-111.58273219043096,69.1917961960211,30.277168541573044,127.2182681907434,87.7063444204052,74.98708271531639,8.328911042604735,-148.0,44.28811025805227,6.000000000000009,-20.607526712795107,2.617636790219452,-42.40385362099997,3.790365317785056,-15.34374254504392,232
-112.44293981214904,69.2850676801417,29.239180126961106,126.75959341060376,92.72770778697162,75.9212038413385,9.494449265104478,-148.0,44.393064648354816,6.000000000000009,-20.36158382020969,2.639991316860474,-43.15259232012253,3.8665994221776945,-15.38913097466913,233
-113.15489918237984,69.34230620020546,28.015781512935046,125.99447748507339,97.4007515493399,78.66107586788019,8.6986454861113,-148.0,45.770634426441255,6.000000000000009,-20.18955748572082,2.64688972734889,-43.96716884067855,3.9902599703666612,-15.503757271271924,234
-113.84723318954057,69.40888388558214,26.39442125954371,125.4681437695413,101.99857403066667,81.37437394961734,7.553480588620861,-148.0,46.31411315138679,6.000000000000009,-19.957391632584002,2.7783780982204687,-44.87312807646153,4.018863895611133,-15.62468823032784,235
-114.31571877786996,69.45072879307368,24.2358183044833,125.00762210642525,106.6088177913953,85.9237105287539,4.389278502863406,-148.0,46.869864714373634,6.000000000000009,-19.750340976995016,2.951014197161627,-45.97302708454054,4.062999152535716,-15.830076602713156,236
-114.5826358995394,69.53650542059334,21.87546213607083,124.1654844822778,109.97647005088177,88.59365424696445,2.4939829464188965,-148.0,48.366086484870635,6.000000000000009,-19.680406019529624,3.02637302269145,-47.0927714184662,4.232951347206886,-16.1223149052951,237
-114.29535424531277,71.40648884589274,20.89395815523318,123.29703695820143,112.71428694211161,89.32182075852536,1.9083953098240378,-147.44530940356205,49.458666375867516,6.000000000000009,-19.671198040840945,3.1547616761397475,-48.157933260989395,4.371822581807048,-16.46372064932143,238
-114.58486756117327,71.48143119249573,18.546689311365924,122.2035690456305,115.2412395603948,91.98547483947173,-0.3360042891116369,-146.32913147406035,51.06539990449014,6.000000000000009,-19.69988225426447,3.2466407432325504,-49.26662262063361,4.567815205461626,-16.837933165316777,239
-114.7067655908609,71.57553876664186,16.05941235103414,120.70524853337089,117.1122050001987,94.4901204201763,-2.9809995692387297,-145.26470394818608,53.182747738921066,6.000000000000009,-19.87657228159577,3.263847784153692,-50.404220489624244,4.89844059913512,-17.32675003732288,240
-114.69511820649757,71.69150255143948,13.41602850403741,119.03872034344367,118.0992190559556,96.6207715425316,-6.308819011290182,-144.23262591682777,54.76859924446077,6.000000000000009,-20.110288137875763,3.308324201689569,-51.54521801354463,5.2436590457473375,-17.880644637046437,241
-114.25815614151891,73.58482809334095,12.228974948391018,117.3866398038715,118.31065136962907,98.33130583774526,-10.244774348176538,-142.9204523082871,55.71573613987889,6.000000000000009,-20.30328431863366,3.434798556908235,-52.64960245657036,5.503816342540842,-18.42122332873712,242
-114.38323465643886,73.63598694724914,9.835594514329744,115.56360118636005,117.69688447628089,99.76185185171134,-14.357408755866457,-141.32391858452954,56.76907693290507,6.000000000000009,-20.55781195654069,3.593868904337349,-53.68128528649921,5.753811828556915,-19.018117176274735,243
-114.39913305814807,73.61777994437584,7.44793558748786,113.45555907520678,116.8672895437514,98.94238448580445,-17.244829617800185,-139.46360809290204,57.60530633607709,6.000000000000009,-20.8083312351512,3.777254730107142,-54.719423590137104,5.992053383664723,-19.63100077120078,244
-114.06970639921032,75.34071600068809,6.687569650299947,111.20898613472164,114.5808016083116,99.48562864486956,-21.782523207323003,-137.11186514513622,58.31057832621314,6.000000000000009,-20.957378606739617,3.962731508126299,-55.72424507854175,6.1780702675729655,-20.14288665535233,245
-114.27094992451269,75.17085098285217,4.5459094936036175,108.91936973345145,112.77721670211623,97.94928852230687,-24.76051751949167,-134.6576534821547,57.974081058332935,6.000000000000009,-21.120963637826552,4.231533068632245,-56.7080717088052,6.294010364228262,-20.704567625021795,246
-113.86597194846878,75.01140516198559,2.179116297471104,106.2141084399171,110.07458723880532,95.82648357336022,-27.842586528648997,-131.41495733400998,59.546848220274086,6.000000000000009,-21.003417477061056,4.245417673951558,-57.87990163729146,6.559199297037815,-20.92581802707741,247
-113.44509785828296,75.94753747719284,0.9314820676203743,103.74059582620184,106.97746796108245,93.98953571325565,-31.665626966339147,-127.8827703169817,58.484278477446544,6.000000000000009,-20.946186725736627,4.655899585596485,-59.081119059895656,6.49005613695038,-21.39393757229569,248
-112.85686503231702,76.15073750219568,-0.8848808921134312,100.95800258142191,104.3093449723334,90.87120455823444,-34.145049973323395,-124.08096099168309,57.94783265634627,6.000000000000009,-20.84707701644682,4.971705731585738,-60.31442862301022,6.49261170637959,-21.787356921818965,249
-112.30603311042026,76.19751984601592,-2.460740592153151,98.0514903798365,100.2887803586836,89.03898976199515,-37.48977921583,-120.02445018189619,58.582907559261805,6.000000000000009,-20.68400340826759,5.21426078843338,-61.454588603193535,6.497324196274479,-22.052177611166442,250
-111.75666113814849,76.13212333812234,-3.8032569766002733,95.16730519749116,97.21297420958365,85.6093735172063,-38.64606348375786,-115.99137288213151,58.74504349769638,6.000000000000009,-20.528308404431925,5.460828453121293,-62.467172741443676,6.460049216643885,-22.29066545978729,251
-111.12596582386011,76.14092312255411,-5.005752011049237,92.3591797398819,93.86875209493957,81.81634198714744,-39.29523352736129,-111.93494745360394,58.23752658474104,6.000000000000009,-20.447711253380422,5.768200859347,-63.31900145221124,6.3569167153531385,-22.598251673093916,252
-110.6678197612212,76.13798176186822,-5.945323387835353,89.68791445192488,90.30207736237624,77.73272792097985,-39.251810832924505,-108.8673230345137,57.24340474806216,6.000000000000009,-20.437901322706427,6.103637242599512,-63.956182694484504,6.2037294486908054,-22.94185679798502,253
-110.14837427670534,76.07476290824363,-6.720528420767579,86.67168009355541,85.83995429008122,75.63793476940482,-39.759609610721355,-107.07965799590546,57.46761768279894,6.000000000000009,-20.51879212390795,6.255661654001872,-64.41864613509765,6.2385860235258255,-23.239745821555456,254
-109.70934816055156,76.03421113386236,-7.326361085881836,83.84941487026673,81.56795023210283,73.77739325318379,-39.76003698595407,-107.57762067450545,56.40351345735488,6.000000000000009,-20.54297887622975,6.535841603670747,-64.79439006843556,6.083172014612462,-23.524162909524527,255
-109.45194636419988,75.9647508627049,-7.661278502071621,81.2067803203307,78.44197309168409,71.1380261939234,-37.705253600511526,-108.93630346894562,54.54386502121711,6.000000000000009,-20.503938584714618,6.864788264366669,-65.02364236048216,5.793800120189786,-23.727446158743547,256
-109.45308769945689,75.9033878095615,-7.690353623002702,78.74104691440846,73.92798370538512,70.35701064627673,-36.06283146279731,-110.82405937189569,52.02924767294453,6.000000000000009,-20.46035935403634,7.219696168961092,-65.0386090257027,5.411970373907609,-23.879928790668274,257
-109.81034120109041,76.01903167173535,-7.35935537248689,76.66162061974585,69.06045834325377,69.86446642620281,-33.50285796924005,-112.4341941255354,48.29577723909038,6.000000000000009,-20.34128236304883,7.589066379946551,-64.7795121274556,4.890638954175391,-23.87718943194601,258
-110.38319047745036,76.25983885576656,-6.663813436570244,74.60614305001032,64.54534157078822,68.5000681064565,-28.710729631879808,-114.20615091923223,44.88216384432329,6.000000000000009,-20.280233317359755,7.853374073659538,-64.16652466831286,4.417148172772921,-23.771265933986,259
-111.11413665557552,76.59468581907379,-5.596953049576955,72.65074852131465,59.435655745137716,67.70394003386559,-23.55137328304781,-115.39594051979199,42.040828745415425,6.000000000000009,-20.285081996149497,8.074033944191395,-63.20954389110365,3.9408903060729616,-23.600816105134662,260
-112.04793654627498,77.27437773056884,-4.08099240627439,70.61495018688453,54.178468094649936,67.81810743486302,-17.991247555053604,-116.04941617393933,39.96629083433002,6.000000000000009,-20.348347500088853,8.210646971178283,-61.74268701641461,3.4569697439700473,-23.27744756027169,261
-112.75069326808594,76.93562671986777,-4.469643780186008,68.31151731963928,50.247988493182774,67.18405615459903,-11.466407973725916,-116.67001603838368,36.54815793088088,6.000000000000009,-20.339915701881704,8.28409700117898,-60.047309307250515,2.9519105119695004,-22.758884812003217,262
-113.34223970566688,77.85191928812714,-2.688601341888077,66.26778033660052,47.36126058625559,67.15643988774252,-6.000729881858062,-117.61758096766289,32.85158689632978,6.000000000000009,-20.138954779827102,8.396510009671383,-58.353578586846396,2.3349977814996334,-22.050170234528338,263
-113.5877298845473,77.6746535036327,-2.8391021959699914,64.4173479066686,44.909481105299754,69.32705328309353,-2.603307376286324,-118.85775355452587,29.769599859464215,6.000000000000009,-19.92953593538571,8.589776247445455,-56.43720626975024,1.6258865519941377,-21.285446210557993,264
-113.73016653691484,77.66136956313024,-2.947561668418318,62.7102784032728,42.680959039948625,69.65519457210675,1.7371482480368685,-119.28452772215114,27.2791392036837,6.000000000000009,-19.806040696863885,8.844789967959594,-54.36507825646632,0.9132162707254948,-20.560710282027063,265
-113.58488884567957,78.83074303603522,-1.2412520479504374,60.9366223632283,40.67165456904343,69.9249216631214,5.708750344634137,-120.0453353626087,25.541372925725547,6.000000000000009,-19.681476513190393,9.08532181564352,-52.482788244427994,0.29529834340773536,-19.876523707421367,266
-113.06205262122117,78.81675049771926,-1.814413749209485,59.539239583401596,39.70297390858364,71.98365173006799,7.294887546955424,-121.32580518813766,22.258313769144642,6.000000000000009,-19.40555225363446,9.415753776039134,-50.732860734637356,-0.39010478374178137,-19.12082216712227,267
-112.40825349025242,78.97517100939896,-2.1829416650930336,58.487053318900124,39.005279720128776,72.23651965940988,10.176661827069308,-122.40564604997967,18.785026762439745,6.000000000000009,-19.1293898774709,9.766423389223744,-48.69602561508605,-1.0820679225562344,-18.259676681564446,268
-111.45912332557863,79.36325016369295,-2.5945574227492223,57.557433396129674,38.885176725253416,74.12948199256937,11.154274815333714,-123.84717342858458,16.337840136269172,6.000000000000009,-18.994930514467356,10.140590506535899,-46.49278189702648,-1.7066565189587457,-17.45108597379208,269
-110.59530765856161,79.79443154220489,-2.751709843773877,57.1970375789973,39.39312747706065,76.05297277602969,11.884252858587981,-125.86974963489197,13.32758451926896,6.000000000000009,-18.79730486080125,10.566894099289932,-44.0657445919715,-2.3457071367345175,-16.50329569777896,270
-109.92101113510338,80.38858056211375,-2.4628342495107076,56.73421276808212,40.15117728917526,78.22783252750364,13.0396071808899,-126.80685222258398,12.548522738747758,6.000000000000009,-18.499414890188113,10.698883684050273,-41.212347759875044,-2.7475216637757836,-15.235830785750125,271
-108.55263826787254,79.81923546315336,-4.877888568109351,56.0327514485439,41.09107688753597,79.96406490367335,13.837573137261392,-127.35007495362136,12.93214404339082,6.000000000000009,-18.086962404937122,10.705253126419343,-38.785956477258075,-2.9833410438499994,-14.03429654152972,272
-107.15349274762151,80.09283549664141,-5.375375616582257,56.69082612374286,42.272847457935605,79.40962379261764,15.112039977768841,-128.7052003394077,8.2600008626022,6.000000000000009,-17.552648492946044,11.090961439428469,-36.66004960130737,-3.4123442924445966,-12.961065276064687,273
-105.57169055988616,80.60184836923426,-5.555884515143979,57.64193714142199,44.04967273780979,80.78633260389142,15.14322425489245,-129.75246598972663,6.876652097998917,5.7311521573014055,-17.141501973306458,11.359678213900729,-34.096937840243356,-3.6735147843053726,-11.80615076658016,274
-103.70377162321238,81.24922201757458,-5.418494420794883,58.309847958763825,45.41234746105206,82.27797446602378,15.67891030439166,-130.53263667020673,9.297859614558062,5.722784461384229,-16.986292417242165,11.542271116798636,-31.12059793160387,-3.7613397205871784,-10.656923097071363,275
-101.35143629577655,81.69448936596375,-5.640547428180729,58.975899762008986,46.597956973729374,81.57815042194976,17.153361856102077,-130.75393260479703,11.671486230315425,5.087023500112605,-16.56088607133061,11.654234639217206,-28.552876003625098,-3.7781172970876016,-9.517179776569787,276
-98.77432500692622,81.92771800437943,-6.140643768624089,60.382596717493996,48.675960551769144,82.48044327058705,16.414290152276042,-131.33684041195482,9.872342315045463,4.465320796170946,-16.148747394190206,12.034953441177139,-26.22972488245823,-3.868405644845469,-8.532695803881454,277
-95.86925751991723,82.13879562780112,-6.602786009519141,61.98416576331121,50.67195952646463,83.4678533057383,15.758026167318594,-131.90475601457254,7.7694222226728265,3.9663871253508214,-15.828856346725383,12.476196680727588,-23.7883593302693,-3.89139134115939,-7.5787272104209595,278
-92.9171794006817,82.25257787262483,-6.817475162797479,63.601132806858594,51.86475127342008,82.71157680388639,16.774280378482853,-132.04173631257154,6.718228053633267,3.580549466570389,-15.571861296068755,12.859219037373228,-21.111780844676268,-3.7786428834577817,-6.587332924249682,279
-89.76603895358785,82.14961161993809,-7.233411485963499,65.48435145451106,53.715947918742145,83.64953296296959,15.673969937121798,-132.15141711673326,0.5361129063188903,3.1045084910252263,-15.286489048223393,13.321938027679009,-18.593384586704467,-3.6308776078189715,-5.667731439194158,280
-86.34193196742488,83.11520896507581,-5.894852163687261,67.74889618862319,55.01532639250775,82.0463036297258,15.979239514391864,-132.00244493379742,-14.029379075442762,2.582024903853317,-14.969784388984683,13.889917234927196,-16.28155666270976,-3.465125586535884,-4.836773311120096,281
-82.18515844311268,82.85205800126009,-7.005012958387782,69.90604479145824,56.493045039448496,81.85748097383288,15.144946264142689,-131.82032167406078,-30.621110709114173,2.339394980914007,-14.741053235046415,14.454844206748406,-14.12187702888519,-3.2429591208187105,-4.104005666187084,282
-77.88008592134892,83.802853329895,-6.266463257765434,72.04577499266722,57.872680322600075,81.59702696032143,14.423608405673551,-131.87961325159895,-44.614900608383586,2.3407810730996714,-14.611172676096524,14.974268745787267,-12.042648374615858,-2.9530278787810547,-3.438404003934132,283
-73.17702981496613,83.49677375979532,-7.8291394571568,73.98838206695326,59.33275470955811,81.24833450585675,13.76725789169581,-131.81684164590558,-56.95782613799213,2.237437026952179,-14.505192761808045,15.410576962420677,-10.04640352587674,-2.6014084431686535,-2.817401174130871,284
-68.30806905858151,84.42821165732097,-7.489042984881932,75.53263196519548,60.443422622142805,80.86430122497013,13.35913251077567,-131.69414261491593,-66.5202317580962,1.8874550738957834,-14.480714606686062,15.725488325530367,-8.128191119779638,-2.1952133430536036,-2.247284270344131,285
-63.43117347547512,85.2907375707643,-7.376741329624405,76.89988792040253,61.030850185691946,80.47137493644514,13.046257518544339,-131.60106401285623,-75.32738915715775,1.6005337086251128,-14.508220365690608,16.01774786348456,-6.310469823720469,-1.770028576615939,-1.7251706342091224,286
-58.75038625333831,86.06870490489749,-7.620220436204972,78.1581065624409,61.490573012665116,80.0697455398073,12.554908539580593,-131.64400844373858,-75.24723833231025,1.7300803519402888,-14.578515920261198,16.394577536219437,-4.663661252378707,-1.362385209331089,-1.2651118485825779,287
-54.28673006849159,86.74349870864015,-8.065733666855301,79.24707673522032,61.58574101175738,77.81383188700235,13.572669904183137,-131.90550541099915,-74.46434681748782,1.8746396818634525,-14.669870033562686,16.78492981370059,-3.1208907453522183,-0.9482109220059463,-0.8411925926078737,288
-50.11290621067842,88.64056286092675,-6.553749045684968,80.33606201968742,62.53430377424204,79.41355245918552,11.718875973669274,-132.20154927694185,-76.28247903204247,1.7744957674421504,-14.726634890560373,17.10469047793943,-1.6146899453538437,-0.5071145470572697,-0.43107916288589,289
-45.96581825531291,89.10944829511665,-7.01431947446123,81.63936225733566,62.59807231302555,79.40636115714162,11.961709066455382,-132.23474969873885,-75.49299935335455,1.42725305461416,-14.703568087192528,17.2677360572837,-0.1565510652138042,-0.05024914671663567,-0.041144761479844284,290
-43.954373315711024,89.19755380852521,-7.259340241498033,81.63082604945933,63.34660110719523,79.36302254322305,12.063940336737328,-132.67876773760844,-90.0,1.0722894082133818,-14.567083342357682,17.483662127192705,1.0438833234282612,0.34244307521306516,0.2683667365598865,291
-42.01616458132436,89.0197975194724,-6.793817523248917,81.90764632289199,62.65608463401076,79.6558008030453,13.27239550672449,-132.09558183957014,-90.0,0.65171940967912,-14.168196742017734,17.230401586899134,2.4549974882025367,0.799655293073418,0.6037784190515044,292
-39.75941290856632,89.12877454219611,-7.114233684656924,81.17282931962269,62.812213367381325,79.65128898483091,13.438022816696845,-132.06434008299505,-90.0,1.2959439949596994,-13.75966822074886,17.35261171420295,3.4370036412013723,1.1328707399030518,0.8098537450127514,293
-37.94420776282945,87.69056314050006,-8.990377454099384,80.37682932264488,62.735496650443956,79.82196100029131,14.227125820345393,-131.91076775931936,-90.0,2.331050617679252,-13.271320106391098,17.24889209246813,4.578040747090749,1.506310966204165,1.023290106196552,294
-36.94712603990612,87.567328253721,-8.729595701154112,79.79547776749047,62.3687755126357,80.11381708188743,15.232739203730848,-131.4985595918348,-90.0,3.336127489566141,-12.817009014402108,17.059802299643223,5.683399196116547,1.8559824276913524,1.2063385942518845,295
-36.2377802702092,87.58163932304664,-8.676190007697164,79.28628556590485,62.09772180910006,80.30569088891511,15.87431773186039,-131.09013626617053,-90.0,3.863232345088753,-12.544193694805806,16.955620221954266,6.500363176792468,2.115662311726386,1.3331714528001637,296
-35.62410540467103,87.02184925091817,-10.081824925537413,79.11301207468128,62.370111736482926,80.23079286319127,16.109372159146687,-131.40741406984367,-90.0,3.8745880359151923,-12.555603470406888,16.90667071853003,6.996763584078763,2.277275317670951,1.4272161431696635,297
-35.92070077190273,87.14654615171186,-10.016383216437164,79.40398304659014,62.433223408296236,80.22000204835726,16.626376181342003,-131.55672133352394,-90.0,4.2004200389973665,-12.522372043510318,16.681865369453995,7.3709156405383744,2.3711374330757473,1.4934021890298814,298
-36.374936232883854,87.54871290852239,-10.33344407627835,79.59160462653229,63.088286293429,79.96194412585858,16.613480833202203,-132.04619087269353,-90.0,4.2797013469256955,-12.485941447810921,16.58900987621275,7.28041432568263,2.3269088270833937,1.4728138309729504,299
-36.7530697414418,86.72512279056116,-12.724572539329339,79.56735675714465,63.9750282971821,79.59502052939685,16.42718655497752,-132.63948186431722,-90.0,4.336986366868841,-12.364106259931997,16.48630302390457,6.902170246303461,2.185272569487474,1.3887786240305207,300
-37.607780939340266,87.18698677203676,-13.057228038974195,79.37785395269718,64.75895878395517,79.2735842002908,16.267252679208603,-132.92031606782268,-90.0,4.422657416675718,-12.213519194192914,16.35875362953386,6.445819141203181,2.0170571595956726,1.287962849055666,301
-38.59692722119572,87.64308048125442,-13.490014609145765,79.22968443883897,65.36264188561725,79.01554126361397,15.97070803416852,-133.13727092242775,-90.0,4.241406911767756,-12.169726652103826,16.283189016140927,5.850833663174483,1.8152561633576227,1.1740552494702738,302
-39.640148117929044,88.32789836603573,-14.001062513096974,79.3252533054718,66.61373368321583,78.66199811784297,15.351022710280207,-133.9404093916593,-90.0,3.82498289944053,-12.2109937604843,16.355700264950226,5.044481179524119,1.565011291159957,1.0264380644555424,303
-41.15348007631146,88.78198765723009,-14.096245272725719,79.56561946127212,67.49440687382304,78.51951535582798,15.236021250715325,-134.12542770793394,-90.0,3.8640782505219433,-12.045622848419862,16.250043287636235,4.347611751484364,1.332753150296464,0.8797526257798665,304
-42.713998804623486,89.26290856804364,-14.37568311567456,80.02962540915483,68.48748674905904,78.31129352448055,14.830871757119263,-134.48058468477808,-90.0,3.619566444023059,-12.006759286448032,16.215305433503744,3.5087308846690726,1.0674011711143128,0.7151829176244655,305
-44.2554688165186,89.78960219938492,-14.700545670829253,80.45520338021782,69.45500175207265,77.97600106261349,14.211295237251353,-134.85061729125755,-90.0,3.4373729082139337,-11.980227145799349,16.140243935243383,2.565041169652214,0.7718258936907708,0.5278529822959402,306
-45.5107849992504,88.95746754508534,-16.986483064920233,81.03806720274328,70.30899942562269,77.74079755493963,13.714977964068053,-135.25504156418629,-90.0,3.1609069926595907,-11.986989161425791,16.000953060849508,1.5355783374406198,0.4548521812985349,0.3202257529950278,307
-47.218660326469596,89.37995053660475,-17.308291381709896,81.5244417163721,71.40568931752206,77.62001216492449,13.309453615010131,-135.67464968688506,-90.0,2.787921308613295,-11.971173458055826,15.883435498365793,0.46133500608418054,0.13461451042517797,0.0973000078203016,308
-49.00287821075529,89.68694466679982,-17.49378022850893,82.06126560473456,72.46164096595776,77.45420757037802,12.93442389278037,-135.87793818165508,-90.0,2.6317248146993735,-11.916277309126235,15.677452914502616,-0.5932276946067826,-0.16945938961577334,-0.1260277277504082,309
-50.77253471118194,90.05235624939726,-17.803792738773282,83.05946582132255,73.54875227680581,77.17249631216568,12.36113537647618,-136.4633061128827,-90.0,2.4655318269938973,-11.995414836549163,15.407440425041274,-1.7769261570388686,-0.4942273931240563,-0.3848892493831657,310
-52.697135646910525,90.36986423436322,-17.93581685925931,84.0007148672228,74.36551352794775,76.98560937905175,12.080685299784502,-136.9995796824408,-90.0,2.681493411386338,-11.980901242218469,14.95907426514609,-3.0055002713081422,-0.802556812778618,-0.6580074338608554,311
-54.56462737303908,90.5891714792351,-18.153098637968203,84.60407160086243,75.02659279880102,74.92941009219825,13.178262769962638,-137.5869872742137,-90.0,2.8916768773608785,-11.901106984399403,14.581714298176104,-4.3038167012024,-1.1066712199582809,-0.9471057188212811,312
-56.54906158079559,90.61118735290523,-18.34375197723003,85.30183650702034,76.24708483334116,74.87046946096473,12.775280796497462,-138.21226832714623,-90.0,3.0345439446935565,-11.81425520490895,14.249803301814909,-5.537572890028157,-1.3748985394315338,-1.2225809031216046,313
-58.35360757213311,90.60682915364325,-18.456772445621187,85.63814631506565,77.0231239615885,74.8493986761761,12.483496869151852,-138.2532067170183,-90.0,3.1962475490563294,-11.637000148587635,13.844796984636359,-6.743360364580817,-1.6061940101059358,-1.4806351928647408,314
-59.712846871795286,89.15982728417656,-20.701327788090374,86.90071944997261,78.16202425843974,74.87159006440659,12.058334357118726,-138.86705218623072,-90.0,3.532493127074273,-11.762207245423564,13.501230014703681,-7.988647433593397,-1.8303945946479725,-1.787846714014804,315
-61.47847385578773,89.08735080427869,-21.06662693808807,87.97375634805366,79.16444088194258,74.8711895011071,11.531685526646159,-139.40711383070555,-90.0,3.8802896239114335,-11.820026953911507,13.099385614309924,-9.359694897555727,-2.04710023454551,-2.1225397248637643,316
-63.046844242232865,88.99282574326291,-21.586606881243558,88.89568695125129,80.30579425487062,74.84193380818027,10.732854566109173,-140.0721940900574,-90.0,4.1975614588852315,-11.890850248664442,12.76999502128791,-10.793623246030043,-2.261170448063778,-2.4824567996624265,317
-64.61234846340868,88.7467774730192,-21.990336811093464,89.76024522385359,81.50088036137761,74.92618830058497,10.093419999985567,-140.5556644677476,-90.0,4.600236848273486,-11.841312650407579,12.428182053754583,-12.137808099927652,-2.4318534260476405,-2.7999896905760893,318
-66.21141508203605,88.41451444539138,-22.32965037659933,90.69240928197347,82.24669915368992,73.17168816952238,11.113054460384461,-140.83157284247753,-90.0,4.996374316740762,-11.708377985209614,12.026307889018995,-13.475370199934337,-2.564285127198311,-3.093505290879845,319
-67.5764628661565,88.05245504603823,-22.670366468196008,91.59839700927272,83.36513058250122,73.37500628560365,10.58594374285192,-141.16750371180737,-90.0,5.394201001903566,-11.603165554424024,11.583470074526476,-14.877968573551636,-2.6691734091552552,-3.4034355168169426,320
-69.2953143660716,89.13633505926715,-21.199721130552046,92.41950156355621,84.43666696487519,73.56368061774214,9.941665747490767,-141.58749131466737,-90.0,5.76376392728272,-11.542654444376954,11.158344001326963,-16.295788667683325,-2.750931323101837,-3.7250207620303173,321
-70.52085423960072,88.69066205080557,-21.698323704512894,93.45368863705642,85.75024345046036,73.76100905344613,9.07231631551982,-142.06304951556726,-90.0,6.000000000000009,-11.472776580366304,10.787676207639114,-17.758272114443585,-2.8270368107033503,-4.053047134600046,322
-71.64590288315016,88.16019294924703,-22.263515778560215,94.38906756565802,87.22045079946038,74.03159974485808,8.043435579568616,-142.36132752796314,-90.0,6.000000000000009,-11.310865328171968,10.436245461036641,-19.33696092966614,-2.899960742111666,-4.374731308904516,323
-72.54010488382342,87.6115749742634,-22.896609699489876,95.23332283154893,88.77859578117496,74.40558485546738,6.91561639547734,-142.6832282102909,-90.0,6.000000000000009,-11.165641217647375,10.086316825027993,-21.026780229637428,-2.9566743363606776,-4.719626696702573,324
-73.4753948561686,86.94227190721286,-23.516891338906582,96.23899825848412,90.75031190996502,75.03011546621154,5.841922268943898,-143.42451700974758,-90.0,6.000000000000009,-11.033753340565736,9.7518898175502,-22.708886129469295,-2.9890592744515763,-5.05826244097929,325
-75.2655321990752,87.47167887896778,-22.096254028136304,97.39106898246595,92.90648542158088,75.81047429892665,4.929349867098715,-143.99968689186358,-90.0,6.000000000000009,-10.69952606004394,9.459057847546001,-24.20364061986984,-3.01348792438724,-5.25879589483753,326
-76.58265031378487,86.41807908102658,-22.335591820606243,98.76299069693651,94.40478716574232,76.42177773641643,4.194164643482644,-143.93247770017572,-90.0,6.000000000000009,-10.289107382756908,9.150897051907721,-25.48746679345847,-3.0071410786396306,-5.355507904905686,327
-77.41101993900786,85.66214011608737,-22.89459293868885,100.0425438846782,95.64680646920698,75.00389500827777,4.528442373863104,-143.8075899779189,-90.0,6.000000000000009,-10.045484030369149,8.812233464060089,-27.046794978457157,-2.9754662979990973,-5.567990327697842,328
-78.4929840752198,86.52895692186816,-21.843603193106883,101.01822107504098,97.47533630081149,75.78924835537666,3.1677755110546175,-144.20207714719425,-90.0,6.000000000000009,-9.960943658486906,8.402744895535395,-28.935906015494673,-2.886164905177741,-5.906144124219727,329
-78.87462121508727,85.69809549398079,-22.448310042579294,101.83113502019333,99.26007633458914,76.78779488294634,2.0122516238765864,-144.65257477732132,-90.0,6.000000000000009,-9.799054644208425,8.029645940464707,-30.74266313376771,-2.7883138643138525,-6.175532711638667,330
-78.89827846963833,84.9433731241978,-22.90668554278496,102.53653085263603,100.88716568569751,77.67095805396794,0.8662388567278795,-144.9246320285212,-90.0,6.000000000000009,-9.567642318182262,7.7883198213005835,-32.290062430226804,-2.7388026980690863,-6.352342060854251,331
-79.26688877746756,85.88686757825461,-21.45786036920161,103.43560858732694,102.7184526020841,78.53529732559842,-0.3050156185364528,-144.995491377034,-90.0,6.000000000000009,-9.338439766409447,7.626998174278311,-33.64985391991982,-2.7170815687228385,-6.487806450118363,332
-79.31691492184447,85.16243284163339,-21.447317606811758,104.21929928260367,103.92995993214116,79.37550635177759,-0.9021419202105356,-145.27119375177628,-90.0,6.000000000000009,-9.193544315881654,7.108383816466054,-34.95299459296177,-2.4639230154299803,-6.585013880578799,333
-79.6137902972599,84.23750682802765,-21.44736761334777,105.04269971010228,104.49962116260407,79.84778063081473,-1.666751433370652,-145.6716737845245,-90.0,6.000000000000009,-9.014165910363735,6.646418033950821,-36.200767306023955,-2.2298177062146136,-6.6427485706671,334
-80.26800331647443,85.02555944918701,-20.08072034230378,106.27250165137083,105.57147301648138,80.15448814748918,-3.2702493095173253,-145.6631059750666,-90.0,6.000000000000009,-8.668569960080516,6.606288845941289,-37.49240231493144,-2.27305100358824,-6.6729643864969415,335
-80.37867256211527,84.11898513086979,-20.16115973322818,107.30669994634385,106.32142013956032,80.65870408981706,-4.2656081656594464,-145.98346216300362,-90.0,6.000000000000009,-8.4741989870459,6.3015672336248985,-38.73268017463464,-2.1182738148032114,-6.719512330904368,336
-80.64247040577993,83.08663567124682,-19.990893996803212,108.67085044252855,106.95213085172398,81.11644388139368,-4.992929300669537,-146.3068188225641,-90.0,6.000000000000009,-8.347782978399456,6.002744531749857,-39.72410846101151,-1.9450380673489616,-6.752288916230098,337
-81.32465886312629,83.86598190379642,-18.089976961661165,109.80791040910592,107.55699675235746,79.36890309566296,-4.460256685214474,-146.65289281845503,-90.0,6.000000000000009,-8.245722347135407,5.681896103778439,-40.674129275557846,-1.7440243974428016,-6.7786338065564795,338
-81.49297838106284,82.94249326003838,-17.914233244346065,110.65370382784621,107.3570213607552,79.28501382042089,-5.2266943908631855,-147.27079062748075,-90.0,6.000000000000009,-8.17770850988838,5.363001558064608,-41.54388609661579,-1.5292763620655347,-6.805165632757538,339
-81.76420849775664,82.0094492882741,-17.90550506258911,112.03839115285153,107.25426808884386,78.94630250772727,-6.396992040437901,-147.5953631417534,-90.0,6.000000000000009,-7.968315235583906,5.322134931881724,-42.317695776099754,-1.5353561368795108,-6.781952522131123,340
-82.46106931855448,82.87032095868979,-16.26067266207507,113.40715601768049,107.63396787171952,78.68953788673632,-7.812156424036841,-147.91305705389624,-90.0,6.000000000000009,-7.782891512960909,5.248509279854194,-43.18334295420736,-1.5113111336773657,-6.7764937447149824,341
-82.68014153850288,81.99100857117928,-16.151288837978214,114.53616188906449,107.91071410199227,78.46894012155101,-8.935104823837332,-148.0,-90.0,6.000000000000009,-7.7382747977068,5.002842679621138,-43.98661373846239,-1.3290962655811318,-6.807187988007054,342
-83.54242428681076,82.70517430415715,-14.292086784304562,115.77955138146983,107.59633521198087,77.97434474048896,-9.899491054975549,-148.0,-90.0,6.000000000000009,-7.713644049425041,4.798893011233547,-44.66323370426771,-1.1694685114162078,-6.838515760884516,343
-83.60188137552589,81.85901658327441,-14.309402665566132,116.96117399761032,107.73703331789126,77.44654843197104,-11.409877591960104,-148.0,-90.0,6.000000000000009,-7.576333653116386,4.784788813982117,-45.43014873084327,-1.1722494000137473,-6.853635380140433,344
-83.64833870961118,81.00030687881524,-14.082584193435105,118.09116628766928,107.95843399391565,76.93084153252275,-12.694486665483133,-148.0,-90.0,6.000000000000009,-7.577786907736067,4.712052268348852,-46.00093840696341,-1.0981892023706765,-6.920001531061929,345
-84.55629612186631,81.60597069474368,-11.883499840309053,119.36250694135069,107.62067798931619,76.38363045540859,-13.232592166016977,-148.0,-90.0,6.000000000000009,-7.745184672899971,4.544199547168847,-46.256526174116615,-0.9144529486720243,-7.030944361292832,346
-85.27536357128561,80.8108712722097,-10.996606865273812,120.73019672130668,107.2250768953483,75.84207998481705,-13.768197634360185,-148.0,-90.0,6.000000000000009,-7.791868704506201,4.462146374826425,-46.503243120050755,-0.8291036964904485,-7.077625390846982,347
-85.74404980731622,79.78070879066973,-10.765678117624496,121.94319247167986,107.35193576297806,75.52943807436142,-14.675787421068886,-148.0,-90.0,6.000000000000009,-7.709415027926141,4.465231749777243,-46.93578263385279,-0.8376412941015496,-7.082335554959734,348
-86.273113855738,78.76552084305342,-10.45152617598695,123.08535108791094,107.3918976418665,75.36504807708403,-15.329679932910977,-148.0,-90.0,6.000000000000009,-7.617418299739624,4.471345933332017,-47.330938101118534,-0.8536208178704372,-7.074344365675846,349
-87.14716676418735,79.56712961013635,-8.457665238011835,124.27520100818684,107.25130629294422,75.2474939106425,-15.803758064671626,-148.0,-90.0,6.000000000000009,-7.517586922727728,4.531645428899263,-47.678292955422066,-0.9154186433468692,-7.070020385305697,350
-87.7482186030962,78.4730553809878,-7.939164334225578,125.46928869840677,107.59205656077658,73.56517272456537,-14.739628517976819,-148.0,-90.0,6.000000000000009,-7.483110123375319,4.686790972475451,-48.03312362219184,-1.0279084739153797,-7.147060772638298,351
-88.21363224294932,77.44599386009432,-7.57189797463435,126.53799918084971,107.97858504346259,74.20714325738503,-15.084014579329661,-148.0,-90.0,6.000000000000009,-7.423564654201567,4.955436899403655,-48.45386572161349,-1.2333689040804892,-7.2537185501430885,352
-88.78753019953197,76.52674837702243,-7.10800015317729,127.56827347917542,109.07096179209734,73.22075837144504,-13.826237798827464,-148.0,-90.0,6.000000000000009,-7.316456872822456,5.2127295321134985,-48.74483144669813,-1.453734744734479,-7.302384057579302,353
-89.6355077057829,77.48159651432258,-4.972366589722661,128.5326084514221,109.5126867105384,74.36120048710258,-13.409222032901676,-148.0,-90.0,6.000000000000009,-7.215196052468512,5.433447114189022,-48.988943871899984,-1.6479423752384867,-7.337053206766361,354
-90.27051581861755,76.50973892149412,-4.374287919909299,129.4433137871227,110.86515712396844,73.98676702217288,-11.718983580617465,-148.0,-90.0,6.000000000000009,-7.160100310086551,5.697558570261968,-49.33115740713594,-1.858446292704309,-7.438453845292008,355
-90.84381990150027,75.51576877959124,-3.7536292260273085,130.22884236086506,112.11927018879504,75.68832255635184,-11.300955885924672,-148.0,-90.0,6.000000000000009,-7.094944429848783,5.941876486101322,-49.676084911046885,-2.059346481640284,-7.527468858075363,356
