JMW9912/AVATAR/install/dynamixel_control/share/dynamixel_control/data/csv/poppy/.data/waist_test/3DoF (3O)/0410_1401_Anysong_2_three_DOF_waist__poppy_smpl_motor_degree.csv
theta1,theta2,theta3,theta4,theta5,theta6,theta7,theta8,theta9,theta10,theta11,theta12,theta13,theta14,theta15,frame
-80.7272938570162,82.07017935897765,-26.166609920878212,28.29882286208962,87.31094868010284,77.08384723857534,14.809567293868101,-52.95415382411825,5.9889779752912515,2.6113666294729887,-8.87540604456757,0.2618981548332264,3.2912515453326225,0.02997690838006026,0.5132466197690472,0
-83.94198547036935,80.1275787323538,-24.31315433580059,28.298822862089697,86.52566739596553,73.38260899021297,19.522531122753396,-56.597220059850756,-17.32908941236296,3.7683360746899885,-9.601625803075429,2.1836381627652166,2.77351817530833,0.11858961679533715,0.4664863214269778,1
-87.06793094453498,77.59795301383961,-20.011523626252405,28.29882286208985,86.92736600451455,68.57561128620797,19.182697489663397,-70.95512761235872,-32.6480425627249,4.590224512836977,-9.534815961709992,4.2200122628448185,1.9501888744664737,0.15149287703300413,0.3250925394687773,2
-88.34921939684047,73.40820107536597,-18.07132120035108,28.854327872923914,86.89703674285893,63.33652331294775,16.8560524733056,-90.02962387213549,-40.851149743791076,4.795868888302083,-8.771952739191642,5.421991939964545,0.7068289604208849,0.06856008926224312,0.10865711530444613,3
-95.20332975423315,67.84167841429561,-16.68154100132936,41.3505432108561,83.18312092174737,60.167809814021275,16.70937854972823,-106.82555625953803,-40.232002367272564,4.571219343021429,-8.184322784045598,5.706769169927876,-0.6503822811305456,-0.06512549616106651,-0.09390281510105647,4
-102.86586541001454,62.75404699565105,-16.671465218719465,51.94154983058198,75.38735174867074,56.55562066090321,17.95729154645637,-119.67193650765411,-32.910920638633,4.094150347504399,-7.525192077354943,5.3968183161781855,-2.0484733765916103,-0.19028330761107395,-0.27397311876808805,5
-109.15501022160983,57.144299190059904,-18.92261244416552,62.17293950471733,62.0191311587273,54.344471794643034,18.203450662260252,-127.76965047098273,-28.400275418958906,3.667986943322216,-6.9879216352032785,5.43323487049757,-3.5786860620487047,-0.32889072824009696,-0.44889867540566275,6
-117.01294695309967,52.215194272196186,-19.70944500995169,70.63241114594871,53.21792827465606,51.68031574962019,13.42072531029575,-133.82498549932833,-23.059284864643317,3.4090777175923,-6.968685393719556,5.888171933042137,-4.704962546394578,-0.46445175875705724,-0.5941909251061006,7
-124.45907471749942,49.16065969595852,-17.76378224342333,76.92212884035905,45.503674782264696,47.25907907373832,6.667894781236986,-136.6863059657338,-21.527592861549852,3.154049024297008,-6.761463020009552,6.317638545146933,-5.279500376052307,-0.5586098843289927,-0.6517555557460326,8
-128.8397178779698,48.97586153571505,-16.54819900497313,80.44265308978595,33.78066595677583,44.99818563454017,6.583551324321332,-138.02867111673223,-21.84386264052282,2.9269009569394435,-6.571576679067886,6.5081352463975275,-6.124235017863398,-0.6637890329109597,-0.7411968526656185,9
-130.48261979086624,48.992294791876354,-16.186089214891446,83.09147821009503,28.19698625278221,45.17412023833397,3.657880983684054,-137.91987635310912,-21.872330715789293,2.7940196573422766,-6.460629002302288,6.60925274615883,-6.365865539015901,-0.700260980922164,-0.7600152915270588,10
-129.11924236445347,50.31161065714196,-18.525173009756966,84.16317448409806,26.7102095251548,46.66736175576521,2.07759143868952,-138.05486518381417,-24.529756581928027,2.78317820805937,-6.274790524537944,6.563364265992936,-6.50340202494511,-0.710090061937314,-0.7556724855381746,11
-124.22112814971486,51.16887689992254,-24.200698856626357,85.85896107527013,30.86668709001483,51.60056393419446,-0.6354145758987559,-139.29849995341186,-23.458418603465997,2.799343683581607,-6.249845540923261,6.412921753233164,-5.967521440650411,-0.6390987196477538,-0.6870096349787229,12
-119.48165395333302,54.062370632589584,-26.723659057013563,86.89148696690766,39.01586126267105,54.79622827232973,-2.1872289428488685,-140.0680689461085,-20.865453371192192,2.7594301719567316,-6.189891249887885,5.902572709863019,-4.808609866758199,-0.4773695969317436,-0.5416251601202724,13
-112.49906498846426,56.45392552042238,-30.67838683330452,87.64333772631659,50.714007849082954,60.722481669041436,-4.541425248411965,-139.8603413455935,-11.759683634452136,2.508032909263945,-6.8548724345809,4.886704429540573,-2.9380745892656535,-0.24377508254381708,-0.35943430385187847,14
-107.12655171861653,61.53732718339697,-28.850793032294327,88.08341815668003,63.5931042039205,65.36172378755855,-3.934344484039875,-138.24681180796773,0.45939308338311485,2.5053671059172014,-8.180118255624395,3.573078304058676,-0.797699322521895,-0.0495197676237715,-0.11500708540340972,15
-103.90186153342796,64.18640972193406,-28.791898372609374,92.41772725961046,78.95962581638507,70.15232907756965,-4.917496209802385,-135.56963987728082,7.958255312547113,2.800905357484672,-9.426330438875087,2.56363913648262,0.5700355557643249,0.026343372514290187,0.09451125591368337,16
-100.81088941295896,68.46906770608494,-24.84953263559911,99.02314714648796,92.40740369750179,73.0604127616236,-2.1676197704974043,-130.3901813035012,7.0125248539496985,3.0342168112706154,-10.022133204196953,2.2901228645917904,1.3639300242927557,0.05825966189778733,0.24038012235908007,17
-96.73926031425779,71.40950821733902,-23.942186094877503,105.9937127379528,103.34840130401426,76.42468530043536,0.5525402656205985,-124.30323515563413,-0.2929096640294978,3.2383225343259174,-10.309684346863143,2.449102504982607,2.003098769838542,0.0934451572517664,0.3628306128409778,18
-92.32730889530382,74.81799239735099,-21.119951289479783,116.09734431319079,111.25182933858855,80.70848681911805,-0.23323675055010037,-119.34650857551378,-3.8470012553549178,3.2582984791292287,-10.696943971394038,2.7506384482509505,2.474048357618083,0.13104562736812767,0.4646803468064137,19
-89.12925079290842,77.71228528319949,-20.81618530573922,123.14394778828422,116.94878820771748,82.44848980687223,0.05850635695285522,-114.19355455104505,-3.7055365640794444,3.1428844834948566,-10.754303774934144,2.817995433457379,3.188936223331829,0.17659500792699645,0.6010977840608749,20
-78.74388533896835,81.37697782442288,-25.559634718782526,129.2211577391218,117.85667493043135,84.8107452207377,0.8111434998696282,-108.525514537815,1.423749240584945,2.5738696446308778,-10.338655078598801,2.6501998178225756,4.0339657060576775,0.21561641539505158,0.7288586054846565,21
-67.17643726389014,83.71831583317929,-29.001842246678056,136.94857784593805,120.81134333653821,84.7370695381035,0.5925576701710106,-104.44243652837662,17.334207263715115,2.164620113793088,-9.41945433618181,1.9996031443623088,4.785415671234381,0.20235644115030374,0.7861142395988733,22
-53.01320427285193,86.74772800932688,-32.787479935677844,143.5220765241784,123.25935398656509,85.14351582748789,-0.6817193887979116,-97.95182651565148,24.149631399649305,1.7678063121551761,-8.644447381092737,2.176164465769958,6.091107080995907,0.28295840241087683,0.9121686330294286,23
-41.53063212726012,90.4320949623474,-32.90170902924177,147.66063199793913,123.599667053789,83.34910396396515,1.7667635074670323,-93.90611560375915,33.84587902243443,1.4504899653514087,-8.153613442380133,2.322995649846957,6.686433014975434,0.32935950922284934,0.9402193911756247,24
-34.36547141252273,93.64499328552155,-29.977379152319777,148.0,123.97543093140098,83.98875576410501,0.5359508049071543,-90.19708906041859,53.508074615067315,1.2516765547928397,-6.92585644148692,2.0706516315109917,7.621526530301859,0.33836893470429924,0.9049310281446792,25
-31.289159015427238,93.18599272036768,-27.391714568979232,148.0,124.31530936130068,84.42189493701298,0.2745279699499408,-87.10037984195517,65.40970613243337,1.120805183055816,-6.393042996681187,1.9897848610901578,7.09421828718946,0.29660831798862963,0.7777163448674466,26
-30.42152507050375,93.67607466131642,-27.197811223771875,148.0,122.17699238672405,84.35475286094028,1.5986512204533148,-84.374826780004,78.55072432289619,1.1142002378419542,-6.447105321753673,1.8211333502981661,8.004284518565782,0.31846058670150035,0.8839414560276572,27
-36.434382654206175,96.27366375319252,-26.516798508555418,148.0,118.95911389798235,84.85005089644561,1.6096401817473298,-85.6072288953576,72.93649791593039,0.9858284738857082,-7.103479553128109,1.7621434868637569,7.578363251839121,0.29672547091545376,0.926408173853967,28
-48.641365677572956,95.34362727908298,-29.746882244218934,146.18994504804823,116.37281281651185,85.16162722229598,0.806910556238095,-89.0703716633351,56.11439864083592,0.9153583333837416,-7.859675850200491,1.0777642790424509,6.560510244084678,0.17614886035105798,0.8967073354681673,29
-63.39000471648031,89.87606522857583,-33.666384720322604,138.02871371840038,112.86842757256413,83.76407565600599,2.9780337152117395,-96.01743419656417,42.33842542395572,1.0605730320150424,-8.136679652317364,-0.060054261540681685,5.336468820363346,0.029864800731759553,0.7621552100195578,30
-74.57629329541435,86.96789279788219,-36.32416981642269,126.24564527872681,106.35065979572825,81.78862468498315,5.588346029465404,-105.49227021145482,29.061327079200346,1.397200440783467,-8.178523797346063,-1.187628635246652,3.5221812028080266,-0.05816358985267899,0.5081139067552375,31
-85.00745380233703,84.85822902343733,-35.68436043545179,115.12401852457262,99.60977905586482,81.90329289026009,4.623287075802427,-115.56103785086448,21.35621185874722,1.9155489032657353,-8.901942345582405,-2.059514487482915,2.256125677695933,-0.0751357253170169,0.35486579480736224,32
-92.57379317358286,82.31999760140486,-34.71208985684644,102.86592534645789,94.18906376370714,79.29871968889186,2.0960417030815774,-124.49232788560955,17.95311667515691,2.41946907178951,-10.111157244196248,-2.925755689106335,2.0973302421063402,-0.10199717824986372,0.37586059422633195,33
-95.4447601745128,80.13057482333272,-34.37699738109122,88.28906686764257,84.47915438442153,75.21720342927749,-2.46028148176927,-131.47043765268552,13.8982743048569,2.9053408492080677,-12.00704056887708,-3.624119004959025,2.265521081891126,-0.13710316968158645,0.4844899001991955,34
-99.79231285645592,78.03797939466939,-34.85979432798727,79.25094638272569,73.16683959623072,67.50449827110295,-5.820764236387004,-139.9927918917223,9.38568300011682,3.387460820865414,-13.67081524015392,-3.9684528979475493,1.9020067985078721,-0.1280579942728617,0.46467236337216117,35
-101.83259557466083,73.93015209654976,-37.01165356379793,73.35588264734183,59.45557809624174,55.05591779004383,-7.477368097160188,-141.9909145186342,1.8205585040035002,3.679382760284548,-14.717092766725505,-3.817089593734836,1.6883905167410216,-0.10989132307386927,0.4450163743337904,36
-105.71454965017467,71.43150003425423,-37.583074697370556,73.65677773797891,36.96745570883448,43.81076984092063,1.6068951553132675,-143.19364315589013,-6.406816030814627,3.961728693911458,-15.166978537982867,-3.8253122510136026,0.397828906117345,-0.027183931754897413,0.10792938902430184,37
-109.22764299687309,67.80406181838777,-37.98373122596024,75.24141188459288,17.370816153200128,39.76505333675741,11.890504060791551,-139.31349769200781,-11.086486726848518,4.478358156023049,-16.22598705966865,-3.604797876074338,-1.193240100040062,0.08191834967180649,-0.3464857933290854,38
-112.59299927058737,64.1524876052783,-37.56225938603741,78.06976609618835,-2.0684052859265756,33.60937705416627,25.64481818124205,-134.94619684942856,-16.394491183788755,4.9804772139495,-16.77306355748373,-3.188372410390462,-2.2347631684311255,0.14317427733080354,-0.6711064704629471,39
-117.14579048408842,63.73503969701164,-35.47779085323554,81.58002354357423,-21.10225492816628,30.652918301083865,39.40685457443132,-132.85809142648876,-20.891792908383042,5.526214703922223,-17.22592902624373,-2.8155551730542183,-3.026390715915852,0.18061944618176626,-0.9342082142947733,40
-119.19339573510192,61.2414467798933,-34.40937041649394,87.04234460420686,-32.9193683587439,28.154104892950368,47.88325289616159,-131.48403409796748,-20.280247345821806,5.817355207892014,-17.24862596514772,-2.310216319619841,-3.4974911392676487,0.18087223465382,-1.0812208361390467,41
-121.63470352008045,60.80902158851875,-34.152717831657846,91.23395605095742,-34.65105811342784,25.441608479391615,49.75430042769821,-131.7595827784065,-19.220614920252594,6.000000000000009,-16.644115342529425,-1.728360961894387,-3.583554498023199,0.14633494664691024,-1.0674573649234402,42
-123.30877928531154,62.49123844091835,-31.60673609075943,94.68263913374837,-24.613874141252197,22.427729426058995,43.172319555728976,-132.91657396122363,-16.150205988658207,6.000000000000009,-15.741014234195973,-1.2790528965316126,-3.300021401827365,0.10331454246008238,-0.9276402085763229,43
-121.4355655111674,62.63353934012999,-33.82561748818006,98.77668204270032,-6.852825951992413,21.61693690886887,29.670890242099617,-136.10438019817786,-11.221258990214507,6.000000000000009,-15.010233287356666,-1.0654555334671623,-2.55251655871661,0.06438486974939726,-0.6832070501707489,44
-118.5831025220783,64.37909205490492,-33.121241855774365,102.47359510714824,21.915587155714476,23.221020139467623,7.09100343639952,-141.023967910315,-4.623157268985115,5.921866526824978,-14.514153285496942,-0.4722914762635826,-1.0948753210880864,0.012030692692531639,-0.2833433731597436,45
-114.02830507655938,64.77842751546294,-34.87634641318125,106.13754864881956,45.12478333383832,32.07489311584295,-7.350638692358897,-144.17451492048787,-0.9845040122471588,6.000000000000009,-14.645951671730629,0.3303504883916665,0.017771878452246082,0.00010663020982348339,0.004644435674000219,46
-109.82891775855582,66.82162600505431,-34.865633876385736,110.64457015664898,59.67712599882852,40.70057120227883,-9.872060875435514,-144.70917769126382,0.932711846447226,5.967754076808243,-13.962440201657245,0.8729457429784264,0.9210019678381155,0.016300884398468884,0.22887210235254346,47
-106.21600057002118,68.85223738137192,-34.27604209478305,115.4572961482435,70.82965838336136,50.64757046623936,-9.583234274009802,-144.14424037942473,2.039344474254495,5.656000458309064,-12.939350793655905,1.3632241623816335,1.7656860976703126,0.0493615713242226,0.4049824415891843,48
-101.44129629892343,70.12526559070365,-32.42403648940808,120.94390271152633,80.42630197278638,59.69631508494734,-7.269538841850292,-141.66829243443934,5.430124040418158,5.314183910105648,-12.333650125991747,1.8251526380968277,2.1963634141271107,0.08084051687772578,0.4788163384364075,49
-98.46145848445087,74.54624876661649,-28.365307766086833,126.62944346385369,85.67788941974675,68.51651009513553,-1.615189820610675,-138.71408884297347,6.343824331465825,4.82783073920312,-11.875879176513038,2.570168228097978,1.8464026517003704,0.09095048347722161,0.38691741951648445,50
-94.04043535324325,76.25354644933067,-28.45078055000232,132.19849850506,92.50505793965434,74.82148686373728,3.438595145050068,-134.56081101774313,11.650842401421887,4.4222461978004315,-11.62852465342125,3.0236875193890977,1.401783768341674,0.07912946168434198,0.28755886157096205,51
-86.37194909077722,80.71779808598751,-27.8113508483867,137.29212941441742,96.41324581110769,80.88614864401153,7.84225746856821,-127.93572039275243,17.113230913023948,3.616470046903426,-11.205524782528688,3.5581563479459075,1.6727384056688186,0.11087776289606482,0.32984595803424155,52
-76.97112915314895,85.60309979194176,-26.914649201014967,141.6170322072572,98.41010178733696,84.98073361512968,10.60880990117755,-123.19329520618693,29.869285117671538,2.7870696889617737,-10.43812023151378,3.648721457167391,2.8470679496455196,0.19762267659837898,0.519851540109012,53
-65.41135324149079,88.56101305577386,-26.72083300782455,145.57024345181202,99.16347537791933,86.89239339220764,14.420572112007244,-120.01622865265878,55.17290777735448,2.425141499003203,-9.078465927951797,2.965437438767382,3.578849749903839,0.20553680634442076,0.5657816261317548,54
-52.05877308649931,91.16220937308358,-22.619372248129245,148.0,102.80901581672173,88.88035807480736,12.511460889003741,-118.37113094569669,76.85575992996824,3.111340174146631,-7.491448099637789,2.0753710815581896,5.193491460337144,0.22054762022285615,0.6735757694357405,55
-44.40214739175852,92.91136201197641,-20.032742913561183,148.0,105.13038331724199,90.16508050615624,11.417126710363338,-116.94477890679607,84.26782952293676,3.3111137288589862,-6.796403889403096,1.8965322541499172,5.763791325241767,0.2264563522823002,0.6762548493398314,56
-40.57272230348768,93.12812281109484,-20.765712483441078,148.0,107.29578491648081,89.51722974064792,11.932697971587599,-117.35450171853105,89.68696627290282,3.5722868539644925,-6.0176613312065985,1.2158429865717753,6.102981724107554,0.16425504189634826,0.635293491617675,57
-39.49629519453055,95.64889492480124,-21.501898983557183,148.0,108.01252712236203,88.98732993027878,12.402792383183675,-118.55819417023986,90.0,3.736484811857179,-5.5933984458306485,0.4756290566153385,6.390159756748767,0.08806005312819681,0.6215917619653761,58
-42.49351549160743,96.86360406297547,-23.632725100427738,148.0,108.41213198251911,88.6307162913754,12.218284220948412,-119.75131540879083,90.0,3.5219848807509764,-5.079705859849848,0.22473092989562965,6.352947940788417,0.05624355327214346,0.5621953972322403,59
-46.986855396511544,97.66849896095681,-26.359465585239857,148.0,106.25056597289924,88.82724498912367,12.02896523041314,-121.96182262596344,90.0,3.3227896639601857,-4.712584529366026,-0.27805925317341695,5.792599497215699,-0.004041281423441346,0.478126734549679,60
-50.06820118201981,95.80391980679674,-30.10983723517963,148.0,103.28999882720159,86.90655635748128,12.794894638581649,-123.15193701017849,90.0,2.9494894838152756,-4.45809570148238,-0.39510800687795755,5.3141157565244335,-0.017504651744204222,0.4154224057179815,61
-56.038228474423995,93.18227351360376,-30.916300047021867,145.19423948870573,100.94501788619826,86.11027827716637,10.945090967655728,-124.72584719815072,90.0,2.465344904653881,-4.427829813433751,-0.7232518469376021,4.432988965450694,-0.042798782664730944,0.34508275931684373,62
-62.490694993179524,91.53162225560607,-34.06086046536946,141.1534339722951,96.84179869049701,83.4651485423154,11.017838642708197,-128.23491676487578,80.53895790426529,2.033598989867804,-4.3759206145738805,-1.1356909051705053,3.7646918601405766,-0.06533213910083213,0.2903233106709195,63
-67.30319463787903,89.47096025117982,-36.34365375425449,135.05631649171247,89.84573376306317,82.00419265004265,9.006820935106685,-131.68812933717584,56.83986810501267,1.9091788583401237,-5.153397529911663,-1.5526323713719006,3.453137003320017,-0.08453338041518453,0.3140491138270763,64
-73.1761323121765,87.41416611110552,-35.72859592102353,128.28481863397673,81.51182540815395,76.32696996282131,6.214758638156318,-135.73147218744623,37.502557348351544,2.210686387521205,-6.482935721117271,-2.446582150797142,3.360372477832887,-0.13320707741856957,0.3858167753304268,65
-77.24759725468341,85.49234966657136,-34.54683809031473,118.62596691220723,72.63269844780352,71.9792482400655,5.226712397295458,-138.1159409118477,33.73041777802406,2.5008894957478174,-7.595788395702499,-3.402853084244116,3.260692554240929,-0.18308534100421242,0.4400578884699046,66
-76.08604145956963,81.84182120280407,-32.789474611579095,108.32958196939951,60.854774640843935,69.70991666440653,6.5191373929108645,-138.17990279919047,33.654889135146995,2.926143971837629,-9.316547121398175,-4.077117659786681,3.01610983481787,-0.2046786583143239,0.5001544432582502,67
-80.80063136067311,80.15608197650988,-27.76539285876834,106.56061778380898,50.860713046440715,61.41414727824717,5.076245615333519,-142.04250972885228,26.35739622986273,3.167504005125715,-9.968951487941123,-4.634233463910858,2.9995843053856146,-0.2328770153768246,0.5332551789105142,68
-83.32725558904754,79.30610922195912,-24.24849948716873,105.91929643806802,39.924556812476034,55.71969678000703,5.544642967615057,-143.73297790168385,15.801475068489266,3.2476103496029234,-10.625675274600031,-4.609069511597362,2.654763215480867,-0.2060691733352842,0.5027480312154345,69
-83.17336550897943,76.79424000600176,-19.708034743997242,104.97364610399605,24.865934966910363,54.50368720728603,11.662566738476205,-145.44801900087967,6.427304297835826,3.331510710954057,-11.5785504410217,-4.228364671093334,1.9959971886658743,-0.14344582363328526,0.41137365868601367,70
-83.77754567696105,74.90276786717925,-8.752062132216295,107.97372345900807,15.910411484608954,51.568077878130794,14.76023785072387,-146.05889992079184,-4.326375060466596,3.5965608926846193,-11.836170377276401,-3.4473693341804914,1.5201043659286542,-0.08931005515922898,0.3197184329173684,71
-76.58178120246967,67.0545307041892,4.263370130265781,100.37331706378389,7.1662682005863765,52.32685310382771,22.690811929767595,-145.28440763629237,4.52047712663086,3.6741815525015262,-11.704220942333754,-3.4632573424387623,3.1992205598344405,-0.17906457352258456,0.6677215676764987,72
-74.67669328081405,66.13043560679759,11.43683273589386,96.1566262039186,0.9685035532046387,57.256813532048014,27.77603122153233,-146.0723649556093,2.333071991620808,3.7403925522761656,-11.476067282887076,-3.1325130025875176,3.6086948651627093,-0.1782684160369947,0.7382424031862203,73
-74.37016720368864,67.86724809080317,15.274613745559892,104.52752752574403,1.4526679355000574,60.34561820054882,30.034152742905306,-147.21394534081514,-14.017477656384369,3.918925810655919,-11.112057135845905,-1.2456079102141484,3.026961129590106,-0.05133721836570527,0.5959645965369571,74
-73.7892844906437,69.20393437223935,19.697908670269808,110.14118706167682,2.553070606947841,59.885447663421594,31.410952067883652,-147.96670885532822,-25.890597987316802,4.2155591989363055,-10.975544081471249,0.4145553490657194,3.157045689638961,0.04012331147632581,0.6113541530761762,75
-76.56628581506601,71.77456043510352,20.13009582582386,118.11784333453362,6.466627887837337,59.539390599986184,29.833002127941693,-148.0,-35.727436237783365,4.5273931169963175,-10.323957821741457,1.6081065292416208,3.026215164545396,0.10088715089509628,0.5488108752265316,76
-76.63865364882709,71.0019982406789,20.824874406736622,120.23446977681546,15.05423926193977,57.21440587215287,30.191741873623,-148.0,-37.315558267578396,4.356103523171367,-9.704009677568761,2.310105730300129,3.468656123202339,0.15985989030531153,0.5886341665131132,77
-76.25171997716211,71.55411076297939,18.809770581170145,121.10906318486899,24.916598131823722,59.62091050726656,36.18858088207399,-145.93737036125654,-44.52669304535762,4.502047307290158,-8.918787667630607,3.178288948642651,3.4362854492839148,0.2092567773486543,0.5332961688285724,78
-72.26857147240695,70.38339703229181,13.607086070159903,122.76022442232725,32.85398455604431,66.86886313369263,49.01352100955953,-140.94218460846227,-53.204507633618384,4.961738234267799,-8.744282404584087,4.5583887080069,2.5778307849144206,0.21685021052584957,0.39180313547591056,79
-71.80516202515221,73.01489144595688,4.903428105627257,125.41726964712156,34.703226826666736,73.14900539673978,63.025985057788105,-135.9176387339921,-62.937173858945734,5.479978375277035,-8.089765323435815,5.018177325416657,1.2124315336000002,0.10936166484893817,0.17120599133471856,80
-68.11170181916658,71.32728622659116,2.9956814753565046,128.87502084081447,38.33713560034677,75.56847281064618,64.18898036192093,-134.28074998920377,-67.11211514049816,4.938203188973971,-7.414788507640061,5.23532453030929,1.6651826363623328,0.15702011450127953,0.2144778837316776,81
-63.79185632951983,69.12167163892701,1.922009815325969,129.5751814936151,37.69719898342266,76.4956462056535,64.08166420026049,-133.219038860089,-71.72948197181866,4.069877613938932,-7.038808456524824,5.160195218214109,2.1595345924470424,0.20152220752778408,0.2629323750036811,82
-60.69713483039286,68.86661028960148,2.291033951838771,127.10821011241187,39.331507061776904,77.85931030373855,61.8944018863073,-132.1976417929199,-79.11931404658311,2.9860673075876396,-6.220976447209052,4.941314433740209,2.6450437902243373,0.23666049039742104,0.2829742327188316,83
-58.610842943234445,67.10182758197283,-0.33762544589384585,119.22885950097599,42.89860166502566,81.23074747524974,58.86196995098318,-127.44157240239313,-90.0,2.0847239457440123,-5.400358783778529,5.041796995597627,3.0965578487185335,0.28224633597713905,0.28523866940488823,84
-58.620992944936454,73.59862072243693,-8.404192029260871,121.76284614436,46.736022640428594,84.3494933902392,56.99049413589807,-126.1567224864882,-90.0,1.9067940928265017,-4.756798256398883,5.120521018996218,2.7844683086503266,0.25595122233214995,0.2255707778899378,85
-56.90550016718946,78.04552188946518,-17.507421060318517,121.88415696277985,48.76046472526341,87.82886319184743,58.67207737582025,-123.27764649997454,-90.0,2.102786661030806,-3.980752427685985,5.127149415568817,2.358389619163157,0.21546338575796176,0.15972747509930416,86
-55.1036368487869,79.33192193942256,-21.688020716335753,119.99718410557327,50.838854550432025,88.75697248569509,56.0351042916585,-119.33674343627308,-90.0,2.264991000662982,-3.288742418337784,5.146347385829036,2.6264830681109177,0.24034248066065347,0.1454584660322204,87
-55.2384158073222,80.78298170455201,-22.645670124540235,117.01453856403954,53.678249971339966,90.53771999847233,51.30573784803901,-118.81185701928167,-90.0,2.5511719390618928,-2.2388384214153265,4.6714140823906485,3.219463881536471,0.2666911188528281,0.1184140989861705,88
-55.33285143617513,82.33870451018085,-23.835769982782015,114.61918033116756,55.415361365779226,91.22915571961995,49.58591333972992,-119.62879141948454,-90.0,2.917423668191115,-1.6119481829155007,4.184103289633405,3.616884065164958,0.2677546601896516,0.09336945760452646,89
-55.507947086671344,84.03687618807986,-25.312538428035094,112.08107594240747,56.896377406035434,92.8302777811789,48.50714622474341,-119.19788718846087,-90.0,3.4307765561270394,-0.8325406679438786,3.815521798221738,3.676086246296322,0.24674266084046403,0.045520954438041536,90
-55.71567367679304,85.58469476963099,-26.7330640578052,109.56428144653691,57.77951015010357,94.51258186935497,47.51997434958992,-118.11577041075805,-90.0,3.7386479789533986,-0.5882074762196162,3.382889211780482,3.3918061605062686,0.20142061376418546,0.028869116373777617,91
-55.397391140694154,85.37556191541881,-29.877422584475124,108.17086140851401,57.97962678855289,94.45111809586118,47.49638044939584,-117.53244071818118,-90.0,3.9583842438923167,-0.08851901897100709,3.1275549490851566,3.2916852926736953,0.1799062183730411,-8.241262159627458e-05,92
-56.03284625215637,86.24103643618412,-31.301044445143656,108.48383357494652,57.64035301257914,94.49629021820286,47.2815047161396,-118.35221999322941,-90.0,3.9710440599385333,0.002250581758326518,3.006420510600455,3.0488447057743686,0.1600466040819557,-0.0043790249088444064,93
-56.22744212554479,86.69295430768766,-32.20255630219754,108.32563837437147,57.06125413138025,94.52291653219585,47.07750462659993,-117.75838138942031,-90.0,3.83939385069793,-0.30688375848631105,2.916831181542433,2.5992988751894037,0.13271314881671023,0.010913905410405779,94
-56.89496098358327,86.780729327446,-33.17531786240283,109.67118547273864,57.04685884473609,93.7424096701561,46.80487665086274,-117.0780826373256,-90.0,3.6900664253361177,-0.8654473236825653,2.801240796865428,1.7733007445619346,0.08717885440971261,0.02544080962200837,95
-58.159315274009224,88.28915434126982,-32.94529133714507,112.1360629971846,55.74275172970291,91.8926543449687,48.70757079209356,-117.6489511133116,-90.0,3.3485398869441796,-1.854293769117779,2.8872306404584105,0.9358053322198727,0.04746742314514877,0.02990996901549279,96
-58.38057939041157,88.06165597623195,-33.856854708310095,114.22328561462857,55.282708754641654,92.01382836040167,50.16683152188526,-118.9338182675111,-90.0,2.988447946935028,-2.9806678586161643,2.8730929769105376,0.056587078431651026,0.0028452414319392358,0.0029450570174130958,97
-57.97493687838664,86.78935508981567,-31.950967042931257,114.02374267205693,52.60842344328132,90.7012481652602,51.92141905655389,-121.82008126350436,-90.0,2.619327502837197,-4.162497527979147,2.757742489125835,-0.18598612356113395,-0.008960403279381494,-0.013550058652574196,98
-58.34706294571638,85.49382698559175,-30.56075971025013,115.19773874118742,50.40733234731612,89.19479301810026,53.98142104939335,-124.41524996200455,-90.0,2.3873752781251114,-5.278185601350757,2.6936110793050587,-0.6565156540968923,-0.03066973198682053,-0.06082588469095463,99
-60.25971564696104,84.06795533396902,-28.090753958135974,120.67033903010231,49.07174353618462,88.23408337714126,52.465024010847635,-128.67029458689078,-90.0,2.27582069866051,-6.080468416442463,2.543970907009051,-1.2928818523702212,-0.05620590597647495,-0.13835618203795777,100
-62.513007306051506,81.05281659543219,-25.343205368760206,124.86177248504727,44.81448388865349,85.88581784943086,50.515025340659555,-131.70971928844764,-90.0,2.4170408783035877,-7.086058429606047,2.375174262802013,-1.895427548733128,-0.07530676034865308,-0.23686717782095876,101
-64.42299893116252,78.51605176732788,-19.14186463676778,129.310165135916,40.53469024255113,82.64436815164886,47.88142401056856,-136.03525429045226,-83.26329338291067,2.637577647419946,-8.157517556408836,2.243780300742079,-2.3784822813296107,-0.08703254817711205,-0.34276191125535865,102
-64.97582261807787,75.5357030185169,-11.388240618203564,130.49626110243872,36.298795986813374,79.62591061971224,41.091175455096106,-138.60202353940312,-71.3084416479707,3.0529927408023156,-9.302186352386018,2.260305417146333,-1.7770547858757209,-0.06654418878301328,-0.29210046199456496,103
-64.42192322230274,72.48468346112516,-1.9314414940491513,128.8705689476808,29.422556327530728,75.15114187085813,37.24151726743833,-140.38139995670255,-59.08043622928327,2.906203610261699,-10.017720824613741,1.6168467466920777,-0.9929847189770898,-0.02694023471693093,-0.17563709372335284,104
-62.569839255573065,70.29417549543841,5.410079844146745,127.37699863060206,26.178342420157314,72.71763769344443,33.73078468490505,-141.26356354797542,-47.711977482026434,3.0864481104654597,-11.015650525316316,1.6341964206637005,-0.3614137148164767,-0.010282483968003846,-0.07038559172865332,105
-61.208804188388946,68.0133813808013,6.836548335387986,126.87707385556223,24.609217582249062,72.59383032041126,32.54947384382575,-141.7614985264135,-41.87717399147256,3.354292321500003,-11.400469856742427,1.9914462145325311,0.0022014386058193357,7.809611590755297e-05,0.00044390523417728854,106
-59.68486814836638,69.21043787914714,8.408022702324896,127.49023113037316,23.846312187841818,73.72215732836057,32.99711134897805,-142.94743732779088,-36.94533176191198,3.4054519061443482,-11.577009161640062,2.145655916643201,0.21892599014983655,0.008458464649125273,0.04483208072997841,107
-58.65588869139301,69.80072776887678,5.30262713658646,131.0980596521638,24.547742197725725,75.34075719180014,34.20916889470548,-144.50760006784546,-34.66633076167824,3.363192408287825,-11.544208654684198,2.478179703904153,0.16660764292728025,0.007409121603199022,0.03402030241163323,108
-57.0407188022878,70.582868603148,-1.2015258641566318,134.35439278372388,30.174971443380205,78.24201301392016,39.417395819477285,-143.50100184760134,-37.09231404226018,3.3596237263866096,-11.426721207368235,3.0590564748713636,-0.5711567645637755,-0.03056309733327871,-0.1155896551850598,109
-54.366716442628096,71.27627085280518,-3.5651504887211214,134.39892629475816,35.27697689187155,79.34970689346937,48.23399675726867,-140.84866303787135,-40.554499957597514,3.332105600534116,-11.432125575578398,3.839210619416201,-0.8124037416149589,-0.054449982675630525,-0.16465626487924365,110
-51.297582151982525,72.50741967308772,-6.562299198920394,133.89895391266685,41.568631474561066,81.80472837656033,52.96685869178352,-135.69047209220045,-45.47997987836871,3.559323949884744,-11.754606369999118,4.598861057419743,-0.8333709067325192,-0.06719888704925574,-0.1738817184261006,111
-53.34862032182351,75.97808922030273,-10.751461527553714,134.56532387452026,43.59455039865435,83.28907995269766,52.04023034039616,-136.53884541782716,-47.400418013093585,3.2294457125814415,-11.163774771775593,4.309084606749,-0.28079846654056223,-0.02142952931541656,-0.05546569275404847,112
-52.36696394232082,81.88272829312291,-21.98695303460723,131.8648378647752,44.84995361620947,87.92986289388679,56.11276278442356,-131.90568823555492,-52.04189302777927,3.0483629121425495,-11.256268869436619,4.341537963793924,-0.193545473460841,-0.014916593262450444,-0.038544833706499915,113
-50.27483559586169,85.15901142125631,-26.237126368415183,130.12077213245666,45.672193216583004,89.84215362148893,54.08297645542267,-130.71456309700827,-48.786152565959014,2.2773726305910467,-10.837309527693188,4.086063687249274,0.3915110397366251,0.0287332359026068,0.0748546813900539,114
-48.24874408516803,86.53544606499514,-26.405910175307284,127.79826991551914,48.180957770502374,91.44645732353943,48.84309198962063,-130.2256226298627,-44.39215320181915,1.453701994399698,-10.514992790898585,3.6838386275037043,1.147940553806885,0.07731016237624201,0.2123279043836017,115
-45.819814508507164,85.47060875982179,-27.44969863175337,126.19937631233165,50.05675799560803,91.3888847408362,45.03494803801925,-130.52861706833903,-42.10407879775967,0.711831388890614,-10.072507237469575,3.441706179404268,2.127946588720916,0.13699857248094138,0.37556917236526305,116
-45.1786920632874,86.40272416537694,-27.825467620156118,122.26151203920489,52.81388298404159,91.74650838936603,42.53918237628666,-128.58850692295195,-59.77954008191283,0.08563343054985927,-9.35172993506727,3.3240688254656674,2.835559997874476,0.1784406928292117,0.46276499036015983,117
-44.98443913765758,85.59246415860484,-26.553931169254895,117.7674111141692,57.51167893498522,90.8295223289296,39.27451241942489,-125.78766146266457,-59.77954008191283,0.45217448676579625,-8.701229335180686,3.511211256184306,3.3959911278478074,0.22614275364395592,0.5133342034303855,118
-46.266437865761645,83.1018558872374,-28.34578785050798,116.45994539951079,61.87750786883244,90.00927164400267,36.782058117854284,-125.62741847134252,-59.77954008191283,0.7450811028299731,-8.32977352740147,3.748486127956808,3.661623313427946,0.2595003985338235,0.5281755560408565,119
-48.57456056021407,81.60151403562413,-26.87461582135536,107.59071199416202,65.6259324710989,91.19000275194041,34.08425625540162,-119.76641804541643,-59.77954008191283,0.9727515121505002,-7.592826168458171,3.9748571360579477,3.4892112612381885,0.2586783197054618,0.4575156026218764,120
-51.53127024359424,79.23035674277823,-29.530481410307317,103.46724292873857,70.27690686222795,89.99501064236942,31.48282075240472,-112.6870719060213,-59.77954008191283,0.9795510051557766,-7.340678283898103,4.403516379128011,2.5802762739953864,0.20780618194980197,0.3278550523441152,121
-56.84368799740147,80.07185979040581,-33.268300980489805,102.60805694899352,71.02921867874036,90.63411811475875,28.36362809543383,-114.81831904005237,-59.77954008191283,0.569885709683266,-7.10406853176426,4.500369969418242,1.3406543157890394,0.10829444327127558,0.1658440001952543,122
-63.01093835990281,81.26521254458524,-36.9624415069221,99.7351329554233,73.40788109545929,89.54725510283308,23.82361358761812,-118.38002711617413,-59.77954008191283,0.5362109555352572,-7.056429353176904,4.563666136443519,0.24220014606878762,0.019543653036981527,0.02993997036111326,123
-73.05996397188123,79.18531330171422,-41.510026416128575,94.96098028293783,78.71226394391469,87.77651189449091,20.7795449070281,-120.51664737153047,27.856292287935428,1.0721227550678831,-8.055275857506677,5.017525211815251,-1.283445341157089,-0.11174599502937967,-0.18287313525311372,124
-80.39072440394419,76.52683654971189,-43.32594164471147,81.70322407559108,78.76783290273406,83.73626446706173,20.478612227418036,-113.97597472272403,9.239571664420513,1.9771252101658472,-10.000421660645658,5.5150527494970385,-3.566853101834039,-0.32974010070528686,-0.6390988493189936,125
-88.34333275878512,74.55381598572762,-43.868764496753656,69.98817328893746,85.16204146763955,81.74020375331628,21.790620775736755,-112.69529753093775,17.9794166146479,3.1294945369386644,-11.360537502811693,5.428895616514802,-3.7481622642154764,-0.33824453284840916,-0.7639478171550678,126
-91.37306778412017,74.33548372372427,-41.96598968796454,52.567031863540876,86.3573501584487,77.57185318217157,26.86456777980056,-109.85773642605476,1.1827435621647542,3.7654802731528143,-13.037790304152212,6.435395976105608,-3.5615314650266154,-0.38615066889949756,-0.8363227261163692,127
-87.98439203275463,77.53421493030068,-39.750277368170394,31.576060856901467,81.88913810029163,76.01151012732734,32.0141110460974,-111.03501631767013,-13.166193356020228,4.017042269938294,-14.32420113602013,7.011366999160952,-2.7324327317566595,-0.329822016903364,-0.7051888298671595,128
-92.5167003677901,75.98592551113371,-27.360605656998533,28.29882286208985,74.67142964888863,70.81233721641388,35.39441106598328,-118.35176176277308,-41.38682245311752,5.13094950091245,-15.305082462337676,8.771282926302018,-2.755538207587727,-0.4220662919839786,-0.7636083196013912,129
-93.88459355948069,74.83000549556219,-19.336177607701753,28.298822862089594,63.535857896227995,66.87243625147595,34.47767557163538,-121.92959392694672,-56.46732101260646,6.000000000000009,-15.561005816908654,9.216878072868857,-2.5531474466539654,-0.41365142988853787,-0.7195816115521212,130
-93.3812930732009,74.57395097807591,-16.87912522081868,28.29882286208985,48.31565889955598,63.97766392668044,32.77496594912391,-120.35037526030942,-64.81444882553812,6.000000000000009,-14.625840875562552,8.498907074116323,-2.670984748677519,-0.39573983761042036,-0.7057331391751744,131
-92.42255762683307,74.84082199803805,-16.4615398426759,28.298822862089647,37.27833899783083,64.09894997428316,35.402128087037,-117.5602919730051,-68.39650774640442,6.000000000000009,-13.868177935035924,6.998729980045214,-3.3400898758493844,-0.3977324233112838,-0.8357192416755337,132
-93.12462424195867,74.75702854185516,-18.889805926395137,28.29882286208972,25.94627432072562,66.50988809956515,35.59210047698843,-112.38284832284593,-70.64207243808454,6.000000000000009,-13.972291214326992,5.8785767595299525,-4.905270546929225,-0.4671224080982082,-1.2399500793782787,133
-93.98327051765689,75.17816549541145,-21.01849200219225,28.298822862089697,16.8259760031279,69.66509776652663,35.36137478832055,-104.59253173666367,-71.66342118717435,6.000000000000009,-14.296432101056517,4.902366785776407,-7.022584135428028,-0.509909173202973,-1.82088247864085,134
-97.31960934017877,74.6987579678622,-22.59448721143394,28.29882286208972,9.166232225441584,71.7722955306609,39.16314976973651,-101.371567132494,-73.1299458591566,6.000000000000009,-13.88937784407805,4.511198333960332,-8.86787366099923,-0.5478380964453257,-2.2367719916540185,135
-99.74938079594435,73.48103650472297,-26.812720568940144,31.287673762793876,1.0349401466365002,72.89682533972679,42.61391089757231,-90.67801558550647,-73.08117890906509,6.000000000000009,-13.889789627736262,3.9016336377750847,-11.017207597550325,-0.5075696390930748,-2.778187841683861,136
-101.41400937818447,73.90114643922257,-30.296394745990387,36.328439390452466,-1.9068349551908825,75.16807988460103,41.26776911536705,-88.92009218439209,-73.80146972848266,6.000000000000009,-14.016853915440192,3.0304162734844278,-12.124208554724976,-0.3373351183891771,-3.0708704672970604,137
-104.54602015505839,74.03964859754842,-31.559161878028288,39.76865886745457,-6.231386401186928,75.54558511240458,43.810817925143226,-91.26312906284203,-73.07878471910419,6.000000000000009,-14.10949325206404,2.2851735895065817,-13.4940447806681,-0.15248628153679605,-3.4234878890558575,138
-107.06715165617784,74.6134182041092,-30.46998665560899,42.27590275299583,-6.3277494767915,81.06343387988366,39.83675015679983,-97.30452269473938,-72.51033959523104,6.000000000000009,-14.119060013394675,1.494461337819679,-14.836159731442283,0.08580739748155691,-3.7410285803267707,139
-108.58932673159912,74.50988586651707,-31.228638681038383,46.727984750837166,-5.297281109618289,83.07728070784313,37.8674021000594,-104.59148619473818,-71.8627121983435,6.000000000000009,-14.289126906095177,1.0426813569243674,-15.664565431274108,0.25158727831143507,-3.9807375979329778,140
-110.11123519478691,74.40602351408387,-29.56542590106452,45.068852322247146,-3.0835607263475393,84.66232101583526,33.94318716384712,-110.87110305066153,-71.13859438846515,6.000000000000009,-14.765798118706465,1.0861278624709998,-16.51276328491661,0.3037633980732884,-4.3395740784773675,141
-111.26811518716922,75.159582873117,-25.343859773591475,44.418754395315204,0.37325454467726016,84.78923853029954,30.56559191740917,-115.54039404529934,-68.84273633490785,6.000000000000009,-15.235710586644586,1.0200611882821957,-17.14272503864195,0.38197749738209485,-4.648293470744519,142
-111.14643939627136,74.6083196858091,-25.23929580099063,45.93284288494747,5.718807086971394,85.31565001581131,27.03636051020889,-121.04257611263274,-67.34772609113918,6.000000000000009,-15.038008678693771,1.1877899246609713,-17.27025678537357,0.3290607513744954,-4.626368143567752,143
-111.90762762245123,74.47010080651135,-21.92577070194183,50.11630300168381,9.695610765684345,83.20732389419462,26.516986028713,-124.10481279216364,-64.58334869944363,6.000000000000009,-14.471479985992955,1.5349312229308922,-16.89948470612249,0.17771558640432386,-4.366661118425904,144
-112.37166252082491,74.31874513843933,-20.953234731850298,56.36282959878315,16.62464435224923,82.9316455836639,25.198646677400617,-127.84383616978158,-61.0269534410463,5.820985460728378,-13.97976056453618,1.5059683254360279,-16.33762855192757,0.1393540671251809,-4.074595646743991,145
-112.87344937383605,75.33681501983745,-18.395928330180716,65.19962492391872,24.124010770418437,83.3677022592509,23.923529046452686,-129.46720598826127,-58.59523176688549,5.969769740863764,-13.272621268095413,1.9167978878789012,-16.371359317953747,-0.007331115561210714,-3.8877600703387403,146
-112.75198610988717,76.87511044823471,-15.771949631242432,75.03077666927524,33.18248944649389,84.50030723843005,23.81018285113506,-130.60526465073278,-56.083004080627255,5.784041926519441,-12.408872852356197,2.101387484215085,-16.083172169683984,-0.10290935769145934,-3.5748189898908267,147
-112.29595929121734,78.24136502601745,-14.72298831207298,86.1604377667726,42.47067726204744,84.91316223561202,27.056084979795756,-132.13233739801623,-53.541372422825646,5.789200460538963,-11.360515608413706,2.4319706949618642,-15.230425155718299,-0.2476063813105271,-3.1092099095944032,148
-111.35732995802077,79.08181800493529,-11.697135762469316,97.50743814761965,53.30072270197473,83.16893021078346,28.038749969293658,-130.45909194655897,-51.90768694014066,5.880003923123353,-9.80751143083746,2.952332622834288,-14.35677934623906,-0.43397030511997103,-2.547421576088297,149
-105.93090622223536,79.52095879013066,-11.867894312097595,108.82798246934891,64.30113911182288,82.97094543469417,29.2900959515753,-129.0324902866575,-48.14844536367535,5.577288724470789,-8.432115847405516,2.4841446472719326,-12.324506004953271,-0.3404742385139386,-1.8698322502530478,150
-99.6367405307985,78.61385987740054,-14.416061758645537,116.73479634491625,74.4233561348434,82.76118414134848,30.15006414063355,-127.7549804582716,-46.46821568650833,5.084966557574041,-6.514025135071759,1.296517601483565,-10.982193098523888,-0.12881060083091997,-1.2700073258038078,151
-95.07985176314716,81.5915003420854,-14.42978508491695,122.3485803500428,85.62959811508402,80.76339085593564,28.150611224918933,-125.5490080186498,-45.74387369557919,4.7584937949264425,-5.4543197064418765,0.27744379918143436,-9.734262926507805,0.03164368686119613,-0.9290224933138462,152
-88.49238023124637,81.51243468248731,-14.99165103514495,127.37651846592519,96.2494208341765,77.93988525031028,25.414903599890494,-121.93709818169776,-47.012229365704975,4.66946212062994,-4.780072489726836,-0.1005269927944063,-8.337491503392107,0.06526831540895373,-0.6936988112962182,153
-81.42906994145629,83.03411586729405,-17.299170211482835,130.48952864837116,103.9754209957504,76.59348758837422,22.03388791809085,-118.89019288778324,-49.2672461554308,4.665401364012471,-4.735818511458142,-0.6810302520365266,-6.770707822285018,0.11368243071697187,-0.5548851532157099,154
-75.2596395514822,82.04832234355798,-17.354797886992277,133.96132528452677,112.66683152976681,75.38250836695666,18.48866263205616,-115.90666025763767,-51.11909104659484,4.564942818929393,-4.121029926121541,-1.1508315200161696,-5.45603764111916,0.12843469813728242,-0.3873139261779175,155
-69.00237497544333,80.67531323588936,-17.64255058172414,136.37156137704167,119.28778354306223,73.75506757382566,17.62421733943257,-111.49175680783944,-55.44692312339863,4.353465328050497,-2.8956334236130727,-1.4784380026346353,-4.5432129011878555,0.1263972738430555,-0.22492094618250022,156
-64.95573738202978,81.52989076896631,-17.295593093706366,137.23655467438977,122.69533418319676,74.57972864582347,15.992037435259657,-108.21091018461487,-59.56705446187355,4.286246269029104,-2.408869093848229,-1.8275347920855494,-3.7035349355062714,0.12323099599720314,-0.15187530865280716,157
-63.20299738620626,82.06463633447679,-17.68829451392806,137.41835371379466,122.8935481208326,74.62157317808708,16.818172817257363,-106.15374000328677,-63.412316459829505,4.342317258532289,-2.5531538672454004,-1.7451213658630609,-3.0759515023035826,0.0974491457717505,-0.13457965220162318,158
-63.295006099740014,82.88429697870637,-19.227234280660877,136.73335620508718,120.51176888438494,75.57710517044069,18.086677280827544,-106.0004743597854,-63.43739774740815,4.510656515082482,-3.181133710395699,-1.3538956329765117,-2.8074109970228176,0.07025135485992669,-0.15434628707465164,159
-67.3982508272179,83.38675400580489,-17.602643843539198,135.50608574485557,117.22909630610154,76.87895650886101,18.781370983785077,-105.99108059670213,-63.02429521439967,4.885339657544968,-3.696437629445086,-0.6040121615493793,-3.1015398353301586,0.038172633311993096,-0.1993935390989089,160
-72.89880718653681,81.79911270222566,-17.590779983226216,131.90226524811874,111.9934171954259,77.42158222057061,21.453851533544842,-106.79001186989294,-60.6963597034264,5.062776416387431,-4.037747270034207,0.14875144260496004,-3.854799298208841,-0.0008751488626806207,-0.27223743569784925,161
-78.73962043867678,81.78656215620843,-18.122537110491987,124.2416425306276,103.50246995592806,78.37562529604043,25.34484662088089,-108.30918219036973,-56.882880654356136,4.938581406054175,-4.709630066028188,0.0532574842817391,-4.335383044496339,0.009466828449789818,-0.3569804308572449,162
-83.93083785342588,81.2098616312267,-18.57216765376404,118.52786246199135,93.19543406044043,79.99277397219889,29.776354400813034,-112.25628184816323,-52.72732965591691,5.307441115308525,-6.067942802159105,0.035028599275107285,-5.214900491689243,0.02200949061336185,-0.5537488867172995,163
-88.73060912127862,79.91845255460711,-17.76078111380414,110.90016189485769,81.99996203259636,83.01601376090909,33.35312513610006,-115.13173676044745,-48.67356286236599,5.3623844876429585,-6.914779395043791,-0.3321048053547939,-5.805822501895206,0.06948949375015913,-0.7012234883636969,164
-95.61296491661489,77.83960174555435,-17.154415654436203,105.00867158354475,71.67770124892289,86.71476945505661,35.23296602560216,-119.82198532467345,-43.33655738586372,5.64342267938882,-8.353103282013468,-0.5366009788176199,-6.5744238115395,0.11743824106715435,-0.9597659844160528,165
-101.48443745212897,76.41916055292276,-14.559213843060752,101.1727421184313,64.20846446701805,90.3820134427316,35.55775874648979,-122.53684523283106,-39.96131677575384,6.000000000000009,-9.484718815621086,0.10594893439651062,-7.361999079697211,0.06515258216535653,-1.227530872206415,166
-105.86652883922123,75.6880752649991,-12.835335435069466,98.86477829693193,55.84414612159957,95.65448340175337,36.748969801099896,-124.5975024007828,-38.369968879039746,6.000000000000009,-10.585765397831846,0.47950020210214206,-8.60184410323947,0.047489663918008705,-1.607053432745433,167
-110.83011889048959,74.4263841110859,-11.117378287376381,96.76466349155176,48.286468190232945,98.99698521771982,38.69648909606585,-125.61129057211363,-37.09928052009228,6.000000000000009,-11.169039523245452,0.8342351126181,-10.164255036794218,0.027473194438483818,-2.0095951485002037,168
-115.94257365744001,72.72973471055167,-11.27485282796689,93.7819284644901,40.725055434813704,102.65942516513176,37.18255566704756,-127.00366536816351,-33.93238807607699,6.000000000000009,-12.290640983183277,0.5918638961944104,-11.621861181752715,0.13391522798630862,-2.52730944680818,169
-120.28822159998758,72.4102791191177,-9.746209808063835,91.12613223437508,34.127264301202025,104.65331842699526,36.99757830909855,-128.15316921238397,-33.528395365069045,6.000000000000009,-12.531508897196709,0.9068891274324686,-13.576107914515417,0.13777830498502613,-3.015492448725099,170
-122.98842930426066,73.23642484778757,-7.900224275887407,90.46547509716825,29.685730692514966,107.33808072226532,34.650052044559885,-128.57851887217836,-37.477766766079476,6.000000000000009,-12.467089260988637,1.8373387946436193,-14.871492636549027,-0.05878649025714115,-3.3129270991436846,171
-125.1379610661538,73.6568977267101,-6.810612920674209,90.45367249585166,27.040444605474608,107.52021702858026,34.74850948400102,-129.23723037834125,-40.037324061831264,6.000000000000009,-11.876229116570686,2.624272960022097,-16.195576597793163,-0.27017895463598157,-3.46445413024765,172
-126.62880139644042,75.41319699317991,-3.258981981577002,91.55862890778748,26.54023855256133,108.44703851310241,33.92896362574444,-129.25455121879384,-42.17011279186092,6.000000000000009,-11.175952211870452,3.2693206079766743,-17.29721933709095,-0.4795822415916734,-3.512532426786086,173
-127.25859652391703,75.68891168710303,-1.815436843981566,92.38607768748396,25.539967511760114,106.60136216800736,34.463028488218306,-129.5725787886999,-43.13319862169482,6.000000000000009,-10.609995424816594,3.5050576072651447,-18.4940615787423,-0.5777266250595064,-3.5843081907017003,174
-126.59550681148724,76.12148664252697,-0.18537087414059647,93.85693592914417,28.365803469682852,106.92385398904585,33.858310165032485,-129.6073547839095,-42.90994433572766,6.000000000000009,-10.350143460209594,3.383287671481033,-19.40579889487009,-0.5490641849045031,-3.667870896860545,175
-126.14779000602657,75.3097396181119,0.27729817808364404,96.53043813738323,34.14718796404708,103.2959852337083,35.60284194808965,-130.34494883535393,-41.9448757118518,6.000000000000009,-9.905806728991505,3.142156774563137,-19.196152820175822,-0.4931243329187921,-3.463713410441155,176
-123.90320321886898,74.07062865083452,-0.5782399081411301,100.26331172859054,42.7909323138033,100.97356305708719,37.39509972296018,-129.42686831107744,-38.75719706993385,6.000000000000009,-9.520083795026604,2.493336280099933,-17.965729717793316,-0.3116443596428927,-3.0849487236317956,177
-119.93991347417588,73.48743516055116,-2.4220079957542935,102.99981829561469,48.36049627035618,97.96776804659832,40.643087403494945,-127.63670095686429,-35.67564950161041,6.000000000000009,-9.457283211695522,1.2973918778698692,-16.709966538452587,0.024785150484904865,-2.799286540227752,178
-115.57306618805556,72.66547597580573,-4.491378944658611,105.98619707750892,56.07765672633433,95.25142591689014,41.579785973530406,-125.44560262113953,-34.06727537172146,5.945159700184615,-9.04794692249596,0.40137966524823476,-15.610084678616985,0.22723458020471368,-2.4705279013720935,179
-109.36409074688453,72.8574916870897,-6.267566622369068,111.13539406680972,62.56911064886432,91.58534628201136,44.25974655338143,-124.2813005200721,-36.834849537326484,5.710474722079668,-8.396579826202432,-0.1218745200706613,-14.354615660759118,0.2946875375293294,-2.0934351676168013,180
-100.42397521446443,73.18150604016174,-8.022106038393051,116.12613270796116,70.97012763775855,88.91219169309512,41.479945159761016,-124.15724588632142,-36.00946837798107,5.102766635789328,-8.334271880407975,-1.3820782199758266,-12.505989147395278,0.5019905451550625,-1.7853729507996077,181
-92.87313727757086,74.33981779233201,-8.043417987209425,119.88303271883208,78.47802072622558,85.46444705894538,38.44519632760157,-123.41298026592328,-37.45469984369962,4.56181962279814,-7.9580716507687335,-2.432552830223996,-11.210574689696942,0.6311016652749575,-1.5113340840954335,182
-86.38246644827592,76.18440309072842,-9.048854054655054,123.7344379887453,85.73854391647885,81.79591540049927,35.03951947010526,-122.51698785791046,-36.66002619194277,4.451652526156587,-8.46621435995706,-3.4091296400265887,-9.614161998377389,0.6966992561969956,-1.3770071328841222,183
-81.88150656350614,78.52724760821246,-8.217870696311634,127.0774424847634,94.87530233236221,78.925845342703,29.86440788340463,-121.65219059526544,-37.1252197709214,4.475300929310972,-8.581088793574095,-4.016910507473656,-8.094225264235313,0.6596036724701645,-1.1777513166479487,184
-80.76196429879283,78.07964704066477,-5.813866965348079,129.46673778467118,102.0415152400399,75.22161659741735,26.4864451601367,-121.60024939348854,-39.32974170601242,4.487368717561202,-8.203876287782192,-4.377133310379842,-7.207049996943893,0.6216191009260246,-1.0020320863464955,185
-79.52654935471135,78.10235111442907,-3.957419539959314,131.34854762331025,108.84955824881665,73.56277273813008,21.654712122517672,-120.94700075921301,-41.05846252219676,4.165728473242567,-7.56664561307492,-4.8890161553765115,-6.472145520287387,0.6061944598836547,-0.8269414886700548,186
-79.39545626639104,78.00564604648497,-3.645261534958398,133.80988161244636,115.5742872068579,73.72087909018764,17.82838435466427,-120.52752979187777,-47.66500744366597,4.070293158571988,-6.670711090459458,-4.591610797090461,-5.924913978260709,0.5142768201496932,-0.6672935565380814,187
-78.73391343374841,79.76595737483508,-2.2119231021699104,136.1671780326961,119.84885818379885,72.87299732267518,16.61203413920503,-119.86388115903786,-56.058151581563166,4.023897583653965,-5.968619794305564,-4.021945201594024,-5.492039790929433,0.41531375187184527,-0.5549215290285395,188
-78.06675881335623,79.49017134422337,-2.312020325027912,137.78641057219784,122.13213784432207,72.4633598624537,16.238907438409324,-119.93758831595737,-61.58108667971355,4.141206163785953,-5.738676919038888,-3.398710301407611,-5.072329710482674,0.32499728542589656,-0.4958203278190132,189
-77.52746157027133,79.74378914600871,-2.9238575726173766,138.8361504078088,123.07430340268557,71.96924252539151,16.279312722648925,-119.78657430446862,-65.07094624186942,4.171635907355456,-5.668990162585558,-2.9064363844914043,-4.478406569024904,0.2456714386683018,-0.4352674696039988,190
-78.37791024699189,79.19903043346008,-2.405566316734726,139.28809437160987,123.53769433513698,72.95340904738875,14.456510239945786,-120.21760017731911,-64.80837769115199,4.196009461072889,-5.80499994154481,-2.5485065022028315,-3.87797963050564,0.18673037315339713,-0.38814440629714947,191
-77.34772748662249,78.99804994150776,-1.701409644206486,139.2901640951636,122.44665898088085,72.32152967797848,15.106151880856093,-121.04272687096527,-61.79952677210976,3.971362950600314,-5.991682235107613,-2.322366815407811,-2.973389944246264,0.12930529026390045,-0.30882941458520785,192
-77.03184527876401,77.89738359270476,0.4355359984165476,138.36381545972193,120.86905303460313,72.97512935238768,13.628344379652567,-123.83288068368323,-54.74648952378549,3.7959853594888795,-6.421293643231797,-2.2605091918315314,-2.066306030375414,0.08626224794626985,-0.23103980787284534,193
-79.47582913470173,75.43712711183126,4.502968292198429,138.16793359304876,119.14192847570361,73.02244183967599,11.16390163941029,-127.94479971741103,-46.22857341254131,3.826186601897276,-7.1459775351436265,-2.2751048590569445,-1.313125778372654,0.054462565844118814,-0.1640213907828066,194
-78.000838839414,73.07762315694875,9.884555220078779,137.94501288295407,117.07191186861391,75.32738835806242,4.694961613602315,-132.10178564562202,-33.55272030215521,3.7979593272982504,-8.576973573380643,-2.5771825281020164,0.11401735297034972,-0.0051728928678467295,0.017201671522137835,195
-75.42790110616853,69.78753162933927,16.23930175150804,138.87725328107754,113.94465439214882,75.55017075114385,-5.285130014300671,-135.97400719243544,-22.924866118037308,3.888660746718396,-9.888965836585445,-2.930414092525546,1.248721075960429,-0.06250290519895753,0.21835763741178682,196
-70.71802724856377,65.43697568326647,22.29834613224427,139.096686913599,106.7615845165933,77.66952726470713,-17.47537322478754,-140.10906935788324,-10.870247598111877,3.8903691198141623,-10.540856522434687,-3.3503198173651088,1.6439079024402072,-0.09347196630719652,0.3072076314934634,197
-66.89001221599199,59.03965054348889,26.668316752746357,141.3348366700701,102.00303693847707,79.15388433474112,-26.3846104320798,-143.44032870204882,1.6231255902765647,4.226114552150852,-12.130150253520808,-4.117486860863033,1.821012450249163,-0.12781149949877244,0.3933620236196513,198
-62.33204394605716,52.39587918490286,28.208674277269687,143.5562974770198,102.6688598979672,81.09791508838632,-28.370509514546846,-146.18255947876426,17.89283794374228,4.778215014633425,-13.01169960244416,-5.177631480696343,2.2756207528627828,-0.20105653788990183,0.529701725294917,199
-54.151609681614616,47.767331701419565,26.97111189109068,145.20444095630438,101.59717638452226,83.42491614187361,-29.314678816021537,-148.0,29.03629703627419,5.580319491422337,-13.938469891241294,-6.2807571486040965,2.5046961092806943,-0.270197100706665,0.6272671082809602,200
-46.25756274255497,42.470197721738536,22.316308074421894,145.47987921708722,99.04669097872348,85.60958520089888,-27.860286187138552,-148.0,36.548428159510145,6.000000000000009,-14.218876967386255,-6.80483943757716,2.3635366763317656,-0.2783436517218829,0.6043445961818604,201
-40.87054318612579,39.612480423916274,20.560169930294407,145.14942871539225,97.15132391923555,86.73834662132815,-26.532885277177286,-148.0,40.89007183893677,6.000000000000009,-14.15170583325862,-7.141402815078113,1.8481566910365692,-0.23112842689905494,0.46952536233772124,202
-37.11783033127457,36.54090514025359,17.181931332893242,145.12904048729553,94.97678843210849,86.51904153702833,-23.648466447437425,-148.0,43.218290612793034,6.000000000000009,-13.859186640952341,-7.297978816920405,1.0710751451138871,-0.13876275091102896,0.2654797055739907,203
-31.068267303579866,35.828918947368905,13.02636367798019,145.17719018584592,90.52614484013863,85.68881198753095,-21.474732315161695,-148.0,44.4364751950042,6.000000000000009,-13.37090606202372,-7.300688730187955,0.07206474445692768,-0.009478862248268754,0.01713520453322088,204
-25.550675540278085,34.22461505585114,7.310501757543572,145.96339164044457,88.26248295947055,85.50770681592465,-18.736311811982937,-148.0,45.381389700939465,6.000000000000009,-12.528825182837743,-7.05492035789317,-0.6998250697451647,0.08968451107154271,-0.154997981040009,205
-20.822300754876807,35.53495651641392,3.1223592877895885,146.58179203009232,84.35303680820937,84.44160638267994,-17.030592125692554,-148.0,45.304778643921,6.000000000000009,-11.674586896329421,-6.8173728018649316,-1.7839888245030364,0.22357388200368214,-0.3653160745561256,206
-17.141978794688164,39.412066163687264,-1.2176474359921754,147.96233971071123,81.52071694356346,84.19432372916773,-13.737887836042717,-148.0,46.39867768687745,6.000000000000009,-10.91597512683955,-6.781911640469451,-2.520673048517057,0.3160471226413725,-0.4795114814385988,207
-15.10990840397059,42.00140101877176,-6.141615161232265,148.0,76.77640285266598,82.23641653428784,-8.058257770655025,-148.0,48.323777601108695,5.843507002173787,-10.107831484958083,-6.999103292957215,-3.534446238467412,0.46022827507763286,-0.6165147626197829,208
-14.213504348700209,47.259219572556766,-10.090966601990186,148.0,73.15885858365564,83.65723762222721,-1.8481279595625695,-148.0,52.32930120741212,5.320190523541577,-8.761514643542082,-7.1683992749742105,-4.556058063716466,0.607542975489264,-0.6789304884349852,209
-14.755220771462803,52.699441998402555,-13.57448093630362,148.0,71.01394818074435,84.5189175692719,4.046416472036683,-148.0,58.59120982467665,4.749326186947397,-7.2423979195860095,-7.478106902935719,-5.226159946515092,0.7213718967322608,-0.632184330191723,210
-18.457936862882224,59.6440984375929,-14.319427658778901,148.0,69.81617630553637,85.08330786915072,9.494094152983841,-146.05544395633865,67.80746370287966,4.098235624058687,-5.3028540970156595,-7.764884393809334,-5.65289238177095,0.7992063742634685,-0.48596655964401336,211
-19.474680966137214,66.31282239064561,-19.161053928015622,147.4723371547704,66.73334236904424,85.40164354766713,16.062941397414118,-142.68944032369046,79.89608818800316,3.538596425972914,-3.8815484514796115,-7.792340344557696,-5.934907328433237,0.8337750080691841,-0.3599960949284762,212
-20.798756983178478,69.20682462992252,-22.72370455579384,147.17650866001807,64.77343222582104,85.75291743176194,19.419883290543144,-139.65149103505368,90.0,2.8329960194217048,-2.358104063790136,-7.361346189712051,-6.964640385156827,0.915951312397886,-0.2314935030080929,213
-21.75702618947978,73.71397624804708,-24.319705871300226,146.21329465155802,62.573370367460186,85.93187838825091,21.74756865082082,-136.32698424266056,90.0,2.407523297214774,-1.156011717653012,-6.880178047593867,-7.935227527108133,0.9657623712462773,-0.09341112705035692,214
-24.1007697596641,77.74250674629597,-25.292777527396083,145.0558808184923,61.10738398203109,85.43466641397342,23.646825795135765,-132.6808397367028,90.0,2.454844243395961,-0.060775478137779664,-6.696281650453983,-8.672726557076937,1.0149555732301623,0.06774830851479322,215
-26.24191314928687,79.32076584743096,-27.58998817508767,144.43733129979046,60.353450246249245,86.06454539750081,27.25890658828174,-128.70688703422934,90.0,2.6749346163240237,0.7618906307471177,-6.209275283976185,-9.631449299051289,1.0320766058941169,0.21531166733430937,216
-28.976497645416394,81.33079887843,-27.10510571358513,144.41103962655174,58.85650309312607,86.23821070445838,29.352548847768407,-125.71083448079762,90.0,3.0191582361972977,1.4987872365917643,-5.641830687787688,-10.466698868224695,1.0033179907692458,0.3664376918609306,217
-31.94575611045258,83.20182849889144,-27.243218911229413,143.7095172865162,57.69028483142969,85.27120112731214,29.452078686605574,-120.43932243599107,90.0,3.4458432946449467,2.150718295290211,-4.745562469842217,-11.157272087817933,0.8800425259848507,0.506147797533959,218
-34.367714737291905,84.93799174484029,-27.105063900106277,143.63416515262026,58.12278497268228,86.1231573707812,29.232199617557036,-115.97044372886668,90.0,3.802537038706357,2.315962338677188,-3.9168746550049995,-11.922574397779451,0.7608743959252163,0.5632312719431432,219
-34.08865154546836,85.02645077698887,-28.066560711238864,143.4764136514542,57.222596279531054,85.34715891446814,30.88828491026075,-111.71056895507738,90.0,3.9830795825645358,2.2067309051957715,-3.246054708121642,-12.157671572841442,0.6351886808047691,0.5377733876297357,220
-34.469417748809825,86.29018797606228,-26.643407200442965,143.6486256764563,57.329736792899126,86.07357935470341,31.572433159844802,-109.88065614033363,90.0,3.9274148219689273,1.7617285226698691,-2.745056729288517,-12.153105866385076,0.5390291972296,0.4325271787353831,221
-33.41502991072112,85.49709972164163,-26.014152950163375,143.84492784753596,57.22694909711396,86.1528586252458,32.02195057066456,-109.7463836970336,90.0,3.582954927589977,0.8134133230109349,-2.377299105305251,-12.00086737560535,0.47681921256724524,0.22111662909885355,222
-31.774938360013795,84.7517779919603,-25.017456087142605,144.50448376190113,57.1939246380667,86.26513866756315,33.21739240752446,-111.4091662614565,90.0,3.1146660988554173,-0.2637396628571976,-2.2324261660719387,-11.647145642864471,0.4563531662327881,-0.0072545648399538944,223
-30.591760870550175,83.32550891047022,-23.249137500884387,144.8568323333069,58.13681169782706,87.28125770753701,32.17523463773978,-113.27647841412426,90.0,2.5315397363249974,-1.5175308859388108,-2.1615976239579067,-11.251033288691799,0.45130210492118683,-0.2545974802574149,224
-29.713524527783356,82.11725092692635,-21.7914078682664,144.33820004189536,58.77339866321304,88.23682010377377,31.24573234643661,-115.9216739413542,90.0,1.9063627285604243,-2.824564104425939,-2.317372889140497,-10.300498332413465,0.46074216141511387,-0.46814092084001335,225
-28.500838940796587,80.49036491558658,-20.33889238688873,143.98833975299752,60.70399029388289,88.5502554875191,29.64159232019552,-118.25858166808321,90.0,1.2042552100683923,-4.147739638177572,-2.19884722798497,-9.103882378925917,0.40143311145535604,-0.6297856865665955,226
-26.26315325276857,76.97064203597334,-20.321436307855034,143.23192699207752,61.15221378743596,87.48478818819017,29.43718343402804,-120.25161708810269,90.0,0.51391012377132,-5.569888137093229,-2.108540477976861,-7.922637288543774,0.3455728213737694,-0.7501306763979886,227
-24.27202838728492,75.03581024012256,-18.571185289955135,142.92073693320398,62.824153100299704,87.97752224497059,27.630338699593306,-122.16844795711593,47.69594089099162,0.7103621162470986,-7.202476736513774,-1.9293026847937738,-6.75906774741334,0.2793685170513527,-0.8389036645375503,228
-21.85285198780193,71.46359800408374,-18.666915002784894,143.2479314661897,63.75558746124107,86.69927551276298,26.98531851714258,-124.52179724389526,27.232914164492797,1.454799527163102,-8.64761585588142,-1.9334074868989974,-5.4809199294017255,0.22676883527915825,-0.8235861899448184,229
-20.286216502989745,70.1127210806598,-17.4597569895252,143.001623784772,63.79378417452722,86.71376960102597,25.325665858736443,-126.57562561908117,22.157310149482452,2.202299061811838,-10.001074801324505,-2.0916143552786117,-4.317902841666303,0.18871170311357569,-0.754901001704975,230
-18.503964628187966,66.51737159498462,-16.31534131580809,143.11038833965395,62.724139098301045,86.77511327816285,23.131980846317184,-128.3445200383109,21.92793581405596,2.864896435873616,-10.958671015711907,-2.5395727549871006,-3.962408256580855,0.20545636465569228,-0.7607000145843933,231
-15.725302169699628,61.29732379539381,-17.305563471694967,143.33164255866566,62.85227625892397,87.24459450843936,20.987567912357445,-130.08924243952112,23.385150064123497,3.342064798566254,-11.202367215781283,-2.894591013844226,-3.6572081783900394,0.21156856210760033,-0.71804838143588,232
-15.098570162314745,60.412662284819895,-15.388157088981767,143.1275566809536,62.59536631385324,85.93254323146093,20.138295099705473,-131.3660408359074,24.784474782588397,3.7108436835489838,-11.223139463649236,-3.2740359214655452,-3.661249587819077,0.23667897674511587,-0.7194517963140235,233
-14.377885883668702,57.81284926198352,-14.650069989843473,143.83773419709033,62.027812042671194,84.87745384924168,19.609003714061195,-133.54879324344833,25.832174150431502,3.9207676056748753,-10.93959140201895,-3.7057300643360156,-4.212954693650192,0.3077438379480079,-0.8037585230206921,234
-14.418020277625581,55.32202317932619,-14.502918107105408,144.41984210851297,61.76140604494626,85.79569416992342,17.255890893176268,-134.64372381410118,24.817559234028444,3.941912673879094,-10.328461579159736,-3.852079554697608,-4.741902597691082,0.36011661736401285,-0.8502377511868843,235
-15.22611495785096,55.666203183361084,-13.890420192997619,145.11285064487623,61.02151046735258,85.38160071431976,17.344623922539604,-135.62781028030668,24.69463786506541,3.904652163386503,-9.84425218846488,-4.198882532863159,-5.2424172913634335,0.43194562092239325,-0.8911182755124593,236
-15.846707102408912,56.50059161824066,-14.125740813365882,145.53853557672778,59.60094159510711,84.38822201303532,18.32005668757666,-135.92013885436998,24.226555589087386,3.8169608945820013,-9.486016278959191,-4.520276008903081,-5.772655223813304,0.5108346365034512,-0.940303266067032,237
-16.40816184587058,58.049641678513716,-16.01553062244555,146.35304616194244,60.41741484264798,85.29985264949676,21.170905878716468,-136.28536755524223,26.056662050279698,3.5499698425467083,-8.672748416340939,-4.764066707433252,-6.049050655856674,0.5580756068065392,-0.8947077634718792,238
-17.656041395910755,61.487326741533145,-15.768995826848858,146.6203810005416,59.97213494160711,86.24539276873587,23.06087861772097,-135.50994303279654,25.28173067176358,3.233008817164,-8.046170953000773,-4.955547053540666,-6.673091561263325,0.6383833600974943,-0.9078719798836554,239
-18.513177114261566,63.357947968416184,-17.636204444470636,147.0510368625832,60.315886585895406,87.27797912723526,25.39375338403346,-134.38057095431182,26.16047191870157,2.8207468569463394,-7.25454410884994,-5.158841150300554,-7.3564425534011235,0.7282671347121369,-0.8916249440462151,240
-19.35891833940881,65.14792259003666,-19.414811263373416,146.94528657214371,59.715650461536804,89.0514761772807,27.209276593550406,-132.52134294654698,26.546193742294275,2.2638117973210576,-6.113122380577265,-5.138431093501021,-8.32699870856713,0.8156881351513335,-0.8346440626491065,241
-20.068272823713038,67.21896007461886,-21.430662712672294,146.33700809813007,57.20176123169829,89.2127274449728,30.122756531308674,-130.32850101973926,27.220698437732896,1.7574412483416544,-5.371335715510414,-5.344725226466032,-9.021809619403179,0.9115057908836136,-0.7786727412610595,242
-20.367831238522395,68.73179551247651,-22.99760937279203,145.34477080921826,56.08234581832823,90.08173508331558,29.71466422374602,-128.4427175129118,31.84221920744524,1.192072975484672,-4.580807007944497,-5.380935089071717,-9.53507107932346,0.9608308463163557,-0.6860428378964764,243
-20.163946517373756,69.35679372977489,-23.57706033021001,145.03651312580575,54.10856206839058,89.48215048536052,30.730134834818752,-127.85683484215316,38.84886806872711,0.6249834435426458,-3.81923031172848,-5.14916360050288,-10.211101012625813,0.9783669115923566,-0.5963928847275133,244
-18.891959794669305,70.45325651942355,-24.975098299535357,144.7604734206738,51.94051472361504,89.02810123364712,31.945704859725414,-127.13335095918495,51.991536377231995,0.15187943107305965,-3.4136827273492143,-4.7964872794504645,-10.546653758125133,0.9396649772276265,-0.5444280287254412,245
-18.410513446194894,72.76671938369009,-24.437922307720125,144.31713692377602,50.006683206764436,88.3026674845429,32.888124664036106,-127.03929670977398,51.991536377231995,0.42004106758018017,-3.0230496847333588,-4.378814030337072,-10.377648221449915,0.8411833871731396,-0.47335032257349524,246
-16.222454282301342,73.32090351828818,-25.432310396140394,144.06931690775372,48.62928961611096,88.93132701854196,31.981295951238565,-127.52932235857494,51.991536377231995,0.8882191811266112,-2.862125198276599,-4.002515243347319,-10.131558573842224,0.7509776146054247,-0.4414229033079076,247
-14.277488298602222,73.59539519501638,-26.174112745449985,143.71777034076086,46.17337457898813,87.97621925852577,32.616269737317474,-127.61727996318324,51.991536377231995,1.3148065769157664,-2.7174005203655214,-3.6269600126330035,-9.840969954955042,0.6615925780716854,-0.41138894305061235,248
-12.151428909608569,73.15044935991472,-26.38993220257169,142.96138339434071,44.43203706788069,86.54900258561527,33.23183432661116,-127.32324638380537,51.991536377231995,1.6009381818706012,-2.588209236466769,-3.232282147407354,-9.207743509773344,0.5517661578179296,-0.37276846527098434,249
-9.481780224626812,70.96550442859959,-28.074499220871598,142.8663146131909,44.113401749674594,85.28175112622966,35.02349495763737,-126.57445316436696,51.991536377231995,1.6590772906024853,-2.402627630961984,-2.9333465338540625,-8.81371998859793,0.4787038246892873,-0.3337056281818374,250
-9.336035921685333,69.61440462913687,-27.723243570066572,142.8520992068654,45.281499672523026,84.69694859125373,33.82310392570399,-126.71184072901843,51.991536377231995,1.701395154198752,-2.0708526891167205,-2.196701435871024,-8.532541035754296,0.34926475301262494,-0.2830750943416934,251
-10.355924076335558,67.37628793601203,-27.033844128520396,142.21269488688324,47.02148845582451,81.48626331400729,34.38914145200581,-127.40520342372606,51.991536377231995,1.5491059435768655,-1.9028139009047464,-1.6999998152179367,-7.355887102980224,0.23351886060400515,-0.2297222959095264,252
-14.630348245132279,64.75788987191733,-26.376361577964214,141.7774267949121,51.223280753917166,79.31046436566018,33.825309113132285,-127.13494173128137,51.991536377231995,1.2394278933424416,-2.1164446721242864,-1.4825278534186728,-5.5847706610230405,0.15446591543919416,-0.1990285280409416,253
-26.813391001310194,63.168221434357875,-22.630233876512065,141.22083293924211,57.846381539577415,78.44720287777872,32.46370726889431,-126.28435430890462,51.991536377231995,0.9837933916845972,-2.9525194902982856,-1.5739205399733613,-3.9197159456891097,0.11467949356152464,-0.19833126162721587,254
-45.651232071598045,60.75893157069136,-16.421926986627938,137.50306606790326,64.7200977670045,74.56144060036581,32.14632428856007,-122.43405731223598,51.991536377231995,1.4851279706128264,-4.213549208292115,-1.5438581383916277,-2.4931839297683833,0.07135594717349424,-0.18216520285676982,255
-61.643617303571894,61.64733970924713,-11.880361363879222,136.02356968897126,72.33396760540465,72.65164163708542,32.84117463521163,-121.73815686753031,51.991536377231995,2.516676751990052,-6.545790778447521,-0.8420176779636616,-1.5577698658418793,0.025472393128117693,-0.1784158256058717,256
-76.04181862850442,65.12497274179918,-9.642841868133798,132.76290737098645,78.42565264848173,74.29127993637444,33.63904771562332,-119.660525847356,51.991536377231995,3.1868175208917444,-8.640887929790678,-0.37364835566634114,-1.2389939266729642,0.010208054211544356,-0.18818405647777953,257
-84.01882790363085,67.49330018224867,-12.885913374294656,128.94149352970516,81.01109181734705,74.17487314009684,36.90708813218857,-117.12073874571337,-44.441067347905616,3.5876012122170766,-10.751569994576155,-0.2308241163408096,-0.48683535329120425,0.002389059633472728,-0.09243315297009701,258
-91.68924309486997,70.31117578351672,-15.105198647767665,123.22593750518995,86.40706541595482,75.69095879428633,36.19404703739573,-115.55125104802785,-32.839142234667136,3.6059546539542917,-12.121188705656207,-0.4066263718000915,0.679891694331178,-0.0040687863471632274,0.14604382066292002,259
-100.81370523540893,71.80598521805348,-16.096107125952322,118.54002074425293,92.80905745077501,75.89289581785769,33.65350741889202,-113.03674453741881,-18.62669340187213,4.022086811262259,-13.686018876899047,-0.7378918408242457,0.9925022558281291,-0.011062147560358867,0.24178522121449383,260
-107.15869448780477,76.79871492480083,-13.14232159307288,111.06840597793695,100.10946164077976,78.37036431029443,26.83182567144929,-107.8648892462421,-9.815001293164146,4.591066697481709,-15.107561301267484,-0.9419049660298882,1.6970643224469133,-0.02211013051817928,0.4584780084388604,261
-111.13147062849113,79.59284049508959,-12.793543346462002,103.11633391957258,102.60516067459984,79.17634381333896,23.72601527407699,-103.00149924443882,-4.629286928847707,4.656562254079307,-15.248554726571637,-1.265046251656887,1.3112246291405092,-0.02591799127239495,0.35773429531231365,262
-109.92838223978569,82.0792349800286,-11.953991582351266,92.71487280205459,101.56281158317097,80.3995256838524,21.163033533020776,-97.7770738054457,1.7886494842289082,4.711394700983517,-15.91717207795134,-1.988801901077268,0.839622187882571,-0.028560869091379632,0.2396409308239185,263
-108.85011436097903,83.49378967088681,-12.698785736507439,80.78538102657451,100.83626863147994,79.7416523388711,19.968391884073142,-91.09396965077273,5.154957193799408,4.394600594781743,-15.220708177326326,-2.5363108548002877,0.3108593599030624,-0.014040399111109872,0.08461473649170528,264
-106.15422504397934,84.15020910749242,-16.396553071564192,75.08232289403217,101.19053463048049,79.00617180456086,19.63282157198511,-88.81095306983092,10.484035944981176,4.860704308280441,-16.981160066833805,-3.1549317264163124,0.31952160737126056,-0.018141754333376843,0.09761878061622203,265
-100.78077569459883,85.61640250631595,-18.19132125782395,73.35083537991837,99.44330533866402,79.79836214984923,18.126646316409786,-87.7079241234173,13.940240038924651,4.986724514495882,-17.801314855708103,-3.6327362852382836,0.8241418461615992,-0.05304152417661796,0.2649700520863331,266
-97.78112890821399,86.58230639936308,-18.939875946293064,76.39713102496997,98.34020256015245,80.74116293492015,16.57040521268785,-90.17743583473955,15.527605861702435,5.145132761442829,-18.48324706745026,-3.72916267738496,1.2611908679325556,-0.08200673393951939,0.42239521706973115,267
-95.95436969466233,85.92136544938772,-21.09049945161477,81.47502044064817,98.87494132724714,79.81350979295699,16.3328347910033,-92.47715809478535,17.457067431888525,5.407778410725903,-19.29809395477553,-3.6988780315803025,1.625971607217885,-0.1032470030856808,0.570664988014091,268
-96.08787063070027,86.34542506499112,-20.92794842403664,84.92390940550848,101.2555555243339,80.09748874273376,14.081296043298238,-95.03138897760581,19.655808559249206,5.63110417322659,-19.448922533359045,-3.5799042166631336,2.2433230136189803,-0.13324235983186258,0.7945234469757136,269
-96.11396598313783,86.34683292863816,-20.97470547923603,87.91959556476125,101.81777932673016,80.65854719575515,11.572382539319555,-98.18741024301322,21.48580776652477,5.648242790755408,-19.139173496646457,-3.4371553054637918,2.4429097582614134,-0.13713482481554287,0.8504878556816381,270
-95.5148054684857,86.01509823551396,-23.49245665148788,92.96916883488466,102.17407470412569,79.21339432230509,10.902870395149833,-102.94832236201586,24.71492095823894,5.633552412691478,-18.473359597667823,-3.6139506746278096,2.8295487932356007,-0.16492777079402426,0.9490785011798326,271
-96.01243055320153,84.6945155209062,-25.258496377941,97.689655827587,105.45245027967897,78.63507536687783,7.499824267346162,-107.84707246602005,27.507846613415925,5.877896181694546,-18.010128115949026,-3.8135244467840756,3.2684572066424247,-0.19855306400669487,1.0679454389240532,272
-97.16647076508684,83.46431501744317,-24.606936228111156,102.2333255136893,108.42857545438179,76.98603136344377,5.6343298585365895,-112.58121722985808,30.285792213006633,6.000000000000009,-18.13720852709485,-3.8537404776492843,3.3055124654839605,-0.20283425988637757,1.088273760997705,273
-99.11829167174824,82.45952885710511,-24.3252630409468,109.68001003878118,113.7900441657947,77.04689297793855,1.7318629101072267,-118.09409679572906,30.881171858891857,6.000000000000009,-18.050444898103933,-3.4598636694674045,3.586909201408826,-0.19125653020051914,1.1746403275245438,274
-99.81067356837133,82.16901611828682,-25.079828191047625,116.30669722132558,117.19969061438574,77.2621058766177,-0.6103241303389236,-123.10917438577992,31.77920763190978,6.000000000000009,-17.879903490678807,-3.0209941478649815,3.471353979899732,-0.15839569677615428,1.1244772801808118,275
-98.2000302510535,82.86829315485599,-23.274538840391507,122.52718884643409,115.97161536334022,75.63678138183444,-2.1361178584870846,-128.93562561501685,34.33600853250815,6.000000000000009,-17.610695879560232,-2.834847853969932,3.330016710788181,-0.1421410817674138,1.061009081552964,276
-96.97872230195942,81.57649302613935,-25.042994021716574,126.9625093355954,118.92573170790371,74.05590783665504,-3.8791986867554145,-133.64243617786164,36.88020548587193,6.000000000000009,-17.740317078790376,-2.8138145998509545,3.8853538449099583,-0.15814623027128116,1.2482279323309913,277
-93.6246561239053,80.38493439015198,-27.362006514764655,129.7760627197465,118.04730664159464,72.73140386809848,-4.5247938665294205,-136.50362700002276,38.505638760103565,6.000000000000009,-17.4145847004091,-2.5283875437464367,4.203662747851298,-0.1459595377839782,1.323883967196429,278
-88.17505481613209,78.51080686490216,-25.84485650208601,131.46800527031095,116.81845359996643,70.59600362089718,-5.631900687000027,-138.87021503773934,41.0126225602743,6.000000000000009,-16.96385900333142,-2.0432242881837497,4.608058015153841,-0.11516075638578917,1.4105349133994423,279
-86.99925884520778,78.7514882602126,-22.631712513772978,132.06774867589328,117.07865352266339,70.28201773147875,-8.478738415348996,-140.17318228064423,40.57846621618145,6.000000000000009,-16.491484543472023,-1.6592111461249446,5.199417780186773,-0.08704162591221949,1.5438658865634054,280
-85.06280720535142,77.430799509304,-22.166411407241352,131.51977878955702,114.58473219778784,67.84800269872012,-6.387871439562441,-140.84455084480186,40.12014612204764,6.000000000000009,-15.929993197071646,-0.9792474543712834,5.165711340656588,-0.02527582834184637,1.4763806883422812,281
-84.00190618649765,76.90364941111218,-22.034464202950275,131.7232126541232,114.39445509952122,67.73663378106978,-6.1730776649313945,-141.19153817358787,39.15449231116535,6.000000000000009,-15.869327330342628,-0.4712446782437738,5.469126561648904,0.02745493966170833,1.5546375091822706,282
-82.6414931901717,77.54515814123836,-22.764958259090754,131.06320767715644,113.44325268821234,67.2426079963175,-2.4918818044873694,-140.4882119543649,39.415787627214975,6.000000000000009,-15.665250827837943,-0.09451671502832351,6.064342406091312,0.07956129937020771,1.6982232468876999,283
-83.12635268490078,78.68657208517945,-23.44582730641202,130.41866721191738,111.99510101406334,69.18107654613712,-0.5263689102108919,-139.5846117426395,39.96066452536179,6.000000000000009,-14.499751720973373,-0.08529756185699286,6.579562214154885,0.08751405973820756,1.698613137567369,284
-83.89769723280227,79.54166706989942,-23.641755138481145,128.83448666641922,111.1029309709329,70.48706867140903,2.088875434671601,-137.7757072312449,40.89589212443433,6.000000000000009,-14.164164276332098,-0.2540930992457339,6.883266227627991,0.07282598156288383,1.7350123036171652,285
-85.02200061024602,80.43859417338066,-24.08361020364303,126.10908641897954,109.53663332484929,72.84789194324273,5.346783642571585,-135.28946222274473,41.619502732797585,6.000000000000009,-13.785521371916158,-0.5028726191603884,6.677669535621399,0.0351586106389544,1.6382214843110392,286
-85.56528214540663,80.37225795086772,-24.659550302604888,123.59834485530313,108.60622817729573,73.1799630119988,8.766384282178294,-131.09430686983282,40.79060235957315,6.000000000000009,-13.839993436096643,-0.21541194340680023,5.994095670515599,0.054013740770077506,1.475338469461828,287
-85.85172494102514,82.08844531396885,-24.009604090311818,120.04012673027734,106.46001821366846,75.82532856169223,10.573574367569773,-126.70377546612431,38.94249186908763,6.000000000000009,-14.793153697372155,0.3930833506174307,5.270825784345734,0.10135147426092297,1.3885122074044383,288
-85.83704640657919,83.38457505970344,-23.550495493624183,116.53350241287883,102.72161705170562,77.10373922422757,13.453146804311618,-121.65109799175185,35.69279807680555,6.000000000000009,-16.499162278045347,1.0994151786377213,4.018204869357959,0.12211363219938993,1.1867190904390528,289
-85.83864308078904,82.70838018265748,-24.465211207783117,114.3793786514297,101.45874556764403,79.3543252251636,13.918782477015105,-116.90457533185104,31.588351350572683,6.000000000000009,-18.359416887662263,1.9913998963247488,3.0580583325777977,0.1391124442858227,1.0117844511624388,290
-87.28536683412473,83.08927217093964,-25.008699340152223,110.32584701665914,99.7219090381636,80.9687595001831,14.455926137248353,-111.70136184915329,30.02728512632806,6.000000000000009,-18.382052711386393,1.9340268968471328,2.2137444524873726,0.0929882764223409,0.7341275070841924,291
-87.53946528398922,84.13649225749474,-25.94444982263716,107.78213106587816,97.33329278317194,82.30039477336948,15.074966669159618,-108.24170728338561,31.868958620533043,6.000000000000009,-18.485429333220925,1.4712205011422916,1.4727649412417734,0.04621273482693739,0.4918602603569707,292
-88.98029262336698,84.87970779411673,-26.431688702208046,107.60531690278928,96.38519919873733,82.74395100936087,15.399162775138278,-107.51158686873652,34.90778833368031,6.000000000000009,-18.059650025961734,0.7038858708439124,0.8829272022999616,0.013627793041885938,0.28780828055420077,293
-91.09854282023815,83.67635372087999,-27.672816599725287,109.21598752895419,99.0756272900802,83.35925513220485,13.632078961731484,-108.93948243873977,38.55103700605435,6.000000000000009,-16.825735687937264,-0.30862897316848936,0.9470948479833597,-0.0029624633841025235,0.2864372140084717,294
-93.87429952950819,83.07038138572885,-26.622524542777256,111.64528652991753,101.93093127377071,83.82079109724398,11.479937020836378,-111.96438057459159,41.73561689742955,6.000000000000009,-15.75555604640518,-1.3583360359374967,0.835282253128001,-0.018859937070379598,0.23579177126329837,295
-96.61677139789687,82.12219691248177,-25.667715392985397,115.76150396239889,105.20229194854302,82.59660711114624,10.633299293773298,-115.3441639116155,44.978461579088574,6.000000000000009,-14.986151338379218,-2.372202480446331,0.5344590232796914,-0.022251512891356264,0.14316672020858429,296
-97.98501078512946,81.34124934583627,-24.349593526691972,119.2375465919014,107.50247717908093,83.48525092223088,8.89233891793316,-119.85137768330922,47.743388444878704,6.000000000000009,-13.913549058386396,-3.2997886147475066,0.6126291328658665,-0.03557459599671485,0.15194399833043082,297
-97.43844914943378,80.77779957817236,-23.03203424953797,122.06001481881904,107.55257537625087,82.30567237346796,8.457551503444574,-123.8732333169659,51.38927663452208,6.000000000000009,-13.125431990788453,-4.311927451272592,0.5954616952911402,-0.04537553125199651,0.13907105930562239,298
-95.38125339067187,78.08841673184321,-23.447691766376046,125.73131661289175,106.90396794413702,80.99998301591535,7.280903121952098,-128.0403209477851,53.89518224126633,6.000000000000009,-12.410015833334842,-4.719399197190448,0.5086987133577148,-0.04249981998992777,0.11211811068635276,299
-90.30912778176479,75.92431063203719,-20.895150923809595,127.6065992126322,103.00345282658802,77.65375066416681,7.148968706101997,-130.57655634853768,57.08157490862201,6.000000000000009,-11.962762163745692,-4.618625302587643,0.4209897446155252,-0.03443456897013838,0.0893194030349264,300
-87.4798501840031,71.82822545532841,-20.032337359311263,130.34737544601768,101.70797026195797,76.15531844598299,4.977225622060762,-134.0591235094478,58.47705595980205,6.000000000000009,-11.833712075197573,-4.572800450916523,0.19844069804264847,-0.016143477918379816,0.04160506011633361,301
-81.15364971895268,70.43468027658686,-18.563638651374394,130.69749352126468,96.18360152381027,71.62817277526003,6.890364496206242,-134.85035961784615,60.927344182700736,6.000000000000009,-11.508477466037013,-4.141583471961565,0.09561230433104063,-0.007049041178219017,0.01947291793540588,302
-75.74866980319891,69.49125575503234,-17.456638954600713,132.322975921849,92.34419173806381,70.23180018982568,4.925814715525887,-136.3521233353104,62.41778882923584,6.000000000000009,-11.544465176836516,-3.837698377500821,0.183026556551035,-0.012471068493142345,0.037404234779373616,303
-71.08178555628314,68.71545780779802,-16.286278365259424,131.9456291770071,89.58293918332801,68.9531449980488,3.3125735140591286,-137.49921187783158,64.26540622635726,6.000000000000009,-11.741293997601312,-3.7725210465871504,0.33289154915193647,-0.022217355551369958,0.06925071053073231,304
-68.59521534872103,69.74073871756255,-17.698320400979796,132.78075410955196,87.5733248511192,69.15138034802096,3.4891233552140712,-138.40743269401332,64.97605540384386,5.92288094261196,-11.929680828040672,-3.681326841172061,0.26711899525750393,-0.01743359909582018,0.05647425838477444,305
-67.65372979324395,71.27626820374506,-19.561754102233987,132.92654926590276,86.79741741702256,69.1121503456051,3.4709563295486463,-139.23188072091745,65.38740783811458,5.643402611380925,-11.902797889749703,-3.6802854605128252,0.2854565807419108,-0.018613873399154966,0.06021412130584942,306
-66.14595999463123,73.12519196857698,-21.47286214083741,131.8808888480816,86.41441992124341,69.22743139566865,3.962596712558462,-139.4131239426197,65.38257622296128,5.332617118888133,-12.08681733083791,-3.7709241975888137,0.45708590089758133,-0.03041715950160434,0.09799698605735141,307
-64.83677715421898,74.08974973035552,-25.979240028735482,130.61426352693613,85.77866842435509,70.21041770522689,5.571403710596611,-138.87744440417157,65.20749157807354,4.9308938151242,-12.430750441852839,-3.9096286187822726,0.39511108302510484,-0.027348947231060235,0.08718317859430355,308
-63.356737255967325,76.92828010569993,-28.880177079036425,128.18197223841094,83.33386912411376,72.00849120785908,8.053436860091074,-137.21608076800695,64.1614977954228,4.470262334065306,-13.002130616166141,-3.8794351333533736,0.24912992043232288,-0.017212958728711734,0.057561443656687965,309
-63.249832335488605,79.76986510638332,-31.40585956774557,125.04975028671177,81.81135656958672,71.91276327582301,12.110239906073632,-135.57833039221717,61.42395330986239,4.108191511511328,-13.536474594733447,-3.9146219507470925,0.19518355787427724,-0.013657490366095853,0.04701281903678701,310
-64.75435626172033,82.66860304982642,-33.646819090123245,121.71048684057307,81.54082174955545,74.17172772510575,15.127150013217166,-133.98872905317685,58.038570115073334,4.003985821529806,-14.16627041705211,-4.176466250455593,-0.09860519318228529,0.007447764412889948,-0.024883199264060064,311
-66.26410609510285,84.26072202775215,-37.96134489713942,118.9576919832276,81.45797085199807,75.37060162516276,20.054790424945242,-131.54670041474552,51.42593513562134,3.8446244641924947,-14.63218851795293,-4.319082854422092,-0.6247370655373038,0.04965891411301095,-0.16285585551674972,312
-67.17200152028975,87.5176817259942,-40.42779585621218,113.84073226234109,79.68212291748482,77.5463402118117,25.276717912385138,-126.12198356383045,42.38725962640446,3.5269633248009775,-15.242861550762669,-4.251005864585288,-1.2015144605216301,0.09601348228382095,-0.3264885247437998,313
-67.8951676776823,88.45274532869875,-43.12297581137013,107.00932532228761,79.43512199923336,78.0075566626106,31.633366365330566,-120.87453308123136,32.51548516902106,3.4046404875393326,-15.578515471013029,-4.229821332681588,-1.405280281964851,0.11272090539070057,-0.39053616492950366,314
-70.12253312547898,89.21782730304562,-43.027812253318324,100.02390622287257,81.71892508439595,79.36213303508586,34.882247144020525,-116.0706708861459,21.332994442888655,3.67718230844961,-16.849763204213797,-4.199337344172497,-1.6335887245046723,0.1324064799249787,-0.49307342213225874,315
-73.26994346027456,90.01660376066576,-40.371600420268926,91.93299167513347,83.048362741544,81.15702203058419,34.965702763603794,-109.60124013150413,11.749795850826988,4.158142810129289,-18.821364263818026,-4.2148480721178325,-2.0475273404060066,0.17194081334912845,-0.6952359666417057,316
-74.1403386999367,89.76937306406147,-39.2545256567018,82.32646340071499,82.57997530228072,82.18105944317276,35.624952372891045,-100.51770451050406,9.569410298140818,4.625455644399319,-20.32147037424047,-4.482242660360514,-2.4074563140608385,0.2200704675814946,-0.887691511291035,317
-76.05638513905636,89.2512452438307,-38.98704191043204,77.80833146878983,83.99160892557329,83.81106363953553,34.58581206083828,-95.73610379527568,5.33515625681028,5.129921091136789,-21.508062077991763,-4.5462421173615235,-2.754400790633886,0.2616333324864877,-1.0802941389694019,318
-76.87559654506366,88.7703686659246,-35.49013946156153,66.75123746059164,82.35891890241177,84.3698338148536,34.84993440917855,-85.45984112006798,4.308035533505202,5.286545241697886,-21.70974426822679,-4.585361034289558,-3.00060276304749,0.29047177716267103,-1.1884982422927648,319
-81.0522940655221,86.96979702652249,-32.68013134088069,55.73842148166995,83.7871703216737,84.44967224886305,37.622612449671884,-73.94941061325535,0.005844200185591075,5.421190842358067,-20.745040055383647,-4.336038606319564,-3.5570875082494733,0.33038840218509574,-1.3388829138402532,320
-81.35059930428069,87.393778982913,-30.987271197090557,42.360270265771156,81.30003684533446,85.86249410149571,42.17114402820296,-56.929384093547114,-4.470032323561646,5.486944955586883,-20.268132077425314,-3.861616555585721,-4.325370949832833,0.37164051855117103,-1.5857913433576722,321
-81.40588338640369,86.92157018095446,-29.69030500829122,36.15618364585151,78.47349017470594,89.04439492232949,43.737095251273786,-41.762494220851394,-7.736747237677217,5.500767173260633,-20.08224331426024,-3.2010985978735143,-5.415719345132866,0.41606829255912275,-1.9641810073241794,322
-83.12666576405162,85.99196673533099,-25.670487962490906,35.44489091228835,76.65144530438316,91.51647952101995,42.36623016668243,-31.49366987085857,-13.352685248854781,5.700312186629925,-20.205140997509943,-2.1621475122397653,-6.658978973937213,0.41007410185379045,-2.4324499679258818,323
-86.87666834507846,85.493291361577,-19.394224762051003,39.77135038970267,77.82176082363021,91.8559815749284,41.33976211398411,-28.29882286208985,-18.1421077621179,5.954106839984657,-19.675441593669984,-1.0506156412893628,-7.503954033604013,0.3215027074359596,-2.6681295971980132,324
-92.07686853917333,83.96326875615654,-17.450542219172725,49.34296770265912,80.35775098282701,91.65430094289397,40.67739448612401,-29.096791502586804,-21.751254156553664,6.000000000000009,-19.15312923193929,0.049763762736376393,-8.126329301239485,0.19248435659861404,-2.814579551739617,325
-97.49820559366783,83.16271273893817,-12.762554288247607,60.395446836120264,83.79715398164883,89.12937250542369,39.92611347056613,-37.96164026973516,-26.40432363071265,6.000000000000009,-19.344723323271314,1.0777631304176964,-8.66223143823872,0.05739940722811143,-3.0423416051514005,326
-103.47681365841261,81.05647670099376,-9.524913686844172,72.83358643450374,88.21299258211528,85.85382068805656,39.05980784057627,-51.5015731102631,-28.89245248787613,6.000000000000009,-19.81730617612759,2.3404079680254433,-9.065751491584383,-0.13422572560320173,-3.282155652434125,327
-109.96063638592588,80.74713753740556,-3.38246767595133,85.61493960060737,93.72443047775859,83.20815073353023,33.09562998684968,-67.29919798954104,-31.3813912520349,6.000000000000009,-19.93212682369345,3.5449891976592,-9.187735958175876,-0.3359428693955275,-3.3613540904862766,328
-116.81506220041555,82.01033385252362,4.192423932546528,94.22050627222308,101.38681399928352,82.77994819011437,25.362821788115507,-78.97252986521579,-33.44591864062559,6.000000000000009,-19.618002211623438,4.3550535699561514,-9.117079355952077,-0.47529090578179406,-3.288676884819122,329
-121.74633242101307,84.555873612351,11.289776299773223,104.943319242675,107.77127499652494,82.56771617672946,19.38098165849054,-91.74745987925743,-35.260181128876916,6.000000000000009,-19.058967046687613,5.107862330701844,-9.424344446840097,-0.6188949033118951,-3.3071999903713363,330
-125.36143043996105,84.69997849682848,12.966987698802876,114.00261699948753,113.32336785281977,81.5875020673093,16.539194539423278,-102.04084775961657,-37.34289231594048,6.000000000000009,-18.23344408130408,5.500431246490126,-8.891267874015718,-0.6697161098587054,-2.980601066294187,331
-127.14203627116194,85.0485436377107,14.24267265626167,121.73168774276505,116.86848776666055,81.42951679822833,14.31943213353777,-110.41233427361635,-40.023831829433256,6.000000000000009,-17.382314537033736,5.839509167872231,-8.111141165688133,-0.6856024924491457,-2.5867031369536497,332
-128.25363133414902,82.82961455894339,14.372766702898735,128.3681111988445,119.412899480101,80.43139450473896,14.472442581605188,-116.85102787594491,-41.767706601153876,6.000000000000009,-15.993340662581954,5.773946811708752,-7.527172404419185,-0.646909382918252,-2.199269587591779,333
-130.01644391767556,82.23919007499084,16.361824026867506,133.7162403507741,121.75438882760186,80.15059572559326,14.75721446725763,-123.28670393467732,-41.53757073744094,6.000000000000009,-15.496221231800934,4.961976476535178,-7.550946232336557,-0.5398624505874066,-2.129161070628451,334
-130.81268586662958,81.67259529627408,18.432638164085652,137.29589155712344,121.81662141068126,79.63000456412007,14.929205421519521,-127.9244293077811,-42.756356480208524,6.000000000000009,-15.106177632601588,4.304575137288145,-7.220656393419762,-0.438351210657619,-1.9771218241343311,335
-129.23618854069142,80.00552250529834,20.34802705120555,139.40913754075245,118.66762098217701,77.50902695584165,16.02007364582176,-130.75232212293858,-44.13736848352581,6.000000000000009,-14.736093775229055,3.9064208221198786,-6.923075428236801,-0.37742881288462327,-1.8441889774303124,336
-127.46738451651487,77.04467356050576,19.94211860631472,140.83537266908917,116.14591631124499,77.61788201128535,17.184140546894632,-132.67032119715913,-45.33945943892973,6.000000000000009,-14.742158822224003,3.5587449340311044,-6.36264060616911,-0.3152376673856119,-1.6921085584137372,337
-124.09636458882979,75.7402761895207,19.249411400302307,141.33770674189293,111.33780457895618,76.42638002832986,19.899124273492035,-133.17634849496014,-46.9463750155138,6.000000000000009,-14.225242733886882,3.2295576963388934,-6.256954925559309,-0.2768058004127888,-1.6018086633434574,338
-120.65313531578053,72.99731884458481,16.565604731262784,141.43566832173522,107.40400004051983,76.5795553474884,20.827211521152602,-133.36770931825393,-48.02007912775896,6.000000000000009,-13.669655241131336,2.723849194016341,-6.035000826873488,-0.21761329011634425,-1.4798529142659995,339
-113.52415408439418,70.72826503544233,11.198956244351034,139.71667245279102,100.68991029767538,75.6088501291774,24.130683273631035,-131.10656424709947,-49.85941459349357,6.000000000000009,-12.587398174206381,1.922498326824957,-6.059143792332836,-0.13649488567875293,-1.361040261709863,340
-107.67022272889197,68.21128533755822,6.385185887849502,137.3909817978603,96.61252077163944,75.2114824709743,27.73601547607868,-128.27840282726598,-51.19817187666335,6.000000000000009,-11.722303347936709,1.465920377317074,-5.945902137865485,-0.09114791787123806,-1.2393403914066774,341
-101.5458440411956,65.87633857191844,2.0624733500714725,133.4720369534322,91.7106404041492,74.99929132438369,31.214742388096184,-124.11188409737612,-52.33683928510436,6.000000000000009,-10.81885361173815,0.8803907637110868,-6.043981821226213,-0.03351784636070099,-1.157750134043269,342
-99.11143728906039,66.58451904690719,1.3969198303460315,130.0385284611029,88.988464849077,76.7750146455447,33.01129027173961,-120.73336400811539,-51.79264544992863,6.000000000000009,-10.707672001290339,0.17590159370107886,-6.315795727696105,0.04606563885413642,-1.1929747276024223,343
-97.22327673477896,65.40108517042114,-1.1439000423294492,126.39922464443998,85.74832107451125,76.7177964981774,35.904916822063726,-116.39045499332649,-49.79792590476773,6.000000000000009,-10.845030897656958,-0.3711194791619615,-6.640123539036232,0.1173469674980246,-1.2668959561764739,344
-95.20394778675913,66.83519419672672,-2.6706092630066594,123.18060699462171,84.17498655751233,77.84865767272503,36.95320711839182,-112.70280698607672,-48.48526885104936,6.000000000000009,-10.790880962684117,-0.9688172465180962,-6.692227576074016,0.18941025826579444,-1.266232017684173,345
-93.23562090874334,66.84165772256694,-5.979489214669349,119.90595635778077,84.87251115110071,80.30962081228604,36.25246539945913,-109.87449664704307,-47.42415159355212,6.000000000000009,-10.920107134040913,-1.443337552158619,-6.354526202995055,0.2307343740460418,-1.2148782283689932,346
-93.1339545403396,70.135633359978,-6.312911617704225,116.24754989324076,85.57420235623026,81.23116021646366,36.62077475568258,-106.54911393361586,-47.855964971673494,6.000000000000009,-10.681745451176848,-1.7239972898200793,-6.3393824574631354,0.25996724721098496,-1.1830360933074722,347
-94.03499601522645,71.21014430459232,-7.771720642138375,112.49736305283554,86.25759048578084,81.38535127387638,36.62628639377466,-104.22690795607751,-46.422525121179895,6.000000000000009,-11.063303212243916,-2.14791312548302,-6.353619492387824,0.3112845279512069,-1.226907368343329,348
