JMW9912/AVATAR/Dynamixel/dynamixel_control/data/csv/poppy/.data/waist_test/3DoF (3O)/0410_1206_13_16_three_DOF_waist__poppy_bvh_motor_degree.csv
theta1,theta2,theta3,theta4,theta5,theta6,theta7,theta8,theta9,theta10,theta11,theta12,theta13,theta14,theta15,frame
-95.70108805032801,21.965689744416924,98.23810575254988,28.29882286208972,0.0,7.631625440537582,-64.5785547651047,-28.624566344911933,28.880907609534308,6.000000000000009,1.2498088126880578,-1.3807756505068154,0.16477843651807952,-0.003977889875868406,-0.0035892133048849675,0
-16.005239951807145,16.990072439405225,98.23810575254988,98.11795875920912,-7.75302483428537,40.61924321513883,17.668883485102377,-76.55937536224945,0.11888457949363516,6.000000000000009,1.2498088126880578,-1.3807756505068154,0.16477843651807952,-0.003977889875868406,-0.0035892133048849675,1
-1.6671525327096874,61.92163268779994,98.23810575254988,38.90026453539811,4.648399996405133,32.635438916788,29.312501624250853,-55.62117825239106,90.0,6.000000000000009,24.43505141301592,-4.0300740095940455,-14.984140641967501,0.26093130326225134,6.866208368720201,2
-0.3247220432710649,61.63908456187213,98.23810575254988,42.38640250462895,2.0649530592888636,31.06617954268001,31.969371791798174,-58.432642553606065,90.0,6.000000000000009,24.284220026265693,-3.9478977510013635,-15.297074530524686,0.228381265418582,6.958951161381802,3
2.097515433414128,61.25852774672133,98.23810575254988,44.70081832569505,0.7203553138443732,30.268431928222167,31.405415878774477,-61.25685473477216,90.0,6.000000000000009,24.114297469178528,-3.8222112251013973,-15.63956286143132,0.18094784575192405,7.055320460415963,4
3.86582020991554,60.966251521236714,98.23810575254988,47.387326147048256,-2.2611901053314574,28.79045030643488,34.292307918329456,-64.47936684028018,90.0,6.000000000000009,23.674568091417335,-3.806552324085771,-15.789631042780828,0.18462780173945575,6.978978502090151,5
5.396775017565304,60.11841123041905,98.23810575254988,50.81325981411109,-4.369993286645562,28.447125120328238,34.135070966463104,-67.90828024789352,90.0,6.000000000000009,23.027499090172366,-3.869746623656522,-15.783863883931124,0.2270518583047451,6.769426815079508,6
6.969794128847195,59.3387300305955,98.23810575254988,54.016660836042306,-7.906609341051914,27.02312305924786,37.29028999001166,-71.38909660473243,90.0,6.000000000000009,22.346535055809802,-3.919538805045783,-15.81009048267964,0.2651226439708327,6.564124884379178,7
8.6423178709592,58.61258978569588,98.23810575254988,57.18445689761453,-9.875529635537319,26.637332638146752,36.9347556309567,-74.65496624687704,90.0,6.000000000000009,21.65130467911035,-3.909429938494252,-15.825666685616545,0.2864681840209762,6.349472753120424,8
10.451089725159818,57.71132251066488,98.23810575254988,60.29106418647867,-11.73712695104902,26.363280558630724,36.50266750579362,-77.82447573497072,90.0,6.000000000000009,20.939581842893496,-3.8735861137577747,-15.795946415267377,0.3024845759743385,6.1129462322456005,9
11.941296581673916,57.173148402010746,98.23810575254988,63.24094926131956,-15.576988743939726,25.048185980812857,39.78683216621616,-81.05604647890348,90.0,6.000000000000009,20.189999597197573,-3.843065971909979,-15.74617566044773,0.3218660598128801,5.860401592416145,10
14.20701515801671,55.800748147878025,98.23810575254988,66.05872880701514,-18.39060274219207,24.2951816293622,41.04642116367558,-84.1144131222288,90.0,6.000000000000009,19.4519607848853,-3.7408650051731156,-15.679469462565857,0.32040648211963113,5.606518362235668,11
15.815264617055862,55.508387340854874,98.23810575254988,68.98044121146569,-18.61976940146156,24.63062156555194,37.84225123018316,-87.0791482644495,90.0,6.000000000000009,18.67198281558148,-3.5578603746971713,-15.614365556181387,0.2973153305219963,5.341769757886356,12
18.13750264727561,54.25089273428428,98.23810575254988,71.90115873455349,-20.899953821475613,23.661532386795557,38.257408047908406,-90.13976689168253,90.0,6.000000000000009,17.852353596500485,-3.3640372906043585,-15.622603781128436,0.2709129076592668,5.092956146830381,13
19.66657718088481,54.16196305187168,98.23810575254988,74.65469797100717,-22.61258558719114,22.698440547080267,38.19514836897978,-93.24450246496644,90.0,6.000000000000009,17.063575485912036,-3.1497401311185422,-15.612702112269934,0.23858003708276765,4.848818313732902,14
21.874988059475296,52.78754385137714,98.23810575254988,77.43813969872762,-24.18587035662687,21.889409061162084,38.00406182471575,-96.24740619256778,90.0,5.69843985575835,16.269847790619494,-2.958278887371656,-15.495769320948643,0.2161075430216858,4.57465023186344,15
23.305802236946786,52.59436564409191,98.23810575254988,80.23958014500333,-25.28913358832548,21.16787050524015,37.37293682832109,-98.9671362662729,90.0,5.253734585965304,15.513625411134106,-2.751944817551921,-15.290685978153794,0.19066005476139355,4.2913732420680955,16
25.423775964934478,51.286512265075125,98.23810575254988,82.79787755423966,-26.14159115275294,20.312112786127816,36.449668578270014,-101.67866271972599,90.0,4.843916923036145,14.757923093689426,-2.5314287178485384,-15.15296028769776,0.15989897204824005,4.033231146139318,17
26.711584854788445,51.12083495726408,98.23810575254988,85.34407575832967,-24.011741744197707,21.009993574759985,31.033165411678045,-104.30603267025921,90.0,4.461371511870917,13.999117188584108,-2.330844395994056,-14.914784422127287,0.13733173472848448,3.7550792025272415,18
28.91431193016078,49.66377017633083,98.23810575254988,87.80978218950756,-23.62618426395294,20.21181520609151,28.909824950416784,-106.91861667101333,90.0,4.1543312968446005,13.284218090095242,-2.095140136188009,-14.64999704143593,0.10488395413255219,3.4894695761353174,19
30.009953108674626,49.56061735027809,98.23810575254988,90.15848242157732,-23.160887340207452,19.306220244763818,26.721884768403523,-109.58390589368685,90.0,4.27484935477248,12.671232437818325,-1.9813420701538942,-14.418851015779296,0.10010471185047513,3.2701724915236006,20
30.97550347167141,47.93274926965651,98.23810575254988,92.16720235442065,-22.13919617126704,19.10740088277334,24.870005335810927,-111.91216372599402,90.0,4.691917341751528,12.273224769676421,-2.056326092698921,-14.001103671551709,0.13902132818470847,3.0766483285381074,21
32.75555907720511,45.47382451107048,98.23810575254988,95.0278064164505,-22.21389332400732,19.148577193178674,23.654403990251843,-113.97967547840265,90.0,4.8707012158327725,11.58288207105068,-2.106037706888761,-13.40148330176036,0.17866545144694182,2.778906394906529,22
32.83386196154058,46.653927015105275,98.23810575254988,96.24653004899956,-18.084571412107653,18.022979701962207,18.585835165826445,-116.32843942303744,90.0,5.019763915146289,11.370340522875583,-1.8176196279373826,-13.460833666346627,0.11518087007820489,2.731971967484929,23
34.27246961670652,43.64310893193144,98.23810575254988,98.44070106354665,-19.21469302889489,18.69655007995462,18.545753659762298,-118.30522237512521,90.0,5.414285972034217,10.460421052705858,-2.183245310742252,-12.573234255550668,0.2297639626091896,2.3547977276392262,24
34.65133063543363,43.31676341990848,98.23810575254988,100.40222582199455,-17.799373851457744,18.638860701747873,16.158892302658156,-120.03412745845286,90.0,5.565800348112746,9.889379490520545,-2.236251746644828,-12.141166705248779,0.25414232716447616,2.150553820181841,25
34.52041868851232,43.441527725694925,98.23810575254988,102.36784245087696,-15.194481690083276,18.39379705905644,12.724279605072077,-121.71988246491348,90.0,5.638545502704227,9.39980380628281,-2.2012970511624323,-11.894922494216056,0.2563606306922054,2.002014695730461,26
34.62500958903366,41.884897844281895,98.23810575254988,104.18773937203841,-12.472438675221591,18.315442079119933,9.360891418679378,-123.2645751082304,90.0,5.835777599781813,8.893484371409443,-2.2007955287409358,-11.683712956292498,0.2654644316242837,1.86094386267523,27
34.61975188271831,42.124672197281306,98.23810575254988,105.6570484863622,-9.529476468340627,18.336216971169957,5.863346813517025,-124.5906152909593,90.0,5.964855210301021,8.346688678737669,-2.1664427749702844,-11.531874975132595,0.2681601355957839,1.7240071651003155,28
35.266151118617735,40.90647616554381,98.23810575254988,106.84636544801586,-6.507202024985758,16.34496030432633,3.498227111616399,-125.75294322978777,90.0,5.837479355968265,7.739805111387726,-2.041202032198709,-11.445353726981441,0.2540073826455891,1.5856395070129958,29
35.13538482958613,41.44549641932361,-1.487089370714487,107.99371603797479,-2.4722995915811916,16.443456552681955,-1.112026182056734,-126.91681283261772,90.0,5.902272329950479,7.227724224891643,-1.9865217863992315,-11.333431319530215,0.25190879505350494,1.4665292582672746,30
34.42896780129913,40.14548104625994,0.015239340738830542,109.2468382702567,1.4394491400136111,17.04587562749711,-5.045861739672862,-127.9503129676021,90.0,6.000000000000009,6.806343289483886,-1.9960450548238702,-11.129269595369156,0.2594984640557356,1.3573790615922399,31
33.86144488017168,40.92906142619924,2.924077426920624,110.32127315511283,6.19207738934146,17.758228606792233,-9.805420299112296,-128.86412721793826,90.0,6.000000000000009,6.399065931594747,-1.8956288420783385,-11.00812907491459,0.24607434081605936,1.2617465936987546,32
32.95460820930817,40.05419188513721,4.353517513541695,111.2602084434562,12.128921328379668,16.78865514554254,-14.114292338405585,-129.64332344270002,90.0,6.000000000000009,6.0123944359083605,-1.836562463752944,-10.903774328848332,0.24044465598518971,1.1745440490973134,33
32.07618398649136,41.08462465389059,7.244820199930363,111.99390871771372,16.857390169047378,17.887733171661406,-18.7140244014568,-130.45190205443683,90.0,6.000000000000009,5.677760796412445,-1.7521091406462261,-10.788155468701522,0.2289509577270041,1.0971191190130385,34
30.58008311361448,39.98504440702449,8.886650401926968,112.76364789792183,22.092877107424076,17.969383280343077,-21.327641629077082,-130.80350655088907,90.0,6.000000000000009,5.485272491609937,-1.8194068719334493,-10.3901441841131,0.23948030034177867,1.0220464426299696,35
28.975418302296383,39.59168969524662,10.448585815654967,113.48450769986655,25.797916023291585,19.716601186131115,-24.295926715329585,-130.88036677122315,90.0,6.000000000000009,5.233264958833714,-1.7650571092278948,-10.281987311597279,0.23215023156060272,0.9649734126303416,36
27.213691217588593,39.47076751591807,12.107205797479585,114.00643002006076,31.427538618179238,19.721956711551346,-27.678766944609972,-130.9050833040883,90.0,5.979071267306385,4.917972967248912,-1.7189565880160784,-10.283659793429045,0.22885977714131414,0.9076721075310427,37
25.331237460476032,39.366296234896794,13.90718800258635,114.32675101253643,33.59669020823561,21.37282950220481,-29.310624746419908,-130.83197148472283,90.0,5.815323753092755,4.561202937200044,-1.7401248382722847,-10.271892245835348,0.2380801124646947,0.8429023781186634,38
23.950184571078772,40.99377986915657,16.87208692456302,114.55736383752821,37.28797009010589,21.472653154843645,-30.500374226289228,-130.51052666149414,90.0,5.831069076112808,4.251333193521454,-1.851420099175449,-10.163604803661697,0.26083519825008306,0.7805628179045573,39
21.84989454661466,41.15059354837446,18.670888812734066,114.71042463342323,38.11222898104512,23.273090276644425,-30.36661780280261,-130.09041837152648,90.0,5.8186133343447235,3.949156833980067,-1.9501478278217215,-10.117881407266388,0.28197496070521955,0.7251393775646088,40
18.801934867534648,39.92175699044593,19.416514480041442,114.68765930006856,38.97677855383874,25.15534818956339,-30.182551356586554,-129.60905677161466,90.0,5.7753416132016016,3.67212805510697,-2.024754348409151,-10.137749231825934,0.2998066637105206,0.678800550729095,41
16.57892006014115,40.43926040500733,21.091400795023127,114.49402977302962,41.50335793677315,25.41869849801274,-29.825714968217103,-128.95007064806128,90.0,5.787469621993562,3.409473359319775,-2.1377011539081483,-10.08308313135781,0.3223186638243415,0.6305965025972831,42
14.373427038789266,41.067781750950026,22.65797250118085,114.34158331409436,41.63575662282656,27.436113179826293,-28.736418558474387,-128.05568344698997,90.0,5.746086819815213,3.1735675006635944,-2.2338293246378567,-9.987630823159314,0.3400133496214604,0.5847890081548603,43
12.200167906675434,42.01804413475271,23.950937793079554,114.2266363559147,43.74848850145129,28.10892772169217,-28.045486931217173,-127.0151643818665,90.0,5.640130845998041,2.9975772761999573,-2.2810058276538014,-9.931457683299964,0.3491318039259858,0.5516130860784889,44
8.758815146544043,41.49767700425758,24.49348374224201,113.92194050784927,43.657386422621144,30.676502238110302,-27.02170031906419,-125.93024748553955,90.0,5.579040899695924,2.858659728720486,-2.353701382410109,-9.891461193508302,0.3624643142757992,0.5264340944555165,45
6.313217097161098,42.57778302091826,25.971635905157687,113.61946142838624,45.11197500082401,31.53649770424273,-25.67831534982222,-124.68331749675846,90.0,5.520682555875401,2.7338860478052176,-2.4530145904590706,-9.781791787211949,0.37764768716424385,0.5004672001171253,46
3.939711750343928,43.70686878295568,27.378820508057828,113.48137179098575,45.21161759056419,33.99725568926292,-24.643440335374894,-123.25708221403569,90.0,5.3666794759174605,2.6365160689471265,-2.512754982108718,-9.659249829379037,0.3848589375071677,0.4782906782023994,47
0.4853770438703169,43.48711378320956,27.70451061074342,112.87302022515821,46.77376191745706,34.77532881863943,-23.133898840895508,-121.64169783686648,90.0,5.214565846399254,2.6038246282141757,-2.5552050696861976,-9.551566381065463,0.38852983792492846,0.46776756482493137,48
-3.025863992871152,43.347965215244464,28.112549549513375,112.23076333394734,47.07868246928232,37.094693724924966,-22.093227839020336,-120.046555467072,90.0,5.072307001629719,2.5670496129899614,-2.6241000804370604,-9.438927686509425,0.3962298347875164,0.4567779999131374,49
-5.562350557638652,44.95873087210193,29.374833903818562,111.69916936006028,46.959846815976015,39.39528134282643,-20.544657959762997,-118.19129970636972,90.0,4.951036445282054,2.559884749099091,-2.746499649205769,-9.235173084415848,0.40828099755743247,0.4466862914214501,50
-9.323714094170075,45.224543363411,29.822004410848443,111.16963303229103,47.617372842388896,39.946656929638216,-17.902618118711153,-115.9428347926903,90.0,4.8356259530894,2.553095656402461,-2.8818702046812263,-9.043478732648973,0.4219819371922374,0.43738093529041755,51
-12.7533643161857,45.65461603333521,29.998826175745144,110.34387911769925,47.735199082036765,41.967462295503985,-16.576525335126153,-113.64796617711089,90.0,4.703939586741136,2.5150982532822272,-2.9925165826666937,-8.964097979374507,0.4363349088127948,0.4286820221946773,52
-14.854427500161908,47.6967298982259,30.916665091299176,109.2641980327658,48.036125787660964,43.892218185648986,-15.361546866029334,-111.43154549327991,90.0,4.700723431206573,2.4919822573054464,-3.1324285176645774,-8.870406293288397,0.4540485979265695,0.4219628737449817,53
-18.415517983114626,48.34873255980253,31.306199797250706,108.17458000268783,48.10332179260592,45.770639282529444,-13.827770903108544,-109.09869685102018,90.0,4.815712814107623,2.507618836620755,-3.346209583628036,-8.669600859907096,0.4766854504746228,0.41645990285458473,54
-21.75362211007792,49.191796565780294,31.367937158749925,107.04071500418307,48.559466531347546,47.56472496252485,-12.675158066278652,-106.55171293764587,90.0,4.691723061188536,2.5690321492418873,-3.455098152360599,-8.481450504560003,0.482504390727986,0.41694068652307037,55
-24.61130404585781,50.066452503485785,31.011697045972955,105.57390328433526,49.72735416354929,47.6199798749462,-10.360206142991725,-103.94150363162125,88.98528479106653,4.483418003392105,2.6217834524378136,-3.50835894813725,-8.340716090977702,0.4822368056989082,0.41768358176937637,56
-27.21220974980487,50.85884579256204,30.626738737778822,103.79436677024904,50.29742146195901,49.29613909809097,-9.27220042138106,-101.3156290589,86.47133139709354,4.368900286690858,2.6628848666803795,-3.6099690644405658,-8.1456112468299,0.48573345875042706,0.4139913911658402,57
-29.55112782887644,51.964850051330046,30.586302732851898,101.92147308818261,50.52185506002205,50.962024548814476,-7.827432374888718,-98.54402887388443,84.90651838259883,4.3331323562463755,2.725901505429485,-3.7555679697395945,-7.870367426373196,0.48977166841621733,0.40892005670099935,58
-32.08079515225194,52.72328673802633,30.164936587522273,100.00281270428387,50.87955055453097,52.48314799476142,-6.556849808822671,-95.79356308986361,84.69365789476886,4.246727632835347,2.7812579504593415,-3.90633220282836,-7.654032871881966,0.4967943406899892,0.40553439853413714,59
-34.33518251936286,53.64087530787581,29.239036175406692,97.45845058281499,51.2410538338203,53.87543331772382,-5.301294208431929,-92.66149883282866,87.5088802662313,4.16213427373646,2.95173656747799,-4.064235414002452,-7.511227997074996,0.5073990380399318,0.4210669976316771,60
-36.52291490115571,54.275942211801706,28.355704418244496,94.75761326217125,51.534669097684365,55.179312818739,-4.095149062684105,-89.7623327758151,86.0031451915735,4.186239479476106,2.986679152928616,-4.242667551402539,-7.318674109900557,0.5177001782878327,0.41537904054107716,61
-37.67058040998187,56.023120060516945,28.729971875328502,91.80689968262918,51.84931945922982,56.561874455975186,-2.7701328168216754,-86.9388781480929,82.70617237175038,4.307711606203309,3.0081877349907913,-4.44648984033518,-6.995318649555098,0.5208167461641976,0.3998051115890414,62
-40.14990693426512,56.24399148388612,28.135747854332465,89.03604457922907,51.63780108202928,57.958060554941675,-0.9194174437301287,-83.62308030221652,83.91546752033858,4.557958245913453,3.0765220620691096,-4.762039373028689,-6.500552221352812,0.5212080099425017,0.37926607885768066,63
-41.93066480121281,56.83529894554645,26.523761513941494,86.37677832323743,52.35402530777593,59.0395114407624,-0.2416639078120041,-80.94841328494587,81.93538205963489,4.317612665258617,3.144161972658351,-4.826842736318852,-6.434123042745535,0.523030772456674,0.38310644773369845,64
-43.81571672981257,57.343188773397856,24.880046873461694,83.55406153573868,52.993168580761974,60.15974146080415,0.7122499730436772,-78.24337771161132,83.14755499684412,4.144585260657331,3.354198071822247,-4.969211851520904,-6.245633478287159,0.5228102075214578,0.39482804554069095,65
-44.890381835114944,58.943072943695135,24.792276242936875,80.56549548023796,53.543157062718876,61.31683187824821,1.7832053403213024,-75.55710656498104,84.27830661020948,4.059047142135019,3.5451284945091106,-5.118606512396668,-6.023469266241952,0.519833224376728,0.4007535373904638,66
-46.571874869473405,59.14073088168586,23.089825605265315,77.81359077574726,54.030385979327,63.19087351572394,1.7865634327938644,-72.71763749278853,83.60926100835594,3.898139616422852,3.6445883662540535,-5.218842740054702,-5.792724053812012,0.5104750925523491,0.39500154564718765,67
-48.21515000308317,59.351964540814805,21.30156483927047,75.27893019148368,54.48678786551764,64.27710697612086,2.9917971883267223,-69.87162528887406,82.81792936485905,3.6988151250344186,3.7182769890922027,-5.298389376317319,-5.565563569710112,0.4987129459948375,0.38610675415533857,68
-49.70160727906231,59.6230422768181,19.342780491303404,72.8835001256457,55.349196647526625,65.23797588455604,3.8706629242267594,-67.71444993648181,79.92879915926999,3.598658474600427,3.7416311933004067,-5.3765426255432125,-5.423749195889074,0.49385465294603725,0.3782451427961765,69
-51.25042310424699,59.93954661313128,17.46368428713976,70.48385482315942,56.2671577469015,67.40016949858844,2.708492867467945,-65.86278587333892,79.13099839528208,3.7045275540045974,3.7751053506125443,-5.569788993533006,-5.2154636061032225,0.4932025213020312,0.36673013835560303,70
-52.515190235912,61.43201975909547,17.65440074969823,68.2356236447165,56.771676325665126,67.34735729571926,6.0372981487084205,-64.08753972736484,79.28352190627713,3.851225943006931,3.76691987335365,-5.852380326539116,-4.914040743998501,0.49014529904955056,0.34467299705038773,71
-54.16703775433753,61.76971511327715,15.951472841613565,66.19809854850698,57.61760942746916,68.418006350881,7.026303633683519,-62.70809320848295,76.02214884537764,3.962956397007946,3.6609609698757044,-6.1030235267015565,-4.648200771759963,0.48526742597637806,0.3171768529045247,72
-55.861733952991784,62.11486887095039,14.251182281829049,64.31139172449691,58.55387111057586,69.51365228572743,7.9964079487693365,-61.36728679944685,72.90390035453902,4.061918307153166,3.5587286028369562,-6.344126499933825,-4.333691433217908,0.47197373997600656,0.2874312223881256,73
-57.45051968725378,63.599419929175774,14.789829161206319,62.60729168529638,59.31970419142494,70.62874263926156,9.143369565578833,-60.0333476987407,70.1548130739231,4.3387628621360115,3.4421932113544584,-6.691630191485115,-3.898058980650239,0.4497244021360013,0.24980356970387493,74
-59.274626363833875,64.04719062097777,13.31129063355494,60.86338572101664,60.14415168224931,71.7393720871136,10.279446440454047,-58.885062843218904,67.81740812340678,4.797923407801905,3.298923517996142,-7.0931769714645565,-3.477354629235832,0.4269789475990765,0.21341391033207255,75
-60.40778022390279,65.58489371350363,13.56084039300128,58.65294985766827,60.859524321491826,71.8027377411858,13.570056192999584,-57.82682133620106,67.98024585535687,5.289261505621282,3.1669995289382764,-7.510915367130405,-3.126769967791602,0.40787200608155927,0.18414571182136075,76
-61.817026286207344,66.08746655785785,11.793211387757276,56.7124210686432,61.95348692929218,72.75313112722748,14.454380350438688,-57.25941846257192,65.80827154212523,5.752366636602971,2.9548843549197445,-7.903448450366683,-2.788819905810362,0.3839393250123891,0.15330160592909065,77
-63.20951123896539,66.61276383553648,9.893829434700322,54.967789652714835,63.15839371424732,73.6883268801698,15.222317487764238,-56.87799014193759,63.35819099334193,6.000000000000009,2.770509784175332,-8.227136905372289,-2.4733614913681485,0.35527909734920876,0.12736054524977716,78
-64.40605309381318,67.15764180102886,7.744662065354204,53.11522366568299,64.16114078699265,73.66207385275936,18.145456764869166,-56.62059151142532,61.18035936173143,6.000000000000009,2.6155153285579047,-8.48685946095876,-2.221910293910157,0.3297935294013936,0.10789324657057575,79
-65.35151109816881,68.3539149539245,6.9875548397142415,51.288991317982465,65.47949538875508,74.63325459343204,18.738791875145278,-56.385805774010635,58.44874794335601,6.000000000000009,2.4406396105134847,-8.690510314982163,-1.9754005552806333,0.30067051979737436,0.08937945700044915,80
-66.1355882571148,69.49065133672711,6.073560887953168,49.440525122334556,66.77059840057345,75.59909918327446,19.290061476713174,-56.105995719532956,55.89989849937053,6.000000000000009,2.2447549762093093,-8.866421916963104,-1.7470382950195613,0.2716258278478474,0.0726211728224136,81
-67.04047530018983,69.78177397419911,3.004910707809307,47.763632531411446,67.7343036960966,75.55255397140525,22.078519434709865,-56.01299087974742,53.39318187546001,6.000000000000009,1.995030253488167,-9.067689012733762,-1.5554875248778777,0.24761354047795336,0.05754409337785901,82
-67.67941359677224,70.1832308510973,-0.1863811342629214,45.918338944303265,69.1010611312142,76.39910291900351,22.461989170922276,-56.00344363412131,51.62162038180878,6.000000000000009,1.7607259266549717,-9.243911318156615,-1.4476982866690862,0.23512258771112238,0.04747241687838171,83
-68.22998175916484,71.45249494011209,-1.1027736463058921,44.20728280330691,70.10175645637544,76.26125028092267,25.033929761420193,-55.96710902845154,48.10748697463108,6.000000000000009,1.473463417930217,-9.36578816212487,-1.3662025289685182,0.22495701672396126,0.037823992596324074,84
-68.8478778430663,71.8959987483892,-4.147244644004299,42.60697563572794,71.45914711302943,77.01119578339862,25.379337289418437,-55.92950748461009,43.37659830097231,6.000000000000009,1.1424876827463584,-9.519008264579519,-1.2112867085154464,0.20287491455420203,0.026301002796473724,85
-69.2864182421439,73.17580909711859,-4.9446778321434754,40.79617587681351,72.7154950317956,77.75426129167349,25.66850944361495,-55.94074385515563,38.458757148851916,6.000000000000009,0.8023875685275583,-9.643901331632229,-1.112971643172225,0.18897257145539398,0.01742295826174609,86
-69.48611707164062,73.71871139267857,-8.008775138063987,38.936100525218706,73.40858288126128,77.5667340964751,28.230822055801653,-55.89386371859001,34.04498320052128,6.000000000000009,0.40520802852133997,-9.76019039155411,-1.0230517538398198,0.1759077696745012,0.00880597268243036,87
-69.79905167002357,74.254361957485,-10.908197815599207,37.395034240213555,74.695965241007,78.21022860710174,28.53318080250581,-56.05272535230308,30.145846962124146,6.000000000000009,-0.10242383808199257,-9.949361595028638,-0.8990508866639193,0.1577141428520785,-0.0003698049462120315,88
-70.07089641061982,74.88158618244601,-13.734722077163825,35.59334217483164,75.84502345605328,78.81439286519453,28.934434521022293,-56.175142997960755,27.431660512939576,6.000000000000009,-0.5576670874137565,-10.213919058085478,-0.7160315703987546,0.12906149942394662,-0.006163145803896459,89
-70.4044611685497,76.18407450486845,-14.199302920503078,33.40132275335368,76.35281863899982,78.53481505910807,31.637626176644183,-56.16068936313942,25.361350887085244,6.000000000000009,-0.955734093867398,-10.465373341626517,-0.5130130724961631,0.09481215430968788,-0.008133917900138546,90
-70.62539813017602,76.88345900190433,-16.97292677937465,31.184672189834988,77.30400111712298,79.09867576749507,32.064907755380446,-56.14938406619393,23.162141369677553,6.000000000000009,-1.361993207239813,-10.705046019127423,-0.27127947953309683,0.05131363765243448,-0.006328472886914647,91
-70.90653245541179,77.60393083928139,-19.64817129854495,29.34044782117761,78.12920708686316,79.70049793976021,32.523314327622764,-55.911069087546636,20.777872594735367,6.000000000000009,-1.7726011721233974,-10.911794883404612,0.012659302911452385,-0.0024416237902390703,0.0003920445347860639,92
-71.54686895490461,78.25706258885319,-22.118385116366316,28.298822862089697,78.85671323271745,80.25593894671236,33.09204887223782,-55.6917215328151,19.442058053425335,6.000000000000009,-2.2060073489907666,-11.193885206440068,0.3740036292006635,-0.07401869634947701,0.01464831124611083,93
-72.74296470379372,78.72884116393242,-24.37585638866461,28.29882286208962,79.42518732600205,80.75643005623745,33.80097421893658,-55.50017392756679,19.29130473262562,6.000000000000009,-2.6106095372222815,-11.578056564092762,0.8193294872771274,-0.1677470895670781,0.03855503931975617,94
-73.8838634531466,79.21137875114331,-26.63543015986808,28.29882286208972,79.95933973976625,81.1496925993196,34.493698578959275,-55.52791628154953,19.08899247072977,6.000000000000009,-3.0405272631853393,-11.973612643257999,1.2577790759563983,-0.2663303148896975,0.06972703720428153,95
-74.59870085141426,79.21697733283241,-31.350700419302704,28.29882286208972,80.58061372056834,81.4680762777242,35.104010315353555,-55.8905201583158,18.516549840807986,6.000000000000009,-3.5377879307546327,-12.328896008945406,1.641075388722102,-0.35778846612330034,0.10656951190212262,96
-75.52644400963689,79.60915149437535,-33.59462569179002,28.298822862089697,81.06223254795194,81.80323385882888,35.77602085078843,-56.14611496063519,17.512919810823888,6.000000000000009,-4.037590154791658,-12.640892806182109,2.0924404211675514,-0.46750552126976125,0.1562062338718606,97
-76.43672418289464,80.00184851103421,-35.76864400435873,28.298822862089697,81.47984729368163,82.01819576794217,36.48753669176324,-56.44326939892988,16.617083405129872,6.000000000000009,-4.539554884761017,-12.970468680204442,2.6065492813996607,-0.5970607891452755,0.22047827478154702,98
-77.01794743903483,79.97316713847056,-40.33493373960957,28.29882286208972,82.00579803024189,82.0504107510755,37.18487201805036,-57.10501953639949,16.31050886407567,6.000000000000009,-5.068192653568661,-13.356158746392657,3.1219984648446277,-0.7357810053670351,0.296834171383789,99
-77.89838104883289,80.26758114812206,-42.460401478339385,28.29882286208962,82.48291320343051,82.04376164296299,37.89261094487916,-57.83412226164798,16.197705748023733,6.000000000000009,-5.576172069797794,-13.730029074212975,3.6488608587660973,-0.8830820100556361,0.38420131786814354,100
-78.79076027532892,80.44685509589712,-44.59473474630221,28.298822862089825,83.38504732381368,82.85978875264585,36.35202094493033,-58.50888957191893,16.017288247790155,6.000000000000009,-6.064675203070215,-14.090082629653859,4.159068457470299,-1.0317446281634297,0.4790802586480719,101
-78.9606373320813,80.37483705299177,-49.11754271507876,28.298822862089697,83.56296518639444,82.79003083924076,37.07316342206907,-59.28247816689699,15.150836755649841,6.000000000000009,-6.598397362884134,-14.421259143358068,4.670042416635313,-1.1839927132211554,0.5880818359656277,102
-79.62322581448709,80.68682325611455,-50.55707920896162,28.29882286208985,83.66282574350859,82.73464729991309,37.82268466852208,-60.03587037332703,14.191130873712236,6.000000000000009,-7.086754520310229,-14.717740334886527,5.205981784366913,-1.3445268828425434,0.707749106449055,103
-80.16260117046579,80.83742740397531,-52.32522611760883,28.298822862089697,83.71037791985536,82.63553979883702,38.50932878643274,-60.82252014286891,13.282669841284505,6.000000000000009,-7.520134279048469,-14.945360364560429,5.718375935839374,-1.4965184055717695,0.8288126248497463,104
-80.97314641296839,81.23819882935975,-51.61382262443906,28.298822862089825,84.38139158178251,83.28678347588699,36.99554640614341,-61.77758798066274,12.092347587004143,6.000000000000009,-7.97051338931631,-15.156813142648302,6.291136244379094,-1.6651716393748088,0.9712638133937285,105
-81.55749707989523,81.55842360647317,-50.90409892261465,28.29882286208985,84.45458190208694,82.9925788448427,37.66876741564118,-62.85957750877826,10.805249054046868,6.000000000000009,-8.407665818994067,-15.321450478525364,6.873330860351127,-1.8331680176636005,1.1245265506841025,106
-81.84615739786864,81.8392557124686,-50.09073593529566,28.29882286208972,84.42810424615348,82.68505981768583,38.46988956018363,-63.79125843344059,10.5397697181461,6.000000000000009,-8.686724579346423,-15.535930835951282,7.569802976892402,-2.0399345287160155,1.2896370213658326,107
-82.41306765883955,82.49244140472061,-46.66090409026034,28.298822862089594,83.97189896552723,82.2693139321801,39.57580382341304,-64.78787394296887,11.205965598499848,6.000000000000009,-8.865285349620581,-15.911738261637954,8.450553383088582,-2.3237182315933382,1.487379355117481,108
-82.29340042779467,82.73883833893866,-45.92499297344198,28.298822862089697,84.16929182534466,82.71091658277915,38.101565367048075,-65.93523182598585,10.181225851282521,6.000000000000009,-9.178474840221211,-16.11936719323313,9.049658238299516,-2.512525222957042,1.6581593881449155,109
-81.81873093797408,82.90536151717731,-45.55433264385204,28.29882286208985,83.85265023010847,82.19121904764785,38.364660633424855,-67.3105268066689,8.615758921510345,6.000000000000009,-9.567904770416089,-16.18692811827015,9.28792493192292,-2.5839688188746237,1.7720750548375748,110
-81.1996126415561,82.9720179697134,-45.2157763364788,28.298822862089594,83.41456970719229,81.66772858494465,38.621825011332625,-68.69784349708878,7.676795185675367,6.000000000000009,-9.869615282325576,-16.277388480836926,9.495721522348115,-2.6522870244281336,1.8685077405167254,111
-80.4380816797775,82.89560965731378,-44.955743572961445,28.298822862089647,83.03212413365925,81.1312339370108,38.750451331854705,-70.1452537177892,6.452254612421363,6.000000000000009,-10.17401032544141,-16.31208452366166,9.625805254310755,-2.690452453715811,1.94969292766962,112
-79.61478798035415,82.76031293843162,-44.72232328887957,28.298822862089672,82.59415959110292,80.58565512388869,38.84387327711137,-71.55648436719775,5.976457541101452,6.000000000000009,-10.441199365056912,-16.346207459717085,9.733668359994114,-2.7229902858494,2.0208620058953493,113
-79.08153608184656,82.97266789743047,-42.093996844424346,28.29882286208962,82.79064428841203,81.00124401789323,36.79739794276065,-72.98566660099752,6.782556283976655,6.000000000000009,-10.626326404067235,-16.482705093497852,9.823576387595745,-2.7705411021171353,2.0761249661676446,114
-78.0125043369203,82.71646773591918,-41.930792415495105,28.29882286208985,82.02670295037215,80.40721945616396,36.87868405269826,-74.34251149970999,7.674434724988669,6.000000000000009,-10.786004141011919,-16.637130097192543,9.846163226216817,-2.8043074020876935,2.1119054547485043,115
-77.00301961090794,82.69285633446906,-40.28082286165061,28.298822862089672,81.19917221419934,79.81087857438409,36.88055418194566,-75.64426961005532,8.379042641547258,6.000000000000009,-10.980400944651466,-16.75560261685193,9.823617427984065,-2.8192902252603367,2.1425656803885667,116
-75.79575370778845,82.44162381986786,-39.91189474869933,28.298822862089594,80.34946536697431,79.15651884159786,36.872316164502045,-76.99285987469854,9.461410988996505,6.000000000000009,-11.09515906087942,-16.895380606853085,9.815482749888739,-2.8426034995475504,2.1629332031577904,117
-74.6329240523411,82.1119644012675,-39.53603702410989,28.29882286208985,80.28578592464494,79.60614922935723,34.673784873974476,-78.25356039476638,10.322739635370336,6.000000000000009,-11.148645555254854,-16.98349967835232,9.83460187126064,-2.863966388425554,2.178373057089833,118
-74.21672915810966,81.09853866667669,-38.98683918070956,30.62019029945705,79.2295776984414,79.02201209339262,34.693144193378686,-79.4024341158511,11.202315909380566,6.000000000000009,-11.230991825594048,-17.08101239223744,9.884828756941484,-2.895442855688508,2.206779744701563,119
-74.4283359033332,80.26464621034239,-35.95117192889033,34.19754135405223,78.12636512412308,78.40471346321058,34.63018741727537,-80.51393043291614,11.921538828755144,6.000000000000009,-11.330306486139815,-17.17033618712672,9.892591171366847,-2.913874696735181,2.2277143999134883,120
-74.25444085547868,78.96993948275555,-35.31153326720733,37.99721396750562,77.93923233872846,78.92535177435056,32.314519517331064,-81.55371669158676,12.434983530195996,6.000000000000009,-11.428681251612996,-17.222313121192627,9.861952232996043,-2.914780190902202,2.2383212604583353,121
-74.24171613683949,77.58490771582505,-34.58475900456046,42.21625068215875,76.78552892648258,78.30203595042062,32.14608360796152,-82.52704787026019,13.16932045391083,6.000000000000009,-11.566507874028918,-17.283599182975276,9.840125877672547,-2.919611416246606,2.258170535936036,122
-74.2712101276567,76.16391614099491,-33.80310509234618,46.59783725391124,75.45684608708214,77.69661446153425,31.9729992789008,-83.4433836820535,14.531169350633487,6.000000000000009,-11.678463195290348,-17.364441358971288,9.786854864185948,-2.9195897199534873,2.2656398610167554,123
-74.21534432441325,74.80272896683262,-32.99945678945161,50.87775565958327,74.96637040374462,78.34388040927197,29.64656760203539,-84.21263486068943,16.119749224381938,6.000000000000009,-11.726848750277927,-17.433885537551046,9.717662689600028,-2.9132195861380383,2.2575164159941985,124
-74.14910768850271,73.41900229134939,-32.19084962779168,55.28681801086962,73.96098750517625,77.77677898230111,29.32002451113636,-84.90968042598026,17.791151927945844,6.000000000000009,-11.805350037109225,-17.4848841548819,9.581820513549111,-2.8845271278206264,2.2371135200300514,125
-74.56534521095516,73.02643630741403,-29.071323983022268,59.538616928741696,73.05493419631178,77.1429322514588,28.899134979125076,-85.71497267635233,20.095744279154726,6.000000000000009,-11.891739705499651,-17.5683256749024,9.354698163605118,-2.835753103587971,2.194674466490682,126
-74.29789066918762,71.79129364130543,-28.340026942640296,63.72458457911246,72.155821828585,76.47342166064955,28.335072000829665,-86.54222669642688,22.236992380119368,6.000000000000009,-11.984473496828869,-17.592080574581,9.06097618356845,-2.756728898139122,2.134748081507251,127
-73.94160595523944,70.59353622431391,-27.614386339728483,67.87681073326117,72.11613487641392,77.09981831025571,25.611175105538948,-87.41972536812442,24.378046839816577,6.000000000000009,-12.064625405714995,-17.57928513619636,8.744067120303352,-2.6643808655541954,2.0658039219651645,128
-73.5076861967778,69.47325107610254,-26.83458774178276,71.75306167462449,71.30110701582981,76.46567324431305,25.029815335918965,-88.09110303213592,27.71224267498209,6.000000000000009,-12.07923565151168,-17.597815914228036,8.45376325872497,-2.5846464341438993,1.9936440703887897,129
-73.01552310310686,68.36619273075272,-26.09946632443844,75.48466082756235,70.29326432407068,75.8509422657231,24.37212538790703,-88.47166834097278,30.542916448871466,6.000000000000009,-12.105433935864365,-17.580852988182805,8.102601505357045,-2.4812002274995146,1.9074787266217472,130
-72.86461145491782,68.54854401091796,-23.548740244696322,79.19077197116256,69.54092226459679,75.15948410831392,23.235585032857575,-88.9413066870332,30.160401249047037,6.000000000000009,-12.2407739744899,-17.386509684961023,7.448596061859158,-2.2640799327640537,1.7579923258352743,131
-71.70492383365325,67.598811151399,-23.58293903871402,82.81122064123426,69.85435815331898,75.76721156170464,19.625664060451026,-89.76946756669695,27.74760153542021,6.000000000000009,-12.436241732383921,-17.03877967689724,6.5562334734938466,-1.9622733359201459,1.5538482393038957,132
-70.48489481758554,66.70280501487217,-23.42203837751712,86.21285617652208,69.48758891461907,74.99130289934492,18.236173673366114,-90.3904054492348,27.33515851326562,6.000000000000009,-12.539172321778338,-16.760831749437944,5.81871860104966,-1.720250901884056,1.3780310187735076,133
-69.92159425906495,67.26297428635642,-20.938671048588475,89.41886697673087,69.02852835994253,74.2340769114116,17.0574695211433,-90.93028118376786,29.203227452119133,6.000000000000009,-12.610393362616113,-16.586481327209857,5.193591430803443,-1.525482634601653,1.2281758891082701,134
-68.88125080883336,66.49304614334345,-20.498259862952175,92.66017675852846,68.81034541599927,73.46665322243204,15.938329829672378,-91.65915357714852,31.343754604616084,6.000000000000009,-12.681604432654472,-16.46496789832486,4.613885205324256,-1.350600884223003,1.0902763419729142,135
-67.77432360381627,65.760048856635,-20.06699355874887,95.72053995242312,69.183648549806,74.20586377636471,12.81595044455036,-92.20046425277351,34.39591222399529,5.678472164126155,-12.637827351066074,-16.316473274464744,4.065621891823196,-1.183428528266948,0.9517559220277493,136
-66.99977015210847,66.61458688804797,-17.67216441188466,98.44788798705574,69.14634570591012,73.45945923914395,11.617553323946654,-92.62826689432569,38.82615441355914,4.726488253950261,-12.58093640800857,-16.139820007282697,3.499817465553666,-1.0111326803515217,0.8106044817688687,137
-65.84828781539024,65.89813140605219,-16.95686935820137,101.07413389717885,68.76468232621284,74.33186140673891,8.87578281656825,-92.87792647788567,46.978279823331455,4.015200893076378,-12.569357150389916,-16.089665333786023,3.0773780858012643,-0.8889658810515841,0.7089568357571279,138
-65.33332203040736,66.78482142151238,-14.245686554028676,103.85104863746044,68.04630834483487,73.7009990469492,8.098826601199558,-93.08488152203027,55.9581310441778,3.449205451459484,-12.617019041649717,-16.01025137616786,2.710699592968188,-0.7811646284140442,0.6243952801917396,139
-64.35468709482292,66.08827219570894,-13.452487119302265,106.62003718173013,67.8773931706421,74.56882155039874,5.325840355725361,-93.50988307984248,65.51431465378826,3.131698118445414,-12.71664866437126,-15.942396728101697,2.309087942081988,-0.664613916259084,0.533842811403995,140
-63.817756863977124,67.07591873347529,-10.721047391292128,109.22902340437975,67.5782875989655,73.86823294888461,4.453476976289815,-93.93366843775812,75.46252180400968,2.874524360447199,-12.81582694087123,-15.894037077411966,1.9188271876806904,-0.5522994524997769,0.4453037439689906,141
-62.980716036321354,66.41449593572487,-9.866012102692482,111.49375363059661,67.26031668639679,74.80084100245251,1.7894624990147812,-94.32449643880358,87.85176763565433,2.611010034039074,-12.914079148719665,-15.835307473947505,1.546602794393407,-0.4448122751609988,0.3603228426887302,142
-62.595648066667344,67.54050702749288,-7.231651092574036,113.7008427598698,66.86965779764816,74.23237069377232,1.0688636062715753,-94.82896097509557,90.0,2.487964233998154,-13.02070160671353,-15.779242215650758,1.2237026080404114,-0.35161690994957673,0.28654159502765475,143
-62.00049580788217,66.92359421643886,-6.3764173754007825,115.87713207280679,66.62715260515871,75.28093017387667,-1.4853003868215282,-95.2600801722355,90.0,2.562812735348281,-13.073936816610003,-15.679079680376027,0.9536742062066728,-0.27280480547305774,0.22362131990482473,144
-61.613099100029565,66.3543998830226,-5.497732650079375,117.40564727486392,66.3870105340574,74.79208055280775,-2.0610369382137335,-95.74502643152903,90.0,3.0505069816213894,-13.118221145419298,-15.630249962895462,0.7815492778318023,-0.22316478871514936,0.18357566964113523,145
-61.772944500923074,67.56095552615128,-2.6509716412380775,118.796381834291,66.02209931334137,74.36018478994741,-2.3510740322022547,-96.24926279134593,90.0,3.7601413429690256,-13.177045423010531,-15.694121312904523,0.75882670161374,-0.21769745676598637,0.17902493244479076,146
-62.102136293355485,66.97781396532184,-1.334422178955001,119.97213986332808,65.31112299972077,75.64258159306839,-4.149065292001524,-96.40120839742454,90.0,4.39634006384807,-13.237880586003032,-15.822741338024931,0.810209912243933,-0.23441201677213483,0.19216617899210447,147
-62.17425612079771,66.53338180381007,-0.5430298106294571,121.19837682111967,65.25441789177287,75.32318717254321,-4.5803627305675345,-96.96023719371127,90.0,4.599544543913218,-13.458921861022828,-15.789103986409163,0.6653328794027077,-0.1924392815128172,0.16028248212118634,148
-62.7031167212183,67.98960522024454,1.9754178100645803,122.04896445568917,64.85822098137864,76.68214065722064,-6.430219295436058,-97.47335329968006,90.0,5.158013323670537,-13.597971612031502,-15.888801112800607,0.6797369649514443,-0.19800093265579702,0.1655273582849428,149
-63.345949253111634,67.64945628998527,2.786554552236088,122.644425367174,64.70717969761844,76.48503517564016,-6.517640916542257,-98.06943042443058,90.0,5.661876024751247,-13.769391013582233,-15.959118887143159,0.7189110658786259,-0.21046607756504962,0.17741704711457856,150
-64.34836595596023,67.34980641006696,3.698714566897464,123.270412062219,64.52204481550129,76.34233630070369,-6.406842867565233,-98.5605926278694,90.0,5.996845000250374,-13.961136954898528,-16.090270254798067,0.8761954912333516,-0.2586104027932146,0.21968708015035512,151
-65.45090942325835,67.16103563399344,4.29791108217642,123.73879678225693,64.40352439055013,76.19973830325125,-6.3735707718923065,-98.87001132212272,90.0,6.000000000000009,-14.133730740770957,-16.174653829608594,0.9901173472330056,-0.29378441292228774,0.25170184177969107,152
-66.53652047963986,67.06369627492191,4.505821207087889,123.95705780336431,64.18849668944623,77.68951985513951,-8.251705373732243,-99.31181030366913,90.0,6.000000000000009,-14.378686552019326,-16.188450593533933,0.9645151606001054,-0.28678021262977255,0.24952223957039882,153
-67.33252730906155,68.93730360412466,5.762842393325548,124.01533272194743,64.56953890338781,77.54235579103594,-8.619144542622447,-100.11318567275086,90.0,6.000000000000009,-14.705435850128977,-16.129394155823576,0.8697205269399582,-0.2581363823994049,0.23008238106951265,154
-68.82091689105502,68.92751038362864,5.882384086990565,124.03984151795427,64.7691952560784,77.47262190511002,-8.588068048746296,-100.65481872019886,90.0,6.000000000000009,-14.984093723084156,-16.18520985141156,1.0377432758509,-0.309045489107196,0.2803571817657941,155
-70.17887545194175,68.97949136157618,5.548267963897378,123.857845031154,65.10280328998495,77.40833194413378,-8.76029783388324,-101.06646286560932,90.0,6.000000000000009,-15.255386602902833,-16.113098596720175,1.1259269139506352,-0.33383311633461,0.3101195696078975,156
-71.43235731549655,69.08232280529135,4.815544516987962,123.55778824380107,65.77160122455925,77.34209169277852,-9.185235675207842,-101.63374900438478,90.0,5.779771324423277,-15.576139447628337,-15.931496999512706,1.109672823441315,-0.32555762654483955,0.312242465089754,157
-72.8374836221287,69.2435710562165,4.0345727797270925,123.01200999775574,66.5538020067011,77.31040405178929,-9.482672895003992,-102.0869448313178,90.0,5.51837775177273,-15.835488755958107,-15.784405231536441,1.196714991905834,-0.3477551553440736,0.3427850559859797,158
-74.31685873650181,69.44384460516464,3.3123478646983333,122.2275854048168,67.32863153136519,77.33225739647244,-9.583520730721435,-102.40188767290869,90.0,5.400459744999392,-16.048929724103814,-15.690931062669785,1.3957016544391123,-0.40263225308660916,0.40601324518306814,159
-75.89636222515529,69.68668517200688,2.590276115212987,121.33631221014949,68.19654003083875,77.39871908752217,-9.581709795918114,-102.70107928033187,90.0,5.285258972920104,-16.268324883520783,-15.626895452367755,1.6452817384580982,-0.47186185262098895,0.48634790845374576,160
-77.44125604505906,69.99817485654809,1.755757324781485,120.08974022360694,69.03268051765816,77.46659689686592,-9.541377477072864,-102.96480380335657,90.0,5.230571378505497,-16.46143930032325,-15.593304670260128,1.874400668785517,-0.5355530339753626,0.5618808302932339,161
-78.75835047068298,70.33995037058394,0.6824254326545472,118.67453740976964,70.08433672732117,77.55964597761448,-9.636215958605218,-103.1922792961857,90.0,5.052748539547405,-16.6665635659463,-15.44771151554233,2.095502496954745,-0.5919269875188421,0.6372517281008534,162
-79.97369674458206,72.5478709071351,1.1348327789126793,117.22084402669041,71.30611281317856,77.69705608160017,-9.723484269563578,-103.40452255578866,90.0,4.776570581224086,-16.925684473758935,-15.268927106972814,2.343000884588373,-0.6526449307011697,0.7251846445817411,163
-81.02332775345853,73.02051842587316,-0.04152475514440966,114.90914060217472,72.42126606705739,77.87909158444019,-9.634340850000081,-103.37201622327709,90.0,4.496091432990474,-17.186449245395547,-15.120506113259747,2.6657507810069325,-0.7330249616379125,0.8400242784982652,164
-82.06577384597641,73.53739565186645,-1.160750892443586,112.71696581721935,73.54577436384614,78.06242550046437,-9.508510091762417,-103.30931314305371,90.0,4.13603660407374,-17.442819127867903,-14.97720906279391,3.0088606580889885,-0.8166475642815425,0.9648719356685171,165
-82.80590500198966,74.04087558673494,-2.378880881570578,110.10906621298857,75.0924885341668,78.26809731947242,-9.536965656240897,-103.1907701806608,90.0,3.8995605304682295,-17.618843541899935,-14.754981900495537,3.2864255940977785,-0.8755340238986076,1.066490095865377,166
-83.46517538847438,74.57546101999188,-3.4906168190667515,107.1479168138408,76.55552386269147,78.52886315067927,-9.408151444004076,-102.99397135468197,90.0,3.6242630160967266,-17.812394316658988,-14.561744343309439,3.618216472658769,-0.9472659359712059,1.1896499213390992,167
-83.94078629907725,75.17418844279466,-4.666754977110981,103.8441362620785,77.58375045944733,78.80786078071928,-9.232550942449564,-102.61491493502405,90.0,3.1571449009204193,-18.023925553660828,-14.32800683205934,3.9421090265758525,-1.0108925595254223,1.3141559714183304,168
-84.18485328263102,75.81745639272572,-5.843086909747218,100.27920745375734,79.01021344840287,77.37615481292843,-7.450851607398136,-102.04584979092631,90.0,2.7275840464244165,-18.19968568746561,-14.045374260863339,4.271814769412142,-1.0681817253163788,1.440475245529796,169
-84.28269722236696,76.50733900653938,-6.756707795611651,96.271253149178,80.37341183298545,77.52417640185095,-7.220988406541015,-101.4494911972266,90.0,2.6819335556252146,-18.3041176411782,-13.90407567073642,4.669083248423739,-1.149220469983822,1.5868657845460223,170
-84.32114786875917,77.22469457792492,-7.545061202574846,91.98686944641241,81.61579888076291,77.67752384475604,-6.884866345320286,-100.89406885670503,90.0,2.616991838578839,-18.421189718138884,-13.82422193951054,5.079669920180859,-1.2361638870326228,1.7414207306746132,171
-84.33622202949074,77.90599836170956,-8.43281395730242,87.5181748665267,82.96117905317448,77.97841814455843,-6.614858989625181,-100.36424069721821,90.0,2.4425997776246513,-18.525284967538497,-13.620696958513813,5.415914887789597,-1.29117126495506,1.869995385752497,172
-84.11118427841095,78.64787416229402,-9.447764844891182,82.77107549928682,84.35256836316715,78.22493308538218,-6.540047634936251,-99.48123352493697,90.0,2.17391225320947,-18.504313989481044,-13.284462157407049,5.706050942539803,-1.3179999358764038,1.9691871053186956,173
-83.4024754025076,78.03542310170663,-12.361362807035762,77.74048905522433,85.67552001413918,78.44125020084955,-6.448967808192703,-98.75724072159765,90.0,1.8481433765964244,-18.506526150863706,-13.0103015025984,5.966895627187849,-1.3418427795285326,2.060695327401489,174
-82.63201061517606,78.88561377890142,-13.26633593648387,72.08692102251142,87.19551801513467,77.01415081411169,-4.668588733043815,-98.15029149513579,90.0,1.584469542909784,-18.48707158601159,-12.780862033986102,6.146682113408615,-1.3516710489649286,2.121050187169129,175
-81.24675799223851,78.6565475360003,-16.354847391169454,65.93397939264976,88.88871459439358,77.18554693287707,-4.78388016637098,-97.70753144535607,90.0,1.3472118960881094,-18.464438619604458,-12.53812315282002,6.258802431546528,-1.3449901596699556,2.1567569494466294,176
-80.06433512913205,79.67790979538287,-17.107110278409703,59.446908527275156,90.44958982127234,77.34282846554441,-4.74412048345817,-97.13067406466746,90.0,1.2070651478575993,-18.358276044218368,-12.294909617608424,6.503641341089424,-1.362230031406278,2.228859733077989,177
-78.44325563078677,79.82847681540349,-19.91236153767911,52.6757729388112,91.77265484223516,77.46568519694841,-4.532008365391764,-96.52322259260762,90.0,1.1683072088115838,-18.235487090505153,-12.097519807656873,6.862488803025501,-1.4037666539873026,2.3380976809312255,178
-76.7183120185934,80.2709319794894,-22.74356380126811,45.20173504701949,93.10505453755404,77.57778597026777,-4.3128508011365945,-96.11998155797939,90.0,1.1548558806762699,-18.173458885095492,-11.949846228402626,7.199748287624182,-1.4449625853882533,2.4469844811952863,179
-74.61607752966246,80.32494924396197,-27.95748592398828,37.75259279608603,94.52653515516367,77.72686714669517,-4.149568105997117,-95.91649433054707,72.0850310811321,1.189623480752939,-18.143305637590053,-11.76981714838432,7.49287945023688,-1.4713951817223705,2.5440546627534446,180
-72.91690677514498,81.35062232312195,-30.751030915398772,30.21767158527728,95.90091526050765,77.86091299496776,-3.944603013468012,-95.56793897910137,56.27035386813999,1.2630180227597672,-18.071043612409238,-11.531721057026843,7.852632095387197,-1.4979828124889458,2.657268186128425,181
-73.23609258460091,80.76599047482875,-35.408501416337906,28.29882286208962,97.18418791231169,77.88804613606356,-3.5843326319025643,-95.20252287921335,48.29833794984761,1.5030717467563413,-17.95590237914029,-11.352986706728773,8.36713239295801,-1.5548529429266855,2.817138876940612,182
-73.47114502732498,80.4215064084601,-37.321036241878836,28.29882286208962,98.32791524019098,79.43421265245487,-4.868543235907356,-95.01505110509316,42.95531396013927,1.9457179946288274,-17.852203856827504,-11.244206795400547,9.011227351569422,-1.6386185522562287,3.022750921328576,183
-73.78384259801868,80.7245486368031,-36.76768248944589,28.298822862089697,99.42544540645768,79.36392700139626,-4.266052044985283,-94.93721529663277,36.343042457662634,2.438946414884968,-17.798285146823233,-11.136121578216546,9.729559045928957,-1.7283894654134526,3.261463341536139,184
-74.32546307993304,81.39970041794291,-33.751813241372965,28.298822862089594,99.84315902134107,79.22032420555917,-3.578821982843864,-94.39052422281058,27.979469941111425,2.767204317634585,-17.750960116677675,-10.927043918590444,10.534587122422655,-1.804604774969146,3.5293420541555873,185
-74.67135234425491,82.02537582496123,-30.655404135467887,28.29882286208972,100.16994206699566,79.03473994872232,-2.8434150013982418,-93.99180637500945,18.421885624465983,3.2106148352505426,-17.728253191813405,-10.690332271159678,11.413083330508744,-1.874352097369621,3.826570687170305,186
-74.85125064909533,82.53356104716312,-27.52405926215853,28.29882286208962,100.89560332984405,80.40800224193836,-3.9809522863510938,-94.0062600665036,3.115971928187717,3.8706874117333196,-17.81451331600879,-10.286059372638123,12.373751734624742,-1.901844266613378,4.173827268857771,187
-74.67487873305467,82.54576994847254,-26.92191593819373,28.298822862089697,101.70843622896219,80.74891960394518,-4.017655540506382,-93.62358954757623,-12.791894451136264,4.536302141974039,-17.91644481250968,-9.649774587240119,13.30086550919973,-1.848342010316163,4.509364335658824,188
-74.24223001185565,82.20808193946628,-28.81343967905542,28.298822862089594,102.51682962174392,80.62915328802671,-3.601454637051799,-93.30832060256282,-19.49980812192604,5.065220136265899,-17.94652641599633,-9.195138593075384,14.067227034160473,-1.8033503013681456,4.774632852666231,189
-73.97463684078933,82.42787531093676,-28.400390198027573,28.29882286208962,103.48045558929863,80.47989415218366,-3.3311498360066456,-93.30433847420757,-20.176106696139136,5.362128857735385,-17.89457508730094,-8.954478724946831,14.665137468920028,-1.7895269667413245,4.963344242314847,190
-73.81184719898417,82.57543885534182,-28.024598032886427,28.566455581813454,104.3232554106554,81.85764221568037,-4.961703133195154,-93.35950613652446,-18.12665643713559,5.658967219325317,-17.76880412800269,-8.789353881684972,15.178654905554646,-1.7856835822196884,5.101938419330428,191
-74.01561063135811,82.54566507732507,-27.80171141562122,29.858346710140406,105.32395530860856,81.6769328304304,-4.992773343186805,-93.2937286988713,-16.272359759544084,5.824850926158171,-17.544190565263833,-8.600619935052523,15.509999331560127,-1.7615823461559876,5.145035435202189,192
-73.81233550166534,82.72083145754809,-27.653043916199035,30.392566324494247,106.20667497588062,81.42427407452134,-5.086021310893832,-93.23663989863132,-13.085257803147968,5.819370728399714,-17.27667437922,-8.494220384039332,15.780758418025625,-1.7565178896669296,5.154758631971477,193
-73.62266037767057,82.80884293028704,-27.45917553663992,31.117144305644693,107.01053111337049,82.72716716491661,-7.010361262665115,-93.44768654442647,-8.514962604441626,6.000000000000009,-17.07844692173983,-8.456970068274867,16.041246512201447,-1.7682698494496614,5.181836617590939,194
-73.45050238331743,82.80217303160592,-27.307869846394837,32.07447812877561,108.115608089845,82.46284343538356,-7.220523711340256,-93.64876737224968,-5.867134879649527,6.000000000000009,-16.846980735698875,-8.368132660318654,16.269566423399173,-1.7635162252765526,5.184383830061935,195
-73.38176431479329,82.81367341496751,-27.101836618150294,33.08825593314576,108.9986656499619,82.14123674421248,-7.3482127902981,-93.66682696501408,-3.6311402962938146,6.000000000000009,-16.593426125022205,-8.293835650788882,16.558063782983773,-1.7670213536297876,5.198400424488091,196
-73.4237539044245,82.81108243347931,-26.901605913984312,34.161772088652945,109.60513883338035,83.36878110972047,-9.305497062854668,-93.7465978842862,-0.9378432688033705,6.000000000000009,-16.372070893948013,-8.251148192674956,16.819080006909385,-1.7770012662064376,5.212373106857071,197
-73.04373973587269,82.21162122873562,-29.17217735321042,35.10483944409701,110.5547580172107,83.12543717776738,-9.552807494210128,-93.91995452785248,1.6747365068008264,6.000000000000009,-16.118819267450785,-8.204678450069222,16.973609246653346,-1.7805493507075505,5.180308272531583,198
-72.9602800281749,82.12614956574087,-29.068116602877502,36.0662115127404,111.47933832247554,82.91165547959872,-9.773201981509672,-94.07816109515673,4.210469711836472,6.000000000000009,-15.845307199103614,-8.151187036131903,17.12986607857421,-1.7828016713727517,5.14079866931805,199
-72.81606877936676,82.08851638823292,-28.95307235077886,36.79807892081794,112.00729335735534,84.16061133857443,-11.768242542202032,-94.10050806297478,5.558102346120643,6.000000000000009,-15.506314422884191,-8.01682935171911,17.36494280565838,-1.766765089543809,5.0996275136492395,200
-72.72891496245805,81.98728811592436,-28.844489538778994,37.71638163366986,112.80584290067935,83.77587929632688,-12.048212253759836,-94.12349605694747,5.467213314305379,6.000000000000009,-15.207337360524091,-7.814366705797535,17.6177931570879,-1.7281583529922973,5.070877382806928,201
-72.76093790720542,81.80476840992212,-28.675524421913412,38.939616497826144,113.09125886463127,84.88448866067087,-14.091208747412827,-94.07082289789723,5.549362068788459,6.000000000000009,-14.939722355039702,-7.669819757137177,17.881500662623797,-1.706283976867657,5.055362358145569,202
-72.66275877675405,81.6516051989936,-28.579108154723134,39.97123211581597,113.67842261888268,84.55900442516766,-14.324028813074962,-93.9385906506909,6.278099458476404,6.000000000000009,-14.629318401397763,-7.5736751157217235,18.055420745909792,-1.6967215155718398,4.9994293992092045,203
-72.4643038227502,81.54844410963614,-28.571826176389745,40.83984960374395,114.13830796881606,84.23109129909786,-14.60103997281058,-93.74462083438387,6.804220881858126,6.000000000000009,-14.285850732541618,-7.442613323346635,18.17581554969998,-1.6745838827406396,4.913953875799656,204
-72.28626031334088,81.42441767040715,-28.586369469793546,41.76875066073145,114.05056778516543,85.36846011562018,-16.68815081152534,-93.45353540923622,6.372673699694087,6.000000000000009,-13.9432344023342,-7.258080515394558,18.303728473680533,-1.63531597049588,4.826922769234245,205
-72.14310986194556,81.2740239540926,-28.569829161712036,42.78460907587828,114.29235433637955,85.01163420162696,-16.875839422173957,-93.0821168710247,5.962016436359958,6.000000000000009,-13.58029729724006,-7.06921564466138,18.46723636006254,-1.5969225711587625,4.740944895141062,206
-72.0804622841222,81.08222545760361,-28.45635999764875,43.84019735147901,114.47704373867506,84.64606218008294,-16.95727217836486,-92.79857812896067,6.739826242285635,6.000000000000009,-13.200661573306952,-6.950490917268844,18.680850000523506,-1.58436034534182,4.663916918859808,207
-72.04274358240622,80.86965439867868,-28.35095527697212,44.8829829653363,114.12479137363667,85.70589442192649,-18.888799831159346,-92.50338192540116,7.656313090805557,6.000000000000009,-12.8007975409256,-6.83612918611183,18.87736299579803,-1.5734741008405553,4.5732222580412385,208
-71.93190928654151,80.68984194694616,-28.308756953942787,45.794763175597566,114.3111641552943,85.33372747613488,-19.045535947001188,-92.35921928575513,8.161044834459696,6.000000000000009,-12.382484304930509,-6.713872264361352,19.024423118731704,-1.558856347372483,4.4611297525668325,209
-71.77886917625003,80.48159194815861,-28.359183893481845,46.76926941701301,114.6129546119187,85.01039309479413,-19.2890592855137,-92.23873972336679,7.367598294914025,6.000000000000009,-11.979131523305101,-6.51501674063787,19.118123082364548,-1.5156171913282306,4.335470810481016,210
-72.18274581332132,81.07843801541111,-26.022199177611004,47.83867533350325,114.17574129117612,86.03580878099355,-21.27495590330666,-92.02970888731207,6.539017799895998,6.000000000000009,-11.545242619417742,-6.360901304499676,19.26005336750053,-1.4909898375074002,4.211716364486156,211
-72.17464619291908,80.98639833984217,-26.030539780101595,48.8025868952499,114.1693110896997,85.54869980192052,-21.461584581270582,-91.74085446660605,5.84444907085902,6.000000000000009,-11.085495182988094,-6.2373973101488955,19.379705490245883,-1.477342889258162,4.073930612782783,212
-72.15106145549872,80.86233626524222,-26.05357441514828,49.756357615417365,114.19305132373839,85.08612976521727,-21.636537854514916,-91.43849342774483,5.834505889318223,6.000000000000009,-10.598069454120514,-6.096738652775928,19.488541531426836,-1.4591321122815328,3.921778345136408,213
-72.1592742418266,80.76396061903486,-26.044543994825275,50.561471785546324,113.68266090175803,86.10960548199563,-23.54554060068519,-91.3439372841581,6.670855260121068,6.000000000000009,-10.05130274317148,-5.9978992293281665,19.606279178129785,-1.459064990679884,3.7518415765652766,214
-72.24007983472366,80.66010957504211,-26.01215953160419,51.3182743434592,113.67579331660542,85.70386662912907,-23.587129214641823,-91.26768636587079,7.937094565783122,6.000000000000009,-9.483576141395362,-5.918730053065065,19.722873223406214,-1.4673683441318284,3.5738749162288825,215
-72.38146908081826,80.53208172027288,-25.950256779775174,52.22075731762843,113.59939397487092,85.23304147832268,-23.650803023298657,-91.18236222716097,9.593700851249851,6.000000000000009,-8.945452628130425,-5.878706191741381,19.83238806479224,-1.4878475903873785,3.4054907481180834,216
-72.43535122651947,80.46173802040306,-25.948516293159816,52.998491677482804,113.58274477508552,84.96448867121931,-23.62440756420903,-91.28429278858663,11.888952963889668,6.000000000000009,-8.381678546034683,-5.861426443990963,19.88285624990568,-1.515506568748313,3.2178304897013,217
-72.51759324800427,80.35679458997282,-25.93143840010747,53.6734391284648,113.80524459201548,84.65841239935767,-23.740122424502577,-91.70888133945017,15.952507851386947,6.000000000000009,-7.783289691626096,-5.87717555991364,19.90328170479413,-1.5554467078596828,3.014827883830365,218
-72.51228646823516,80.24982274418858,-25.947710087196985,54.329446395846574,113.85996628746409,84.332877490832,-23.842211838328474,-92.04659454795345,20.49100189263398,6.000000000000009,-7.204671319718854,-5.902897405855971,19.88536430881168,-1.595897195847756,2.813545043224349,219
-72.18856492483401,80.1945189262502,-26.19757326572496,54.74492912122196,113.19600188842318,85.6277313321479,-25.794226083980096,-92.24998590794465,24.85318458081371,6.000000000000009,-6.666050876941617,-5.89711056669145,19.668955434857562,-1.611692449198694,2.596293067883484,220
-71.34927438264667,79.23468701366981,-28.809291945952694,55.00799964730113,113.13638122061808,85.62020534361841,-25.954473564734496,-92.33738911244372,28.827516802795422,6.000000000000009,-6.14963974501455,-5.863348423503653,19.369193924337793,-1.6104446869314943,2.37795669501065,221
-71.19788811245647,79.1094066530121,-28.981696676343088,55.317710851253246,112.7727834508255,85.5513688155682,-25.92022674643959,-92.40485449836476,33.51892389450268,6.000000000000009,-5.672414694406134,-5.881089586074675,19.156744222188212,-1.6283558364401165,2.1921488875651427,222
-71.12725445010334,78.93398543860998,-29.23266303551538,55.79642566640511,112.43743763404397,85.55882256781409,-25.959969676546162,-92.52458544257246,36.1262222922967,6.000000000000009,-5.262878040622843,-5.8422848471446995,18.86760834241399,-1.6177782762977049,2.0198276289492476,223
-70.90707357669122,78.76512073943044,-29.687968467991336,56.18648945616477,112.34955442657584,85.74728630327287,-26.167694910211893,-92.60676548085304,38.26287210531327,6.000000000000009,-4.841536917222833,-5.71098887905846,18.426319219892786,-1.5666258472641117,1.8262005476467598,224
-70.63230221603838,78.59613036759569,-30.090853019291767,56.340867992808924,112.20841227521835,85.9923119144432,-26.26379850198781,-92.80561098298581,42.61676690481608,6.000000000000009,-4.351540465812911,-5.63498355233621,17.996649624297344,-1.536429305154383,1.6223788911759407,225
-70.32639239244722,78.39806768674356,-30.49369318749091,56.48775181916299,111.96360826623581,86.2418153928863,-26.302778578165437,-93.0590244973311,46.175850398484904,6.000000000000009,-3.8838435691225444,-5.525698937846545,17.582435819434174,-1.4948566112985378,1.4329763250109842,226
-69.62585785280946,77.28180353680924,-33.215646387275235,56.91091089854207,111.76775798973358,86.46633155634342,-26.43654885537822,-93.32916294463007,48.332096272485565,6.000000000000009,-3.4963219793705633,-5.382776157965816,17.145756105878238,-1.4375334369308141,1.2711581538566572,227
-69.42250661665189,77.00057455384197,-33.59720972880612,57.22257804402744,111.4864655100691,86.68441400357891,-26.559737956808103,-93.56967615966806,51.57638146339446,6.000000000000009,-3.1218796015438883,-5.302593304189497,16.685734999832587,-1.3963375894774999,1.1205448826897686,228
-69.05329468883554,76.62694817712953,-33.96754861847656,57.46788515348089,111.61091948012007,85.47129469524677,-24.852362678664527,-93.60869053338565,53.00183879620418,6.000000000000009,-2.839164267431499,-5.253232385106253,16.190949609750522,-1.3569811562549654,1.0007634945062076,229
-68.70192013823848,76.17800222352199,-34.39775143198486,57.92320364638497,110.8217553423446,85.61726517660279,-24.95551647951076,-93.44996473993501,51.8010999470425,6.000000000000009,-2.6263369424746905,-5.1415402595139685,15.645853230691923,-1.2935492648385125,0.899418962449723,230
-68.28940558185316,75.76313057122073,-34.96326597658735,58.41892599016507,110.03911762695482,85.67849548721894,-25.172179052995446,-93.13113333197265,50.44571087968423,6.000000000000009,-2.388025756355171,-4.926377172533284,15.043697538945315,-1.2003539328955397,0.7891413123153451,231
-67.05044132259293,74.55160969309917,-37.91442865529455,58.70426740603273,109.50971007840981,85.72011405564704,-25.544983466300867,-93.10961169241787,50.29091904105538,6.000000000000009,-2.136888696256578,-4.747200236069223,14.386262952362697,-1.115423173420762,0.6801576509137399,232
-66.34768454325874,74.17744490783232,-38.48922958003605,58.8686449929289,109.75613884491642,84.33693034970425,-24.200660581720435,-93.33424695131902,49.848703237758414,6.000000000000009,-1.9560036303927082,-4.628980287218697,13.71882992238947,-1.0445681930481507,0.5962448486796409,233
-65.78440398248199,73.70778563790296,-38.98439486194471,59.20916021764528,109.13662204822968,84.28339346027924,-24.562442613557153,-93.4205997355025,48.375007635131475,6.000000000000009,-1.8038690031333,-4.517457815282924,13.084225165540813,-0.9781039032858706,0.525899747616207,234
-65.23711078325219,73.22183880463322,-39.42929375661953,59.447496202764164,108.79537316584242,82.67510667187099,-22.96662839694813,-93.199198787111,47.99573760549026,6.000000000000009,-1.5540721395466073,-4.408328326594046,12.490117284904894,-0.9185645334871233,0.440632485883775,235
-64.54922847615408,72.75714359479328,-39.83294735420671,59.436470666204436,107.50205454243522,82.36265629280673,-22.998873984355864,-92.84188869079856,48.84110629429841,6.000000000000009,-1.2739338497581343,-4.339534217242291,11.920133967931807,-0.8705729390666259,0.3568680642682068,236
-63.0062257976548,71.49723601283493,-42.6190996955971,59.378159063091104,106.8938570104865,80.60494715776734,-21.301921267126072,-92.78221157716942,49.023358323288754,6.000000000000009,-1.0710330748840204,-4.295899658623111,11.350935991505775,-0.8261252660927058,0.29496722332575503,237
-62.13886721261838,71.03812171238184,-42.924613929884444,59.135944353237065,105.87970667275519,80.3148660229352,-21.351743808683906,-93.18953284326722,49.36735234307813,6.000000000000009,-0.8883453975116181,-4.313693566214134,10.82730149814186,-0.7960039923454246,0.2437977740380426,238
-61.188164295356565,70.48947645419574,-43.17904277581707,58.84200123858746,105.23415299111178,78.49889368977516,-19.552968261048235,-93.42880066518828,49.202653357767694,6.000000000000009,-0.7630618346366003,-4.3065155979467455,10.356296518049792,-0.7631626622702736,0.20745164904524402,239
-60.254006286215905,69.80937101412026,-43.296804934622166,58.59916915497903,104.29982854462624,76.56660071368661,-17.597679132296832,-93.5165889566042,48.79344132961038,6.000000000000009,-0.7011865453483783,-4.316821458239521,9.980971936015628,-0.7389593407166766,0.18697611086583146,240
-58.64884509837179,68.2451320408619,-45.68041851139246,58.45823864718368,103.10376308701157,74.48083407262223,-15.420828273576733,-93.60739933118664,48.80494715715099,6.000000000000009,-0.6292651288953942,-4.3694048460971535,9.745548777855902,-0.7319315033607233,0.16968316922432072,241
-57.81543433362658,67.46130101520056,-45.666845459086936,58.22705686877335,101.47462926711897,73.2929416040241,-14.280904591312991,-93.59561279331713,48.80025455229709,6.000000000000009,-0.5155867679580521,-4.382227921039537,9.487021799430762,-0.716608652904472,0.1450250345154438,242
-56.65896627313809,66.81611495663601,-45.81062100800496,57.51147196443494,99.8507333784391,71.9044094471744,-12.83016886380198,-93.38602321578205,49.52920093188045,6.000000000000009,-0.36201217288456555,-4.3383524613881645,9.170450440925983,-0.6880641348759876,0.11324456129199648,243
-55.55399565251385,66.02785540007557,-45.69709501915065,56.760104184836315,97.86705720456291,70.49514066040784,-11.133876439256284,-93.21318345869851,51.06334764687689,6.000000000000009,-0.27593813695300756,-4.390284396845782,9.028847454949283,-0.6868627290351587,0.09780279292203219,244
-53.60970515805851,64.41096123962271,-48.101784454027374,56.16817431386047,95.64279884122789,69.11335875361443,-9.407048413505905,-92.95558080490493,50.56902835477559,6.000000000000009,-0.27041427309175475,-4.413598256842649,8.89493355047002,-0.6805013653421026,0.09499233368396387,245
-52.37085508683754,63.57428717513472,-48.11178574057157,55.35221439459806,93.367240798428,67.76553602670303,-7.708498436649288,-92.49983311731413,48.74418466183748,6.000000000000009,-0.24685238070362206,-4.362176489450254,8.722826892232934,-0.6599307936021191,0.08798451745628548,246
-51.191805798067236,62.709131284813445,-48.042872912972086,54.432819069441685,90.96956795201383,66.45474988686618,-5.8361747761314255,-91.91223043719155,48.108404381106084,6.000000000000009,-0.2287900729003083,-4.323518674713637,8.640114142333653,-0.6481137317658684,0.08352560472724758,247
-49.86846380859204,61.8867181577968,-47.95674855850391,53.42996803842213,88.52053025180517,65.11206951812939,-3.9257882938772948,-91.32323997754801,47.60051157685214,6.000000000000009,-0.25223358583594385,-4.322445850058386,8.584058994718212,-0.6435338054994533,0.08615663173788815,248
-48.47198127706894,61.06988977188369,-47.8612387364677,52.368407197366686,85.90525601377519,65.27277559092576,-3.8004905778046734,-90.63658137821469,46.146019973207,6.000000000000009,-0.2891954913688594,-4.3268648007625545,8.564070298630995,-0.6423025065600273,0.09139777261301192,249
-46.29591215729766,59.639466853945024,-50.362633806555415,51.18872521239708,83.13166617142593,63.96619309880169,-1.7224315077075563,-89.82086165157577,45.17786884774968,6.000000000000009,-0.3007850635176936,-4.349639719179144,8.595515804610312,-0.6479237137407611,0.09389886831434126,250
-44.804774666684985,58.85580754316728,-50.28243411418093,49.96656274521184,80.23625112093171,62.74541604114962,0.41981035383257226,-88.98985106338175,43.82362582035055,6.000000000000009,-0.3646688865138567,-4.36969405264138,8.61860766550566,-0.6519429412876055,0.10408205988201001,251
-43.44875464302402,57.88063617363664,-50.0862090435544,49.15163877981899,77.4639883410376,63.02585089456741,0.6735221431825585,-88.34282450160092,41.08347743373158,6.000000000000009,-0.4875453179476423,-4.408551210268329,8.680517114903088,-0.6610528772904352,0.12417463508024157,252
-41.96616381915499,57.09308798931935,-50.059592966225495,47.95099936470782,74.74530677139839,61.8323515565398,2.781953722088217,-87.57000416641384,39.174932834006285,6.000000000000009,-0.48425187075395143,-4.399144419772208,8.699313950788705,-0.6610678111652614,0.12394471157971268,253
-40.23305512903158,56.60934627114203,-50.22990430606066,46.01049084036294,71.87795047695323,62.23447216147744,3.08542434348938,-86.33681672985341,39.035630880370626,6.000000000000009,-0.3504992963560368,-4.364846288007099,8.71280300120208,-0.6583918821231605,0.10355647176519646,254
-38.63226686444394,56.01345023475026,-50.27167585025774,44.23391266335755,68.83300347688792,61.232127164229695,5.504742073396832,-85.07773013030248,38.89033787336821,6.000000000000009,-0.2448798678649945,-4.388391978841917,8.78646402997566,-0.6687364228906709,0.0890023410263677,255
-36.96783090225997,55.556652021093235,-50.33236235527915,41.99186191558357,65.97778783384445,61.70672035712707,5.992780123872233,-83.89888746037815,40.0282345628355,6.000000000000009,-0.10466740986652992,-4.480059485521525,8.857621662731509,-0.6899590782386666,0.06965168276495595,256
-35.257264926487835,55.17984295887791,-50.43752417090316,39.53263741268354,62.79661615818233,60.81751969662205,8.608071257177672,-82.46588519132804,41.23878825404507,6.000000000000009,0.03514377373412605,-4.573495490703354,8.962990953948974,-0.7144465595831562,0.05048800440439934,257
-34.219544356005095,55.220791300424786,-47.90200723585334,37.15128461451646,59.9521481056089,62.085311350868224,8.090010661652261,-80.86956038695017,41.85903436805299,6.000000000000009,0.18440245737945274,-4.635450247333331,9.065571335891397,-0.7342632841203663,0.028973916678614334,258
-32.30437505556439,54.91655757551149,-48.22745376008548,34.392460617385616,56.935687819688575,62.00262435531962,9.562800143976224,-79.07598017572063,42.7056548441968,6.000000000000009,0.39968054462747904,-4.656347391099119,9.124763229192776,-0.7451236441354832,-0.004328395173857439,259
-30.295822311658196,54.917403657208474,-47.69778331605543,31.23041726743629,54.11849202808723,61.99547588207214,10.881160325392312,-77.2425177828454,43.27261165346305,6.000000000000009,0.5974962916344584,-4.6609970692230815,9.1993793134243,-0.7545381075962149,-0.03544076494142292,260
-28.795539094102775,54.98027682110865,-45.581572245494264,28.298822862089672,51.19767797837111,62.096309263078886,12.3620442706758,-75.20759114109998,44.55070252066795,6.000000000000009,0.8115460053757039,-4.72865195263266,9.350358831809315,-0.7809062785652148,-0.06888751275889558,261
-28.327521359185727,54.18814994249689,-43.03910332341896,28.298822862089825,48.18769307238954,62.38317614093748,13.86333021661042,-72.61471300681076,46.3704838533935,6.000000000000009,1.0596111783401119,-4.725584740020045,9.42638295726352,-0.7902101689848982,-0.1096055862190851,262
-27.74017358893181,53.460428539732796,-40.55351723886893,28.298822862089825,45.251888613527825,62.706312251727205,15.314215517116834,-70.01955684766129,48.11120322253546,6.000000000000009,1.282535845582517,-4.77086598813686,9.47036530802676,-0.8045589754761296,-0.14588615622348552,263
-27.486912529951272,53.29088934475042,-35.572877597296085,28.29882286208985,42.441123908963135,63.01544442930384,16.625932387931545,-67.50198826373708,48.604468777029446,6.000000000000009,1.5009344732940286,-4.822230188637318,9.541414412782956,-0.8223696536787716,-0.18198579229054787,264
-26.825919266592546,52.63231824166846,-33.246354960899716,28.29882286208985,39.69351248413583,63.46444105032991,17.830542117410346,-64.77860945345024,47.291797144931685,6.000000000000009,1.6779065388657692,-4.792192750211247,9.695867247222608,-0.8334206877414512,-0.21406197359357737,265
-26.3902179331977,52.54787128218445,-28.581901823275956,28.298822862089594,36.815646134571644,62.84645313698273,21.130377191686076,-61.924227362963435,46.517975397599756,6.000000000000009,1.9000769366633075,-4.687065281678229,9.728004418741296,-0.8216571863010284,-0.25363958152592303,266
-25.862667643143073,52.60401836704542,-24.03272573066943,28.29882286208962,34.55734256893397,63.31184505279194,22.04953387161525,-59.07347803355134,47.733234814604806,6.000000000000009,2.163571127099943,-4.600717046680828,9.687255479763742,-0.8074115436353089,-0.29851124866281004,267
-25.279474524478417,52.72123012483932,-19.45753841109702,28.298822862089697,31.933606584097628,62.73710369145242,25.31173885089754,-56.50683816781404,49.10175929023557,6.000000000000009,2.384559084279092,-4.591355887782817,9.657473019569615,-0.8065532776202207,-0.3350762846773531,268
-24.47923405010188,52.338236004833014,-17.346119390115884,28.29882286208972,29.269499460822644,62.21214387594211,28.61119063383638,-53.983931430777325,49.68810836892339,6.000000000000009,2.590357675214613,-4.620039822221724,9.658566372311343,-0.8145634434985829,-0.36929812837403164,269
-23.647647420935893,52.669430926164104,-13.084749472371428,28.298822862089697,26.898445378957305,61.595414697140406,31.662272859701275,-51.63145204472497,49.55230351124001,6.000000000000009,2.815105440498514,-4.545113977019897,9.524152318855212,-0.7935961746290642,-0.4034306004159028,270
-22.603214169493445,52.55624965345197,-11.351093648761685,28.29882286208985,24.57041928791175,61.01669871828679,34.72013137773627,-49.438500652921824,49.416596043141816,6.000000000000009,3.042688206490548,-4.467891895612859,9.33082348631475,-0.7674210396240206,-0.4346026973160825,271
-21.45658831686699,52.56452364567589,-9.732280294999768,28.298822862089594,23.027807977916723,60.98629390251205,35.111778620353206,-47.64569190702664,49.04635944783004,6.000000000000009,3.254536215678958,-4.377407241151726,9.063922818848313,-0.732970702789503,-0.45855040593609087,272
-20.192042939419316,52.04582765395836,-10.480426244197558,28.29882286208985,20.945753289948037,60.0335245374818,38.020297915959574,-46.28648296552104,48.88301658646279,6.000000000000009,3.4271273243295615,-4.3448000615664375,8.828325087742346,-0.7101716111172175,-0.475093983748242,273
-18.848208865496826,51.57661648734042,-11.265395759226896,28.29882286208972,19.00007097552417,58.889756503097345,40.87568001303729,-45.584316001608734,48.664045291138045,6.000000000000009,3.5584535586641217,-4.335510702620473,8.51187110005137,-0.6836545376848845,-0.47959992935259493,274
-17.594283567437458,51.16181343073564,-12.018573590016604,28.298822862089594,16.9801187587462,57.77889059643365,43.86076760050666,-44.99960718041253,49.11533793259675,6.000000000000009,3.7328538498340644,-4.35681854941975,8.128107854300167,-0.6562676194778894,-0.48474239176873424,275
-16.211112431154596,50.85063695167582,-12.952374408357096,28.298822862089697,15.64575578263324,57.18804606021636,44.149945202613665,-44.42329199845445,48.75454877382986,6.000000000000009,3.901321192940405,-4.295499756293183,7.667102977275294,-0.6106339388861515,-0.48290471796424383,276
-14.536204601489773,50.12563337218642,-16.49719256540103,28.298822862089825,14.358849791462738,56.57106035404058,44.37133059348777,-43.8590485221025,47.688512775291024,6.000000000000009,4.040370304801248,-4.163367438606838,7.144467582205133,-0.551603558867852,-0.47102521152500615,277
-12.849512375325013,50.051341729800946,-17.731381947694974,28.298822862089697,13.34678207813359,55.74095604835991,44.418246365912765,-43.792162852039326,46.50000420704612,6.000000000000009,4.145751478561462,-3.9834852625577364,6.534510166393794,-0.4823659953932973,-0.44675600796362014,278
-11.129113075746105,49.8093758848867,-18.91952375552587,28.29882286208985,12.314952581716287,54.99514802839059,44.5235500781607,-43.91004728792414,44.019591896440964,5.883027580241033,4.213749018789859,-3.825561292763464,6.063711866505149,-0.4295378938381776,-0.42453615894266966,279
-9.293392956583052,49.64479891963149,-20.3020186418026,28.298822862089697,11.387336922624238,54.419296699191705,44.62779332218594,-43.40443501771999,42.13927949957853,5.533754487927058,4.37499647516018,-3.5847042276999614,5.583164688683699,-0.3711158964464452,-0.40949234151546987,280
-7.979194798386787,50.13442440361613,-18.837115697650514,28.298822862089825,11.375589456907257,53.848211108369576,42.04472268154434,-44.342511313507956,42.7962085829509,5.6067861109066754,4.5258807943706225,-3.5654787627925963,4.923367189343794,-0.32415775344414816,-0.37610212290531786,281
-6.432205507693012,50.00764637737805,-19.957045115480064,28.298822862089697,10.545146627032818,53.076230100476074,42.26970205088588,-44.56724957903432,44.271986759596494,5.38194389552206,4.74954858160781,-3.4767152806401356,4.46509669039845,-0.2864403161393258,-0.3600800560535754,282
-4.87473418928442,49.71257959292298,-20.958470791697998,28.29882286208962,10.2521480962821,52.950732860559434,39.92390524282988,-45.09937122741256,45.784081477191094,5.373580922879751,4.876613836661467,-3.4820717273413897,4.066432767671568,-0.26048239102085974,-0.33790714856770193,283
-4.960447222625147,48.80185047100056,-20.839086000246837,31.291441024173576,9.334799577648651,52.18074276581705,40.22040201149863,-46.047491003817186,46.6317540920201,5.434922884334873,4.930933617151164,-3.516429280156932,3.7023646087231117,-0.2385562353000566,-0.3118744547719535,284
-5.614542633887807,48.36103956350341,-18.025256443437836,34.98561511110433,9.24826074321385,51.96746567299866,37.669949008051766,-47.234179857173096,45.71306978386099,5.4088359531566095,4.933019074903744,-3.476795259405695,3.353474496069502,-0.21288595068534608,-0.2833367636786774,285
-5.876142760097255,47.47625132130346,-17.835729913771114,38.63956929183,9.399148813368251,51.54516780453978,34.94074410944691,-48.73486105887554,43.94106186774151,5.336556888872562,4.940776596524544,-3.3849331436483863,2.9536394962045516,-0.18187719754359585,-0.25073543974419266,286
-6.286995120415995,47.29473762993994,-15.204561610202154,41.90570116854058,8.951468417568542,50.40546301054129,34.88242949487358,-50.53890218527509,42.483923067481214,5.379807740913161,4.958205144722132,-3.342276600775827,2.6034297378926174,-0.15770766896136612,-0.2223386041366873,287
-6.363561796352212,46.29934761347125,-15.035578323487602,44.87149329830133,8.986404559113199,50.309554077948164,32.336103302753244,-52.22192957004179,41.20717674317539,5.571980990675205,4.954157793236162,-3.3539294224427834,2.386910024726064,-0.1446912079218065,-0.20394104411653083,288
-6.705259796531927,44.99981020069551,-14.558905680829465,48.5120323410162,8.306252612783636,49.30420871346135,32.37030632384139,-54.246325085283935,39.44966534962419,5.826448253251407,4.796715249367567,-3.375414667296913,2.200021236533803,-0.13373886545319158,-0.18208635162809855,289
-6.986179842606442,44.902544375453274,-11.987102127093651,51.8050772167841,8.636468096766366,48.854491162529946,29.4651318503155,-56.453138138853134,37.23279004519941,5.861240858950377,4.661612476087819,-3.2798961206700366,1.8517947591491233,-0.10890377410846776,-0.14926083712007465,290
-7.073849319220412,43.85058496545497,-11.776338723447038,55.10690116476425,8.265853773404167,47.65764415254231,29.250562265297518,-58.52868119360619,35.1621572789689,5.89548238967717,4.532447828643299,-3.197515660155116,1.5755738938755348,-0.09000742945080484,-0.12367609343222745,291
-7.573511608841372,43.69136204898443,-9.043652919580223,58.47114239501773,8.509647204898084,47.48625377178762,26.492681177866054,-60.55494979781395,33.26380173504436,6.000000000000009,4.398578792979539,-3.15572446324155,1.3546107174207247,-0.07613366546317833,-0.10330788594756886,292
-7.782381414574947,42.450063208996944,-8.728922372224924,61.73128756440831,8.780362555827548,47.331169583763455,23.726408701191442,-62.73099896448712,31.459999228154416,6.000000000000009,4.280592363516244,-3.0992459844026934,1.0988262101552237,-0.06044958036559934,-0.08167291977587146,293
-8.178078463049713,42.398610970601766,-6.208162634308127,64.91529588961242,8.525681286792397,45.996711617541315,23.468285370482004,-64.92362632159436,29.46876241990478,6.000000000000009,4.223278358652172,-3.0110745348832073,0.7962421623764526,-0.04240599925381105,-0.05850550021164967,294
-8.449095586213547,42.480201945580674,-3.838357558112598,67.61832905679783,8.888625731349558,45.83159345763313,20.762886382431414,-67.0503241745892,29.61730620635955,6.000000000000009,4.229992924385253,-2.9707539990794944,0.5226072543446539,-0.027371664936236873,-0.0385290505609295,295
-8.599225523894239,41.24289348920075,-3.587387438047979,70.21656079217301,8.430560806031266,44.9492412290674,20.771980614952817,-69.00460752610682,29.44594709641165,6.000000000000009,4.1734294620028605,-2.9784144246581006,0.33493063193439226,-0.017544305338549362,-0.02438867665297919,296
-8.652667951812928,41.23697832915839,-1.3520905599444752,72.90243892395746,8.73863192204883,45.27553136127559,18.083045991330856,-71.07212733726706,27.28880074754156,6.000000000000009,4.051175425281551,-2.8979400216863906,0.20181477860200991,-0.010267028755966528,-0.014275437030688308,297
-8.668982326000483,41.091828913259754,0.8501588221994014,75.47390117316199,8.814021961116408,45.6859169700852,15.62694908250536,-73.03817155168474,25.938951024788825,6.000000000000009,3.9372336522296663,-2.8694053189605144,0.1615857828914462,-0.008133951520815195,-0.011109904654870304,298
-8.47306853488602,39.54708292722776,0.8841309130604486,77.81615357819999,8.48447822085538,44.781770202821875,15.522608799132005,-75.28182899479842,24.944679517743367,6.000000000000009,3.8035698791828767,-2.8771317330240946,0.08647857587867236,-0.004360154455560344,-0.005746037764377442,299
-8.376998209475937,39.33336621002955,2.960999810111679,80.1760836309962,8.158330670353566,44.05869923841772,15.490497681844548,-77.35779508665395,25.272161226685615,6.000000000000009,3.7135693525769935,-2.90683711690664,0.10481564745368471,-0.005339705969699524,-0.006798189813630491,300
-8.199821905457307,39.59889268261128,5.339584067940599,82.4457521301651,8.31396941621755,44.68983379779018,13.125024244813188,-79.33833410596456,26.290474642267,6.000000000000009,3.6468267646296155,-2.9106618931284967,0.10835099206483363,-0.00552676029642477,-0.006900572434049535,301
-8.088589588729652,38.501207459891575,5.865775190064124,84.63752054533973,8.091674818594125,43.92510495491332,12.987995078734444,-81.45900250925408,26.009850177689195,6.000000000000009,3.5611269570215316,-2.8797542161313805,0.0650976436063565,-0.003283284971240902,-0.004049399807331332,302
-7.619884119161144,38.890985072538705,7.965110429940324,86.73044489876116,8.37828938385648,44.60989251691894,10.572407327958143,-83.49748025483716,25.515554392293474,6.000000000000009,3.5048813182024845,-2.843029377578372,0.055268545843906794,-0.002751470174693918,-0.0033837735012477096,303
-7.534475672564902,37.853683178164054,8.533218330223766,88.79078692958954,8.125208343845173,44.023564988632984,10.528546483748176,-85.35791683722084,25.901175845682754,6.000000000000009,3.426726450042046,-2.8417146855905813,0.07046449504773669,-0.003506580613484062,-0.004217200502862045,304
-6.900011060769277,38.356368528819424,10.589115243241636,90.81016764126362,8.160438177475946,44.0864223404906,9.233960337911642,-87.32616445173053,24.746702881732123,5.985041521885354,3.3059148561808924,-2.793166286144611,0.03891966383618557,-0.0019027664739738712,-0.0022474808902289323,305
-6.081541859400572,38.94878945654574,12.29114611869199,92.69333255856685,8.326107389479548,43.991042498451705,8.276226551000521,-89.18751309026466,22.986392431378814,5.793549144363961,3.256252716194316,-2.6993209174722366,0.04926203342758376,-0.0023275164975164672,-0.0028016971632677918,306
-5.85552398020362,38.13161322188192,12.61978127554013,94.49977496245624,8.405474086707903,43.98099914121558,7.477396129847851,-91.03292472155024,22.44985809288889,5.522330302997744,3.1601518782875995,-2.6556454394017903,0.08895500280785447,-0.004136100670731651,-0.0049080992800141915,307
-5.2546550844770215,38.83957545457589,14.81079931264023,96.43537587013998,8.224305776716742,44.053518218120274,6.81692210015872,-93.13812361804368,22.420043338345902,5.677354148681922,2.9108970041854136,-2.700461977264713,0.14372165973057227,-0.006796839967801904,-0.0072995310115486775,308
-5.170263295297435,38.02769692846882,15.561698936969167,98.3205940746547,8.310466970235536,44.09011861383139,5.98547558611944,-95.45128589792003,21.553228076034795,5.8595216342748975,2.671297086411015,-2.7016566074085864,0.1791996511530029,-0.008478322785041008,-0.008347648677946582,309
-4.506876855481567,38.81929100182304,17.50940053421515,100.13506245927142,8.525574787032387,44.241866624171486,5.321649525704043,-97.52179321299806,20.894241196242106,5.72147780682081,2.5487061771027166,-2.6837301433764558,0.27449239892270916,-0.0129086386710251,-0.012187554918698948,310
-4.683584767296616,38.065164900235786,18.315995303466615,101.94964751141917,8.83986244917989,44.432105046099736,4.746910050021988,-99.4864253814822,21.029126592206552,5.549956939470908,2.461361637445942,-2.6693906085902754,0.3925995268300271,-0.01837902623110444,-0.01681322618836996,311
-4.2923085203116775,39.01840087853592,20.44067272948903,103.94459040458078,9.239652784889685,44.62644721335374,4.273507677071762,-101.44017525113892,20.81365770107866,5.471191523325814,2.3858064228327462,-2.6888433551135007,0.5004814370376404,-0.023615801856325336,-0.020749356389557473,312
-4.779265412276172,38.63774895075043,21.383319307169156,105.94596243167891,9.848708876235262,44.69744428347273,3.5764434249892916,-103.50609501038046,18.784401383800333,5.445454985983611,2.2614493478772304,-2.655231484500317,0.5350349485387049,-0.024930481332526604,-0.021012592722654426,313
-4.192068834058943,39.88634575201566,23.201599254148935,107.76151497016235,10.452631929617493,44.780138285351505,2.8490551099578103,-105.63930660274102,17.678138617731335,5.40011628948879,2.0965277828094706,-2.624656201664625,0.5900962515359857,-0.027179694748419733,-0.021462450781392625,314
-4.899525990683402,39.44258029630807,24.490294796549154,109.47416715524504,10.945113359863447,45.05121055700647,2.536176624405873,-107.72560866216506,19.527079834299652,5.28080586616041,1.9582143168696218,-2.695823851788886,0.7435319827330754,-0.035194550885176284,-0.025194061687038347,315
-5.918920628916972,39.14659132360178,25.99710912014215,111.26963383232439,11.508064846269344,45.380166851599846,2.4720868680471138,-109.69263685800561,21.93424139844377,5.1340191651448315,1.8414782934781817,-2.8043650626074244,0.9073195738487071,-0.04469724600747753,-0.02881822507562231,316
-5.669869325267841,40.59001241509627,28.133438906170294,113.12323320481217,12.241569216171053,45.60702307651132,2.2221831505597693,-111.69803242574126,22.493690758539376,5.103465136412056,1.6605031697139934,-2.8757488456068776,1.0352818686624115,-0.052296638706184194,-0.029540880990325508,317
-6.569616988599809,40.49855596514951,29.532465142677033,114.94977129933388,13.060111258710702,47.55536773554232,0.16315591024184734,-113.7059993952872,21.448086632686245,5.135521196335982,1.4258467629756033,-2.904006885656072,1.139416992324701,-0.05809706062623547,-0.027784657712591084,318
-7.523444584152499,40.66071681808558,30.74620068579945,116.69424061045255,14.100017662499495,47.707198346851015,-0.21886523834545213,-115.6799744886009,19.929901633525017,5.09735007096659,1.226578590762975,-2.883286624583705,1.1999137719557993,-0.06071320731409217,-0.025056938911589947,319
-8.717772705124837,41.059601281459535,32.01012191901147,118.32171975035013,15.19063980037168,47.95830308843957,-0.24697993717211383,-117.55617068799386,20.249810960141954,5.028729032566875,1.0642543344241921,-2.9089002557993657,1.2729741964171148,-0.06495352495834984,-0.02292751601728298,320
-10.022859079560831,41.489002049776836,33.42576727601124,119.92062609042816,16.21651004057711,48.28409467919881,-0.00888153571253162,-119.26001996933454,21.0402052955157,4.916118342727049,0.8846221785366483,-2.9842543810538795,1.3949921207095397,-0.07298839541717232,-0.020652480840461954,321
-11.225860602709393,42.09658945396523,34.61664726502947,121.56004908092525,17.622228274058426,48.49435493979078,-0.02787822510190454,-121.04716428443783,18.93122174052034,4.866438963161282,0.6778315690992261,-2.9915820480089597,1.4734777790113938,-0.07722623565672941,-0.01644065586749203,322
-12.65000942077096,43.057756737385574,35.7665924857283,123.16402933968243,19.311041918472938,48.64211267614423,-0.007675399058844313,-122.7996355390556,17.637647067236294,4.772424449952053,0.5262938581161376,-3.0113821975131683,1.511355439872236,-0.07968553637492078,-0.012832885718172147,323
-15.780370522724262,42.85937768890589,36.41518660317313,124.63653284459015,21.108943613993947,48.74147966219163,0.1647083055758932,-124.42228899033726,17.96810514606447,4.547375511889105,0.4111622573029443,-3.058004491281207,1.4765957959920577,-0.07901432798863513,-0.009578853039202686,324
-17.198207402490247,44.30794295505194,37.22664608520082,126.08857513849574,23.01946737110844,48.86201860572567,0.35035161006628207,-126.09594488811894,17.889034916213284,4.310502994220286,0.2638261718994876,-3.0771415958673063,1.44272575098743,-0.07763443267268805,-0.005666160140406156,325
-18.722840008325715,45.91232560418511,38.087040835629956,127.41652997781324,25.066565299882516,49.09417949662525,0.8508285770158382,-127.65072984550991,18.10438978587025,4.136449249370018,0.11898467593043317,-3.1256374199883363,1.4649632481952377,-0.08002743201087484,-0.0020192807710659724,326
-21.861205437727982,46.302850110144405,38.43175000299219,128.73872228989103,27.217820073879164,49.30998077980052,1.514547677849073,-129.0310032764907,18.584081934598938,4.113558174891014,-0.03948699969327197,-3.19521208822887,1.4373139380339168,-0.08021692963362516,0.001996824803021295,327
-25.033192621046094,47.01223319985687,38.66853369048126,129.92029404533605,29.481363951488117,51.367797103028934,0.6956795270897865,-130.29008029762323,20.836222862041588,4.068645576238559,-0.18533590694373217,-3.3063395958987765,1.3682897412682613,-0.07898681821179392,0.005369443918829051,328
-28.259615313135686,48.01050862409382,38.89321963514797,130.89164359539856,31.64835828064539,50.321727043827444,2.732260607476874,-131.2871529385471,24.102336891739114,4.023590518148617,-0.33429100407693685,-3.4446786155064264,1.3385980169300635,-0.08047736236331561,0.008750566530341732,329
-31.253063736087896,49.22386383249342,38.74467991046727,131.85781652406737,34.0173981068324,52.115122266660215,2.724407607026804,-132.12453036894536,26.578563371055434,4.018249176862149,-0.5109326975683258,-3.554185755150591,1.264469253000896,-0.07841042701665903,0.012141794754095039,330
-32.59225115376654,51.845915752425896,38.179616853312645,132.69900976847612,36.58504844950207,51.89390876336845,4.137535270889034,-132.76986078570425,27.230270403856206,3.9044826379947906,-0.6497470055677288,-3.569953132941638,1.0983660334263674,-0.06840539441938939,0.013112233488961072,331
-36.16107752436815,52.372722221268056,36.54042945836926,133.32664589722484,39.280791484809406,51.61540155373869,5.641164990168225,-133.16735997648902,28.842440444732702,3.7422710421692384,-0.743261588346815,-3.572757638310244,0.9066750183542197,-0.0565193238980177,0.012209746958642048,332
-38.164446947522904,54.62523797805174,34.97084868984947,133.66988264336368,42.30839673704478,53.218851837838464,5.651769613060645,-133.3352406362265,31.719129738678866,3.47745271876092,-0.7818747426223771,-3.5502996114105905,0.7118056112072633,-0.044105553206923886,0.009988153178773166,333
-41.55617223722189,55.25584542036231,32.50386914086396,133.74972583943782,44.86233558392511,52.89132080714992,7.573109440333308,-133.25597626299955,35.756385120846694,3.2556278840996873,-0.8348636918317015,-3.5554096982227894,0.5898517316700249,-0.036608304484010624,0.008783884093030717,334
-43.620816882599016,57.43920550006862,30.492884597001453,133.67385904262687,47.57873128952919,54.25592760160236,7.882291963255685,-133.15021308298836,38.42981438835657,3.2495802800740674,-0.9711891954358843,-3.585671907927666,0.4141887276951051,-0.025932583740960264,0.007115093869660722,335
-45.69225673821671,59.63396302826747,28.092816903659322,133.44146751393455,50.31059055513449,55.51808466192021,8.24583811187558,-132.80803877964715,40.41230000743552,3.2996410702734686,-1.0974684484625572,-3.6054314730636468,0.10905627663220477,-0.006870878996782775,0.0020957043906658338,336
-48.442589409878586,59.90809028221165,24.09417423030584,132.94355936963214,52.79863155856004,54.849729462953924,10.294510632713333,-132.02576855471602,42.228124852568094,3.2134596069820343,-1.161066554860558,-3.5589534366822853,-0.2991788065539999,0.018627193476489515,-0.006014920342339229,337
-50.10986486312838,61.557296541176605,20.884511626260554,132.20848322359922,55.71378128765202,55.96054026032294,10.656334011911209,-131.10257477183856,43.779605939745835,3.2374314511889035,-1.253953744907998,-3.523838961076244,-0.7317078620950073,0.04517097507484441,-0.01572835521663885,338
-52.10518410360072,62.941334790995846,17.895987155612367,131.3634347653347,58.10880308762675,56.931911024547844,11.298747104046647,-129.98381548210406,45.93655952508543,3.442521543581307,-1.400040725223992,-3.5740209102653093,-1.1169846605139733,0.07004978111925461,-0.026617739304776337,339
-54.20420913277998,64.05573180256522,14.916350956795103,130.8054866287313,60.37641135071747,58.81168190461902,11.019728699734213,-128.71306375778505,49.06794424635016,3.5925939588466584,-1.602228476808614,-3.6400382020792645,-1.450374934868518,0.09280913668246198,-0.03939741322695646,340
-55.82911411082548,66.91575071785394,12.917980884742033,130.12701269876143,62.18084986910771,59.40020173812107,11.86390422095338,-127.03000759513009,54.04188425132129,3.658725558963858,-1.7151582843430988,-3.731808066959043,-1.7801215768311844,0.11697246570106982,-0.051492750157325434,341
-57.71780621637542,67.68669378355722,9.374255321501645,129.2746685024001,63.96876724865966,59.97039963166575,12.564325130600965,-125.27273373226792,58.10150495789446,3.7137680415888688,-1.8449695815687408,-3.816409433797701,-2.161228169619962,0.1455293915209087,-0.06688325925015332,342
-59.51319058081445,68.16393483577137,5.9289427538008,128.4083804973208,65.20189857312968,60.544347677275674,13.424717747606813,-123.33275329033323,62.00567817108628,3.893697432385468,-2.0069173573047343,-3.9834047540371826,-2.436998707820652,0.17157954712761544,-0.08176409816214425,343
-61.00192523599759,70.23152074453483,4.072960988658172,127.82159993702162,66.50384646309907,62.83312258523355,12.499965494344048,-121.39072007534139,62.52705177015752,4.261055596191375,-2.259560169747987,-4.199573427833111,-2.6029848618397455,0.1935594855278445,-0.09833322239132222,344
-62.8197147061481,70.1601127054662,1.0852864726193774,127.50862671409143,67.19351641783024,63.24381126988591,13.358977150722705,-119.66403838826265,63.4783720255172,4.778041848603333,-2.5595670598387894,-4.479591374755152,-2.6897488196171673,0.21369541575439016,-0.11525356866218626,345
-64.55243071254404,71.75126970427976,-0.4645762771649843,127.1721472495885,67.55026923274397,63.67787282153263,14.203305891295791,-117.58898443855854,65.16553723875056,5.084790032430842,-2.787798445051327,-4.714143188178518,-2.7347062168984766,0.22889331216010428,-0.1277398024145156,346
-65.89669219808454,71.74203541479872,-3.22811425354667,127.03432774601353,67.28010725714574,64.18790383258012,15.024339989391773,-115.30046113944778,64.12492064948621,5.228328568438081,-3.048522926806608,-4.8176988220347505,-2.701779081243627,0.23136895306885918,-0.13847410232858426,347
-67.00968505490596,72.9071335801475,-5.009893075644687,127.24901866689628,66.93309323077072,64.67498144323216,15.658470792536441,-113.09218260159604,62.061197676672556,5.244081987611829,-3.358376874435558,-4.801066243985946,-2.6107853117219815,0.22309823306516643,-0.148165519766589,348
-68.22465167730232,73.98730493270128,-6.482172270427493,127.40697229984112,66.33610077523164,65.08078499041197,16.332747365000326,-111.10790098013136,61.07342872939282,5.5020221846630495,-3.693811214629382,-4.878558563303841,-2.5302560386879516,0.21997736664708917,-0.15853793293615773,349
-68.74224741167073,73.07493700273231,-9.51110437213717,127.69695856644155,65.46566570518091,65.55414607864978,16.913117604830767,-108.8147286512723,58.947300479433714,5.498813979971723,-3.993485363787132,-4.787589696297428,-2.346884253232635,0.20036351496887345,-0.1597801893712797,350
-69.31424040619022,73.96799518082727,-10.80588340348997,128.17399287556592,64.35724007368292,66.01755649518567,17.480917659262214,-106.48937059535396,56.53558233903871,5.450600865853086,-4.2970063790452055,-4.686039488392899,-2.143054742815145,0.17915112847396777,-0.1577108731121502,351
-69.84443851224071,74.89786933923574,-12.22456157176251,128.7333860535907,63.37439012253062,66.35154380444402,17.785801281066558,-104.52095180885276,52.76638036639971,5.429210494294098,-4.610603766581753,-4.562809544247086,-2.078609728281013,0.16944515591601522,-0.16459210059084808,352
