JMW9912/AVATAR/Dynamixel/dynamixel_control/data/csv/poppy/.data/waist_test/3DoF (3O)/0410_1246_13_29_three_DOF_waist__poppy_bvh_motor_degree.csv
theta1,theta2,theta3,theta4,theta5,theta6,theta7,theta8,theta9,theta10,theta11,theta12,theta13,theta14,theta15,frame
-97.099104089024,22.03657354258674,97.1767163078459,28.29882286208972,0.0,7.6316254405376585,-64.57855476510495,-28.62456634491201,28.880907609534333,6.000000000000009,1.2498088126880578,-1.3807756505068154,0.16477843651807952,-0.003977889875868406,-0.0035892133048849675,0
-98.93686986862481,70.86636468059051,43.47960936425793,28.298822862089697,92.83356936163392,61.8809553750587,-20.10419508059909,-32.33392444102708,90.0,6.000000000000009,1.2498088126880578,-1.3807756505068154,0.16477843651807952,-0.003977889875868406,-0.0035892133048849675,1
-89.86037244517681,69.38882091233059,43.70015856942627,28.29882286208962,99.86308090980897,64.33081667673245,-36.41396163158558,-43.78449078733483,4.252995829208569,6.000000000000009,-12.947784092704238,-0.3676462414608488,-5.517375923424959,0.09731829210435508,-1.2649789309290809,2
-89.66969630379018,67.8381351247334,43.9343492356285,28.298822862089594,100.05615220399363,62.96764456637175,-36.761939849070174,-44.741163403460725,4.410629870621553,6.000000000000009,-12.775947742487817,-0.4128864117127396,-5.483742853967332,0.09993856132052681,-1.2398158885928887,3
-89.43474007967065,66.25844340447402,44.13027869620391,28.298822862089647,100.34289516639282,61.610171338209774,-37.13352700846812,-45.913404981134676,4.706211725002521,6.000000000000009,-12.58370630141168,-0.46681000796194955,-5.439033800567455,0.10294338653103163,-1.2103646542276965,4
-88.84236636598875,64.99876190106772,46.5595087517887,28.298822862089697,100.54059389282544,60.1350503012002,-37.497537048488255,-46.89811476481776,4.386230105716636,6.000000000000009,-12.441454117849538,-0.4699613746371235,-5.379837020931473,0.10082500277044018,-1.1832384949167833,5
-88.52987865864998,63.32401323932182,46.653440921949844,28.29882286208962,100.72014785945655,58.59605941816847,-37.899673403811356,-47.769375458628225,3.8510386324013126,6.000000000000009,-12.295781893168767,-0.4479951013751254,-5.376915217002972,0.09793501947715352,-1.1683817364787985,6
-87.72750594994031,62.013051318874055,48.85272856644973,28.298822862089697,101.10809161679212,57.12310589320682,-38.410440631775266,-48.923248622218146,3.733540199043768,6.000000000000009,-12.152919639284136,-0.4747156634207958,-5.371836868664448,0.09967029896505313,-1.1531620686123392,7
-87.38596903494863,60.35027550128229,48.86585363180752,28.29882286208985,101.59784652985647,55.67393912352875,-38.97472226212487,-50.149811024523174,3.792736078549113,6.000000000000009,-11.995418034457103,-0.5107718539517717,-5.371593849529932,0.10236505440591372,-1.1375318125744593,8
-87.04028429643004,58.64543820187794,48.872111981099735,28.29882286208972,101.24587172775458,54.881976224713796,-41.255791160925355,-51.381640464543885,3.740844286266486,6.000000000000009,-11.838775280976453,-0.5259927207688765,-5.350602109122604,0.10246691516232007,-1.117780568731783,9
-86.29897480512196,57.25922803593436,51.00955406265856,28.298822862089697,101.61667103541126,53.3806432204069,-41.696542752636425,-52.535026233353115,3.584893950947673,6.000000000000009,-11.678330294794442,-0.5229009433986844,-5.3247666079966045,0.10067647766528963,-1.0968830690887197,10
-86.07150256151738,55.514443958506405,51.02123754965075,28.29882286208972,101.93057532891656,51.88889581358977,-42.030949991783864,-53.478785566642166,3.2396495800784058,6.000000000000009,-11.468000276164666,-0.49784823923504756,-5.2769449582568315,0.09600064091110996,-1.0670216903892253,11
-85.83814232038088,53.7807426760244,51.06329053196997,28.29882286208972,102.06441259061415,50.34679708674849,-42.14684182533575,-54.21310188082471,2.731384542099246,6.000000000000009,-11.247002967103924,-0.48121501721264376,-5.135458355474125,0.08966820247055358,-1.0180215884386703,12
-85.63023059849708,52.104617424407444,51.09991895335616,28.298822862089697,101.45498714373069,49.57740386791099,-43.974467882015894,-55.18396500512004,2.708022222068338,6.000000000000009,-11.030424108186871,-0.49923446871591964,-4.989210846180595,0.08656585909893774,-0.9695172685410655,13
-84.91121533237833,50.79352007042508,53.08914471818271,28.298822862089647,101.74268842074929,48.050230577484875,-44.1544185765771,-56.19973723038823,2.692993025110467,6.000000000000009,-10.775571603079003,-0.5047138341003422,-4.877014549297774,0.08317183104791055,-0.9253120544779712,14
-84.71448633956977,49.179511591620596,53.01351662150407,28.298822862089594,100.86798389744406,47.21229744081298,-45.6625111995585,-57.10742712331961,2.470136588925018,6.000000000000009,-10.50341050951479,-0.4994963503100446,-4.741696460571339,0.07836102631998329,-0.8764652007140816,15
-84.70613525925133,47.764012575360276,53.081291848902765,28.84569041549211,100.8331421782311,45.686849974126744,-45.4991568571509,-58.003391772187435,2.3644233230782143,6.000000000000009,-10.261851841426875,-0.4952361815011127,-4.57851675280137,0.07328591390270195,-0.8265018234750522,16
-85.08165374856694,46.663532508025035,53.419542220033016,30.196398428567644,100.82580526014125,44.15536993271836,-45.36685343371825,-58.838929534416714,2.3312671237893303,6.000000000000009,-10.040988084984013,-0.5004749600405947,-4.421091834091171,0.06937535359210344,-0.7806015968830304,17
-84.60249737411493,45.818579454573,55.40594996059194,31.173001073628573,99.78334895743389,43.43987073926988,-46.56132752209768,-59.80178724709084,2.3223573810814315,6.000000000000009,-9.736185623553046,-0.5220669790961208,-4.282125544725376,0.06700240841919819,-0.7326416146478566,18
-84.70532872755302,44.684711426271164,55.423970197585966,32.26302790118611,99.71276360411177,42.03789847486334,-46.237221972707054,-60.63887138105216,2.0848224722828097,6.000000000000009,-9.435690818355578,-0.5106142877587553,-4.125993552803436,0.06192759342769666,-0.6838137264918648,19
-84.85628876990832,43.580140112124354,55.52875196669415,33.44526711659954,98.50337065355058,41.41507126118137,-47.31162299247441,-61.48242331349845,1.9864347117205068,6.000000000000009,-9.233339516238154,-0.4880962140203623,-4.009177520213872,0.057372210176917494,-0.6500432738004185,20
-84.21405561167337,42.8044288293871,57.36685175028301,34.4178247980935,98.41547411046137,40.03665706673355,-47.00153770031305,-62.44458934148622,2.1379464110152337,6.000000000000009,-9.012616771330297,-0.5038305911472808,-3.8841290789243996,0.05543439770506365,-0.6144600036081378,21
-84.29356963006255,41.755643544592076,57.341056865155956,35.5019902072936,97.10543248014011,39.45275902107408,-47.88517060910282,-63.37609583451954,1.9922743462142039,6.000000000000009,-8.781819494650378,-0.5063047038249557,-3.7917044255862953,0.05325839138359303,-0.5842427918514979,22
-84.35054718351277,40.75211000142937,57.24550831699993,36.64430296671102,97.08600961166233,38.0790661005673,-47.59203982117954,-64.24997097451137,1.9308966155187408,6.000000000000009,-8.527412725514623,-0.5054969095238296,-3.723634162257438,0.051336444094399726,-0.5568831837452051,23
-83.26709200630069,39.97272470304211,58.58159450868231,37.338275131624826,95.6700434087684,37.469658229769585,-48.29191249831122,-65.30078083399914,2.3037350135974255,6.000000000000009,-8.286673172221507,-0.5498708289922515,-3.657567147060502,0.052450216787792846,-0.5312504247935335,24
-83.12673627336567,38.820274599408854,58.37460421345346,38.27940516095528,96.13790300300647,35.823074170948864,-47.66169381417049,-66.16804539802496,2.0571785711082975,6.000000000000009,-8.117872294536856,-0.5336715905889845,-3.5705466193816795,0.049440224393065314,-0.5079522260771981,25
-83.05637252152825,37.64012595461597,58.23515756355083,39.239489141075964,94.33019472240889,35.34523611972402,-48.310904305704135,-67.03506759731874,2.1556389115000743,6.000000000000009,-7.950010847410555,-0.5293708764811478,-3.455719753863398,0.0467713238661914,-0.48135558507813214,26
-82.949403817772,36.41605717196273,58.07099120639212,39.83165020168162,94.07584781274427,33.994211346624056,-48.12498670222831,-68.16959446099877,2.8900955916058084,6.000000000000009,-7.775333851059405,-0.6214185503028492,-3.3209434626478713,0.0494742843155115,-0.45217334324896186,27
-81.82033137211799,35.53447778700601,59.31952898764603,40.50729523123441,93.71461432360897,32.61254345960075,-47.83491581903176,-69.13685392430298,3.1122120478475046,6.000000000000009,-7.55733672172736,-0.6724476904402457,-3.20242833908971,0.04976973180423362,-0.42361025419267706,28
-81.59474938045288,34.118482963971815,58.904382563212295,41.0024578274721,91.74704360443513,32.13794307741536,-48.27475279616913,-70.12360608208805,3.3070527440241997,6.000000000000009,-7.299240942311053,-0.6916727805692399,-3.1536932425244997,0.04948204238425951,-0.40271544308098434,29
-81.11802468336514,32.65360921266758,58.16896349304688,41.637047229803684,91.5489435432151,30.890756499513543,-48.13742309488462,-71.05039038919966,3.2182902412805015,6.000000000000009,-7.004077958577769,-0.6787976077999386,-3.158219659541485,0.04837379336786591,-0.3867920994759323,30
-79.49850464018745,31.556328026114244,58.832797887540245,42.07818613696607,91.05516704429081,29.446342398806127,-47.75665426890423,-72.08832219653077,3.722715641873791,6.000000000000009,-6.746093484685501,-0.7616736694900466,-3.053702843572585,0.0504874272988845,-0.35997579793753903,31
-79.28322111579881,29.94180483474396,58.44587618717209,42.253933663734,89.98537986329721,27.756966426714328,-46.8344462730347,-73.03615470842774,4.70386964578376,6.000000000000009,-6.489794350987774,-0.896494681882807,-2.8686664552697034,0.053329983697681535,-0.3250748521723694,32
-78.74139018721175,28.23782245483661,57.638524163082906,42.473939130751056,86.72487216746411,26.94776067388234,-46.007577433414845,-73.77012780318331,5.276477918397012,6.000000000000009,-6.176596848333801,-0.9686689252666032,-2.741122396769353,0.05369735483207899,-0.29543457056488787,33
-77.08369455237387,26.791524614886495,57.54169098114356,42.70732617140452,85.44337784026567,25.286758848762577,-44.943855560361094,-74.59888526104352,6.046465185619331,6.000000000000009,-5.881116466162476,-1.046020907354287,-2.6042900305546803,0.0538838763239389,-0.26709357065935996,34
-75.92132019872831,25.06372647061573,56.35156650651849,42.97814642928228,84.22098056985058,23.57704224334609,-44.03553017066301,-75.46413376801404,6.715550150800607,6.000000000000009,-5.5981830207180305,-1.1154599479514125,-2.561786301891108,0.05571797364451024,-0.24991084971514152,35
-74.56592159255013,23.28810989776314,54.976969572443295,43.37917819042946,82.25899855318978,21.787024178580978,-42.42561940569024,-76.09794021492382,6.907206432409791,6.000000000000009,-5.30777639509836,-1.1428229821116929,-2.5314996495614195,0.05589831594119856,-0.23400013566595,36
-71.02746032163377,21.972067852397267,53.831810560592295,43.648378210332964,77.4761245816912,20.98621575159979,-40.21053769495784,-76.68371839604697,7.513722857316963,6.000000000000009,-5.012150232775303,-1.1834037662684431,-2.4913391354290866,0.0563974347152103,-0.21731352223697495,37
-68.64500030806421,20.17283817941185,51.456467973941876,43.942214072548516,74.91697721514285,19.232100851161146,-38.08642309240962,-77.22233518983315,7.988668399091129,6.000000000000009,-4.7260750796807445,-1.2134554000925568,-2.442527117972008,0.05620408653622553,-0.20077177008265046,38
-66.2689132001512,18.405438426921734,49.14810096579583,44.36521849290828,70.90654128447059,17.504305310982605,-34.53721261222248,-77.65765988542388,8.539372828687226,6.000000000000009,-4.46577709495772,-1.2693318632658446,-2.326006381516532,0.05537057364413913,-0.18057034243299835,39
-63.781923581261175,16.720817991066642,46.77439557609877,44.93296084566995,62.67904654720167,17.066300708887148,-28.916037848500732,-78.08899361646718,9.528736152625717,6.000000000000009,-4.236926980218377,-1.3541909720068688,-2.1773256679932738,0.05466594403070966,-0.1602898732982704,40
-58.34516279153848,15.752469002623783,43.79589006832751,45.61177056444443,56.46753557039727,15.658240274972112,-23.253486680906832,-78.64485075371357,10.307492317373406,6.000000000000009,-4.014720633814517,-1.4302366930122599,-2.0756441598613193,0.05458008387238718,-0.1447110330986264,41
-53.85948552369902,14.365864272361282,39.39831853185445,46.46187163335602,50.08689455646381,14.39356242017525,-17.460996430663137,-79.15152521856861,10.220538178463,6.000000000000009,-3.788963662273965,-1.4653732098549415,-2.037905554437968,0.05463683548001938,-0.1340099009191526,42
-48.63192061406052,13.091814260506101,34.297579714439195,47.45594081645892,41.19895292269913,14.735994561912703,-11.20872895351996,-79.46445413619,9.734431248566374,6.000000000000009,-3.5842491659655553,-1.5004853785414938,-1.9987205217923918,0.05463235310797146,-0.12426057379790846,43
-41.61695869867839,12.37914547184022,28.576635986425785,48.58260202192938,33.553957057991276,13.882353184852228,-4.276079696459855,-79.99755507010798,9.593246985667177,6.000000000000009,-3.4563367991656384,-1.5467201572647782,-2.0176859927035906,0.05671657952511616,-0.12088108654056756,44
-35.214282673359996,11.356999538595737,21.774606424436563,49.834029371049645,24.8405946301082,13.33045869215436,3.726535839052778,-80.47458715143135,9.328824025069016,6.000000000000009,-3.303358589407156,-1.6058961103357907,-2.0226636690546353,0.0588511852818212,-0.11572163578842196,45
-26.58551114509381,11.412135324248844,14.974160633538474,51.32296608829101,16.802194303616535,14.597211799960288,9.121396481166924,-80.81973636920782,8.738932744202765,6.000000000000009,-3.155455151854947,-1.6434573585226373,-2.0180359520442037,0.059937360101817425,-0.11021095842861144,46
-18.761751359511106,10.809071261039628,6.79556971705302,52.82700400084026,8.787562913830804,14.683635001833322,16.374079551365462,-81.301413720697,8.305032552657472,6.000000000000009,-3.0892147611356986,-1.6957632115363872,-2.0483910343918454,0.0626963048200556,-0.10944430330457282,47
-10.386754998648781,11.43316750240602,0.2666366282341675,54.199069686995735,2.756005698018307,16.33522799606297,19.727012583563173,-81.91197935587037,8.432696957606781,6.000000000000009,-3.0130894382575266,-1.7865523512245012,-2.084095137300278,0.06707828935792774,-0.10849553993561543,48
-2.614479474488548,11.261338936179868,-7.917707143994481,55.63609495182839,-5.533443695835049,16.33683629891775,28.249579519108853,-82.45741451410684,8.659296289489136,6.000000000000009,-2.9041471179772396,-1.8900160401017532,-2.085474369949718,0.07081918632541966,-0.10452284555380707,49
4.264291247356251,12.399173781490253,-13.099628840427789,57.20645693934399,-10.991213928113098,17.55626799246443,32.43020231643245,-83.04998996179243,8.239505010710122,6.000000000000009,-2.7895213505006815,-1.934399746835736,-2.14138845122818,0.07434509850371306,-0.10296471759075135,50
11.43657209087581,12.723434969751924,-20.75521277050747,58.7686357154195,-15.652073392417165,18.89513320501068,35.832323364705154,-83.7578423294798,8.473199933161752,6.000000000000009,-2.677217403198255,-1.984239437640683,-2.194013382475676,0.0780433266520416,-0.1011140143762056,51
17.953622916673364,13.167231480284864,-27.739166159600046,60.25820122004818,-19.76215334956528,20.41276941082783,38.750532065416834,-84.46807380001911,9.51808347394852,6.000000000000009,-2.5516780484780024,-2.079092773431024,-2.23180184955329,0.0830203616368305,-0.0978580606729963,52
21.02090356759507,14.650590414888267,-29.2274700264737,61.934663100194705,-23.779690669676924,22.206002853971718,41.668179320874664,-84.89403013813288,10.505215108545734,6.000000000000009,-2.407427031115195,-2.2179390771320207,-2.266636306065787,0.08972832048763861,-0.09353495994440249,53
26.296096879197602,15.466976878982068,-35.03685672202239,63.607525417085036,-27.076202781487872,23.88577155856704,43.713544264155445,-85.36994470787631,10.082642424835338,6.000000000000009,-2.306218139668681,-2.268114821477591,-2.36607330372371,0.09573217236213372,-0.09332823387557328,54
29.039417792050134,17.359276248487504,-36.26875579235466,65.09997233325792,-29.714988424749503,25.580983159299944,45.04837187317538,-85.95652742869628,9.516551803450243,6.000000000000009,-2.2308460449781577,-2.2765361155874415,-2.442605604254573,0.09917867768274567,-0.09305556534113973,55
33.5879675715459,18.35658943330666,-41.32806977087231,66.48090814915496,-31.82236172882487,27.400042896837633,45.91925734361576,-86.5582996557257,9.557736752510252,6.000000000000009,-2.1506953842132384,-2.299690364404043,-2.482512530302693,0.10175631748308621,-0.09104196731791023,56
34.887125298988956,20.244611632112065,-41.15055776044057,67.99694664939703,-33.71720021022302,29.304532774699982,46.598046890653386,-87.10252728639877,9.905122078951488,6.000000000000009,-2.097965978514355,-2.369444653968041,-2.543445159829619,0.10735046803276664,-0.09080877088018138,57
38.10561083557132,21.31419883791495,-44.870935951636376,69.72578648470133,-37.3573034523757,30.22612890377587,50.62042257340627,-87.57733992799997,9.003615885227163,6.000000000000009,-2.087617037254513,-2.3809118137807346,-2.6348511857004357,0.11179963072751141,-0.09349451763234166,58
40.85009275044095,22.557677217902164,-48.16929950279512,71.44226221064245,-38.0188593322287,32.117452984357335,49.86929014896685,-88.17118277505163,7.189946019203376,6.000000000000009,-2.1052089396766416,-2.3265821063162018,-2.7596436754616183,0.11460008060768676,-0.09870560224025572,59
43.518735006570694,23.688526709154207,-51.245727273149846,73.21373724162473,-39.62166065214371,33.391295505187514,50.855391835453204,-88.9604730058731,5.491544028536407,6.000000000000009,-2.2224303981555034,-2.281988507229094,-2.822103326863134,0.11519897119986472,-0.10670937302085534,60
43.50979251155119,25.445631976792306,-49.69596815262571,75.02820266074393,-41.163204565902745,34.67465258981438,51.798332926358896,-89.81767245922862,5.327156729374163,6.000000000000009,-2.403415781996105,-2.3209026050700583,-2.849003355684995,0.11850026136194382,-0.11666164354111493,61
45.22250530639346,26.445960456073973,-51.73453419466476,76.8024274073427,-40.72903327062518,36.78891274285997,49.33863479469912,-90.79968456517815,5.998787299822031,6.000000000000009,-2.583189913287276,-2.3970829885682425,-3.0037175963573177,0.12936785622916971,-0.13216084808562728,62
46.75503849525393,27.35539666695849,-53.57551349706367,78.70040337065872,-42.0685948414128,37.851584411525295,50.25272375249438,-91.78214329016915,5.811312491403018,6.000000000000009,-2.7745392728483,-2.443692968213509,-3.133959699068377,0.13799674480133522,-0.14815168286934705,63
48.19176015982431,28.28460037048739,-55.33892936726006,80.67375652105278,-43.15375781179906,38.71764928317825,50.96771990258788,-92.73054442373142,4.410712166216929,6.000000000000009,-2.9645764363313876,-2.4246050810495325,-3.269221008711004,0.14337555226134027,-0.16527092743049776,64
49.4549031949707,29.260982635328393,-56.967793033457774,82.47575390146756,-44.061567853317705,39.40451546754111,51.54240659924988,-93.76031677859653,3.3498767493916977,6.000000000000009,-3.1240211400647384,-2.377447769930216,-3.416902713844207,0.14755948383644363,-0.1821562884571906,65
50.4384123402423,30.09429638596759,-58.32558832615387,84.15576373119906,-44.691038540422554,40.00017941997716,52.012126827571095,-94.98438577370628,3.1398416798087454,6.000000000000009,-3.2423628553917885,-2.3635159364675706,-3.5327416519178687,0.15213255994072128,-0.19551756368631862,66
50.98930336561326,30.68522589228347,-59.327968023129735,85.78300485884175,-45.114924345217325,40.673096522106135,52.52296866260452,-96.10250206297594,3.747270227190242,6.000000000000009,-3.2780519476395527,-2.457680341476983,-3.5901481350955926,0.1606967546425191,-0.20067377945673162,67
51.153300068717634,31.194353601069853,-60.07149018618368,87.2203635628272,-45.316576620883794,41.287511689768685,53.01195543436268,-97.11765146544207,4.922126985613397,6.000000000000009,-3.216605357017557,-2.598295102309658,-3.634203227559585,0.1715584405722587,-0.1988824056509154,68
50.90648570977946,31.59640367006437,-60.495593163114776,88.4085856056846,-45.375930826742966,41.89311205682703,53.55273250254101,-97.8717915098955,6.717114322609668,6.000000000000009,-3.049811032051726,-2.7796595888904676,-3.6876630756877824,0.18551072950166012,-0.1905892571297312,69
50.49539121910081,32.00974368202692,-60.79305341496088,89.36956913638085,-47.21335197697094,41.35195749550953,57.27103111590972,-98.50521795630017,7.957521715977293,6.000000000000009,-2.809209407070828,-2.916426453505915,-3.775769221950588,0.19856821397217195,-0.17881125529296665,70
49.38287518238825,32.42518071130759,-60.35188021075766,90.01770270364543,-46.894609891660885,41.62593450034197,57.72252350256682,-98.99000548698369,9.93906828915893,6.000000000000009,-2.502679281774937,-3.082762501987624,-3.9070780792983113,0.21629568050671427,-0.16347172811318753,71
48.06825643763574,32.596442559907246,-59.86989082823172,90.50363299430208,-46.67220018556887,41.78021246375049,58.25494854125694,-99.24815297502556,12.862087974438545,6.000000000000009,-2.2095836681291936,-3.3003566978696557,-4.110261479523311,0.24269915866339087,-0.14995998752460293,72
46.77091913422138,32.71229619444921,-59.451263820149684,90.66992343006213,-46.19212471126075,41.74893680418698,58.621276565111366,-99.41458592654537,15.790115544338303,6.000000000000009,-1.8807077998219042,-3.4931658577003413,-4.273236823822501,0.26599797117026763,-0.13046845763653794,73
45.3097965393083,32.58304701764788,-58.89056647559643,90.64932240409962,-45.50147821479015,41.56531211330983,58.8863618177378,-99.5335873895692,19.583498373402737,6.000000000000009,-1.515932452561078,-3.716181640477951,-4.401463864373458,0.2901859043186406,-0.10539396300149718,74
43.6736705284839,32.2513999098344,-58.169417680520745,90.47789931238755,-44.65616209823427,41.2160033430315,59.079082754537154,-99.4483845819422,23.832947196727705,6.000000000000009,-1.1080973834077645,-3.956157672311046,-4.51775036749842,0.3156298738297909,-0.07498310744517192,75
41.86953185126342,31.86071822205253,-57.287506027438475,89.93471713944895,-46.06585484137404,39.847409053895056,62.70845817353043,-99.32607526517756,28.639443145120882,5.919372148815938,-0.6822258536142648,-4.198379933514677,-4.688128357781401,0.3460726824830862,-0.041690908453832005,76
42.41174709085279,30.444023303112655,-60.262726226607306,89.21363921105038,-45.24325507402642,39.20263602366233,62.85871246760103,-99.03359762476042,34.10387378809004,5.598956839110782,-0.2775519571361201,-4.463815875100434,-4.823976153704531,0.377133324220771,-0.007496725600037028,77
40.56003334722805,29.664021586102294,-59.18926265602163,88.4380870094933,-44.1673774714131,38.28609362106666,62.805319926995615,-98.57475855845117,39.17640533431321,5.284083358502368,0.09153380743652688,-4.664225843639385,-4.926800123665861,0.4011182375836373,0.02513216864841458,78
37.50829730813607,29.19946741122803,-56.031785105563,87.38326232559453,-43.04790870158354,37.045582541766954,62.61948186559175,-98.15141940189365,44.16791300380002,5.002169427014168,0.4171764091469901,-4.82772965887112,-5.067270578063609,0.4257841980889351,0.055759184859380195,79
37.274020647856155,27.611318307339474,-57.28777661330835,86.14107455379585,-42.05074157879687,35.736467256395265,62.335947482529555,-97.76068416860363,47.731976790453444,5.006690088972312,0.6666129560312495,-5.040347243825739,-5.1451585410575404,0.45049920100997304,0.08014221125953766,80
34.16339278121348,26.60056439067218,-53.94074783039024,84.74371794088404,-41.039141360277796,34.458177953242405,61.96785491220647,-97.19974896354618,50.474974568579604,5.149282167833413,0.894893264447351,-5.300978096301598,-5.12185965011849,0.4710395627393134,0.10111882595609492,81
33.7680976950475,24.722953439579435,-54.95758180470956,83.13702566389375,-42.20634451831171,32.247456782863864,65.33618552381263,-96.50833349416865,53.24408182690429,5.023738103121079,1.1623938485670282,-5.469393444222584,-5.022709175950669,0.4758920619503467,0.12284011957254705,82
30.793622826127542,23.761476752852314,-51.65119082203473,81.43229332252464,-40.5062159942821,30.31834997722925,64.39634476806596,-95.91401965215273,54.80353801084711,4.725437597428683,1.3965042526782077,-5.504695201773807,-4.945201954448892,0.47087057813532873,0.14095011081551947,83
30.53599411752103,21.897747172310552,-52.71575159588318,79.56283385791271,-38.68992941952023,28.257950376796913,63.244903518395915,-95.38505138715114,56.123927908171666,4.523899134382909,1.5926292725228675,-5.537595558134339,-4.850458612294518,0.4641110366405679,0.15458106185024975,84
26.980362401775714,20.86388018564465,-48.7266825808202,77.53753470653955,-36.6819887859125,26.253931820404073,62.039558139558864,-94.6720482703997,58.10121527395038,4.373932555931655,1.7872974687439553,-5.605495969941198,-4.73355857573076,0.4581204901459369,0.16670571942860804,85
23.075513145705468,19.918890487096906,-44.30790832720368,75.38403407345486,-34.513930428445505,24.11677321161583,60.68088905172205,-93.95854057579123,59.76907482721383,4.250753184162732,1.9409220086314791,-5.65903034498348,-4.673428000456251,0.4563208044580267,0.1770597471815935,86
21.63401618048048,17.871398212315704,-44.150818562547386,73.26838887802917,-30.717886123636312,22.28048986341588,57.26508597812649,-93.18305427682216,60.553529669435655,4.214523843054327,2.0576758465138565,-5.692648698842126,-4.528116894200383,0.44470430598823796,0.1803304911017092,87
16.90021754241641,16.786731398526832,-38.84461051765678,71.10897929539527,-27.481164836974255,20.226813077108766,55.006699588136506,-92.25497610174386,60.51913301935254,4.174007207579244,2.179749582600818,-5.721857753043561,-4.356747055697233,0.4300638889430174,0.18223991447647872,88
12.177013179830801,15.918337846785018,-33.53964440089031,68.71236531707495,-23.360899008462606,18.16431360615573,51.85193662948943,-91.31390577726455,60.605748751303835,4.116758793246574,2.288666601923411,-5.718928046107418,-4.2322937536184115,0.4174913313162968,0.1846244701199278,89
9.322030461714423,14.15241280854848,-32.119283113644805,66.37674861162648,-18.39805458115865,16.19406353346359,47.81095524532485,-90.17680645561923,60.76240540568042,4.029944282766462,2.359825230914021,-5.696005041995516,-4.15502700894082,0.40814977861267,0.18608220823607227,90
3.0289113955101263,13.463857584800026,-25.186567691564747,64.24738070678484,-12.281600625079617,14.211256580419741,42.456623677482455,-89.00316964006684,58.863888967335434,3.9117432543731887,2.344617261770992,-5.657301977586247,-4.141733989936454,0.4040776536815564,0.18423807480128077,91
-4.441166931173191,12.866937194802755,-17.016717458180203,62.17132133589096,-2.9232796016922307,12.847094121218648,33.15857969038268,-87.96374842207815,56.67934843723202,3.9958795714616797,2.2728127693797253,-5.659887361851416,-4.1234300359041605,0.40267731758619696,0.17819616176820743,92
-11.687738085037292,11.325178170946925,-11.231522479737796,60.22762132006701,7.702621429791852,11.343656479567862,23.40233126157233,-86.98492389779702,54.15990474062652,4.204397726850534,2.1962169430105094,-5.626907358776329,-4.057305058993241,0.3941405445875338,0.16960130288090386,93
-21.477138997318104,11.14213240504074,-0.8761741825108456,58.42328405518541,20.7711426871814,10.451652426133546,11.192011446474488,-85.91319018141418,53.08389682939268,4.296996658284229,2.1501034982080074,-5.598109962020656,-3.9977867088765358,0.38652221790159697,0.1636232672389474,94
-31.129718931764156,11.442342528313286,9.308306961489746,56.72225704738495,35.74459224956317,10.180383729630176,-2.9881042736924313,-84.7411935364582,51.47080696861964,4.284628736316543,2.064489385337114,-5.567157226946789,-4.0453107722895725,0.3890342322988067,0.1596047236269535,95
-40.29554486343118,12.068216720415947,19.1098895332403,55.16467197159879,51.55602633810005,10.562620165910158,-18.200111699354963,-83.70872223983406,47.222529979700525,4.49247441116113,1.8462534951856524,-5.525613794517718,-4.147927003135231,0.3962411567136104,0.14809686942369932,96
-50.9813340797253,12.096465308666168,28.170737734777585,53.77434324980663,64.87933535852436,11.745723164259992,-31.022459301483334,-82.66372539841214,43.57698822810038,4.74836808976825,1.5878257931578241,-5.463266831402138,-4.193736991038685,0.3965964898026233,0.1308101132467423,97
-59.766577046297144,13.38976968884696,37.56996892032851,52.712008380132495,74.3026921664269,13.552403603099382,-39.98593429090464,-81.58224457570155,40.46259221332425,5.050278879115564,1.29917913081192,-5.402803639836749,-4.142111179867922,0.38807895417537036,0.10800484008480754,98
-69.33442585080589,14.367917445406002,45.389784356730644,51.689248797663645,81.49402225939565,15.707096223345987,-46.758665260303395,-80.62657118902861,38.76059429977656,5.419982013381712,1.003620226790141,-5.367257833456126,-4.131620489194415,0.3852572912433412,0.08630172000541855,99
-74.30818141436436,16.279118181177502,50.87099661508743,50.538560624059194,86.75977048664996,18.118776698759607,-51.66180625908639,-79.74874009149846,37.81945881592981,5.8209896314866505,0.6806664470550977,-5.349303579570969,-4.122984023776927,0.38396781190417645,0.06282257193236518,100
-79.38852135283098,18.168177665898924,55.82934804079711,49.430050924287585,90.06134981035268,20.70307046946034,-54.70158415288108,-78.90024909380264,36.231683693379644,6.000000000000009,0.25386396102217124,-5.325784162106481,-4.020678943134245,0.3738727434746509,0.03094517546218878,101
-83.23311297338428,20.24969491743812,59.78758529638026,48.50497336783077,92.35995000330158,23.362980344651064,-56.81995741443343,-77.90481118174247,34.10772898303893,6.000000000000009,-0.1995868616660827,-5.230581875229477,-3.9378110462873046,0.36067705337488104,-0.0013234451442143671,102
-85.75273678155395,22.386251949786214,62.39120453162703,47.62734364742164,93.94543790289048,26.05484758329924,-58.20299014107356,-76.70911617701564,31.75907980817666,6.000000000000009,-0.595913116156972,-5.085448401550147,-3.909062169622179,0.3490159826680185,-0.028764286383195614,103
-89.66211602666156,24.25805836178916,64.02177865974438,47.019327481106004,92.67848522767513,29.510305348860317,-59.09669049360807,-75.3709094673722,28.58220212173327,6.000000000000009,-1.0197425208032955,-4.9045792346670645,-3.8700512983288147,0.3342312475620023,-0.057622937823195906,104
-90.99371298855137,26.578824687914953,65.54715245209522,46.57627611116246,93.94306245285068,32.413927097314975,-60.388007832273956,-74.06964917421831,25.276409119445788,6.000000000000009,-1.4864254002854478,-4.669877257450163,-3.8778127989252735,0.3200503387144427,-0.08983489705610972,105
-92.03045448099171,28.91964726168516,66.52241609164112,46.01559345014214,96.74622724610384,34.59881581584567,-60.8054041355602,-72.69968240070233,23.113238284005256,6.000000000000009,-1.9078189053162715,-4.479594638117305,-3.8602578986902665,0.3067189180361742,-0.11830807945205675,106
-92.6343745189566,31.39312415825475,67.3972060043124,45.52662197580577,97.19295782544373,37.38097150729246,-61.273530950384156,-71.31257632018907,21.45302482127918,6.000000000000009,-2.3344301926116873,-4.321114847506135,-3.86657487155061,0.29752843889077396,-0.1476572843108653,107
-93.05487483068543,33.89389928508299,68.02173169141533,45.17765958114876,97.56181129217278,40.05566338190052,-61.55592159154716,-69.76852047869416,19.444351275483225,6.000000000000009,-2.7508363864014203,-4.14140926742602,-3.931880213962899,0.2913146406203136,-0.1790156029374582,108
-94.52817900427631,36.12097789193431,67.13316598688847,44.97621938319383,97.36857538634304,42.87056660847777,-62.00922100019705,-68.11560331228006,17.122705254938264,6.000000000000009,-3.173963016988897,-3.918771168159194,-4.0209680259925005,0.28349981278581393,-0.21314266029818307,109
-94.70713271745684,38.729140630045535,67.43744255107572,44.97133260304658,97.24594132629531,45.6847941761335,-62.473930672085736,-66.5425632964312,14.869291992634817,6.000000000000009,-3.6100271167766698,-3.6775686375876573,-4.05913890689909,0.2703029845394363,-0.24665718262731992,110
-94.72143521693414,41.353198661330595,67.43007559855612,45.071441774465235,98.58349448247819,47.90712821656195,-61.704823140235355,-64.93163335367827,12.955636130468774,6.000000000000009,-3.9565522034525897,-3.432548410478534,-4.149929961932602,0.2597228660197274,-0.27778779434723183,111
-94.59406971354912,43.93921474876767,67.25855290051179,44.840593605753824,98.34157878842528,50.46871084025258,-61.84673995758891,-63.40751140862724,11.969072068279958,6.000000000000009,-4.298324707668583,-3.2832407908568415,-4.233587706229014,0.2551197473795088,-0.3089666661348524,112
-95.45966742839857,46.16814240124421,65.51706214328921,44.52101512453759,99.37457809221483,52.439056224541694,-60.663291032657504,-61.992377779467155,10.968853438403585,6.000000000000009,-4.709116894594414,-3.143939893943452,-4.339331924505148,0.2524999757731268,-0.34812003933562446,113
-95.23814683909202,48.81090960685558,65.1816400333098,44.50932652745862,99.19169898828163,54.977016663228646,-60.79990734827338,-60.59665004426373,9.453414933017838,6.000000000000009,-5.093403334680568,-2.9577778440240836,-4.459429194805803,0.2465997069940217,-0.38814817649529587,114
-94.96033607000226,51.524626014643246,64.70963312616202,44.693676271946735,99.14593809773123,57.521913701232705,-60.994320672880036,-59.228918405872214,7.73893399794583,6.000000000000009,-5.443929115868071,-2.7566529142049734,-4.596089787603427,0.23967031459624935,-0.4287145069092763,115
-94.77394302152025,54.17132952259783,64.28403630988684,44.77528892534753,100.23126976632008,59.549309966974114,-59.489877030636436,-57.9179998427295,6.506663339944008,6.000000000000009,-5.75064589094029,-2.5769481775280134,-4.691054029807276,0.2313336315324536,-0.46329801350734184,116
-94.62661055532308,56.84165012035416,63.90341947823996,44.7246068040079,100.1135096807308,62.015212605428665,-59.38445880937383,-56.769940875432205,5.8226730049967825,6.000000000000009,-6.0616246589473075,-2.47546479415929,-4.727188799326022,0.2260241105947964,-0.49304447033688525,117
-95.20631623892544,59.24049311738264,61.573262679690856,44.79573622076533,100.73849011241391,63.770486752319385,-57.34195140464981,-55.55600843282698,4.831171674394285,6.000000000000009,-6.408513210974901,-2.4063357599076554,-4.7619497672820295,0.2234002156503301,-0.5259853368366889,118
-94.8299221323878,62.0970257066465,60.94131348027541,45.07638824246675,100.29782306783984,65.93393742132085,-57.04787337617491,-54.15291267662629,3.3127149709517605,6.000000000000009,-6.816561154928531,-2.318789194136787,-4.853362038340431,0.22229501468340215,-0.5712054663390305,119
-94.53757649483619,64.97711880544212,60.42439944273476,45.16904008813236,100.72748750214787,67.50517735286643,-54.85858670261387,-52.886468577543056,2.031673845759056,6.000000000000009,-7.291087454906062,-2.287184241488596,-4.905343904846467,0.22418080871304935,-0.6185435248079614,120
-94.17181263986002,67.82832254579147,59.77282879954461,45.06139687151284,100.31209315885683,69.60513711653219,-54.510326887483565,-51.77141142701323,0.955274928917361,6.000000000000009,-7.719022878588236,-2.296057778901243,-4.993059314822578,0.23130522714262625,-0.6672949184381868,121
-93.62462181480853,70.6432658083915,58.92066751073537,44.902092138917524,99.96194727225297,71.7000588511807,-54.240184464830996,-50.72310358402513,-0.18439316888585622,6.000000000000009,-8.137164620933797,-2.301535471430286,-5.157960129124168,0.24237471465140925,-0.727291780691554,122
-93.04720820889081,73.39546143319852,58.17085568975482,44.46012399926228,100.31601760996135,73.22481771351028,-51.87261836347033,-49.87205888066045,-0.9899201497235977,6.000000000000009,-8.635393028783383,-2.3448931152461427,-5.254419471173143,0.2539734117725164,-0.7871351153898586,123
-93.19034852196529,75.67806133087618,55.396079969013954,43.76186561587441,99.90882822627198,75.28421650776419,-51.44611219540865,-49.18808442942053,-1.6838261956556237,6.000000000000009,-9.169881002431676,-2.418945655908086,-5.30299757559131,0.2662790787939448,-0.8446192762526677,124
-92.64194892305376,78.35982345883787,54.65663119083521,42.92141648755092,99.51351445194621,77.23491449278738,-51.01836911259064,-48.387517509206724,-2.4213110263204083,6.000000000000009,-9.650847041568756,-2.493619892216891,-5.376403117105603,0.2801297387580045,-0.9021340696329121,125
-91.96105010165546,80.80864024713361,53.83708567968724,41.54333384753491,99.20009284885222,79.12905673655483,-50.661443175417475,-47.71322027751044,-2.2718865546358002,6.000000000000009,-10.09491364737783,-2.6268659573360535,-5.519366635359053,0.3042446199970955,-0.9691735495239511,126
-91.70610997898923,82.41863322879519,50.81193047815298,39.56754181928046,99.56112488590537,80.47750175923346,-48.123689812100636,-47.23079225917057,-1.3397983140763483,6.000000000000009,-10.50342526802691,-2.784351214125738,-5.674976122554848,0.33248217360146537,-1.037056940847233,127
-90.61468811867648,84.09302709804474,50.03653776424451,36.85813814151411,99.23830225060556,82.37006521912306,-47.66931753605566,-46.837004337334434,-0.17829098354047648,6.000000000000009,-10.891802099507556,-2.942424989252566,-5.818043595024293,0.36101676953833495,-1.1027673847830295,128
-89.94872444047236,85.04693352584452,47.080958353183114,33.7210877178309,98.90691730599485,84.08255364830285,-47.24332074162027,-46.13537839353451,0.9903068450941195,6.000000000000009,-11.289931670616156,-3.0605929063932393,-5.950716305302531,0.3857598075501872,-1.1697470812150776,129
-88.71084279903164,86.13502725996555,46.494894375986775,30.14703423356949,98.5739276186728,85.63035572597668,-46.79415519575172,-45.31225564505892,2.273765124638267,6.000000000000009,-11.59967450154668,-3.1784522599418406,-6.056278801111594,0.40861901808555995,-1.2235313511829482,130
-88.5500233744239,87.27810849037387,43.71421031724635,28.29882286208985,98.29982256227393,87.03042809656871,-46.32617323166092,-44.64817339790815,3.5864658312775037,6.000000000000009,-11.77070821040716,-3.322825355162844,-6.127695857999709,0.43126437422951835,-1.255942785753523,131
-89.0336764217654,88.7773929436065,41.00156084803295,28.29882286208972,97.40818568668473,88.7322368930211,-48.157708559717626,-43.83572056080865,3.5557198266087586,6.000000000000009,-11.880737209852807,-3.4002211408422394,-6.172268627119899,0.44425669852813354,-1.276827383802668,132
-89.34132544960673,89.89550416958915,38.311199449415476,28.298822862089697,96.97505375826198,89.61745667644337,-47.77755005965345,-42.60683568724802,3.7028768951727606,6.000000000000009,-11.977071940446397,-3.366577277186125,-6.194684650423909,0.44311575495228533,-1.2924394434328283,133
-89.10865280201213,91.0728922299269,38.075350763343,28.29882286208985,96.45831908236924,90.37364148622869,-47.36902552208957,-41.30709743403292,3.6801770558901703,6.000000000000009,-12.078326673156417,-3.3398994413541523,-6.16494761711172,0.4384662362966268,-1.2978806324426468,134
-88.75664720285089,91.96721858857876,37.95004541598913,28.298822862089697,96.54772421471732,91.03560269504992,-44.56625804926261,-43.286812881054935,3.787378444460438,6.000000000000009,-12.208400925896859,-3.3737840950863407,-6.09661413511337,0.43749408123079403,-1.298034996184542,135
-88.17224005586503,93.06148673540305,40.282658583086146,28.298822862089697,96.19926537303677,91.57042063775249,-44.205652611596115,-43.29563284547172,3.93040290961599,6.000000000000009,-12.251473611825695,-3.3689577855856756,-5.9843688537071635,0.42797994263434647,-1.279291049781856,136
-88.01138563494652,93.48599849318097,40.27090133367898,28.298822862089697,95.79082763386963,91.88630487310803,-43.883584690304474,-43.1809618596381,3.61360901094808,6.000000000000009,-12.102688252674769,-3.289515631460344,-5.866454940715396,0.40889276410820735,-1.2389953131674083,137
-87.73681270755377,93.54096355551167,40.29056592017997,28.298822862089647,95.41912487836119,92.09390168852383,-43.63420945488846,-43.269831446986935,3.6122548925234748,6.000000000000009,-11.91892857279923,-3.1537703742245258,-5.763492110891656,0.38541842770468404,-1.1989799690481537,138
-87.45609756584466,93.30184255979758,40.39521497657765,28.29882286208972,95.09220364059631,92.15102771838728,-43.42060663548065,-43.55277626468329,3.3144079175550076,6.000000000000009,-11.776731842264725,-3.0079109507639963,-5.631046276557265,0.35964096890222413,-1.1579775417538989,139
-87.24205227910241,92.85910677002572,40.53985939723021,28.29882286208985,94.24159356128914,92.47203016972024,-45.579896528064296,-43.94934414982007,3.3543429118676618,6.000000000000009,-11.574025984555616,-2.8947206360257844,-5.492824751468011,0.33715769273578566,-1.1102431426877755,140
-87.054275991826,92.15886917823019,40.74808984281499,28.29882286208962,93.98396446609604,92.21751961984701,-45.388920493670156,-44.90398272205688,3.195055800518966,6.000000000000009,-11.304729128454442,-2.7691322005723262,-5.316139405652499,0.3112758095803065,-1.0495783328394206,141
-86.45833654988938,91.58631017959566,43.27763937820788,28.298822862089697,93.7925250918967,91.65454024519373,-45.32960442436471,-45.6198763913851,2.4261798443218083,6.000000000000009,-10.984633981391802,-2.57311312926124,-5.183916701574865,0.28260800360335453,-0.9945532744694293,142
-86.27144143461302,90.36312018125838,43.423312285975086,28.298822862089697,93.63360080048629,90.89479321823968,-45.330114136938725,-46.279303040850245,1.6284569648377019,6.000000000000009,-10.623562227516718,-2.3626407566377883,-5.0783441846869035,0.25519495356313016,-0.9422275693950303,143
-86.15569973209337,88.95217132730296,43.57955752523506,28.298822862089697,93.31874336329876,89.82705393719739,-45.32236785087293,-46.840821677442854,1.4635916429332378,6.000000000000009,-10.218133061484012,-2.225066626270855,-4.981026829170205,0.2354945996049671,-0.888490091233961,144
-85.90233771717236,87.38600121943847,43.58976791669721,28.298822862089924,92.93534995696665,88.57700473530393,-45.43359626071716,-47.43157157113284,1.5109848968377515,6.000000000000009,-9.85524301822195,-2.0873899555057016,-5.007932412554312,0.2230979375655814,-0.8610667018398354,145
-85.16760845467148,85.96913740928997,45.870216339509795,28.298822862089697,92.76480558619173,87.29743327394068,-45.64162144255839,-48.19726016991868,1.3518684907763803,6.000000000000009,-9.567449790626384,-1.8932319979093737,-5.076658962806374,0.20790092335400878,-0.8472736844419366,146
-84.87333525475425,84.03214822825697,45.86248730178475,28.2988228620898,92.7316917521716,85.8837436356419,-45.81180953909904,-49.05908489684659,1.3142333068985301,6.000000000000009,-9.254258675114055,-1.7383527156798309,-5.087308436290737,0.19305442302502213,-0.8210889775074538,147
-84.22479707915079,82.36078029300786,48.11484084554666,28.298822862089875,92.60629353105794,84.23139216404793,-45.94431922661803,-49.73616646611038,1.405194909837658,6.000000000000009,-8.869837125435275,-1.6193655743008855,-5.109469227048502,0.18157749018712876,-0.7899759876540877,148
-83.89888373271454,80.24868915540316,47.87712201708247,28.298822862089647,92.54323432684592,82.48088155060618,-46.20324930544093,-50.500698769706425,1.709664255269426,6.000000000000009,-8.503333414164914,-1.5178314391056804,-5.264285375754293,0.17701404518506006,-0.7796503467345985,149
-83.56037175894159,78.07799172577612,47.61056604134087,28.298822862089825,92.53438474647997,80.65478166806332,-46.47452319398529,-51.42051226599345,1.6466691031640732,6.000000000000009,-8.18570233753764,-1.411975183103807,-5.428733954839075,0.1719901309726929,-0.7734956521488765,150
-82.77482694019963,76.14320106432848,49.577091059291234,28.29882286208972,92.46982049644662,78.62113747436914,-46.718128784981886,-52.01203832224725,1.1368493174544592,6.000000000000009,-7.889513101167441,-1.2492384904787452,-5.575913440174729,0.16015984715153592,-0.7656296568656554,151
-82.56944867527456,74.09295856758695,49.210355690407226,29.136298233281483,92.52171606200078,76.4869881100377,-47.04141737756968,-52.742445381947164,1.4049952324942672,6.000000000000009,-7.597034978595596,-1.1728209193211216,-5.802108127511017,0.1588088361164884,-0.7666053289660059,152
-82.06480679761592,72.51086759391124,51.087242344774786,30.4368308078944,91.9215789186864,74.90557694788232,-49.37872119460981,-53.64559562851428,2.039193299112456,6.000000000000009,-7.29899981467266,-1.1626534188111515,-6.032066830303959,0.1638549707472342,-0.7648284367971618,153
-82.04920272463377,70.54489769655896,50.763208721997984,31.827473917188524,92.06596246324249,72.56671920089232,-49.614852480388556,-54.44436079835376,2.2832243418168177,6.000000000000009,-6.993884342951081,-1.1244275044785972,-6.229995238842634,0.16449193894003322,-0.7561965628253334,154
-82.10534455317024,68.57994336990411,50.546542756538166,33.47956369374178,92.11552911951138,70.09430308756257,-49.74841658446535,-55.03503368170708,2.0816079729180297,6.000000000000009,-6.74440728263079,-1.0509634071048692,-6.359876198018896,0.1589680412093844,-0.7441644222579015,155
-82.0255019181406,66.41271406428301,50.306847004113195,34.80146942812442,92.25867515279577,67.57985680248449,-49.90468458320795,-55.75803730478997,2.1800064575438487,6.000000000000009,-6.533378790955222,-1.0146666051727042,-6.480673163679352,0.1572387077560449,-0.7341997261502952,156
-81.45216563082525,64.55384243472852,52.22694027683545,35.98188617852131,91.58178947571055,65.58596296159476,-51.83277528876255,-56.52584840792358,2.3766539283585457,6.000000000000009,-6.30278151132459,-1.0083111778027027,-6.554489026582759,0.1571956087767333,-0.7158328847538148,157
-81.46960772626352,62.261445528972075,51.98177149508985,37.31061718303376,91.80566306369828,62.819142086577884,-51.89401257621607,-57.0546891300454,2.5188139859549388,6.000000000000009,-6.009805182985301,-0.9762130420383102,-6.665864851501712,0.15475277806937338,-0.6936345236460909,158
-81.34403193298168,59.76659541988247,51.70793207343041,38.16279202577123,92.10507431463449,60.03810053136697,-51.90883792184768,-57.83210600659649,3.227665686532276,6.000000000000009,-5.714861213258111,-1.0105411060309046,-6.7261243863848055,0.1584475938386236,-0.6646660879463183,159
-80.71676621339448,57.67844475725962,53.604126228178444,39.24461233644968,91.29935529570318,57.80922215667895,-53.39086655498237,-58.53188298975211,3.456715540775745,6.000000000000009,-5.458229932923084,-1.0191512938671607,-6.657581952377987,0.15564419982800903,-0.6278930989392711,160
-80.80661470169723,55.055459334647296,53.62374837313299,40.286471007477616,91.26797868304922,54.778808533022314,-52.92734592803077,-59.049254745649385,3.6761349877789957,6.000000000000009,-5.1915445203959,-1.0351762499079067,-6.496001800705676,0.15104896654096284,-0.5823417730084057,161
-80.74080169390581,52.29942604429828,53.538729500198876,41.065751926255544,90.1433199469317,52.314770279091924,-53.950614455531856,-59.58351612457975,4.377433179560286,6.000000000000009,-4.95199717304419,-1.0616182919287087,-6.354899239460648,0.14848131751628993,-0.5429963833261562,162
-80.53568944453839,49.451608261339686,53.36576838075906,41.741416519848585,90.24836283581244,49.24148578177834,-53.641460153337,-60.239680171447645,5.210471055478554,6.000000000000009,-4.79708757635039,-1.070340560084235,-6.282959040356671,0.14645847274409143,-0.5198161285254548,163
-79.4048030002738,46.92943100242607,54.847615259719774,42.13920776421067,90.4848547246233,46.16753697458712,-53.42818865223436,-61.02404184531596,6.2602970529886734,6.000000000000009,-4.646542203793031,-1.0903588706655205,-6.219798030910931,0.1459628368365091,-0.49813363404018274,164
-79.11746887803415,43.91421535469392,54.54914192895545,42.5022688252965,89.07907781560917,43.52906932476567,-54.02798834357894,-61.422523434282425,6.760747741300112,6.000000000000009,-4.439999815958555,-1.065920380379515,-6.123637209709751,0.13945999235630635,-0.4685239507258414,165
-78.8623261053645,40.9232340619562,54.26988286951925,43.29916941342175,87.02144821572645,40.820527441582136,-54.29476424218536,-61.274817213768735,5.8583885641165665,6.000000000000009,-4.27403625202847,-0.9317327163977512,-6.055335683095802,0.12247126203920053,-0.4465209084621674,166
-78.6095166594333,37.931175018694766,54.07117784700776,44.269610880136604,85.97093477431609,37.87295699795002,-54.01572254924012,-61.24849079182839,4.96720150492977,6.000000000000009,-4.19763649112302,-0.7745606198289321,-5.990790157724346,0.10403472016227498,-0.43467171909844765,167
-77.0153921395564,35.35604106987448,55.087069164955345,44.824732485829266,85.13726984155768,34.99467582843155,-53.97951163216229,-61.59013301501581,5.086428138426174,6.000000000000009,-4.153727960805927,-0.7032792750081321,-5.925614652895281,0.09503841816820198,-0.4258276742071235,168
-76.29312436309063,32.294971769852005,54.477395798206125,45.32947505042481,84.08101244358305,32.01505852855299,-53.74049677568759,-61.73634967544017,4.984981737067311,6.000000000000009,-4.116768132361879,-0.62640757852117,-5.885554965327727,0.08614439389626695,-0.41957851599892726,169
-75.52953390485229,29.22238296227134,53.867458715965846,45.73178735455587,82.85750126177324,29.00022097714592,-53.348091450706654,-61.93957536796223,4.997302560223703,6.000000000000009,-4.102843455434204,-0.5760882635519734,-5.833247409061247,0.07998760085684849,-0.4147288352570349,170
-73.35518917407651,26.64281535287914,54.0106962293038,46.17242259175211,81.33453038939248,26.022480942542057,-52.58254905261474,-62.0687749242786,5.080422593041014,6.000000000000009,-4.044296414363801,-0.5302984940387141,-5.747468287190487,0.07360839754609177,-0.4030303089598165,171
-71.74808543201932,23.821513681620296,52.94979430104359,46.63180444769005,79.51047907111412,23.03657009878713,-51.541458876395545,-62.183437090264576,5.213134579148456,6.000000000000009,-4.008827948308101,-0.4958416584506811,-5.6976186801899615,0.06918843286277103,-0.39620007827140274,172
-69.77063443086804,21.03894164360921,51.57654869285838,47.17470651366411,77.42587253213176,20.035929421880336,-50.3337460804186,-62.25172204751534,4.751216676975272,6.000000000000009,-4.044136126749629,-0.45091772867119434,-5.703520690346061,0.06498192387024426,-0.4003550274886992,173
-67.47578732437232,18.201837104673096,49.87429896366705,47.711089056805484,71.97392949060493,17.83762176297786,-47.992464678618,-62.28657566038693,4.115964651801496,6.000000000000009,-4.056236890284866,-0.39836139085755884,-5.682454367918486,0.05951159016471624,-0.4003512253151135,174
-64.16047061388944,15.406197327045735,47.06169041084918,48.2203974163929,68.18899678214845,15.104298602870552,-44.91666894678333,-62.35260122966703,3.4482053124067935,6.000000000000009,-3.9981471438862903,-0.340910052806815,-5.671896456327329,0.053383122808660984,-0.3941242144901679,175
-58.14995637172341,12.924481164729546,42.0640082268211,48.327819278106226,62.94609226524576,12.470682352401859,-40.36977124508583,-62.75376956078854,4.221832695712581,6.000000000000009,-3.953682145440163,-0.36730681755019334,-5.712794518427772,0.05631977317586742,-0.3923661273421506,176
-48.20623811484565,11.10231486265682,34.60748133965049,48.41760807555547,51.65439399705019,10.969711888210664,-32.029542311257515,-63.28420672899771,5.56429163909275,6.000000000000009,-3.9802100253109534,-0.4188922939900376,-5.7217504544487205,0.061728697587149516,-0.3953775155243179,177
-37.24229057964507,8.951668910752833,23.8420765570464,48.48054870770799,40.02790238290487,8.836565286022285,-21.166603398163016,-63.91835183881472,7.149233133078411,6.000000000000009,-4.023616965822503,-0.4953675892979758,-5.771013098160093,0.07036445698241198,-0.4027516379774517,178
-20.548378131641115,7.323242332214633,7.3385444278157435,48.66625335557619,22.374385974362106,8.338067655889997,-6.255385176899921,-64.49965117428641,7.950159651043851,6.000000000000009,-4.04837894380398,-0.536581354097447,-5.861005641340935,0.07613350373767235,-0.41129707950843586,179
0.49345800175396565,7.447204951279054,-11.275153634108923,48.933463335074016,3.757613432771584,8.22776775799101,10.648980950011747,-65.01468549191391,7.992054003699231,6.000000000000009,-4.076223090475511,-0.5564249056104519,-5.929494370921373,0.07947829825177462,-0.4188383454525728,180
22.021023451804233,7.794851163709022,-32.638446151967024,49.290802962669225,-13.284592197755723,8.849027875767288,25.96050584290396,-65.52715966976982,7.287808487252951,6.000000000000009,-4.095316718895688,-0.5207971006026132,-6.043484392406268,0.07777627931624088,-0.4290206204512758,181
34.985157333210836,9.787800384131879,-43.316023250180834,49.5231860669891,-26.991210382440634,10.148032961608378,38.05273402320985,-66.10821021990974,7.248758637875744,6.000000000000009,-4.065300314989253,-0.5000694703936942,-6.201290349156161,0.07798771040467316,-0.4369644632325771,182
46.80918171041028,11.488643678840825,-55.02414114951691,49.73055237294396,-36.7670482766687,11.933911082006444,46.250547484841086,-66.79843871454825,7.528044686108381,6.000000000000009,-4.055501313487198,-0.49425198349761706,-6.329534520982136,0.07939427484085525,-0.4448525768232575,183
55.66321353910072,13.414167671639303,-63.74260866256495,50.18284835301266,-43.1547524808404,13.99527953945345,51.09201051025785,-67.49968398043416,7.080945853255713,6.000000000000009,-4.040267058300448,-0.4426541111180809,-6.3902800598865594,0.07453928319908693,-0.447690847671356,184
58.98154359845145,15.936799761744592,-64.82250569676573,50.78625950683552,-47.39214224708699,16.097925596900556,53.813324909087896,-68.28499681090362,6.101556862017794,6.000000000000009,-4.014081392543534,-0.35003683213144077,-6.45993923012465,0.06501014446230491,-0.4501460696388195,185
63.91542856033082,18.115657054086117,-69.65257602235569,51.495869047172135,-50.124763002817375,18.11553995909887,55.02867813507419,-69.32234735171131,5.093286252162522,6.000000000000009,-4.004237629301741,-0.22440364930440324,-6.5287497487829675,0.051589398778449876,-0.4545845331125212,186
65.16012823190815,20.53562318417413,-68.75798270241671,52.33414675915078,-51.81467642584528,20.237619448243496,55.290460383547476,-70.41341110025208,4.471850935063295,6.000000000000009,-3.98281732649717,-0.12704892521612932,-6.533098274762812,0.040396246842173016,-0.4530666195135386,187
68.40376132016308,22.58878147379622,-71.91346512785717,53.306236856926894,-52.923471982967854,22.36670739288111,54.983968115296335,-71.50024302990731,3.135912796570227,6.000000000000009,-3.9960783536531204,-0.029083216003285506,-6.531708478896206,0.02929735305723533,-0.4551210838677586,188
70.86105022561674,24.528679156725694,-74.20614497663256,54.41523090969079,-53.83624656955865,24.428665239439532,54.4457439312166,-72.67529965275399,2.5800746990498435,6.000000000000009,-4.084021287926223,0.047538301213929574,-6.588689250776639,0.021550761246802254,-0.4697185494689635,189
70.78846541394735,26.669835700450992,-71.95183528369307,55.75599720022067,-56.717009366682426,25.70338586407913,57.66796839083529,-73.87795959354257,1.442416916646544,6.000000000000009,-4.230907266092345,0.14621275363258412,-6.636665869390641,0.011458564640120695,-0.4908516967129465,190
72.73755560717021,28.412761862563393,-73.64239547159832,57.18688472059064,-56.76964716592179,27.661705555666117,56.26036508886445,-75.21893288190026,0.628830677667444,6.000000000000009,-4.439293749758472,0.25222251427400527,-6.677841210679488,0.0007593736092994127,-0.5189790211640233,191
72.20209661519986,30.25367380752512,-70.90362237163727,58.69186575416471,-57.063981971274586,29.65308433107406,55.07434375232625,-76.59864993290789,0.44210316618512013,6.000000000000009,-4.7012363980461025,0.31260024800330033,-6.772302003615405,-0.004111772142568931,-0.5578182558774447,192
73.52072402190457,31.70818046504711,-71.99626265915711,60.39936204095301,-59.028190651301635,30.707013258208416,57.27344580636461,-78.05658583436565,-0.5618366487718833,6.000000000000009,-4.967248062046393,0.4335393516479244,-6.831647615820276,-0.01640944353353892,-0.595427986141714,193
74.86653221173701,33.00924761183881,-73.05445602910619,62.282338767631735,-58.368489166355005,32.44372549448795,55.15995044991336,-79.69567731091705,-1.2887905119303977,6.000000000000009,-5.3050933747213875,0.5487580389349676,-6.824127999307321,-0.027795071849882252,-0.6360535705238043,194
74.26272860313307,34.4171491392112,-70.2682881080376,64.22059377083583,-59.68264242597873,33.422235145327676,56.69141705957771,-81.4896498115062,-1.144220399788319,6.000000000000009,-5.723731889790141,0.5887020304430698,-6.7866678849410835,-0.02967895233837144,-0.682769102280599,195
75.4647492741884,35.19919959843916,-71.09619492572087,66.30999050621628,-60.93603196088301,34.399781104281196,58.150158643910636,-83.32562696969403,-0.4935255853499853,6.000000000000009,-6.129248955758645,0.5924523837531225,-6.738138477981446,-0.027416569358761956,-0.7259992303099814,196
76.50475887934893,35.875542073652014,-71.88346990601347,68.5322030448968,-59.67339930582589,35.97845567061703,55.60449791628671,-85.19815866820541,-0.6398945104509348,6.000000000000009,-6.427829334130295,0.6746386402754553,-6.649609057861948,-0.03519475616484186,-0.7519935799414977,197
77.11048332653797,36.60421954496634,-72.53057437893149,70.57266658890839,-59.912151172692894,36.54828599070238,56.33155648432978,-87.00808537253498,-1.355340898249315,6.000000000000009,-6.548843229915993,0.8219278672951624,-6.55881478359737,-0.05145457735499312,-0.7566685072149213,198
77.348208043261,37.30799679591631,-73.0422716947688,72.38693598822296,-60.42633166257542,36.673010501632305,58.02840105209552,-88.73295437321363,-1.7512053027783219,6.000000000000009,-6.536244411154536,0.9574307258419226,-6.472278924233904,-0.06679533257535622,-0.7460766579577437,199
75.17820363341143,38.19298860807043,-69.67516467282283,74.07610814552473,-59.8747454630907,37.162924693102696,58.042585485151605,-90.24873928974128,-1.9231382539723534,6.000000000000009,-6.444589820117026,1.0376106107834175,-6.4327696579241875,-0.07625027104109569,-0.7316046185463733,200
74.6003455854988,38.603478504264324,-69.70344463239903,75.59644434238429,-59.212210540158914,37.51483759001612,58.11945794858218,-91.43806563495245,-2.924265281510504,6.000000000000009,-6.261929155383364,1.1279415295130502,-6.465343735150953,-0.08779582411586767,-0.7150756903091378,201
73.77302868034187,39.165398505397135,-69.59891939435842,76.70876027694518,-60.467444886391505,36.714384405890925,61.73492128145072,-92.53258685227348,-4.62073085036837,6.000000000000009,-6.011613212473596,1.2672163536257044,-6.587804652018764,-0.106359803991628,-0.7005656390533078,202
72.66589088038288,39.505909396641854,-69.27769529975485,77.59984672064128,-59.4496728548335,36.76820529466048,61.88544593147002,-93.21350346710987,-5.6527614033120495,6.000000000000009,-5.717753292870178,1.311047555657597,-6.754596481320406,-0.11516884496663501,-0.6838161543572888,203
71.31739808750248,39.934820962679765,-68.7323504847243,78.14800435335293,-58.48025403514759,36.51604464768154,62.096616764679496,-93.59798224616223,-7.560450862559749,6.000000000000009,-5.389017933589006,1.4225315153061884,-7.061112694699185,-0.13467271846569256,-0.6751768905706207,204
69.81401478514454,40.586923652159854,-68.06034777498496,78.03665286459636,-59.88483603392571,35.08774188042212,66.0049560629632,-94.08205159160808,-10.61998736424234,6.000000000000009,-5.037734173447951,1.624283908019523,-7.476747629490274,-0.16926919417996203,-0.6709945557222342,205
68.22051000178219,40.80055499339746,-67.28976429564382,77.54324755899347,-58.75362037893212,34.50406629197206,66.08956781501684,-94.46052249019462,-11.850766659953342,6.000000000000009,-4.6740486403605805,1.6366559245638928,-7.777350489010948,-0.17916438677406563,-0.6489351708351213,206
66.67404172046174,40.43256064599455,-66.43798019643451,77.03147245476951,-57.60499514538566,34.21643869125358,66.13897375109337,-94.51107973359248,-10.584892168311859,6.000000000000009,-4.345926902799029,1.463525316392654,-7.914393443339968,-0.16065031362036575,-0.6134666095520609,207
65.02953582672916,40.087653491766126,-65.53117081990602,76.2427776566588,-58.95870946032901,33.13782219877221,70.11238082809783,-94.29504242649067,-9.97858439233632,6.000000000000009,-3.9816309509364003,1.311998287111299,-8.034365258953223,-0.14469181342491652,-0.5702539784312104,208
65.15369209042237,39.090182767577275,-67.92419309070618,75.22992593258397,-57.64645416228299,32.43155884296261,70.03462934114592,-93.89033730427123,-10.037762987310575,6.000000000000009,-3.59894452565114,1.1729515554551158,-8.17347674033039,-0.13049698150278236,-0.5242365642883373,209
63.29583726596392,38.35034363161502,-66.59472838749461,74.19842741415863,-56.45092548101281,31.54540885392889,69.92508140522017,-93.31704379377818,-9.426114547835356,6.000000000000009,-3.2778339457364902,1.0233926190600746,-8.311043413365185,-0.11371821630342992,-0.4850539235255526,210
61.43558889748389,37.41765774302588,-65.13430984772386,73.15865627165601,-58.06290276541853,29.958438928083797,74.02841331447898,-92.79027255744175,-9.183634996252428,6.000000000000009,-3.0050992872790987,0.8812047609387752,-8.401130309938923,-0.09665337220399532,-0.4489027759767514,211
61.626714186712775,35.72219521432854,-67.29597354946806,72.1428039374349,-56.503632113561025,28.733066871301588,73.59102067495769,-92.2087741287223,-10.112547360089426,6.000000000000009,-2.728244133659234,0.7494597090151297,-8.389395136240344,-0.08025764888876999,-0.4063655164924153,212
59.69065765101372,34.59122954945689,-65.67377755448456,70.99069803042602,-54.91134662285517,27.199511341535533,73.07162956059652,-91.56176614547823,-12.604068534691478,5.901064078324465,-2.4279854399763305,0.6712937860223175,-8.41910178765777,-0.07219619953423737,-0.3629310948944593,213
59.611084809676676,32.835574306129,-67.69716210981512,69.85719666063173,-52.958297748629825,25.512980182658104,72.3062429335711,-90.79656822449232,-15.229157546022789,5.5793345695900385,-2.0943531481041657,0.5928134965680102,-8.383512211722001,-0.0641012087817906,-0.31182111524913475,214
57.41412524399342,31.434818725777053,-65.85512800739919,68.65079944635353,-50.576994274859956,23.742954264535637,71.22187294476349,-90.003352640866,-17.960537511720474,5.248460933886472,-1.7709176320868012,0.5088615395085788,-8.259679768147947,-0.054763635161554365,-0.2597674187226486,215
57.39343902906694,29.415502722035406,-67.86376321595968,67.45376432189289,-47.899938517911835,21.904917579654093,69.88833453220288,-89.14692603981598,-20.66359167022899,4.945251846281911,-1.4908580030515943,0.43524674463505386,-8.105686676188464,-0.04649350265893039,-0.21460493913535586,216
54.919782878782726,27.739690035436674,-65.55409095113667,66.25142587074046,-45.04718169196974,20.04740548556609,68.44685661079586,-88.17250048127067,-22.74397009463741,4.672962341282852,-1.2262661465628792,0.34997925419145376,-7.978997313269538,-0.03671885584955326,-0.17363173209714622,217
54.494942344154865,25.662543883883103,-67.20237274576476,64.98109281928785,-38.5801574742245,18.457083149062054,62.365035123979624,-87.10264190086068,-26.819319947479954,4.440455229566836,-0.9340271619059201,0.3296717474577046,-7.874263214448218,-0.036363579334236916,-0.13108082746100672,218
51.633340057733804,24.05634883362991,-64.50920609693209,63.55584883406595,-33.56287178450191,16.58802833904649,58.79196707891371,-85.92391706164804,-30.927030385176337,4.279447884347927,-0.6743564474270048,0.3382126507055938,-7.70513980219227,-0.039260465655670464,-0.09347207222679185,219
51.02932144878041,21.803274138776544,-65.92040225900219,62.07863310777075,-27.847744551329342,15.041038113056672,54.46048707734909,-84.62936278323384,-32.60498041718196,4.082294114087171,-0.4947118775866851,0.2706753774813649,-7.463766022022415,-0.030970310071860192,-0.0665575724126648,220
47.49236287029622,19.949526153629076,-62.31051837975233,60.750113863771226,-21.100744148699633,13.579813940991752,48.9018258026475,-83.30632032262108,-33.61709703164875,4.036159025918499,-0.42534886960385315,0.2148552202619341,-7.240673930577602,-0.02368863367488731,-0.055324223613329664,221
46.54518562868279,17.676064581344153,-63.25692704488716,59.45683446895352,-8.333813811134295,13.33616983783449,35.37129282886541,-81.92848005509833,-35.6110755699513,4.06377172666591,-0.3603432063963309,0.21961326316406424,-7.058932697436834,-0.02425760773146971,-0.045947809321299334,222
42.06862758043654,15.994002838026436,-58.651863955022584,58.05804531348141,2.399257139387979,12.417914538388176,25.573508184211864,-80.56222700453851,-36.18217284088179,4.0917295700083915,-0.29877994010788267,0.24572357922492843,-6.905666082664744,-0.027377592883822174,-0.037706732916573824,223
39.6533235253276,13.859711429096295,-58.1738840629255,56.484805469388895,13.312302934208759,11.707525512595641,15.810547349041764,-79.19201591251736,-34.939132372630624,4.051012351192201,-0.2516263515028953,0.20175087552491155,-6.812651057969409,-0.022155987695451417,-0.0312734041052923,224
33.00011290156567,12.442870253450709,-51.34827437820974,54.82852288656207,25.007088186820575,11.494958163321137,5.141919124955817,-77.773567898476,-34.1863162499205,4.098707086745915,-0.2572507477065246,0.19249384364510477,-6.707181597580947,-0.020722023474838206,-0.03136327564205225,225
28.34987163632161,10.424642618160494,-48.606743801647,53.19965319658319,35.37455580313103,13.175031767124946,-6.32187509487658,-76.30931156069036,-32.374857843486986,4.149268202615636,-0.31848552392658436,0.14057857614751848,-6.560066572459621,-0.013975374562288607,-0.03730608933031221,226
17.21691933809396,9.315657619578548,-37.263118899534334,51.48743420540072,44.938120431681725,13.77283555991067,-15.047081672488483,-74.92876642973197,-29.093484804855706,4.17723049873859,-0.3801516757163618,0.0636518353483421,-6.472487184138484,-0.0047522983253538865,-0.04325934946836513,227
7.7627677419319605,7.793276088938233,-29.809565852624996,49.69735097275353,53.48778616017948,14.801495610343308,-22.80283981448956,-73.57172916579515,-25.597953320840166,4.348654034247225,-0.43911246200449605,0.025596766238917896,-6.344194821025924,-0.0001393806194875589,-0.048680056365529335,228
-6.731799035712925,7.49204777781711,-15.129468251698267,47.46853602459493,60.780578258230484,16.117579301342428,-29.337782671364703,-72.51674561045438,-19.55579211308145,4.487661087845458,-0.5203775094946654,-0.10628015007535435,-6.126610941930537,0.014315566075084447,-0.054932284679727245,229
-27.362550057723055,7.49280023957436,5.7259754253287465,45.690554368670824,64.12280063545744,17.381861863788824,-31.959260948844342,-71.03911037060266,-10.828048093924176,4.239290434406629,-0.5998324862671028,-0.4525895365979761,-5.705219327130153,0.047967072206656,-0.057389935191548794,230
-39.51055047731576,7.807245714248585,15.749627120034605,44.58837946840166,68.98057898968885,20.07828350216768,-38.55865273560867,-69.48832873837597,-13.728420663896234,4.455021880869819,-0.7476478598920289,-0.23842744581638978,-5.9271260993325114,0.028620294398438256,-0.07593457705925578,231
-51.24230808493362,9.078718419889821,27.790042592559438,42.69906896412212,73.0983490943039,21.760407195067923,-42.250759256406894,-68.53215440147581,-6.693939193126404,4.708472506338937,-0.9900008843131181,-0.41644678404867896,-5.764415862451777,0.04684120563293557,-0.09733843955907119,232
-63.64394318820014,10.1419562297433,38.22557793834058,41.02789995790155,76.19904185038429,23.424483610003655,-45.026120276004235,-67.643077121191,0.2989295508076159,5.218196750148348,-1.297661723284453,-0.6687379877657611,-5.56350301938751,0.07096783255596492,-0.12267891835623042,233
-68.004700824105,12.327108740746668,44.02949598927876,39.591150246780664,81.41358669021014,24.55190803290051,-47.66909690178392,-66.6933353557736,2.9627747484545863,5.731626933069548,-1.5836440648809595,-0.7726350010266726,-5.509475139810974,0.08153312772545353,-0.1485168388026996,234
-74.86656145397427,13.716817710254878,48.52479087943122,38.16092238086158,83.87654271055015,26.593924037389908,-49.91557318682998,-65.7628365350135,4.694696722446057,6.000000000000009,-1.904575288648118,-0.8574260967335403,-5.446362660713909,0.09003636760996994,-0.17696831206341496,235
-78.21329589252326,15.806162351794969,51.89011314639156,37.108581127384696,86.03579402099639,28.733450492073764,-51.93606932289093,-64.8254315174727,5.019877374004239,6.000000000000009,-2.2387348956731485,-0.8963794450097027,-5.440154786348779,0.09514593596417398,-0.20831908128322904,236
-80.30619491595618,18.081937461338356,53.958132967947975,36.32505887053894,87.94101699445638,30.953378023708904,-53.72089172688249,-63.97514416921632,5.361939012914609,6.000000000000009,-2.542645623769438,-0.9235558127496609,-5.519345141132349,0.10072436485209543,-0.24043942170945598,237
-81.73474337015352,20.37466135565587,55.13368701514741,35.49633216774228,89.75175747662293,33.25190416189875,-55.4960580705218,-63.293774374842435,6.080540363864363,6.000000000000009,-2.86034420557954,-0.9566004637804254,-5.646737009414878,0.10814699729168846,-0.2770408411354028,238
-82.6956607817266,22.7692467794162,56.20777966334026,34.812500831911514,91.19765867432174,35.56943261432723,-56.93117798863506,-62.587781945734704,6.403663437496252,6.000000000000009,-3.156884414217683,-0.9723151106050198,-5.746709981350237,0.11340391025280526,-0.3115434721136242,239
-84.68442934123165,24.847417645243578,55.7731979763486,34.3809280906049,93.97163020787423,37.32440717863422,-57.24849017100228,-61.75354471296789,5.990344181876478,6.000000000000009,-3.4012111497281197,-0.9454889247403075,-5.871226969442689,0.11476570979134036,-0.3433794701684793,240
-85.0815554267659,27.271144556783632,56.1533224668192,33.927539695158536,96.27056501324152,39.318238386614766,-57.707506562420214,-60.989538020753734,5.738369653592703,6.000000000000009,-3.649520822964694,-0.9120920170738502,-6.052486838150394,0.11675248405077912,-0.38025269740015455,241
-85.53449994218599,29.70717115004622,56.52263292605164,33.440593824999176,96.82906034539799,41.813502630337794,-58.67926475210577,-60.20001240897187,6.099217698477985,6.000000000000009,-3.8443527345198656,-0.9078075661822939,-6.186218728774162,0.12048236787375838,-0.40961926721360925,242
-85.72524269153249,32.086668241843725,56.567954669339635,32.64972082873687,97.26575543079396,44.24009253921992,-59.38545320991735,-59.524463948427844,6.913766672557684,6.000000000000009,-3.9658177032563198,-0.9432692935876823,-6.277311083987096,0.12721997604863391,-0.42867994407200244,243
-85.8664169565855,34.447810190899474,56.58882456727327,31.97198383527409,98.95521065358433,46.18122093798373,-58.759446754322745,-58.870304900664976,6.938722285400902,6.000000000000009,-4.118134342657897,-0.936940895183099,-6.349355420377735,0.12920847536508204,-0.4504834842939002,244
-87.10761701230349,36.542087760362335,55.22993663266996,31.55131394622354,99.01068703158245,48.571691740562514,-59.02322933830783,-58.06455570607568,6.853241742603894,6.000000000000009,-4.311029038505534,-0.9318874062083823,-6.350479066623535,0.1298914733470363,-0.47204686894236786,245
-87.24374851767234,38.90788230243016,55.227127478454086,30.688193682040897,98.92788530871967,50.83305965241772,-59.04897995283434,-57.39042637691939,7.457719392458929,6.000000000000009,-4.443729875058646,-1.0156414541135195,-6.338556879299254,0.13971249420427828,-0.4854021744460272,246
-87.28435636447007,41.265941255030874,55.109319633566145,29.931927032114654,98.89799967281877,53.145256656141484,-59.10859201526658,-56.747984195648236,7.366313513210487,6.000000000000009,-4.574944846383491,-1.0570184489891086,-6.365644507607228,0.14586387505277212,-0.5018273181795019,247
-87.51064866316624,43.75464538323918,55.135150131157104,29.67546732530276,99.91142199453455,54.94623944353146,-57.54359330279666,-55.94957884770509,6.857563324440585,6.000000000000009,-4.712824183214233,-1.0250456645172967,-6.378578214527788,0.14353351813463872,-0.5184478674898875,248
-87.7429990592188,46.27436883330056,55.13273330736715,29.494226661342115,99.92735095624755,57.292982810068125,-57.53882908939932,-55.213571770731704,6.304607157662449,6.000000000000009,-4.837645070774624,-0.9892022369281076,-6.394356469624173,0.14075490935574325,-0.5339318384655494,249
-88.75129116017769,48.47785617053646,53.32947497930434,29.303561884271723,99.76130744991185,59.56997244479584,-57.23755924755824,-54.499137074484004,5.65523076572668,6.000000000000009,-4.913608905940638,-0.9697635091614065,-6.297282818471378,0.13650772721214555,-0.5344615980528243,250
-89.1866779741005,51.11139522307522,53.444726012818954,29.48763058195051,99.55623010812081,61.823930232893126,-56.88931989570275,-53.583845431109516,4.960529001918971,6.000000000000009,-4.986134053055953,-0.92189579343339,-6.205887527635286,0.12935146905970163,-0.5349981346769337,251
-89.3886047528435,53.56651016807346,53.44099067042727,28.892229970729073,100.42338374865349,63.633068319742314,-54.78799928699593,-53.19784735403521,5.3794395643389885,6.000000000000009,-5.092108016572525,-0.9947850628779671,-6.086670676140981,0.13470411379308828,-0.5357769892565554,252
-89.52525453097742,55.988262572579615,53.3541782213334,28.29882286208972,100.48420783222478,66.02032092767296,-54.48454868929222,-52.97451845386751,6.080260982281478,6.000000000000009,-5.1722427134843345,-1.0831731007153538,-5.986363406813177,0.1417394064682446,-0.5350158912211415,253
-89.76589702463644,58.59791288109981,53.32370091160022,28.29882286208962,100.35571389549172,68.27986506759186,-54.00449545224278,-52.499306266771,6.008933807153012,6.000000000000009,-5.242249816560869,-1.1231124798946817,-5.850675987979583,0.14238100001322243,-0.5300512664840876,254
-89.91338492339268,61.25868458506608,53.279758526466786,28.298822862089875,100.18704889175339,70.46853824098825,-53.55300504303995,-51.996024146459305,5.527041323079286,6.000000000000009,-5.418083632237501,-1.1516881453564505,-5.721329395064929,0.14243005148099938,-0.5360402779834385,255
-90.46322750870877,63.563559510016105,51.05164190246166,28.29882286208962,100.86286383938277,72.09894664981688,-51.143890109664824,-51.54854053306743,5.171004659907729,6.000000000000009,-5.629839660327125,-1.1620323793334324,-5.599962243214025,0.14093118334768853,-0.5456349992276683,256
-90.50239481351993,66.1365745246789,50.97256825698084,28.298822862089825,100.62634921470641,74.25684758154426,-50.51208588237448,-51.10554408713312,4.658466532754238,6.000000000000009,-5.8122215185784984,-1.1607938349065041,-5.403895743266904,0.1358360210543199,-0.5441315104926296,257
-90.28213538790781,68.64114672002466,50.73549057004657,28.298822862089697,100.96197409082463,75.7095401099194,-47.85262568017648,-50.45256312633595,3.7625846825922076,6.000000000000009,-6.071864575907383,-1.116034487753606,-5.28219493413802,0.1292334345638041,-0.556379780848462,258
-89.94510231016356,71.152045889105,50.48456079390271,28.298822862089697,100.4717054790377,77.67510250528045,-47.25871452732008,-49.78645427426575,2.9720027250605128,6.000000000000009,-6.4499786363893445,-1.0849060049337715,-5.184782247851249,0.12519499289886454,-0.5809451786469585,259
-89.48873566096978,73.62853218157146,50.194260792348565,28.298822862089697,100.07608154600291,79.64351292595013,-46.784599246302925,-49.22793897773226,2.261183321454904,6.000000000000009,-6.933220382813888,-1.0580145493614546,-5.135038303776517,0.12338324200444697,-0.6193897049288152,260
-88.98194849923686,76.06981151661351,49.95389377519501,28.29882286208962,99.53519782371937,81.5134585732502,-46.224449832101485,-48.492764241532775,1.1532031962426137,6.000000000000009,-7.464957729074964,-0.9818843166732086,-5.0339693755769055,0.11587442503107218,-0.6550134215492778,261
-88.54229447140249,78.48451727825164,49.80652138504137,28.298822862089594,99.50766072459685,82.62811289456059,-43.434841035017705,-47.55335757793733,0.1780699161534705,6.000000000000009,-8.040916116641899,-0.885120606666442,-4.8837983708670585,0.10550922673235019,-0.68592958491957,262
-88.18742512026444,80.88857115725494,49.65046359383586,28.298822862089647,98.92741393247617,84.21178833004056,-42.84419021903682,-46.32191731977978,-0.7315307486186047,6.000000000000009,-8.548161739226995,-0.8193395777936159,-4.7483258516465705,0.09816089781104212,-0.7101443688756085,263
-87.88348080518557,83.1839464027487,49.47994099617847,28.298822862089594,98.33337886781533,85.67212397507134,-42.228073246846215,-45.235592459918344,-1.0795311576852213,6.000000000000009,-8.918246621359488,-0.7877327931912709,-4.61515742653783,0.09332666426878464,-0.720933948786362,264
-88.00403926059013,84.97674161717475,46.99099310614713,28.298822862089697,97.68509092940235,86.91795506911107,-41.6491259179917,-43.703992698320185,-1.5264923034963933,6.000000000000009,-9.230378342114994,-0.7294759079334197,-4.486237427992111,0.0863492128066244,-0.7261227514401793,265
-87.80942412232505,86.93535753397444,46.88181763935436,28.298822862089747,97.1175645731964,88.09532549914967,-41.09015064617192,-42.30283752102286,-2.400701260817648,6.000000000000009,-9.530888940742038,-0.6166765741431448,-4.32217383801741,0.07449428195327656,-0.7232820100788789,266
-87.59657956619624,88.71394742298557,46.733051850662754,28.29882286208972,96.6718321721439,89.2406728807128,-40.593238615979345,-41.27305724219545,-3.18346284140623,6.000000000000009,-9.726026226848806,-0.5168568653375365,-4.198533053359295,0.06475443273132424,-0.7176401390490544,267
-87.72981048555351,89.93556393698056,44.23885093870255,28.29882286208962,96.23317690787606,90.26214853132991,-40.12839864623156,-40.592587076353304,-3.269879849787628,6.000000000000009,-9.852041545148397,-0.49904337734698845,-4.08994643839691,0.06147265535211146,-0.7084464900900622,268
-87.602519887498,91.32746511135345,44.178514592438745,28.298822862089825,95.41639439975106,91.51048198398306,-42.04853469012575,-39.98697748276058,-2.90286488415008,6.000000000000009,-9.939276687214084,-0.5765094472768016,-3.960173385174337,0.06440285789096113,-0.6920682139655995,269
-87.93946817890541,92.05280613177845,41.76583859917483,28.29882286208985,95.16610684401932,92.1593905457529,-41.69625049880803,-40.048322269653106,-2.482166580361882,6.000000000000009,-9.893053238522194,-0.684114723118461,-3.8550330801460264,0.06930797778920181,-0.6703136602546795,270
-87.52292588076966,93.26756241041163,44.07056956767567,28.29882286208972,94.97255475649948,92.62546622288409,-41.44311274068023,-40.02037964109062,-2.153700942626531,6.000000000000009,-9.732487701517204,-0.7443942536755201,-3.7942074963614725,0.07152813683009021,-0.6487014501264886,271
-87.48345825181144,93.85050656538372,44.033632767572875,28.29882286208972,94.96380249375532,92.93896951721635,-41.23949094702557,-40.103177958722576,-1.731596875052773,6.000000000000009,-9.432715254588489,-0.8090085083820705,-3.729853193974983,0.07352282123031607,-0.617546297505399,272
-87.44564384908577,94.12504591188423,44.0572987317215,28.298822862089825,94.42372985340057,93.53316928781193,-43.37828080194665,-40.22320381263955,-1.2740530548949418,6.000000000000009,-8.99859659851609,-0.8352841888797611,-3.630180699685952,0.07176243381034716,-0.5728432714362309,273
-87.04141185833012,94.51430014493933,46.56349289878483,28.29882286208972,94.4011456184874,93.41334142796418,-43.163150218913174,-40.62556272263314,-1.105714884209958,6.000000000000009,-8.555980139716459,-0.8854404601305458,-3.470996806630556,0.07003453230849913,-0.5202935240425212,274
-87.10722540954013,94.29179047921096,46.68116680455337,28.298822862089594,94.43806065494118,93.12332301359724,-43.02601787232353,-41.1172238153656,-0.7548376587065846,6.000000000000009,-8.11543842870916,-0.9285890153513023,-3.343752728863109,0.06862884670407783,-0.47497582391564097,275
-86.84608347134568,94.10058232936787,49.1476579857301,28.29882286208985,94.61351884393203,92.65557803291075,-42.98001597019297,-41.7567022831667,0.015409614066728606,6.000000000000009,-7.558109688799691,-0.986408223868262,-3.2718488914372705,0.06919413879710558,-0.4322977783038646,276
-86.97673516213891,93.30355296715945,49.254957881378495,28.298822862089697,94.8040193199441,92.00751893524041,-42.91429196206738,-42.568449050864444,0.9702221233848386,6.000000000000009,-6.910420434893332,-1.0515638031976953,-3.1696088166704235,0.06920293180190983,-0.3823596463925158,277
-87.08479612939747,92.32153341261014,49.34166382625296,28.298822862089697,94.50562203819578,91.82669163983142,-45.17492433764162,-43.601781602928874,1.5181170339619037,6.000000000000009,-6.26604974906044,-1.0758918838359395,-3.0770308629645315,0.06718063583846727,-0.3361595157903819,278
-86.69955362442337,91.4617573717757,51.7577564698054,28.29882286208962,94.56692018875559,90.80645029115693,-45.12245015101409,-44.205529423592154,1.0647800003525634,6.000000000000009,-5.566762216343523,-0.9794908266485618,-2.9808112392385433,0.058739836000373295,-0.2890764383838083,279
-86.64401461185273,90.06165704985919,51.79711326977118,28.298822862089825,94.48749164292435,89.52273267155803,-45.05672157316667,-44.67784987421608,0.18715595244716018,6.000000000000009,-4.959390991070382,-0.8753166530448702,-2.8707940687622786,0.05024883258378378,-0.24791384049200801,280
-86.58124122011995,88.4941211687223,51.7966755570286,28.298822862089697,93.96430290874449,88.79830506015718,-47.32329274496549,-45.570474437884094,-0.24114757331769443,6.000000000000009,-4.500301709939416,-0.8312806790439686,-2.811172507319801,0.046327051870447576,-0.22017337295551476,281
-86.15749722881888,87.05093844650558,54.11290156650242,28.298822862089594,94.08322958378218,87.47537102477392,-47.28676556535659,-46.58035538294434,-0.23082446509310864,6.000000000000009,-3.983767882357308,-0.7851531052636341,-2.7469928517510382,0.042308723463230974,-0.19033338099221506,282
-86.10783391598684,85.11794781008432,53.99903867275674,28.298822862089697,94.12584977954941,85.90686376276835,-47.236751730422284,-47.22875136249747,-0.8181017108109675,6.000000000000009,-3.3933456061030265,-0.664362521409759,-2.699044466970459,0.0351104586345095,-0.1592434748872448,283
-85.62451691297419,83.38904401814834,56.181033037355746,28.29882286208985,94.17808802819083,84.16181186246854,-47.193827498384124,-47.921447416755605,-1.22812117481443,6.000000000000009,-2.8834538963790983,-0.5803034488658724,-2.6512543540455153,0.029967292651024224,-0.13287121805114038,284
-85.62838443439317,81.31670075847238,55.998745771486824,28.298822862089697,93.67151434456053,82.96785654122196,-49.35948957153104,-48.85195664635967,-1.2829699618277564,6.000000000000009,-2.4049715656317687,-0.5501006502297289,-2.643593351743417,0.027956702161141177,-0.11040490956020672,285
-85.55656913319594,79.13249766344242,55.715601603889915,28.29882286208985,93.86189085737821,81.1123070504881,-49.32520235550288,-49.873228753568355,-1.2931467966677215,6.000000000000009,-1.8773133896315575,-0.5338148129931948,-2.659617810380931,0.026807435873969988,-0.08656837646562858,286
-84.9392211192574,77.11788620909635,57.665940145047394,28.29882286208985,94.03622195603519,79.17218682342795,-49.259741985580014,-50.951038085968605,-1.8260556690046268,6.000000000000009,-1.4238146045589741,-0.48326170823865405,-2.6461594020294816,0.023837187471618084,-0.06523274424355886,287
-84.75579495681731,74.73861998821522,57.311943757836026,28.298822862089594,94.23213293251983,77.1126856460082,-49.23391876689637,-51.90648567093503,-2.655122810840368,6.000000000000009,-1.0364065591967264,-0.40291195821337744,-2.6433388095266666,0.019688029833334907,-0.047374190772361914,288
-84.64120776802683,72.29586866970348,56.9256909432956,28.29882286208972,93.7099101251344,75.53218911506923,-51.229057265422256,-52.917933932056165,-2.5301688462312515,6.000000000000009,-0.6184695313942922,-0.37195092469139307,-2.6552642551101417,0.017896511745828445,-0.028253324797492114,289
-84.01500766888401,70.03807837262448,58.64005202733024,28.29882286208972,93.78750403567943,73.20040490530886,-51.08150899186843,-53.80353633131525,-2.749392909729852,6.000000000000009,-0.183460803354558,-0.3324202556739835,-2.699514944875645,0.015860181834591095,-0.008271767369509346,290
-83.66066634037948,67.38882463232783,57.96091492908578,28.29882286208972,93.82193740472042,70.73248334727728,-50.9718246142092,-54.54526284574316,-3.441882236661615,6.000000000000009,0.19374141616796908,-0.28086133266436936,-2.811037331883967,0.013541106224858315,0.009839495577770365,291
-83.76096619058333,65.32976489078222,57.47149403980527,29.975436220111824,93.17524968636036,68.82020022163812,-52.80032625387334,-55.47428013661249,-3.366276915017671,6.000000000000009,0.5442470777318316,-0.2941007399929518,-2.898037286960632,0.01417407972863348,0.027893382640638554,292
-83.38099576378067,63.50120092647317,59.176653582976904,31.5960577742393,93.42972613770822,66.1878521296068,-52.62293875723676,-56.543423820421935,-2.788491535358131,6.000000000000009,0.9128289571487785,-0.35097575198787273,-2.8968577017661215,0.01657353059474734,0.04658505857920665,293
-83.55576309469309,61.25824397922404,58.83041224289917,33.26577225128264,93.45673093690895,63.36175643953352,-52.22215261992519,-57.292475348321716,-2.724598665584497,6.000000000000009,1.2674482242262126,-0.3647776131586658,-2.8050407264796386,0.016337055257169053,0.0624730184223109,294
-83.75142291246722,58.9435615950509,58.536219326590306,34.91597557315013,92.39034804712666,61.035188352164525,-53.43430123215822,-58.02935182094056,-2.797712321921944,6.000000000000009,1.5621377596153674,-0.39200113827089983,-2.710527897524498,0.016796695658173055,0.07433022351968106,295
-83.0670459529466,56.984577993893744,59.92266742954162,36.720524172735,91.32155933035648,58.60138975483935,-54.67103217302225,-58.56465862031856,-4.177221865981199,6.000000000000009,1.8504186267487939,-0.3645229321702437,-2.7709874789537148,0.015467498858489045,0.08991379662160424,296
-82.98970520880987,54.664856378082945,59.303555034151024,38.574989362580155,91.1869180487176,55.42260750344834,-54.22022496560811,-58.783349734408134,-6.59596103884641,6.000000000000009,2.0798961276598,-0.31401986521432496,-2.8565141216224594,0.01307410271656476,0.10408700217646287,297
-82.92791560314282,52.265590241881,58.819407472779254,40.3046629802053,90.9091102749656,52.179967770595276,-53.64579418132989,-58.96525509085726,-7.954840472558945,6.000000000000009,2.2238238504536474,-0.31109176259339727,-2.8790689495115513,0.012829038303333396,0.11214698861067209,298
-82.75235315663363,49.7886719496592,58.325761628248294,41.96496095907075,89.52289335405543,49.566149085012036,-54.56839355550059,-59.16515285527212,-8.538860258891196,6.000000000000009,2.282863116868905,-0.331668601524348,-2.893601821560671,0.013844328464159636,0.11572579757750397,299
-82.4364146833421,47.154577484134286,57.824328910107305,43.06078370323925,89.25972237902351,46.21133528600506,-54.00088300323292,-59.52297796837962,-7.930300556386726,6.000000000000009,2.292527029489622,-0.4270779374667042,-2.866459912420472,0.018504887295101715,0.11524060111867761,300
-81.06253036688166,44.878230393287296,58.83487640915526,44.16119483215609,87.6440471113769,43.43891489087319,-54.61046251998706,-59.70431724793858,-8.30872224806131,6.000000000000009,2.2943990313678513,-0.4693658761932534,-2.848088465481325,0.020505372353246974,0.11464457894347845,301
-80.57750070061324,42.13859334214039,58.19786084337484,45.4511138072291,86.11982351916156,40.565511815600225,-54.7663990376917,-59.76901139095636,-9.206716447181133,6.000000000000009,2.243516658006432,-0.4688204294112289,-2.8226731067250515,0.020381764468661915,0.11110695226103848,302
-79.99728796036449,39.2800127577112,57.516415254011804,46.28760438315309,84.8278167471477,37.513071202189806,-54.34320500035938,-59.98969598491644,-8.94848215422612,6.000000000000009,2.208220982987217,-0.5385977875104447,-2.7516459985590576,0.023328838909186907,0.10668280085993156,303
-78.27680111406612,36.93180955096219,58.18961237474393,47.13126108584052,83.25811088885406,34.48695274823923,-53.57178239509871,-60.111060153458574,-8.805444789333686,6.000000000000009,2.1945149673628848,-0.6057858611168221,-2.6532799450712665,0.025710625432828794,0.1022870400043336,304
-77.40448542559078,34.28606730962916,57.64173803760238,48.243331120250076,81.60613905610283,31.44145754737134,-52.78742032483646,-60.0735837320372,-9.04795811108371,6.000000000000009,2.149597118565204,-0.6472508476217682,-2.6170611863528177,0.027332545686833548,0.09887231674801761,305
-77.26956984550593,31.117478520157633,55.65242057232499,48.93117649423352,79.98865885915922,28.384769944704146,-51.98784368606831,-60.19808763819913,-8.39334125271282,6.000000000000009,2.142084091260384,-0.752716515006539,-2.6442184356917946,0.03246989203797353,0.09966980420305577,306
-75.62966284264115,28.36573126541658,54.64310491531348,49.307197874304784,77.9871080366485,25.38189640690695,-50.7317516976836,-60.43664538809733,-7.417768402704099,6.000000000000009,2.149135889732573,-0.8958089306788318,-2.6321529584243017,0.03890206494164117,0.09968687707820552,307
-73.78911041193369,25.580575681285598,53.41989266181319,49.70356667361285,75.18275045330033,22.402150064004754,-48.64579699540094,-60.41711728320446,-7.155109609535887,6.000000000000009,2.16183990540485,-1.0069934282647475,-2.591849850589962,0.0433610493326217,0.0988362680414461,308
-69.55006182095751,23.323714163221414,52.17808922385503,50.0671992319615,71.87070538610313,19.4962626468672,-46.07575981935743,-60.29371509989287,-7.116432331459093,6.000000000000009,2.1560432285594127,-1.0760152020238234,-2.5832019267301796,0.04634351723919584,0.09831177427042234,309
-68.46208396137932,19.997921685306512,49.311332101935875,50.388229675800304,67.75380314394967,16.72804708976939,-42.673664276535845,-60.29592690654191,-7.064431755342662,6.000000000000009,2.144339659883268,-1.1606530224283464,-2.5548510744110002,0.04964708558170439,0.09678332131316633,310
-62.59790677875702,17.95270462047068,46.40853797189597,50.63573866013638,62.27994021929015,14.08721065958058,-37.926949487262355,-60.43198874607358,-6.837756797964595,6.000000000000009,2.097547236893022,-1.2711238440739572,-2.495591094624192,0.05340293975606281,0.09257824798658634,311
-57.290259296720386,15.34784611999708,41.71033564683885,50.78083610774401,54.31896131892905,11.70536974628262,-30.687507544788932,-60.49641364697138,-6.608616506411956,6.000000000000009,2.0318509803087963,-1.3600471320194556,-2.4599052397573673,0.05654712811961932,0.08849685957966134,312
-50.727252804132384,12.614197886786998,34.93727891642659,50.945764779153336,43.67292365320358,9.657554091611356,-20.78024844699436,-60.62120989943136,-6.966606545865713,6.000000000000009,1.9378182047094858,-1.4081033036556916,-2.469743178556875,0.05892291724261577,0.08484339542644015,313
-38.511308144738216,11.058606824683945,25.128216187453862,51.06901557308061,29.974025878695155,7.982370100689027,-7.657586170323847,-61.015653363749664,-7.082538077978628,6.000000000000009,1.822843379544352,-1.4653396143814656,-2.4718568868018336,0.061546164394986204,0.08000637085859771,314
-23.660880533036103,9.306863483993192,10.369731350671366,51.05154274308126,12.330500518666323,7.74832703978439,7.901345409406639,-61.3939665776352,-6.990500183265663,6.000000000000009,1.7338740773089483,-1.5286371050238354,-2.5199421089034346,0.06557812993310533,0.07773457798970074,315
-4.5638105444031005,9.32674780143578,-6.400631274977918,51.04295111375686,-7.845633384003562,7.328962774721565,28.14466789774737,-61.706097242648376,-7.549329275347343,6.000000000000009,1.6432715898060624,-1.53565685759309,-2.5610957450040677,0.06702199258963977,0.07498279619418247,316
15.03436416989621,9.326526154877246,-25.84280910493022,51.14775625134326,-21.739023177814786,8.608882668224036,39.93898468921853,-62.109202251559616,-8.735817804329395,6.000000000000009,1.5251917341011787,-1.5165890208268629,-2.5477364680932233,0.06594566652799776,0.06931232766170801,317
29.11321708302807,11.003715910798762,-37.52758218157417,51.129742643674525,-31.679343906011418,10.185594814229667,47.764993750880286,-62.751455513116944,-9.387136996928275,6.000000000000009,1.3820424257716175,-1.533179335342604,-2.544691007790241,0.06674306469937001,0.06288446966566576,318
42.37242487270205,12.577953026856557,-50.53309479057234,51.038732390825494,-43.47616004810039,11.246257845011163,59.447062677540536,-63.542437588669,-9.675891842469873,6.000000000000009,1.2131948222967495,-1.5263204429709492,-2.564997276641167,0.06712188681699979,0.05583106939825284,319
49.453264726456766,15.015411699857143,-55.183677964453274,51.080058768787396,-47.970094739419764,13.236282622220381,61.8244055969802,-64.29153796162547,-9.821372883841166,6.000000000000009,1.0488188638704508,-1.4920248368637536,-2.546589850102159,0.06528275251006907,0.04807960892600668,320
57.01334246919395,17.311955513993194,-62.487660700722444,51.18624158406372,-54.96477710984565,14.678625895956387,68.73835799728933,-65.08862679307913,-10.99340283145139,6.000000000000009,0.8913500583444923,-1.3815766111481755,-2.594805890760402,0.06165248822312222,0.04177347949491307,321
60.16462323629324,20.060571600560646,-63.173998578106136,51.296016906670125,-56.78489955827985,16.529773863261376,68.36775817566942,-66.14339212662375,-11.161454898353131,6.000000000000009,0.6279040851069805,-1.3234698142960888,-2.6347453558077856,0.060188597633478044,0.030264357992877827,322
65.03369223205411,22.085702315724074,-67.57084575973394,51.766975678059254,-61.60864682324935,18.165634718120906,72.90342819723129,-67.15524683081372,-10.610714920954214,6.000000000000009,0.3145968878609344,-1.3223598611907597,-2.561638940590354,0.05879856389942092,0.015382396816875109,323
66.5573710656249,24.448429868490965,-66.64363040560497,52.5483187406227,-62.23807636412539,20.177172012135653,71.36722236394715,-68.0857821991506,-10.718108827253413,6.000000000000009,0.033148396722674535,-1.284549029712558,-2.530022857300684,0.056680859153921744,0.0027156169429775716,324
69.6380193287823,26.510698328623704,-69.34344733760359,53.48900206538926,-65.56238446665378,21.60846305313672,74.39554342378766,-69.12526653558449,-11.701257782807932,6.000000000000009,-0.2659321882327368,-1.185905939649303,-2.511923776411735,0.0522386619436217,-0.010515507322313267,325
70.49119729338634,28.722255557029477,-67.73517978417858,54.639398240195,-65.26543937733854,23.361033648056907,71.90864123968309,-70.32708981518235,-12.131510008103977,6.000000000000009,-0.633233281808693,-1.142097272815006,-2.448108427136331,0.0493718042118548,-0.026006921838770052,326
72.71022117540981,30.385247052894382,-69.47037870643969,55.94552799626466,-67.9740653779209,24.600985236279435,74.25886266364196,-71.83922926398634,-11.937153995253455,6.000000000000009,-0.9971118970573979,-1.1367665638412954,-2.4615282255400897,0.049756792922636975,-0.04177993940762196,327
72.6377421629484,32.12191794616332,-67.08912648021776,57.51299527214846,-67.35217058857201,26.212308736604953,71.58989349129904,-73.41637693623743,-11.320250189654928,6.000000000000009,-1.3077617449252399,-1.1846012771098493,-2.438721291223985,0.051611287427521024,-0.05458328154753649,328
74.13759806906657,33.33765018484888,-68.21937322788239,59.239608541231945,-69.26916885777278,27.299523777103936,73.26256218802475,-75.00052160808616,-11.191427663315858,6.000000000000009,-1.5978140371731626,-1.22867525101093,-2.4395414127446955,0.05377630467903881,-0.06691554831565363,329
75.08716738491835,34.47684652574438,-68.91159321307478,60.81042267039978,-68.37804591483257,28.641323342325073,70.515085907909,-76.7138426433678,-10.219843924635173,6.000000000000009,-1.8096965276955554,-1.3032599739080377,-2.533696411402386,0.05942252799525786,-0.0787540765447093,330
74.1202778693821,35.97828886419632,-65.98604752731906,62.18792010433305,-69.71108907459688,29.476862895343096,71.74728585190907,-78.42422680253812,-9.243830447813616,6.000000000000009,-1.9887558611207954,-1.3885015493855728,-2.5527248112637535,0.06386698942869565,-0.08723489624438042,331
74.94816358489648,36.84913865504328,-66.63676962579642,63.441291331063546,-70.73104493932922,30.275575360752693,72.66249902650388,-80.03613536409595,-7.612793135711887,6.000000000000009,-2.197368543860185,-1.501772575249997,-2.522805830480529,0.0682996900057788,-0.09531428299607554,332
75.5813301019294,37.58497529372413,-67.10747707179924,64.48371887312868,-71.49936285309255,30.91348335760395,73.41643055658577,-81.60335496331912,-6.464387998885688,6.000000000000009,-2.3583989338691804,-1.6063332165686048,-2.535065394441626,0.0734395524223811,-0.10280167514499396,333
75.9176175547793,38.20109814464881,-67.36403512461027,65.3763831116352,-72.05235368943877,31.427429464642568,74.04881646002823,-83.04396175132365,-5.216055694039859,6.000000000000009,-2.4760095747583355,-1.7063253983091253,-2.5871162467398627,0.07964309364658104,-0.11009452333114757,334
76.04066626439527,38.7810204654674,-67.45533694307962,66.0731444657636,-69.75248493255027,32.10539930779707,70.32454419334384,-84.32332998690785,-4.610135875050913,6.000000000000009,-2.590818118578859,-1.760521650849618,-2.6823149056692057,0.0853427190072326,-0.11940059007358964,335
76.19713342174866,39.37869542051322,-67.5677280223908,66.4480281482098,-69.7500126231798,32.079186706840595,70.46607628688267,-85.44679513723545,-5.4387899616060915,6.000000000000009,-2.6983451981860673,-1.7414339983300455,-2.768332069241974,0.0873809880280816,-0.1283896593060686,336
76.1619345719185,40.033939968581805,-67.65329006108145,66.44685730211565,-69.26337726582156,31.728006928163094,70.23230457331972,-86.51033803186101,-6.189356662698104,6.000000000000009,-2.719289591234324,-1.6569293096602216,-2.8351832185475785,0.08540611733254212,-0.13257909586798539,337
77.52555008155647,40.06196361476428,-70.989194265894,66.20821317472047,-68.37899402942085,31.322676378159002,69.7899167998636,-87.35577980881686,-6.735662191750079,6.000000000000009,-2.6549206681694026,-1.6213003628019809,-2.9004637653927965,0.08555596651377667,-0.13236262884923966,338
76.99528474127888,40.22717603197081,-70.6984542447518,65.91792650691845,-67.27794634364103,30.77603229899433,69.18504439980988,-87.95386414353038,-7.12815005144578,6.000000000000009,-2.5872254671671597,-1.600167145310766,-3.0131668352693732,0.0878035152576793,-0.13388056894702632,339
76.28863444922376,40.307464888882066,-70.23035857510138,65.50481816546188,-68.79586810575303,29.32637944370579,72.67434736844208,-88.48438136475261,-7.752275806731298,6.000000000000009,-2.507481262786344,-1.5126445647290652,-3.1960846636492892,0.08834093388697965,-0.13753850517951158,340
75.27424379528686,40.21106343001277,-69.58957747265936,64.89296187184837,-67.21418464114079,28.253222577737063,71.62786248753946,-88.84487496725299,-7.7831081020238475,6.000000000000009,-2.3484031896606252,-1.4714882064628736,-3.389575363704078,0.09120714481038353,-0.13635390509667764,341
75.8313257395849,39.41262534555133,-72.29460090111058,64.20601756556708,-65.13518721987937,27.13432804970742,70.15633990041637,-89.05015139881608,-7.471735915309449,6.000000000000009,-2.1347968001437967,-1.4829692356696305,-3.53385937355938,0.09555572087727345,-0.12882782593153877,342
74.50154105120068,38.78004469444368,-71.43589184717418,63.63864484685463,-62.34874602656381,25.763604417083542,68.03252132521402,-89.14434937681989,-7.216615840681092,6.000000000000009,-1.8649951944364083,-1.4481671781537226,-3.6806309610647197,0.09688482779781538,-0.11677943290652339,343
74.74562960029888,37.5978234352361,-73.95497551895069,63.07523704501876,-62.090790274723055,23.659963424869826,70.04448730953486,-89.16114511183828,-7.744714616086867,6.000000000000009,-1.5899563370178658,-1.3876467468361664,-3.797957963071709,0.095463629554152,-0.10229609628812637,344
73.16802397595134,36.37878700200949,-72.82682290844774,62.631831458124104,-57.953168844659565,22.096324252653055,66.4493321403139,-89.02264534289421,-7.397720612458082,6.000000000000009,-1.379101410178884,-1.3923288228508526,-3.8613331611560775,0.0969409174257624,-0.08972890556934848,345
73.3393475549269,34.71989070528121,-75.21669991857219,62.25600114552624,-56.9367257890104,19.81714558660672,67.5104843659133,-88.74091835610255,-7.359941478938403,6.000000000000009,-1.1590768889696026,-1.3790059903962557,-3.931461864791811,0.09731608368468535,-0.07623562126641568,346
