JMW9912/AVATAR/Dynamixel/dynamixel_control/data/csv/poppy/.data/waist_test/3DoF (3O+Pos)/0423_1013_WMCA_Dance_3_dof_waist_with_position_adj_poppy_smpl_motor_degree.csv
theta1,theta2,theta3,theta4,theta5,theta6,theta7,theta8,theta9,theta10,theta11,theta12,theta13,theta14,theta15,frame
67.7442449727213,55.1695285941754,-80.42073597635718,34.516804500941916,-62.0906002596848,42.12311874894945,79.74479133830472,-64.44520878903653,-14.399843021523077,0.8601719300635369,-4.975333174475474,-1.2148182201712452,1.1558548581943344,-0.023586464409511298,0.10086228904518892,0
73.32895631531471,51.48577829700819,-90.83175394440875,28.298822862089747,-68.89660082969505,40.278789485526715,89.06344673002559,-54.31389984504751,-15.051752726686148,0.879796388663506,-6.191323934672109,-1.5794654912603847,0.22941722562729827,-0.006313151086067775,0.024900060390881225,1
74.1039722680021,51.434492551464274,-91.13769501278573,28.29882286208972,-68.57142697982422,42.244811973296535,88.0113472065365,-48.73943198831562,-24.779640277021414,0.8154774477192561,-6.882471335017854,-1.3146581877689218,0.5387779949108525,-0.012148137242658862,0.06508882079810101,2
77.07292397801459,54.38778687520659,-91.6918693743758,28.298822862089875,-73.49642903355104,52.70007224374469,91.38904155805979,-28.298822862089697,-48.02824790775944,0.5562823587591857,-6.0714878007679784,-0.23939131635551958,0.8775838288493759,-0.0029723883596152376,0.09336928879516185,3
79.7250544230603,58.22523616426825,-91.99902196474986,28.298822862089697,-76.66938448170093,55.15352614485567,91.4932489951761,-28.29882286208972,-60.863585687198665,0.5121625834385265,-5.042665929981131,0.9794284456153214,1.1669573390151013,0.02107526252397583,0.10276180412431768,4
80.73648554185027,61.6785440455217,-91.1824130893184,28.298822862089697,-78.01084307006298,57.70831663255801,90.33263078239742,-28.29882286208957,-58.68833616506712,0.42919175071439325,-4.403916781951703,1.8250566266628376,1.4490841951956308,0.047718154400389866,0.1110066149605291,5
79.60655658086226,63.42361259647609,-86.04337730989486,28.298822862089953,-77.63473634028873,58.856592228677926,88.28581878106114,-28.298822862089697,-45.072386176082645,0.4113410077183,-4.551753664670595,2.1944211976320003,1.1947491148721463,0.04691581249036394,0.09463208008167445,6
79.35724934591452,62.66552329122655,-85.78164265824272,28.298822862089747,-78.11460104006758,57.36371268943506,87.8794853936395,-28.298822862089697,-51.66095180222389,0.3934236840269333,-4.7976463996699374,2.0994901397670738,1.2711627043786282,0.04794523818012562,0.10616612622763892,7
78.89642566770226,61.090712024578394,-85.33112467259537,28.298822862089953,-78.64932192948599,55.49862080654149,90.06845564364927,-28.298822862089825,-73.15138175934284,0.3737695365836398,-4.60033958524314,1.5340561566321544,1.2828783400813464,0.035621051418715015,0.10283364802605738,8
78.31033011054544,59.63774168387758,-84.74457133579126,28.298822862089697,-78.82900864356117,54.47286432312603,89.74275152800946,-28.29882286208985,-90.0,0.5279151332589488,-4.771110604427213,0.566395192601425,1.275925952502456,0.013842200475781568,0.10634595541434604,9
76.89093895451143,58.64823239676514,-84.03433672772567,28.298822862089647,-78.67963471613605,54.035882221208695,91.89345772604464,-28.29882286208962,-90.0,0.685659749492157,-4.8472681841418925,-0.4803207470146785,1.288311239157697,-0.009609941569276042,0.10936476216702784,10
74.95790912903533,57.30827069461673,-83.02084487892238,28.29882286208985,-77.24738553130138,53.33902599007449,91.20328038416018,-28.29882286208972,-90.0,0.8316591777909909,-4.520406669301247,-1.47895705192068,1.229303520973729,-0.030792020074439857,0.0975208160053067,11
73.8445631723598,57.00502813269381,-82.6692096480995,28.29882286208985,-76.07664061602509,53.653199962618054,90.815954503004,-28.298822862089875,-90.0,0.8955700334879684,-4.2454368812422745,-2.1418500804637652,1.2628392211713222,-0.04632154895038402,0.09425548174141707,12
72.71091895057387,57.0421506341214,-80.65319994482236,28.29882286208962,-74.53990810947488,54.30670451133297,87.87795210154556,-28.298822862089647,-90.0,0.9285584767921596,-4.015063753429792,-2.469337968238958,1.3508497162482336,-0.05727329570596699,0.09549372332636073,13
72.25032168065637,56.82494601043415,-80.67403783904527,28.298822862089594,-73.6686176659052,54.67574775416102,87.74633850528038,-28.298822862089825,-90.0,0.9343688142772257,-3.61696269974773,-2.4917140391617694,1.4069816894151856,-0.06024835069509359,0.08967923654146216,14
72.82500161598266,55.42889290281359,-81.95156937794545,28.298822862089594,-73.60045224342424,54.212694050142645,87.8331792400641,-28.29882286208972,-90.0,0.9506517969003628,-3.4578652441554016,-2.576757284074924,1.208302027129042,-0.05370128380542344,0.07357794291341588,15
72.99745677458094,53.818871042423055,-81.38558836819784,28.29882286208972,-73.71217896569607,53.255106407510965,87.81815858890212,-28.298822862089747,-90.0,0.9658141124765031,-3.2671243707911786,-2.5480631893276766,1.0634215878591489,-0.04683367624762126,0.061139260385137985,16
73.95701898060908,52.75133293591277,-83.83330586559644,28.298822862089647,-73.65913249704501,52.542786963695,87.71672885845916,-28.29882286208962,-90.0,0.9611427224710648,-3.218606853740581,-2.438978663323437,0.94409154767308,-0.039836112585641445,0.05341883094609354,17
75.51959598596633,49.77964888641529,-86.03467058453016,28.29882286208985,-75.66959201441166,49.94771698538187,89.0186983507596,-28.298822862089594,-90.0,1.022623289086292,-4.692473932806253,-2.4688599852013833,1.5658741357520785,-0.06597412718786776,0.12943462584598173,18
77.89386676083616,46.716209009330235,-88.4054111831376,28.29882286208962,-78.16835740137599,47.580172499626705,91.14464344355073,-28.298822862089697,-84.03161641622529,1.1218442291457036,-6.021179864567087,-2.6607956914094095,1.8247221447889337,-0.08218561061192937,0.19377826299364515,19
79.12533080715457,44.86825569149717,-88.74340904251113,28.29882286208985,-79.92814708178696,46.21085425895724,93.5906648508391,-28.298822862089672,-78.193833400886,1.1547703272513279,-6.4373183120008495,-2.6213191189703418,2.282518556636857,-0.09999589368327129,0.25953108297933536,20
80.83357288863867,44.67810255175127,-89.58282683165332,28.298822862089672,-80.87823683225,46.29367862797267,93.08363835171973,-28.2988228620898,-75.52189099416402,1.2359273925675194,-7.4506862680792185,-2.641237775528942,2.7926260487398697,-0.12095669060702499,0.3681797916233716,21
82.0368014742161,44.772335569416775,-90.28370061093855,28.298822862089672,-81.12829476595667,46.485479248850005,92.49208853606652,-28.298822862089647,-73.69559848752351,1.265986650189983,-8.147843320615506,-2.6257145347030604,3.1980984798578826,-0.1352830796313096,0.461696653015748,22
81.33981211772439,48.653842122273424,-89.36753946838874,28.29882286208972,-80.26681092783609,50.25273147340074,92.02461714639496,-28.298822862089697,-78.83012764017538,1.140382668518615,-8.252149494828732,-2.5961388159229974,4.115278198746199,-0.16692518858602148,0.6029656378514704,23
79.610032509618,54.74148434675651,-86.15014709932993,28.2988228620898,-78.01599988776763,56.39265196754405,89.28278928774785,-28.298822862089697,-87.20011156276935,1.0171787386952995,-8.767847535035045,-2.66615448580265,4.808754162201307,-0.19515261444642634,0.7500937230846701,24
78.3211886823062,63.34334564593004,-84.93516329561037,28.29882286208985,-76.14814304536927,64.48918022732623,85.95328005088358,-28.298822862089697,-90.0,0.9104052542763321,-9.20480252292275,-2.6254085270762544,4.823062370437933,-0.19084894451032472,0.7898541155323099,25
75.95284279853718,69.83265593419503,-82.07758852270108,28.298822862089594,-73.9646911312451,70.18492411380278,81.39870848862475,-28.29882286208957,-90.0,0.898810960195817,-8.554786980001538,-2.2110341055412692,4.490585703161632,-0.14866059294738446,0.6815466454902288,26
74.94374507860356,72.34977185442702,-79.3750864273257,28.29882286208985,-73.14822210960907,70.55534015642374,79.07674815609026,-31.949156295804936,-90.0,0.9152890698924518,-8.10566043007447,-1.8524341383407121,4.1992610002866035,-0.11513842179722736,0.6024638932161699,27
74.09951038447575,77.78589466437191,-79.18202446525635,29.64717940613213,-70.99266341406667,69.836308028589,76.84263154751869,-46.526736521784166,-90.0,0.8813083884043788,-6.317112317998696,-1.622113726861764,3.7750226770253166,-0.09370851363637558,0.4211070467677411,28
72.44792423382874,74.26293261549505,-78.43392091262214,46.7340662683928,-69.81336555933584,67.86913052601598,74.68504295952366,-59.90470928080607,-90.0,1.006200479143617,-4.504995188982509,-1.3685894661641897,3.1052187624586565,-0.06774871516677479,0.24654276811151318,29
71.26497095122212,71.81797243308064,-77.18063644567331,57.754464289480566,-70.78443016119401,66.41106311462383,75.72089352218099,-68.48916311143529,-90.0,1.0084975209374782,-4.1500496084638625,-1.2085596002189902,1.9408051452796555,-0.038658132813560626,0.14148754917690476,30
70.94601017187709,68.5118178816414,-76.15911652139481,64.60243223899421,-69.86824085163819,63.024811754318634,73.3222770854049,-74.37271583901341,-90.0,0.8480089350837983,-4.519725029433952,-1.0489524785963467,1.194507299051564,-0.020953187305792445,0.09464400622425509,31
71.35622824057907,66.93888688735001,-75.57299483214477,65.77037101554492,-72.1165779423113,60.61252128888023,76.11983069920412,-76.26929204207471,-90.0,0.7692330935619681,-4.591238619230337,-0.8936343938884294,0.7771682170096786,-0.011737661794599829,0.06248990514743203,32
74.06492544292144,62.546224687208515,-76.97444180679382,63.910835753872895,-73.58714240533253,54.860457197777166,75.98415262952427,-75.86350220245603,-90.0,0.4399068898219084,-6.778033899565485,-1.068783981886141,0.12251346423575159,-0.002286118612940701,0.01456362626521261,33
77.72502775672083,59.00576292603313,-78.85346290512828,61.8418900689638,-76.77253993523732,47.592237055199554,78.49678550047925,-78.48834303277181,-78.41731580381064,0.17883409070281328,-7.956948394083785,-1.6098046961286292,-0.3011226356011474,0.008655608015060367,-0.042067114551241847,34
80.06118224587759,60.448937469923344,-79.17850504426663,53.35601503410158,-73.50896167416055,41.16464651067417,76.0056897405273,-79.6804215417777,-78.41731580381064,0.2314271632182342,-8.415301767378997,-2.853161036708874,-0.11698107524145494,0.005911295459524143,-0.017300289833703623,35
83.86148548444669,64.46089439161283,-82.49669452181891,42.52270874744635,-64.41988483138367,33.15642882548953,69.95777012644548,-84.19724348058838,-78.41731580381064,0.7690387644405068,-8.922527336202819,-5.05058680907163,0.15368605204747282,-0.013716268143746988,0.024146460898739282,36
84.72868561831116,68.45323607093633,-82.71698806596831,34.75653496589798,-54.227805858340396,29.87704950217499,61.898395563770016,-89.25185273571996,-78.41731580381064,1.257059472371475,-9.298645840398567,-6.4977925005096155,0.20612185601402133,-0.023727612636868185,0.03379031615560537,37
83.13915525382065,70.38364695346476,-80.22801240027339,28.29882286208952,-25.557188797780427,24.93140746182358,40.058975723913576,-95.20038816076026,-78.41731580381064,2.0420997463127337,-7.782833662304184,-9.11230143159334,2.933708585355417,-0.46418693324963595,0.41271651783458213,38
80.48688754172822,70.5319868204736,-78.77324218423064,28.298822862089672,7.237456625802198,23.02469303708827,15.105080001125522,-104.54831433500576,-78.41731580381064,2.8547249491272897,-5.409854441467226,-11.093083218738704,7.023298715088011,-1.337300685708866,0.7471830904119591,39
76.6162783686097,71.31510995082277,-75.01585404667676,28.29882286208962,32.71041107138266,27.990185263169,-4.506353963357094,-111.70572113036617,-78.41731580381064,3.417032690101473,-3.8351790281788096,-12.312316143985944,9.120645834011103,-1.9352388033351189,0.7662045303271438,40
74.51565163844742,72.9546136388028,-73.70429730891671,28.298822862089924,48.170892025774805,33.964619734760696,-18.07456876706948,-118.91431597901195,-78.41731580381064,3.759131203593533,-2.2304504161868897,-13.189377530801472,10.798329947442125,-2.4744289133024613,0.6551709137695386,41
74.63290660880628,73.00683419879076,-76.54664836643548,28.298822862089647,52.59734582767427,33.77476198244358,-21.733250010925076,-121.44806320653004,-78.41731580381064,3.971027194139452,-1.4976629040665874,-13.39410344847332,11.273434209013589,-2.6357579071665893,0.5555508292962275,42
73.79718836935193,73.35506343398008,-75.38243425277267,35.41314742717334,61.945220345803534,40.174361162492794,-27.406521514463964,-126.03591305593186,-78.41731580381064,4.024744903799227,-0.9284112195701216,-14.143983581906763,10.824650760272492,-2.692426934120193,0.43091428452519515,43
74.51931446543237,71.05594244034671,-77.55372427670184,43.46985049020145,67.10673038281614,43.596108907999934,-29.725988289173433,-129.95679163870017,-78.41731580381064,4.0556117108515295,-1.1191614092121471,-13.95540027652249,10.363717692010287,-2.540836844204495,0.4332857313994495,44
76.44440250852686,70.73463851964289,-79.04618956732514,45.08629615524318,63.30606975874059,40.72189569185985,-30.10633920824365,-131.03958945619726,-78.41731580381064,3.9660277980045766,-2.1814335348327463,-13.410298623959068,9.144367846683535,-2.142300633086768,0.5200296031835757,45
78.39150986369229,71.6025364761969,-81.28526242241493,42.41837091723385,48.42889355040472,32.595092870694366,-24.954833954217854,-128.13920796452092,-78.41731580381064,3.6181004955070843,-4.032974765671373,-11.922564544984033,8.544904725990389,-1.7547050954136347,0.7338754512026823,46
79.39496542041647,71.93657313410162,-81.19408302469756,42.81706951698204,44.028678293539805,28.517356912389168,-21.757117269206034,-125.86248203744188,-78.41731580381064,3.4438461644242513,-4.686533028482905,-11.241305130980745,8.301725284951308,-1.5982939674976313,0.7968316370389863,47
78.90326958498507,73.35479387132065,-82.11277572000459,37.125854238837924,2.19565167515654,21.784297243025154,10.878831696174204,-116.56297823524064,-78.41731580381064,2.697478072610905,-5.563335674465542,-9.016368681181268,7.702217347029448,-1.172572803398439,0.8294593601162148,48
78.67507029671852,75.71794233464517,-82.00668750977563,33.165017956700076,-35.87338351093369,26.246175914287093,45.419779985638286,-104.49931935569218,-78.41731580381064,2.127866724107856,-6.249774451268513,-6.936037293404292,7.265634186555124,-0.8356694410874125,0.8491190438635644,49
77.18398121053646,79.1316543398847,-78.36465398891187,28.29882286208962,-51.113766185360596,39.59217256186658,57.80224223630893,-89.7106694461724,-78.41731580381064,1.6174710208714878,-5.664847291539473,-5.448389316170019,5.87921907003119,-0.5323685170020307,0.6107441001867123,50
75.30688271776125,82.01538704006491,-75.78340566717246,28.298822862089924,-57.51492185692665,53.552636625072346,61.35943021475007,-75.50257806710295,-78.41731580381064,1.2212205305205819,-4.888914015240589,-4.187467620664869,5.485350176892757,-0.3799079492839125,0.48760842412615485,51
74.66638810612473,83.13374071739152,-73.08886887112013,28.29882286208985,-58.90150959510818,58.30566336923544,63.390601561775455,-70.34855475942614,-78.41731580381064,1.0858950511755938,-4.494167000514705,-3.905471742078689,5.09977118283131,-0.33086378862765004,0.41574146987927474,52
71.30083015869393,88.56006992350665,-67.47121480951314,28.29882286208972,-62.748300128171174,72.94558651312147,62.401125016123615,-55.498809282612136,-78.41731580381064,0.7325167016149229,-3.581978705898225,-2.7248151996722862,3.7329263541108357,-0.17025667661866814,0.2392854011071375,53
67.47051158621336,93.29170778592459,-61.722861588605475,28.298822862089647,-61.93693885787485,84.01726681599165,58.14873369430639,-44.248147608066276,-78.41731580381064,0.5233290999808903,-1.7633663444833525,-1.5997738447574559,2.0484250976139773,-0.056096458164809584,0.06407199333558358,54
64.21989701876319,97.05947241706885,-56.345207890358786,28.29882286208962,-60.743300776084155,91.57445638438541,52.420980391400285,-36.58204426563263,-90.0,0.42012609434094006,-0.19492659665391696,-0.8291653279843002,1.2689755499397513,-0.018316259028222027,0.0045202269719746115,55
62.259308944107104,96.4217334235012,-55.2187087324963,28.29882286208972,-59.11885875344674,94.08031859500274,49.39914359236226,-32.71018153694203,-90.0,0.3466097974016526,0.05949498216437495,-0.3400184309344979,-0.5411561358828713,0.003208797150117148,0.0005770854585950856,56
60.73143181895555,96.43779510711077,-52.58047159825963,28.2988228620898,-58.32183892006895,94.37556014261448,47.30296255096651,-31.958208516562497,-90.0,0.44062913329599507,-0.13297351192739193,-0.09708152873910351,-0.9414335076103795,0.0016130416266329248,-0.0021717038041158326,57
57.97409849205805,94.00278868131012,-52.33430248144897,35.02461230866344,-55.89593445414976,92.1229692129519,47.67899702422319,-37.04104434410296,-90.0,0.4467826043791995,-0.8542397955599705,0.14749776720631838,-1.475547658449763,-0.0035152612665173013,-0.022047481279067558,58
57.18796401450592,91.04690872073921,-56.17591538558788,39.40094340012374,-54.56927620395803,90.80980859824646,48.30492905102072,-39.62217618654738,-90.0,0.4921239237051817,-2.460934542022524,0.4838009515100392,-2.3729452474105615,-0.017938508314583126,-0.10236945227553453,59
56.6149339077372,90.37480359385964,-57.50648078534089,39.62219727868278,-52.97023184803525,91.47762072283551,46.763056039418814,-36.9666914826847,-86.01048622112899,0.5936283615789504,-4.311899849318263,0.7566479150664487,-3.53216814175051,-0.03854378724396084,-0.26758837198181146,60
53.815589741420574,87.01119240283325,-58.84792028917214,46.469747372201134,-49.42986896213328,92.69251693374649,47.913007797856245,-37.461505576374094,-90.0,0.7600073176736039,-7.005734138787039,0.8419692659439606,-7.196925224843526,-0.05080830876301809,-0.8886960869978442,61
51.402987887373726,85.66714455173985,-59.591147403040594,50.501607369562876,-46.368046619663524,94.30457669091318,47.39347559225565,-36.59487339762106,-90.0,0.9904057984961534,-8.989648767429864,0.982357553736806,-9.188363045573688,-0.04252271242826483,-1.4599676634176852,62
46.52971586173808,81.52313101488022,-62.72420854469489,56.76882023593558,-39.89597617718145,96.52031963496204,46.55539911487869,-35.70260581227706,-82.85612942537534,1.692684283304523,-9.626004978358276,0.3240565265164138,-10.701053301984391,0.10798001041827143,-1.8102638915946765,63
38.68655679111596,74.95992167990701,-63.93157133519583,69.39248978575547,-29.65588750438308,95.6745966435563,47.66872837170814,-44.848373987196,-79.78856075725778,2.1138682788835763,-9.218903454203895,0.04756237096188386,-11.89218157609155,0.18971045385269725,-1.9176763869996436,64
30.05783191012024,69.3470496914754,-62.79833131375984,80.52137710210386,-19.925416975217427,97.21611319016972,47.21143960754463,-49.736373531435184,-81.27158027795261,2.625255802980066,-8.336212922292512,-0.1980274051003012,-13.040580350825188,0.26176298639466417,-1.889668141262575,65
15.313902632118804,65.13106000290966,-57.85555961875624,93.28804192100957,-7.543797983905217,100.14797625422918,46.206838609345006,-57.85428506041073,-79.38251459760735,3.132848227335589,-6.922058640740473,-0.4763741493586279,-13.381227842644426,0.29999292674920947,-1.597171339003173,66
8.820526052178353,63.999244969345945,-55.30554121585221,100.16778462469384,-4.272394097925909,102.36711419371078,47.42991485645729,-59.21169220178248,-83.98383152026396,3.5161344519603728,-6.263870925993104,-0.6316548917620511,-13.684854899492844,0.32897395199913887,-1.470177671804162,67
3.059329891234022,64.50287408476059,-53.11326780935776,103.42216110039433,-2.4417386108342822,105.90348583521778,48.205481927843444,-58.6923087747943,-85.67619674172732,3.841481080153356,-5.43125330397809,-0.9724047427259588,-14.154764877319641,0.404413559798763,-1.3028671059740553,68
-3.056433397787654,66.71421238889516,-50.057582432553396,107.55610675024211,-0.6281332341201042,107.61670224910833,50.117242659533325,-63.29636680654268,-86.85442140837354,4.217902075137618,-3.9919628822746,-0.8325231981979453,-13.531168163741938,0.3063161445715471,-0.9125090049942003,69
-8.56614881394828,67.66002926487222,-45.85646659014639,111.68559787037711,0.06739485417569031,107.6571076416734,51.227263066083594,-67.33529437946868,-88.95097477670575,4.574740148305866,-2.476487019444309,-0.6154515546374807,-13.404969775819916,0.21034819092815213,-0.5577416066440536,70
-12.03700354245301,67.9258909962466,-44.67967369315469,112.52452383681668,1.7175171858809777,106.71730338288904,51.66419203208669,-68.93391325729604,-85.7929286896907,4.876058936890305,-2.2965918093611855,-0.04421869688943732,-12.84406118405238,0.0673337268936201,-0.5097032985888857,71
-14.052264329269047,69.25044571266284,-43.688435920301615,113.27306953024704,1.8064923935722796,105.20559372674613,54.0456133546649,-70.37868527891162,-84.39668928855829,5.093383183357966,-2.6195816390191204,0.3911506190925707,-12.241453137791193,-0.023420606367773364,-0.564715458119395,72
-14.79405468404609,71.81597673777472,-42.918566400476365,112.61028908275505,2.1719863077926402,103.51322292478194,54.71616471354248,-71.37469294350139,-80.42198598547962,5.072455602951494,-3.372497465914717,0.3581998112641653,-11.058513034619775,-0.006133272862840809,-0.6542850665415623,73
-13.457619395801,72.26461243017826,-43.36556065074378,111.9870980772497,3.6305862924514734,100.58124797242027,54.407598266998654,-74.69630305864673,-77.19277478547208,4.88139385295351,-5.550289302395469,0.06534482476686791,-9.201406059941165,0.06114840190247835,-0.8911807011055253,74
-14.272812805813352,74.54037715609178,-42.335154312089195,110.61307399996542,3.576586222650169,95.38121777963464,55.491320138915675,-77.97304155957657,-74.8985731786601,4.744090794600088,-8.058942286967884,-0.5010980573228928,-6.642995408647721,0.11302911152656797,-0.9351871558186504,75
-12.784478563328157,77.72458877700389,-43.285280600586496,111.61539676695605,7.1590019736563155,86.52906755715493,52.93022350665636,-90.3091931588253,-78.38589785787121,3.8184349901571872,-9.422488215196218,-1.2017925832699015,-1.9748776615436199,0.0476388284929394,-0.32696832835509726,76
-11.857839160347593,81.31656554905082,-44.83931726813031,110.78092288307211,8.095080358305964,82.6821040284835,52.668876435297754,-96.25402008991617,-80.57057446496819,3.256068901338384,-10.382429411281777,-1.7991129708934404,0.3732918790631909,-0.011697462627878515,0.06843061509838182,77
-10.991357234151163,88.16126897465553,-44.914418371039254,105.52566365898622,8.097779706382877,80.96499310195888,52.12659765034885,-102.41796324361724,-79.69845541716161,2.559019461327607,-10.827360568137452,-2.5701521169028734,3.940742618281731,-0.15400652959192487,0.7590766750816508,78
-11.261130888846337,92.65252768093083,-47.562819724750575,98.92459995117775,10.939840459877582,76.54308892966526,50.87609416813604,-106.34067371247961,-87.23000986758868,1.8179493657718755,-10.331024401208598,-2.6980944952636654,7.31289431871216,-0.26428226709969416,1.351139720601753,79
-9.224320927588183,97.3761397310753,-49.43058020277413,85.37781094241925,11.349158359094304,71.91373217771607,48.56831370195104,-108.05478586900207,-90.0,0.9666753386430696,-10.779085694160447,-3.043588701933842,11.212476201408965,-0.3945475826929006,2.1785299680146686,80
-8.874304467512001,103.6501921369812,-49.17751741479331,76.78342324012804,14.015598617427663,64.10024096063735,44.721618152113315,-114.54049050169577,-90.0,0.4460391426869441,-10.067105108873834,-2.7151118094328877,15.83230230878718,-0.36679583463884524,2.8775701544582017,81
-7.7209152650662904,104.99999999999999,-51.82101857356611,70.8386710738891,16.082420422825148,61.36550468878945,41.059099632390925,-119.66017378363122,-90.0,1.1866359724982356,-9.16612480165398,-2.318801723583569,18.166042190646635,-0.2717768799795931,2.9976580666970642,82
-9.485318109705988,104.99999999999999,-53.125380285673714,72.40098476227728,18.30738453789489,59.82888843679781,39.79670745345611,-123.44614826007464,-90.0,1.5890655597378496,-8.447307931954043,-1.7852832122371318,18.10832465134323,-0.1396855614870756,2.7331418209735636,83
-11.977580738878695,104.99999999999999,-54.483315234426904,74.54838791531931,21.67915058137341,61.6010317984086,37.81045127435416,-125.62847448923829,-90.0,1.7755711324594259,-7.3252939829040296,-1.3553585001692539,18.040510878428165,-0.06116609358532914,2.3477103753652315,84
-13.720691724934207,104.99999999999999,-57.17730359277341,77.5161724007851,24.662165744162245,65.65986020293002,35.26759568943818,-126.91233141734584,-90.0,1.8938529038170526,-5.808520756608765,-1.0892525637071382,17.05673386139109,-0.06481380690129747,1.7575319015410489,85
-15.090548158380612,104.99999999999999,-57.41425221316175,79.16144669413059,26.03428054039483,68.95892629346736,34.718827578898605,-127.6514513304845,-90.0,1.8561252952289145,-4.873935582475146,-0.39378310470380706,15.894817894675674,0.07856564076548238,1.353191032667339,86
-15.451479851533417,104.99999999999999,-57.1499045501473,80.54804780491861,25.811752414660877,70.10546825142505,35.56813965068836,-127.73712435458708,-90.0,1.770919582001673,-4.462793316122305,0.019880750032000703,15.012706123286641,0.15781304223022838,1.1577575681136443,87
-15.879039023499613,104.46170762063005,-57.52891058500644,85.08901793916935,25.47992063611112,74.55777621021065,37.11594654717408,-126.79775773731724,-90.0,1.5578670132618628,-5.797964086110374,0.16320655719246435,11.899649997039731,0.15887186781009982,1.1962247272347002,88
-12.882354400262102,100.74650649089268,-56.08741810446442,82.37268885083559,22.700477463583493,76.75232324827614,41.35762102233249,-120.8638061725676,-90.0,1.4478084270094862,-8.030800533940699,0.3137891824146082,9.243901830539329,0.15591621511073378,1.2946384518201475,89
-12.737579901968429,95.63227147794481,-56.88533075037008,89.04894611936516,22.799806712200215,79.86248900736766,43.805665430855704,-116.99577996611534,-90.0,0.9862949835943638,-7.907666211079113,0.6579661266566161,5.835019499841641,0.10878474174613324,0.8057216850536952,90
-12.767735040100302,92.20509972134226,-55.800187250545314,95.12151604253147,21.26190181359048,84.5258901146187,46.69396028963371,-109.62323456477051,-90.0,0.3030739373604503,-8.46264324902588,1.031951135744335,1.6491858460636843,0.0335620595995097,0.24491748828459428,91
-10.602345603773944,89.44423226446783,-56.713555465268456,97.43828573105034,22.154640615399163,87.27261236441088,46.18336154735347,-102.57779719614503,-50.394236093086775,0.2998385691244623,-9.086265773359667,1.302065890260937,-0.184217254597216,-0.00419293481752361,-0.029468126949251272,92
-12.528629836844782,82.77768175257603,-51.69522810245946,97.81744746249105,19.623575335720435,88.52776392947453,47.26495129071295,-88.91799452818283,-76.06781052588211,1.0405653506912735,-10.090955437904615,1.132744912228136,-5.012548562097717,-0.061538606180437265,-0.8952137500023735,93
-15.299940167475523,76.64424713579665,-49.573998977464555,102.25236730778352,18.490869505576107,92.28359243183517,46.72188651068189,-79.28698605477888,-77.59836330631003,1.9461121720496386,-10.897816660922825,1.3385667342561844,-8.91024927010662,-0.07804033627951787,-1.7246811690870196,94
-17.694615447574293,73.50966068527354,-48.18198678185334,108.23764844182932,17.82579524652576,96.68087144755036,46.4409188461634,-74.94252891011546,-78.94684671839919,2.5067974078086888,-11.359559622849389,1.2703275418631805,-10.875874918809481,-0.03776091167146655,-2.1947390722560214,95
-20.794341782415835,72.41721770746501,-48.076569261735536,111.86478159651274,18.057927997895817,100.89114701596829,46.271509857981656,-71.21472858653979,-81.53846435686357,2.901602871113696,-11.44722745601661,0.927384787293952,-11.85792666606099,0.053141416979471154,-2.4041123665330533,96
-23.842002395962208,73.43869625486573,-46.201810275329734,113.94881359325268,17.637701082114837,102.53225937388727,46.92810499309661,-70.13350540822422,-86.01518172155997,3.036884783927631,-11.308986659102066,0.630310219413685,-12.073008611987776,0.11900761923385458,-2.4109277419985777,97
-31.898254510556903,74.12468583462432,-45.16482968706727,112.11850151225566,21.533154002460083,101.34898526435222,47.39677082925071,-68.24857006322662,-90.0,3.0269734892466156,-9.065134373663744,-0.07740751434754416,-10.998685607596215,0.18291690268336883,-1.7429474992864942,98
-38.09250019527072,77.28939925671352,-42.165290885574336,110.30343906725727,25.879302914344596,100.68953797519504,48.50815654124137,-68.61619425530711,-90.0,2.961667841198517,-7.2044700153534285,-0.3383022901913488,-10.347748778175621,0.17908288670632833,-1.2955971352331803,99
-45.13296633564253,80.5035686242697,-37.03730369947042,110.29510466463256,29.180144808496976,99.80318241573087,46.88859228972577,-72.05492645174088,-90.0,2.9404694743469504,-7.0903489840274805,-0.043553081840532595,-9.762488461812769,0.11065693415867159,-1.2079088933897182,100
-54.22569952808531,81.45915864350026,-27.087119700587984,116.55647050205026,33.76733716414712,96.14482884546155,45.207029007334,-85.85994705114996,-85.39181569032466,3.03061560177067,-7.85875178675785,0.27354164740741677,-9.016442198954435,0.054448893666887814,-1.2428337020916502,101
-56.73482060730219,81.59006957652831,-24.67247906055603,118.81105702968783,34.970113344675774,94.63282692101902,45.391575433764956,-90.74829988392511,-78.65816505370714,3.034145922192637,-8.686254723123067,0.6371050757312094,-8.474376536446838,0.0005893826891362921,-1.2969486639062757,102
-53.82385406883339,77.05686920296733,-18.746972111382657,124.83467571885733,40.637770335923165,78.36097820717234,40.71648987561115,-106.53372378349046,-74.68703147782219,2.9256090361282383,-10.672168100819635,0.8778944085501005,-4.60608044082871,-0.036871861772198374,-0.8698920311887505,103
-40.52932477203412,63.569362297848706,-16.085435129607813,123.61781241687947,40.67591710288352,56.93098639725062,35.65090159516778,-116.53364345054254,-74.80928671064825,2.616678873756546,-13.24675250983828,0.03626801100848392,0.049063445565031755,3.685115117953869e-05,0.011549958606043683,104
-22.530504524108064,50.677383261254334,-21.448737711986865,113.91444798119245,32.27030329610725,39.940276999106736,32.90241617431559,-118.02674190400143,-81.27979155673299,2.0460355418518863,-15.653148926041444,-1.8269752058263253,3.957562023863281,-0.09269025785743537,1.112286019077082,105
4.591576422955751,38.89603176876923,-38.0845765477624,93.43762849807092,4.906447716776161,22.842555842722014,48.24000338145508,-106.92647741623583,-90.0,1.6717771943581003,-15.582930422163756,-3.368468695597504,6.55569089381485,-0.2950157548061483,1.8456850065145378,106
17.475795531415724,38.613330603846194,-48.21435312333325,85.92351883861147,-6.087226235308784,23.82779306789153,47.711584454347694,-100.90310035624235,-90.0,1.4708054268553101,-15.293575059187532,-4.446358022181014,7.646808324614822,-0.4747388567240083,2.1231962179729407,107
38.23023262641748,37.01500257310142,-65.50273120152974,74.07721013707685,-35.803591230585624,22.37303511258464,69.75949180213618,-90.45843926030724,-90.0,1.9182796495824395,-14.814961140024295,-4.854217815557792,7.327522870100451,-0.517545514863465,1.9712981320811305,108
56.028833966144546,40.868156392969475,-79.59427285700822,57.10191821726538,-56.970920848031085,27.324303049607263,84.41790125931551,-78.08406516461893,-90.0,2.129677800867704,-13.662726091036845,-4.9344944487646965,7.000804219762686,-0.5160636359890556,1.733445865002483,109
66.38274834803391,49.751862762563725,-84.89887685458292,30.884363709686365,-65.42752225853002,34.7078095410412,87.59533731206147,-59.68512977072807,-90.0,2.16827255143226,-11.850573909225373,-4.493524364559799,6.5022102755465285,-0.4433003024172593,1.389824384401209,110
74.36674700879145,51.688531052593405,-92.25120441507,28.298822862089978,-72.8761823970996,48.49929378629791,91.26745048762628,-28.298822862089697,-90.0,2.4882708591866467,-9.10616670447856,-3.4183473273386364,4.60215748454552,-0.24840984483835243,0.7477625271118106,111
78.99872909715079,52.74963137965372,-96.43839355511777,28.298822862089825,-76.89965503818934,49.83915426875755,93.70598597719867,-28.2988228620898,-90.0,2.5504703060378264,-7.605621220913311,-3.0333751596201584,3.241342590628079,-0.16092714664147512,0.4373956420489076,112
81.33981265948536,53.935678928549315,-99.78024734345261,28.298822862089924,-79.28885399379308,50.708867708838845,96.65211852338426,-28.298822862089697,-90.0,2.7352326870421093,-6.508555296870188,-2.6116069799951593,2.348106963001602,-0.1022690957814972,0.26999357792910683,113
82.78584041945301,53.84815084788842,-101.51275573802683,28.29882286208972,-79.94096299002771,50.946877012151376,96.24601729792481,-28.298822862089697,-90.0,2.7041787237329444,-6.0743537866021535,-1.9876634018482746,0.8810642987190237,-0.030027225446446378,0.09398983337437411,114
82.5115878004309,55.101891660328754,-100.5394810779466,28.298822862089697,-79.28288352414461,52.135574124479604,94.93666566186556,-28.298822862089647,-90.0,2.5338102409916177,-6.0495327141345605,-1.3147276672587282,-0.2508834767500736,0.005848333504306808,-0.026575604482703876,115
83.46961190065437,55.32638573701859,-96.1588225299142,28.298822862089697,-81.13154885743297,53.298539736035714,94.62230868784037,-28.29882286208985,-90.0,2.2689989736047775,-7.673370884484623,-0.6751659664123794,-1.9911591347198294,0.02833391707222822,-0.2678160506787026,116
84.9738428159521,55.13466046065672,-97.92681272999683,28.298822862089594,-81.8948928405369,53.40156313050562,92.9187212635585,-28.298822862089672,-90.0,2.195612313387883,-8.704980282776466,-0.22878653358142512,-2.8034156699739925,0.021819710120932822,-0.4287945082426776,117
85.77675540188697,54.70220108589373,-97.28055610032362,28.2988228620899,-83.56094552314968,52.835949400509705,96.18663816514841,-28.29882286208985,-90.0,2.095429437968882,-9.461308996233136,0.1932013140445842,-3.344282181663494,0.004834449704203624,-0.5573362564921085,118
86.70252412254128,53.28658186538042,-99.14180111799844,28.29882286208952,-84.0015271406929,51.396516282719936,95.99214758380862,-28.29882286208957,-90.0,2.0121951419615947,-10.229022813283914,0.33748929466286925,-3.710901171101856,-0.0005183140027162122,-0.6698800685436178,119
87.93470191074951,51.29796500378179,-101.0508980953791,28.29882286208972,-84.2062516645817,48.9624131908254,98.47166875883944,-28.298822862089647,-90.0,1.9964707602736986,-10.338163082035798,0.37163954231431245,-4.466191924497431,0.0023196029508641865,-0.8150296478940903,120
87.00744994003304,50.19206603859892,-100.28629589994054,28.298822862089594,-82.72199507813878,47.90999285842106,97.66620575381931,-28.29882286208985,-90.0,1.9733920972397674,-10.185731672277091,0.11093634139949739,-4.738785357261062,0.025878945189336634,-0.8508575852660828,121
86.9099277154999,49.23735252571231,-100.00481347780706,28.29882286208972,-82.27926340171396,47.12662294227876,100.19568668441121,-28.2988228620898,-90.0,1.9503236746182788,-9.706708481167409,-0.18967014169397198,-5.14983845854462,0.05683871794547562,-0.8789933702836457,122
86.65423122333317,48.35369596533376,-100.16559763132148,28.29882286208972,-80.86489145322648,46.03910367684318,99.47473033920977,-28.298822862089978,-90.0,2.0004319653799736,-8.928570628238655,-0.328018738832527,-5.148773325470225,0.06612544608349762,-0.806538470822523,123
86.3436672677746,47.92502853161682,-100.93748258134829,28.29882286208962,-79.36356707573856,45.93404401870372,99.16568420351379,-28.298822862089672,-90.0,2.101002551414866,-7.496066318218576,-0.4554287929135644,-4.89209996685349,0.06664400858139898,-0.641302358934877,124
85.04339792833163,47.85104004368033,-98.77516005731854,28.29882286208985,-77.36968743831456,46.22385653889131,95.93508928136015,-28.298822862089697,-90.0,2.188771198511996,-6.38780592634241,-0.4948969918036033,-4.443947230882966,0.05787443059912783,-0.49553983112895056,125
83.25350616738336,47.98694146476726,-96.98949772393237,28.298822862089697,-76.32389063568144,46.90731899531298,95.19375899268474,-28.298822862089697,-90.0,2.3943431548508785,-5.260461900895797,-0.8364730133428558,-3.3478838855307425,0.058064457532434464,-0.3066482143126279,126
81.7194697666852,47.76882352580717,-94.46068997697111,28.298822862089647,-75.18504325484398,47.13640256252816,94.4653690397463,-28.29882286208972,-90.0,2.4913068028493237,-4.702359148880851,-1.0066840899888898,-2.822600633363958,0.05546542554397069,-0.23086637580785313,127
81.11168716156864,47.49301522684783,-94.80195084805266,28.29882286208985,-73.98478556559314,47.30498258625817,90.90580207263322,-28.29882286208972,-90.0,2.5039733575079914,-4.5012291710450905,-1.1297974803231619,-2.145256685582137,0.04559077032532047,-0.16805294559890283,128
79.23895857719648,46.50211764537445,-91.67164194693565,28.298822862089875,-73.6878217103258,46.62847178075359,89.55335134367122,-28.298822862089672,-90.0,2.375117643623467,-4.857493447956867,-1.2106434038879006,-1.325895945421885,0.029422803817923365,-0.11234554725016045,129
80.06042570305905,44.39578338032801,-94.08787977783847,28.298822862089647,-75.72259982807628,45.11685166660735,90.73875691227227,-28.298822862089594,-90.0,2.240903919094119,-6.536336355978866,-1.2285135681682557,-0.27294320284403945,0.005966035962483485,-0.03125934160558179,130
82.06491221182094,42.05406403374853,-97.41501723016597,28.298822862089697,-79.2927334409463,42.9168734449363,95.2730209368874,-28.298822862089672,-90.0,2.222588923201637,-7.876274663824731,-1.3362650351764593,0.9188393734036419,-0.020616734680592292,0.12727653826716062,131
83.70957727239977,41.05627785399919,-101.00009783942448,28.29882286208962,-81.21576951156273,41.842841707678865,97.18875176135118,-28.29882286208957,-90.0,2.165286789869462,-8.753394622660625,-1.3166443542828323,1.9955852593976948,-0.04104454015597138,0.30799917506766045,132
84.67289494101516,40.90790344315964,-102.06481615351456,28.29882286208985,-82.99412306669,41.67388361079694,99.16063506131167,-28.29882286208962,-90.0,2.1152987241133,-9.591907646512823,-1.3253378758184557,3.2127551636253218,-0.060120256476278264,0.5447060401940176,133
85.12217482698833,41.87399573797648,-102.97344682652509,28.29882286208962,-82.67051519428658,42.51826075944284,97.78190545227905,-28.29882286208985,-90.0,2.0171975078567095,-10.36767652387093,-1.4363908975596682,4.209064947482819,-0.07891548187368239,0.7731909922683767,134
82.89390185962023,43.853205497618745,-98.08989100104725,28.29882286208972,-81.48848737792788,44.39737150936207,96.70445421404827,-28.298822862089697,-90.0,1.983076015084408,-10.389390939843242,-1.4823681436055645,5.07169030998516,-0.09211729637191592,0.9343875367029912,135
79.5574798613186,50.06661485834391,-89.13493494451174,28.298822862089953,-78.31086361288509,50.768071180106595,89.71165559436432,-28.298822862089647,-90.0,2.049963340527085,-9.509716634172188,-1.4466035595817925,5.113749612900981,-0.09254947153071424,0.8612089635665368,136
77.93113061466528,55.16365245212442,-85.39563658029095,28.29882286208962,-76.35132839979678,55.46238223911681,85.75102474706007,-28.298822862089924,-90.0,2.06516991740019,-8.906874396110668,-1.44800083683067,4.9935692002356475,-0.09351198446605735,0.7870461808906132,137
75.73713040250537,61.8141012644774,-81.99870661605677,28.29882286208962,-73.65542112365007,61.3408258631356,80.78165186017053,-28.29882286208972,-90.0,2.028658242366778,-8.249325063901388,-1.4285944829582469,4.413129982499458,-0.08646111937689949,0.6433911030375138,138
72.70640917040865,68.8430621503554,-78.92482741604368,28.29882286208985,-70.45510749840616,66.92783960112075,76.62886965411333,-28.298822862089875,-90.0,2.045278941496937,-7.044462341413212,-1.3642807676335331,3.880458931424158,-0.07680928310307877,0.48226002943588153,139
70.54224389423582,74.92309017721799,-78.30460703428041,28.298822862089978,-68.39339718940305,71.77776304200414,75.28344459366532,-28.298822862089747,-90.0,1.9973474820687558,-5.729935082813931,-1.164363665091315,3.048988446847228,-0.05411090755816332,0.3074354579114203,140
70.1495953419874,77.92684516878863,-77.75334806234112,36.43148036021059,-67.14445095529557,68.55923694252989,75.65082601913909,-49.74295940819051,-90.0,2.2159049888628988,-4.370286859889261,-0.7985366207215182,2.196105681126048,-0.02747443532118068,0.1683794886665708,141
68.31060836144061,76.26006724114052,-77.49201591781299,47.403704008924784,-65.70879015422818,67.90130729095561,73.21349604086973,-58.514948491845324,-90.0,2.204900146284551,-4.007982483289879,-0.49790771923861393,1.8702830187998873,-0.014151610988473536,0.13128621165971893,142
68.16330900330836,73.24445992144814,-76.70005014454391,57.50516855656741,-66.72268832691742,65.55880847983981,73.60097722391188,-66.24068740306014,-90.0,2.1302106492822346,-4.165548448292592,-0.09266659206928851,1.092212655153708,-0.00101288250558803,0.07955883067058352,143
69.10252161154713,71.76525850586691,-75.9744484496888,59.81948393755466,-68.3136997396546,63.79835390156327,73.97697412156286,-68.1386424970181,-90.0,1.9173482196902039,-4.880806070827526,0.13111278445283317,0.4436097482664481,0.001165466747418253,0.03787678394074743,144
70.67961993946916,70.55787183266854,-75.41842804407555,56.783294779576984,-69.68550307609937,61.52495531014827,74.02958370216778,-66.07308485187544,-90.0,1.7215881477632162,-5.697122015930147,0.29241366267175517,0.04057140696005352,0.00020952216124132906,0.004047433293017332,145
73.80733324846905,69.10425775291846,-77.12592907662541,48.13825215605116,-70.70841072866325,57.471432976824374,74.20333150677939,-61.07573881258043,-90.0,1.4855749799765183,-6.891288603696614,-0.03445725723253866,-0.5378781968465375,0.0006309599601003141,-0.06500498945024306,146
76.20848545374147,69.72276051084044,-78.83075686502005,42.08616102069667,-71.7011983319794,55.07117502788515,74.97714187786922,-58.40745139625274,-90.0,1.348515769629526,-7.901913691544136,-0.413077795536778,-1.3489289791804522,0.012021704049086377,-0.18709497103667588,147
78.7529838422095,74.45342713195438,-80.98533463935726,29.012022591245632,-69.12511380899024,53.69779038157754,72.86226510498025,-53.81054690317583,-90.0,1.3148104113317545,-9.024795118517826,-1.2978265199913526,-1.8396933843291134,0.04688746991382804,-0.2914855817612886,148
79.75454149003274,73.60842267165577,-80.92509766455532,28.29882286208985,-65.07873749127295,49.46449459801668,69.61369197671588,-53.311105940785616,-90.0,1.3333818337289547,-9.661352801257586,-2.688203661306481,-1.685424711302729,0.08449215201885642,-0.2857381427029643,149
79.07469727421525,73.23199717228954,-78.64053763386659,28.29882286208985,-51.19541982193695,43.69495818850557,59.4254008638441,-57.717104880080214,-90.0,1.593035309033093,-8.736500180713183,-4.8786015460065775,-1.124917090121382,0.09884706724526111,-0.1719278084776886,150
74.88813830054795,74.71040093180373,-75.91784731267775,28.29882286208972,-17.591800489877446,36.488633732423864,35.850459405231895,-74.86414395124979,-90.0,2.2297080918258496,-6.212698059412153,-8.303853131687061,2.0610415925866925,-0.2984046335237778,0.22968941177092173,151
72.07520148888706,74.6749683186765,-73.83765139641712,28.29882286208972,-0.7506211845855435,39.090126601256536,22.036983941924586,-83.06328525355896,-90.0,2.7425501778657413,-5.309239067820946,-10.34509050690265,3.3645637056440414,-0.606973177882447,0.3304215222053146,152
70.09736427244201,74.97990259790981,-75.82480727594702,28.29882286208972,14.594410561877824,42.191954260264446,9.837252157572362,-91.18442916245006,-90.0,3.0785494442995964,-4.095163184605712,-11.497558776806446,3.6505865555674126,-0.7352535814860424,0.28475609567554744,153
68.20877630639238,76.12631010171039,-73.86416995099873,28.298822862089594,28.53987615449519,44.00234237636293,0.2472413161851149,-100.43077893030491,-90.0,3.375582124750647,-3.0723071607892525,-12.622852357718623,4.812733566617164,-1.066572858040416,0.3031379353673861,154
67.4202006105116,79.34979933972532,-71.78179456359577,28.29882286208972,39.95189250407612,50.31056044832804,-7.509025382668898,-106.47813491431694,-90.0,3.7027864770931482,-2.4118603985598654,-13.744557435901166,5.44110263550892,-1.3183148701537262,0.2918552491772374,155
68.16596712509426,76.2560924658268,-73.85298306501639,37.019544230395375,46.815100497935966,53.60183951987036,-9.229443845428783,-114.47705871413467,-90.0,3.86476135195266,-3.566849811608489,-14.502479897046436,5.095103335955669,-1.3034754086825198,0.37553644145789516,156
69.60255886743826,76.54409023524859,-74.21473076678343,38.00052014378509,48.496815885142226,56.18866135832158,-11.554884997850172,-117.76987641538395,-90.0,3.9013205208470643,-4.113856964031497,-14.612965604044941,5.037543357487117,-1.2978988037501158,0.41930629217977616,157
71.4410112970129,75.74391673113423,-76.95930072581712,36.34312531336048,47.47275913729032,55.6593330911504,-12.391579102493681,-119.56461182830789,-90.0,3.804239447158087,-4.813278202799918,-14.377454338653788,5.037244505938324,-1.274096356787917,0.480031488285463,158
72.63695495172117,76.51615018438848,-77.88961071759392,32.57769383280173,41.05805952944333,51.53181725492358,-10.7709152806182,-119.71863812735592,-90.0,3.5231813631486526,-5.848039221120557,-13.29227058349233,5.46924073569974,-1.2685209572910043,0.6204873142391629,159
73.35709072632466,77.34510186771757,-78.93250655920045,29.843762149162178,32.50020984171296,42.51638086553978,-8.090141832983916,-117.1135905482919,-90.0,3.1739889213994137,-6.481956669627599,-11.54961223805224,5.972559297772386,-1.1892372980023895,0.7403557510791424,160
73.53890924493282,79.83528868638106,-80.87268486627596,28.29882286208962,-4.702469115584593,31.611342681818186,19.8891315547005,-106.49733049050343,-90.0,2.4714665356001864,-7.055520909763814,-8.408835405239367,7.077392025259518,-0.9963128396568802,0.9376564372473261,161
74.1242557155944,81.08335119266354,-77.07846491123972,28.29882286208972,-19.98350659373745,33.012630787824435,33.47415387887796,-99.64801015427686,-90.0,2.1644984603579553,-7.948170291858339,-7.314618765222952,7.599424920059381,-0.9107076498011032,1.1217835738501367,162
74.69626167587228,82.39074764587731,-75.43076280949977,28.298822862089697,-38.10469996941602,39.417139535668234,48.564112791142094,-89.51492525548306,-90.0,1.9727690639471251,-8.003116708332012,-5.9766032047976845,7.879775799271324,-0.7536328929054245,1.1604095693557683,163
73.69689383709024,84.74006771359389,-70.46779536083429,28.29882286208972,-48.10563954340422,50.49162118940909,55.551040230988974,-77.54413919828309,-90.0,1.7721833286391304,-7.550786935997185,-4.691427489152473,7.324298217079244,-0.5423447114489878,1.0062471582988355,164
72.4776561353457,88.31833410826611,-67.36950853734369,28.29882286208972,-53.52957451231884,62.54964925520073,58.098870993939634,-64.3789810655933,-90.0,1.5575846705659042,-6.426237588880069,-3.4501049438776086,6.095708336563831,-0.3325278667461335,0.7046846610499243,165
69.89611215231541,94.12819491033132,-63.04712752503931,28.29882286208957,-57.956017139751594,77.44021026782778,57.77858154642401,-50.36063346898674,-90.0,1.2800056975044618,-4.766776911000561,-1.9424084287572807,4.10801131520785,-0.1273973368770285,0.3472432446930156,166
68.62210860625581,96.43750861931468,-60.494400678863336,28.298822862089825,-59.17276942667896,84.44531156753852,56.97636672471692,-42.69276426368676,-90.0,1.0897701308557952,-3.544881943431901,-1.272316495074806,3.280750994661978,-0.06714489438419009,0.20520976138738684,167
67.03860421608442,98.58784910205158,-57.90301411904895,28.298822862089747,-59.66528408833167,90.03535358234512,55.78969322527097,-35.92771483961198,-90.0,0.9448134311633621,-2.070880360044736,-0.6775831621739322,2.4208407128717053,-0.026791295315730018,0.08811455000738488,168
64.93194411935215,98.50386653728265,-56.988888467216306,28.298822862089594,-58.6718811895208,93.46743032820535,52.101730829077006,-31.22185542314275,-90.0,0.857496720630482,-0.48558186254070784,-0.31253291731819527,1.4096150701198755,-0.007541687444830666,0.012040149423654481,169
62.304985779998454,98.51473313590036,-54.04051663648853,28.298822862089697,-57.7546702087132,95.17330101799597,50.72943179754705,-28.298822862089594,-90.0,0.8657534986440018,0.1411930921609241,-0.21597872760085002,0.35242342042947455,-0.001331147094797577,-0.0008643821147722457,170
60.271422968731656,97.22175913303158,-54.95841286834982,28.29882286208985,-54.85151343746392,94.82850064696979,49.67081375201559,-30.36780076814843,-90.0,0.6574969736399553,-0.8797477569483135,0.08178189973822272,-1.0980569341171602,-0.0014058486227082657,-0.016875419303524146,171
58.55964323866466,95.77181911049928,-56.84367962999007,30.74450182159023,-52.80841484753305,93.63112940535008,50.13799764544312,-33.40837858262531,-90.0,0.6316334899563885,-1.6125741469184225,0.34417821508990637,-1.7197024046290086,-0.009606473335230195,-0.048561035495073214,172
57.37447250053683,93.06518170678196,-58.30415682659622,37.461036222490826,-50.90205964279164,92.17646121223484,48.72279158589628,-37.41535451869067,-90.0,0.5617956973678742,-3.6659243443261533,0.7758887113398862,-2.966431667579144,-0.035318045813379606,-0.19101198835957184,173
56.59096053218809,91.03369689442718,-59.26811179384336,41.8091451939975,-49.84279567575341,91.66197743266302,47.65342570911728,-38.684094267384594,-90.0,0.43438575581453065,-6.314833491624561,0.9879371728930185,-4.526284550468814,-0.058670224050133314,-0.5034401412831484,174
54.74604405272544,88.21737248342187,-59.886870597638826,48.025909549428604,-45.91304605626704,90.3080227248078,46.74055865991979,-41.96309466123684,-90.0,0.4316789974660104,-7.961538633282725,0.7382640968207261,-6.232132161642253,-0.03357077638746078,-0.8742384831851968,175
51.38931009308759,85.28772771231732,-61.974120189964374,51.59178158420804,-41.694904231921726,94.55994632136077,44.89501382386135,-37.890663803870396,-90.0,0.7815270408111318,-9.222673204503376,0.32378141206815514,-8.85396581222157,0.0603744933970298,-1.4358666169002605,176
47.18222729048621,82.61320164356205,-62.587784283696536,56.789528273187706,-38.19159588118793,97.44597374190832,44.28306281862713,-33.98281573099488,-90.0,1.2892696666032766,-9.831852255151826,-0.1985107041653149,-10.655158441080404,0.2085227054871748,-1.8328829261883468,177
41.650079647782235,77.01610998197957,-63.230125533197295,67.50896581838998,-31.620469270555247,97.81367205534251,43.83416849224375,-39.67725679136141,-90.0,1.7840563719219513,-9.330399894716855,-0.8582161912019624,-12.031281910961589,0.3882970133579583,-1.9440259051766702,178
35.693999808887476,72.18128961958729,-61.630403801463316,76.75037683776911,-23.815156382275728,99.28269528113059,41.944983619445765,-46.09784812552995,-90.0,2.156585482561976,-8.248352411310673,-1.3497791934284444,-13.163154017265601,0.5292183430623169,-1.856637458947014,179
28.484090914520255,69.73052225314066,-58.723471360880005,83.45567426675194,-16.89318907323915,101.03791798241768,41.70837704118317,-51.003037470227945,-90.0,2.4798358491718235,-7.767598722271545,-1.796880539618219,-13.358452738396654,0.631045988499089,-1.7577672741674952,180
13.23835626331609,68.4952566486598,-52.42495084645316,93.66576615214667,-5.773366791323861,104.05605948931847,42.46288754161469,-61.02547576946484,-90.0,2.9613771300453173,-5.894892425966239,-2.295787579269047,-12.511466034565078,0.6410871901358324,-1.2273507514884883,181
5.935039435123583,68.03717257592909,-50.51159583025839,100.71826357343107,-2.001213175995678,105.34517006197227,45.95286043797317,-65.2170069864408,-90.0,3.3556313960104527,-4.910936591980395,-2.4906144803777055,-12.41597434660428,0.6532418956853943,-1.0004131959229503,182
-1.910673235853394,68.28397271870129,-49.10255632301574,107.06193620178169,4.4622488918582555,105.9059381243746,45.79475636378261,-70.5122177958643,-90.0,3.557659704814162,-3.0374792795845935,-2.817712917259211,-12.126904108251075,0.6612686754875119,-0.5758399779039011,183
-9.586070347043243,70.60673584745403,-46.422203368355405,110.92115872580794,7.291830498094062,106.28785823223981,51.678254112852095,-74.12185967361357,-90.0,3.8867060724441456,-2.3404766686517826,-2.524704294480709,-12.057236377747355,0.5799256199895934,-0.4334687277620002,184
-15.262750798396679,71.47817225177472,-42.4786529223707,113.41356763234755,11.502793215022695,104.85049248312198,53.381318876640826,-78.75239476238379,-90.0,4.104285242759572,-1.6098552780685813,-2.2673697981511287,-11.531287440315044,0.4862185484316716,-0.2761197726142421,185
-21.989125045381,77.64163997443234,-36.89428285694746,114.4936210337931,14.927530770925506,102.6699342456685,50.67403415921753,-81.14171491735718,-88.94565138182381,4.183865961107097,-2.913702590060758,-1.7697569152388262,-10.304651116677544,0.364179512134175,-0.4931393975679509,186
-24.848833529676163,81.61491122388078,-35.05887755404527,114.45153090902426,15.14759741554218,101.19010002617449,50.9470009948982,-82.3166698871339,-85.95364868801512,4.322668354882476,-3.9169362105805376,-1.426241222272539,-9.198932570052941,0.2790816764853937,-0.6088525952098965,187
-25.467482491044578,83.15990804467332,-34.309598100493865,113.99644569848604,13.911588340208942,97.37854418681519,49.533358496468374,-82.27232099268834,-82.37069871564941,4.414532746444416,-5.1609089933352275,-0.9204406160320214,-7.762749966798453,0.17228850110667301,-0.6905964933100851,188
-24.234980285199057,84.5736698803404,-36.277049812737566,113.24940142402288,13.826677009350114,92.7168208823691,51.03800138421354,-85.33804636026895,-83.16218312507287,4.193368310139351,-6.7033710110195655,-0.3112481356396697,-5.312701156622897,0.05794942349757655,-0.6222058925607176,189
-23.52283042883595,87.50491101821603,-36.53665326638427,113.3249032540596,14.418181686480722,87.04896065653732,51.91219903292021,-93.1709517407716,-83.6916245683216,3.8441361551464484,-8.235842794281746,0.25550506727422373,-1.9070281611577005,-0.003998109932826342,-0.27611492636075985,190
-16.47400569769765,90.01421601041784,-41.20336022877687,105.29578782470976,12.933035883706992,80.8566043486056,52.10314740569941,-99.20395766074846,-90.0,2.8933401608465776,-9.66693617717657,-0.6480511036037836,3.5370740813017627,-0.02196659571151706,0.6033469615168061,191
-13.84457704500692,94.95571349161352,-42.42760187789325,99.63336928337137,11.976810405479348,79.32259161522619,51.1856777158878,-102.55351885406586,-90.0,2.2960511819719427,-10.239648491142354,-1.245105856994232,6.25972810410557,-0.07626191272448361,1.1358977669824568,192
-12.26666942995103,96.83770555137347,-45.27856042926327,92.96641875462797,13.022783806389683,76.58310753584811,50.127656910029245,-105.34799933746241,-90.0,1.7565579204961534,-9.972650014417669,-1.5601174321827613,8.540521268583724,-0.12356384002567035,1.5133592594953826,193
-8.766162531519468,100.14245115509863,-45.18844176062208,80.99184627291487,12.00788996839383,74.13621672530398,48.41687746435112,-106.33411776175414,-90.0,1.272630852282312,-10.396277260138815,-1.9743983309528368,11.372440808732803,-0.1895308581647073,2.1113387781997934,194
-6.103570931600162,102.4804293590675,-44.82497676228175,70.78664142524423,10.598997319608525,70.79560130805821,45.82042759267892,-107.72542868889876,-90.0,1.0617485077067288,-10.672568470709193,-2.5858188710526275,13.767274452010374,-0.3162448479860175,2.6434174176514222,195
-3.912606959367792,104.99999999999999,-46.78982274078228,60.70306099117099,17.969859490715674,69.42037540670184,39.25837569380471,-111.19488401826658,-90.0,1.564843802800061,-9.685756113090392,-2.747172098153465,16.675731996916593,-0.388828015331213,2.9210928525705966,196
-3.4747209224336033,104.99999999999999,-46.86151600617855,54.71226428211103,22.62916211943638,69.33842387302802,35.322651099596925,-114.22955929471364,-90.0,2.1608365071610116,-9.06337365185,-2.775304591931644,18.076272964918115,-0.4213465471381795,2.9722691052346653,197
-7.061896655388364,104.99999999999999,-48.65236744013777,57.6071570756222,28.7818095826512,72.04892272883617,31.451712917923835,-119.41632869421424,-90.0,2.544950025558658,-7.629334594289896,-2.1802545703278327,18.48500318746933,-0.30169952141317,2.5455399399941716,198
-10.690971329363682,104.99999999999999,-52.80161164976845,64.53256681407775,32.05088894087817,75.52212541861368,28.918040390587883,-123.33459101259781,-90.0,2.6316910611022557,-6.707282298277208,-2.340905635930355,17.584664501040866,-0.39746342010297425,2.1447272014913534,199
-14.918216862984641,104.99999999999999,-52.70022311751439,68.28311929106921,35.93473708707879,79.1463778937887,27.145112223239064,-124.0340598938706,-90.0,2.555600606413817,-6.408917079134695,-2.590497815255574,15.810021562789803,-0.4670126998800532,1.8510610235437979,200
-19.32621009030401,104.99999999999999,-52.672025156922636,74.9855786547647,37.98537464797716,83.97179592257038,28.253928943320265,-122.05796156996061,-90.0,2.0375616582611333,-6.9553618601103055,-1.5144990307609112,12.135007770941963,-0.16459192807583192,1.5031004487576674,201
-20.064371729699705,104.39192505998548,-52.92096072866833,78.17193298945237,37.94443784675298,85.49458463666663,29.69680756192865,-119.8011076837875,-90.0,1.6327996599751209,-7.66008771114187,-1.091877914359931,10.23309309732476,-0.0731605417709743,1.3863446859700612,202
-19.93975296513221,101.70638459254842,-55.54197365507625,83.72260506974263,37.69760929909174,87.2674397842231,31.337615227354693,-119.02167786214405,-90.0,1.307692979199587,-8.424021105070826,-0.6300133180782277,8.537573960069793,-0.0005269599131257772,1.2667084271374083,203
-20.752148849828487,100.46381794790317,-55.970171884298544,86.53820583195663,36.28403480749859,87.05458435542647,33.962946395144904,-118.55519991442691,-90.0,1.1163112331807634,-8.62902720350127,-0.34226368953252084,7.61140227854034,0.030756310263959204,1.1547246685757813,204
-20.017881813973325,97.74492046233199,-57.18618662053394,89.49426263760208,34.88300856564972,86.59629766538669,36.373120684245805,-116.85718627512162,-90.0,0.8360599203190312,-8.568321522103652,-0.13645143649261102,6.362646070313327,0.03788407794188631,0.9575678615436796,205
-18.787319003323105,96.21622967005209,-58.651450560134606,91.67872703135866,33.55291757991973,85.5229594519099,38.29156721755907,-115.89286655714973,-90.0,0.6683444645326831,-8.595733021535356,-0.07902488743971925,5.867291315217413,0.0372028067424305,0.885792602876046,206
-16.331107883251438,90.68920342909396,-60.14822179831377,93.62005349890859,29.93789120811153,84.3831101950895,42.43612472138715,-108.27785382276647,-90.0,0.502939585192482,-8.326268342029005,0.10162568588558087,3.262531992612933,0.019436367760980962,0.4770642714766667,207
-13.46238072847783,84.96812091082028,-58.91585301682952,98.39370674530328,26.737341808942823,84.71364562979996,45.16700425433369,-104.7300643151651,-90.0,0.8051878281524232,-9.074519310759658,0.03851674694523394,1.1694397551000915,0.002702150704957414,0.1867599653179353,208
-12.847684385627081,81.75790678293248,-56.42374247212891,103.49185200583183,24.826195549124293,85.82110161672813,48.23618072931578,-101.59711317130784,-90.0,1.331641665266159,-8.633894065492939,-0.018971837146165575,-0.12540964621223172,6.28417285201546e-05,-0.019042257371122976,209
-14.663768317325866,78.22526596278438,-55.34996396623221,105.32403569990942,25.283748282856894,87.93858534332043,49.016529455882385,-95.61463743861789,-90.0,1.8215306076896094,-7.521291766589737,0.26703901678168046,-1.4579081071347795,-0.004404312737768265,-0.19255370174408068,210
-15.838520922595004,76.20928547736008,-54.730489915976015,108.38774132839612,24.40858235505211,87.65703809682762,51.16563912205992,-93.2744282784856,-90.0,2.1262628371482997,-7.011212535170721,0.3843012728805599,-2.2410021645869427,-0.00975145720906818,-0.27582809302234423,211
-24.112998768853622,74.32601883695267,-50.94516016386292,106.39071852276614,26.385653010236272,88.22057381469202,51.8052067659875,-88.12098021619924,-90.0,2.3034918910165896,-6.075130658408694,0.57225438362634,-2.5402588985332075,-0.01951448181374114,-0.27083176511544216,212
-35.62894045037925,74.1143096486368,-41.96315759232327,109.3119620398276,31.418676355395547,90.55002453551621,49.76294845247432,-87.56023132668783,-90.0,2.369446059964756,-6.042839614717875,0.9163600955500991,-3.4584667306677876,-0.04454491512756457,-0.3675537691039687,213
-48.6138921728344,74.66596464063706,-30.581092688741,115.44450596027502,39.303041324546435,89.91668878027701,47.799033935768136,-91.26959015175126,-90.0,2.2617960072695156,-6.227429603346319,1.4090109153286439,-4.733881494950885,-0.09566035043130953,-0.520754345588586,214
-60.38219680421843,75.2985607207655,-18.704371978122914,123.0235999757616,51.6716579419571,87.275163011905,39.6988117702457,-100.36758419856527,-79.35335165159516,2.0628947210662156,-7.703829790564554,1.619013763754653,-4.811376284278437,-0.10974352157887708,-0.6557522391892195,215
-64.97687401152494,78.685496521284,-11.542008308594509,126.6328275133787,55.923286006062696,87.56879749991032,36.0739729107243,-105.30783224041349,-63.77298106457687,2.069679779533573,-8.610765389314825,1.4211694384089597,-5.191007400437427,-0.09447837449534352,-0.7907734034345119,216
-56.7332837249046,77.25334891328924,-2.000315356794753,134.48748689013487,64.38397918956483,82.41311277276588,17.204456301698215,-116.92207129766065,-43.62534331105867,2.0228962359074933,-11.419644616044403,0.46564734510398414,-1.585558400917412,-0.008713514203302703,-0.320405682159418,217
-45.83425386120604,73.57603409008587,0.30402501781654473,135.90357657117534,65.06295792287258,74.1092419284467,0.48076498151010505,-125.71430143499988,-29.205603834776937,1.855804156047641,-13.725966930494364,-1.561679331758318,1.6846100943817712,-0.041218977968586056,0.41207028196194,218
-35.43503033979507,72.85799051509596,-7.505121354051827,132.85834545991926,58.33638238418055,69.93947631585645,-3.828578585518557,-131.15906397510363,-10.577848630830903,1.5242633335542792,-14.851005817416086,-3.8019473707727363,4.077414058625795,-0.24149728776511326,1.0895947672601733,219
-30.497204808856807,73.53290905481651,-19.436184898283077,128.9888581566829,50.445876494858226,68.54837614925951,2.135312781173116,-134.62139300947243,24.879474303951067,1.061331304150242,-15.217689350206516,-6.210248001886714,5.136948005086805,-0.5152731566235697,1.4196231414595955,220
-30.924982071775617,73.83914573952643,-22.41017538769678,127.13361912342147,45.95052387157951,70.60437815467189,4.306432832034275,-136.41104861659727,52.37476522856258,1.0557902832340478,-15.63807287417617,-7.0790415360777,4.761038286623743,-0.5571554246467336,1.354739238426799,221
-36.16303028441544,80.47912448680367,-30.544757662864225,123.46101256708657,48.755571472348336,76.1870989043681,10.300329828334652,-138.02654079664265,81.46005133893364,1.6393515922431776,-15.612503877196671,-9.072043173327515,5.84966394225979,-0.8827931043897708,1.677426695402198,222
-38.16711646444985,84.61507471315791,-35.552863163758694,110.58641864785581,55.580050222998764,77.97363662900777,14.09801425379732,-135.92195513154834,88.51184330399389,2.9742034705172364,-16.055622891499283,-11.382677685279187,8.19149452964065,-1.5356863365007987,2.4616022061207805,223
-39.157823531706356,86.95479406687471,-36.69219463650001,96.99970002172273,60.252294329392825,79.00273601873891,12.81184432889656,-132.19516324352296,87.75372481153843,4.123861463636502,-16.830385083950606,-13.709311302732686,10.04147418021912,-2.265880380530829,3.224256827647667,224
-41.310355712597556,89.13809643746718,-38.504868241879564,92.90702878287102,67.8843841031611,76.27354215969987,9.80648220296072,-135.22945824160152,84.31178429855254,5.409349330403644,-18.197397517294753,-14.920805456742197,11.916041719753867,-2.8861346627401727,4.196006618719919,225
-44.08637678094991,89.47969311514825,-38.0002202888462,91.8298846346009,71.72911949683497,72.23171122816836,10.288079926586093,-136.88370189083633,83.00107112923445,6.000000000000009,-18.417669420460875,-15.48387448574111,11.905394826490724,-3.0115719487444945,4.253683079094414,226
-49.435295319002456,88.8493811265049,-38.54275908687585,79.53124572499202,78.29041101329811,72.57224611256959,11.134065156015811,-131.2454137365501,77.97163864048106,6.000000000000009,-19.415669743693133,-14.871981036918186,12.061090364277526,-2.8968928363656037,4.530202039180625,227
-54.42552187710474,90.77831832696445,-35.73445988607324,69.87538165670603,85.81830684601276,71.31894088805933,6.31110350205025,-126.30826379353798,72.54232275536799,6.000000000000009,-20.115101163983127,-14.053379767827673,12.880272183574002,-2.848434049730076,5.010072996036243,228
-58.7768495113095,92.0996075720096,-36.759592935983775,64.11092787613092,87.85591631297683,70.57441970457356,4.259635007652818,-117.40386796114149,67.05371003043915,6.000000000000009,-19.7089274886849,-12.597890423088206,12.690896195650987,-2.46619192817275,4.799364244429379,229
-61.28154544657803,93.28812955993864,-35.823235935993175,66.43229785218051,87.02923784516645,70.29190694129997,3.455911081028425,-111.47997018873255,62.01723541168112,6.000000000000009,-19.058701575438892,-9.52432623385817,11.660316873803675,-1.6385213883414305,4.187057050194583,230
-61.63972972615232,93.28808421459371,-37.9919693914498,68.95927682868341,86.69984710490873,71.26073169985482,2.207023286462611,-108.32732053379495,59.349983064276195,6.000000000000009,-18.59518913137347,-7.66603190877555,11.167175716160681,-1.2064564498541508,3.8718200873227997,231
-63.51128991104956,90.55085192356432,-35.728347864327255,75.09726078498987,91.56597050521141,67.68087270113537,-5.31572038631251,-103.3613455075879,57.82913845194946,6.000000000000009,-16.131191961400198,-4.688852501885095,10.781119473183372,-0.6215753813131445,3.1802485018751874,232
-61.75974898396922,89.6525677070273,-31.774870150229127,81.06585945907213,88.70190970907954,67.41660221685656,-13.945783038819295,-99.71991799655945,55.400869906150376,6.000000000000009,-14.647123937995271,-2.226332049249529,10.215240824275078,-0.17086018673044745,2.6906678578498977,233
-60.89113852557023,87.17481433278176,-28.45966130341598,88.62268504100767,87.1578726237106,64.665515563841,-15.862157450687077,-101.96662012289202,56.04381487999052,5.817143199324975,-13.106436288472013,-0.8441857423133029,9.502762640437,0.03994955057187677,2.214156789184123,234
-58.59679444891737,85.85159536188644,-25.07512834926413,94.29572483909351,82.8382629761258,65.1689694244621,-17.535784840049093,-104.22295816189559,55.22513072314649,5.13421002078395,-12.241378790231767,0.05529686495064626,8.274619045347269,0.13759124197335104,1.7887870670897332,235
-56.85364642228704,85.5443213555201,-25.558330872407524,94.24691742229318,79.68812353792391,65.78640776925297,-14.138308298595245,-103.69898603249631,53.872737249965404,4.789326088639631,-12.209460330152243,0.11676169467699271,7.49800207253001,0.12162432918049049,1.617035256371111,236
-53.83696168111861,83.87224863978044,-21.08653657053747,100.89606563030179,75.54530714308295,65.2973425799352,-17.47001005784902,-107.70144121018427,55.56134750997051,4.105765280680461,-11.713866942696692,0.790405716855958,6.275035013640511,0.15945702833063125,1.2939610004879576,237
-50.74242551031544,83.51202351558581,-19.641887488071795,104.83309395770353,69.11397468985419,64.64389741428823,-14.033875562897974,-110.73992674470107,57.784839455648395,3.3418023779049033,-11.124426454026894,1.349151018987651,4.945764841924952,0.1605544750381488,0.9664241396315139,238
-50.1431252653405,81.87166056622209,-19.507960537465124,110.86835373306896,64.79181561410076,67.67362232970386,-11.800020399030311,-114.11496518032736,63.29456733063922,2.731169701578634,-10.028479676859849,1.666812181166316,3.3118108943914715,0.1147546649962884,0.5826029493276085,239
-48.49706909458127,82.48407749199626,-14.006337515062016,115.18764590931126,60.753007459707696,69.49730949551777,-8.524780230979921,-117.08613771355674,69.72815384650863,2.273318314473758,-9.419150308868344,1.7478139646989224,2.026633802057288,0.06862613024962527,0.33505658831783225,240
-47.36251729546382,81.622844245219,-12.972623330772876,116.66947357238259,59.01690726509394,71.83975216757787,-6.981226557174695,-117.73188106619361,75.51200495069205,1.9566323004370483,-9.097493876015523,1.5814288716987956,1.435213713195409,0.04300501281895522,0.22930644766619068,241
-45.30591739605719,79.17539005790462,-6.704497944971127,121.68271178081119,57.682278043569454,74.32675067148743,-6.063159559391329,-121.34392261284032,85.64069636269501,1.7550565378703045,-8.899645261121073,1.670309637993187,0.5290749328768352,0.015998818393462583,0.08277608358505814,242
-42.981363410398515,73.56676033959567,-1.6664052018408058,126.30155234915698,59.16101382876242,75.22649339422681,-8.314547006268779,-126.55155823013783,90.0,1.5543601732981385,-7.908724667987915,0.983782354312222,0.7954227666215279,0.014556912963691696,0.11040012920420436,243
-42.22310210213669,72.7117686848478,3.691499174291799,130.78573656627378,62.57040385364721,77.05378080892012,-10.194898033707982,-131.43894185087515,90.0,1.4250665333935175,-7.30712540365774,0.18052303743654924,1.4768166711317847,0.007131105871865132,0.1892911701922789,244
-41.550932779821814,71.3615231154361,5.72436119816547,133.72772390583611,65.18156987308464,78.13503166978369,-9.022587309877014,-134.0330491272415,90.0,1.3151561528028295,-8.04202160623223,-0.27237730623975126,1.9828605131599437,-0.00467079047174596,0.2802626312756797,245
-41.879183603347805,71.07096760880589,7.079813611462086,134.95975441040957,65.72664608170997,80.5249265770449,-9.241732675115161,-134.60830723637554,90.0,1.3002404283734683,-8.912701833371734,-0.624753815925862,1.6326158571598017,-0.01437012876063588,0.2562482486774516,246
-40.33928867494416,74.70014406213917,-2.630625838903706,133.01932676120714,58.41728204161857,84.97695050358604,2.7739545926244507,-134.87497716260495,90.0,1.2606728900608324,-12.298820182415435,-1.869641869133808,2.0842387885107123,-0.061347584133756336,0.4555030775057679,247
-41.74420610902009,79.21813840198936,-10.369507739132132,127.20612603562229,55.050515410701934,87.98694035867602,13.530251341871129,-131.32793546598847,90.0,1.5725745778803528,-15.031918384627412,-3.6939881882162875,2.5296472028842487,-0.15400009962680997,0.6825836550558652,248
-44.83172137606649,80.50949208334407,-15.757509052477763,125.43038203934002,57.23245353919099,87.05319647715979,16.1279297469956,-131.89590547022323,90.0,2.372700392684939,-17.514121317983985,-5.818433547877445,3.588231869331096,-0.3473872156499555,1.1424583328155873,249
-46.95325556988868,84.3064004983798,-20.31872891870115,122.66989529886617,57.88755404510114,87.2010183409933,19.180435538795038,-131.07743810159926,90.0,3.1558851020292122,-19.30680504123208,-7.492164013817627,4.238724609155999,-0.534337155306731,1.5028559383247484,250
-47.14517717351387,84.91189698723194,-22.942148464801928,122.11772447984076,58.288504998657814,87.26354836626479,20.636653587306558,-131.74588848917722,90.0,3.8997649765587252,-20.03504852933545,-8.319338972824449,3.9518523781662505,-0.563902787124512,1.458425261523365,251
-51.890489929098216,82.86589048480647,-23.436922988148833,115.26721860299958,68.51373815347446,76.85921989841056,11.77485324606146,-135.7106891549,87.3168670868375,5.275138646050082,-22.186676492848555,-10.020989351303186,6.000375948220436,-1.011221707541189,2.492953338429206,252
-54.10621554956276,81.53761989125817,-26.766174964486567,100.80186880009371,73.59845460180394,69.27464087699744,6.122058840557649,-134.5649111416977,81.75380072623597,6.000000000000009,-23.939538191237535,-11.738114064623966,7.672288380073404,-1.5022110408546299,3.4906562243114028,253
-57.82974990685399,84.63794368075398,-28.802758575325097,85.63682410071242,73.27379239738339,67.8469602867044,5.823582556259763,-132.49686164439382,76.12685917521611,6.000000000000009,-24.874615594933143,-12.52937999086041,7.931724664218249,-1.670819372234797,3.772364374945697,254
-59.89684294811846,86.65128643344752,-31.232299481751948,75.81882614877973,77.57729310942672,65.12083093943153,3.341719760317779,-129.26504935472025,72.20443694896349,6.000000000000009,-24.295884388472846,-12.709828923149411,8.264037088576009,-1.7566175184574857,3.83604327019885,255
-60.56951621467436,87.69698865579026,-34.23746209315514,76.1293342063286,80.45439115935233,62.49505638367313,0.13269661005175193,-128.19483882758465,69.6802030462416,6.000000000000009,-22.97606535044523,-12.664502671252063,8.479381809415115,-1.7841298519508648,3.70816842061676,256
-62.897415146016456,90.1084819581646,-31.49946043554727,69.10515126959481,86.47460307176286,61.981517725794724,-5.2197209637867354,-115.29372491219802,65.14814433637598,6.000000000000009,-20.76351267162796,-10.355467095722998,8.692899203824453,-1.4356263494802841,3.3941275208059576,257
-64.46689917403961,90.70066875472054,-31.862931043433314,68.94237749292363,87.37058040414622,61.866658223142764,-10.04313581976567,-105.87178641275592,60.81439498564448,6.000000000000009,-18.605059721540297,-7.661123005622681,8.225727434102557,-0.9622434751749002,2.834438687723673,258
-65.08195187978903,90.33901295880644,-31.99223974476756,71.91631278494341,87.36330985242564,61.677291633166234,-14.907844705403633,-99.40925770717975,57.389663729641285,6.000000000000009,-16.4291748339843,-5.171766961608083,7.779667922907359,-0.5754881867279081,2.332869972970789,259
-66.818976146252,88.5761811914339,-29.715331595321334,79.97535741841901,85.82071857311142,61.4011674823272,-13.477025301415894,-102.21839294283599,55.627401768533794,6.000000000000009,-14.421339355743765,-2.3425042931835915,7.416457951227936,-0.18904108957466145,1.9210916653266426,260
-67.05628419181485,87.20370194086006,-30.354242721152886,82.77934699034667,83.80639368055314,63.23772934617558,-10.997870282464428,-103.13513432866579,53.70649582026309,6.000000000000009,-13.562126203710895,-1.2224554094655644,7.40865287533395,-0.0467876138821563,1.7923593751387712,261
-64.91648031277306,84.7019931987989,-23.94284621099265,94.79026766767305,79.23806854964342,64.40234175457732,-11.03745667559095,-108.4097683344066,53.10892601377972,5.804132398225673,-11.527878933393948,1.9343210222482028,5.8115108626412475,0.26015043292017437,1.1736251449187796,262
-60.45217509910235,83.13075966882174,-15.831751931294207,107.48716528024609,76.51050278541236,61.859523598733,-10.488517561851369,-112.13405169667189,54.26590832562156,5.039965668625422,-9.901149440774686,4.1152844109933895,4.208272117686864,0.33421251245096334,0.7229576994125174,263
-53.13547388992639,81.9438485712639,-12.70272114941734,116.57626028265925,74.4853288434607,61.24801789627271,-6.073562920598288,-111.88350895487226,54.247452810973286,4.204882233275325,-8.868436318942544,6.277078008920122,2.8232825501757612,0.32517222236257576,0.4327864833927837,264
-45.707612586561794,78.72232029871755,-9.79562771570494,120.87559514290942,69.86008587958727,60.50203071022283,-6.606374324751461,-113.21035086507892,57.42292526164228,3.3733348547971196,-8.232029355705453,6.3534453014359205,1.625158942724819,0.1861905300838502,0.2325457549214705,265
-42.76297069237653,79.15118861920787,-9.599904720729405,120.4016865251939,67.02677732516419,61.113715797842474,-6.560144576637956,-112.9930595500644,57.9140831999002,2.880332924837379,-8.118389722388516,5.823374449542501,1.8301060136541467,0.19272164006867534,0.25806748739870744,266
-38.39002173364421,78.56816929121435,-6.067966022960884,116.96205452617986,53.379253457996676,65.90573851459528,-3.90286767578487,-113.80351386909771,61.13320694016486,2.409985823711394,-7.79129711335058,4.570501449027903,0.5181697440397566,0.04213055287324782,0.07071376436758312,267
-36.37750126514126,77.46920308937725,-7.413893865526326,116.5135542585634,46.61382176929714,70.33384825938258,-0.8873287802968944,-116.8022186553279,63.98052946644989,1.802485416931223,-7.891520074225824,3.4232192476120815,0.1652868278017212,0.010014749117727303,0.022896356942939344,268
-37.59516244231104,80.49455742871191,-9.264881920924235,116.82887540428592,45.11255674898312,75.6242974123041,4.058521646745088,-118.79348010082319,62.63167320054613,1.2313818779535104,-7.959348567462155,2.4090911578257352,-0.0670530492894852,-0.002842957559945343,-0.00937681451829912,269
-39.362897345804384,83.58587481788632,-14.10913848596106,116.39772314554368,44.24913807795468,80.66635365910967,10.930431813336718,-118.53302037012052,36.824238429182714,0.6988985348180313,-8.330077252054801,1.5522461629377868,-0.5308821585836718,-0.014178888762476067,-0.07779679260512468,270
-39.95591477087298,85.72825133279572,-16.0471563081287,115.82382600771356,45.666361453318146,83.3848178591672,11.150895522842626,-118.46318750197808,-1.823778370080301,0.585890696726504,-8.614013426802387,0.955216225143126,0.5062072068870754,0.008875131522504643,0.07664546765386127,271
-42.64348267472358,92.16386702650742,-31.150791980229695,115.50372217652969,47.11660089147534,92.22882287991646,27.199920895946835,-118.0682766436663,-38.97938203702732,0.9776841198206219,-7.923526369292463,0.23342781979959687,0.24845909063425464,0.0010969821298492319,0.034578259323430297,272
-48.64196342681044,95.15838947408224,-36.38535248250416,111.18520657049257,49.863275966101014,96.06053165701316,35.943026689220964,-112.5876249657278,-41.64058534121327,1.742421844110026,-8.960081849177,0.24566152503263697,-0.23041101013203366,-0.0009270702348163933,-0.03633084746173608,273
-50.406419500028136,95.3565102007175,-38.466721888931076,116.51697803639443,49.749509641635406,97.26620464982045,37.82907294685358,-118.04507325989637,-41.84474143220963,2.219212183864714,-8.856185090783654,0.25521521885060355,-0.9806674835868323,-0.003113116541751121,-0.1528298363681308,274
-49.144182523725036,90.99134516734749,-35.71935041905751,119.69665468116014,50.71711515858324,94.08771469169086,33.719526617078905,-123.4131044652169,-37.72019605358757,2.440462882492982,-8.718255659371593,0.5271852324079462,-1.3974527679375648,-0.01039413787666892,-0.21443018408131692,275
-49.36766115757559,91.80040068445074,-33.08810991043511,122.00579423005048,50.807063828603766,93.11067024719344,32.103523959037155,-126.8225137010231,-34.86954602962445,2.717051942593004,-8.981897198940027,0.7162501541165632,-0.9329853969191939,-0.010607274594341104,-0.14755559304962748,276
-49.730926361528674,83.48212168352391,-26.712378285345327,120.52570422139897,49.08559386809518,87.00767416484688,23.989592877559893,-127.57098241536649,-37.860617765234394,2.5568211378462,-9.665661756621724,2.076386098516035,-2.718673827709615,-0.08895392284549983,-0.46516830953674604,277
-50.63236630143292,78.58837465415631,-21.08505721852429,120.59346863823076,43.80389987139112,80.68355763604434,18.779305161394653,-127.29188385072185,-48.69006321402257,2.915372377844799,-11.634041667250921,4.029163251755663,-4.155177061168869,-0.2674227016131807,-0.8651526782827887,278
-52.19843086713478,77.40148059166206,-18.584103376154818,120.76394393121782,42.847070966062695,75.36156624845204,14.291258615791252,-124.01625903568319,-60.73813620798553,3.6077140686783773,-12.916951045856566,5.535716571761311,-4.4227843463534695,-0.3998841018983818,-1.0294241221201443,279
-53.47355423062224,75.7268263430189,-20.272659589930367,125.3798987842065,43.124750934552324,69.08807457485996,14.82208552961881,-124.08725284658321,-69.57541031264574,4.409523847112448,-14.528295978429776,7.733578299035703,-4.32920783013503,-0.5636571421666193,-1.1422357184911327,280
-52.95805825891035,76.96304067471402,-22.953370693532303,127.96830607803727,44.71408467526238,68.09681781341565,11.888095172861897,-124.59427983050794,-72.63401093529806,5.0051661601765645,-15.188440473737016,8.621383889706353,-3.095453130557567,-0.46286338839854363,-0.8521061714170172,281
-62.9799487311698,74.58313037247207,-17.286157616187065,131.89257965715117,48.7276927691541,68.92076940226175,13.12534036817131,-123.44608725577629,-74.08348123756369,5.940263975013397,-16.581069695909324,10.639569344205455,-6.041145520569506,-1.0840107617252261,-1.8522622772753625,282
-70.40560142509143,71.36172155931845,-13.509411718424467,134.54838847975444,55.095645882225554,71.03502979968678,15.264095399421514,-119.86804142845406,-73.49391750248473,6.000000000000009,-17.202484882247294,12.19209593896813,-8.136477738185029,-1.647785146467463,-2.6283288925478328,283
-82.81073460277534,66.87444110358409,-5.17586146044089,134.03466576455253,59.987370298259506,71.93612587320696,15.223117624425175,-114.83653835787638,-71.94428623377881,6.000000000000009,-17.563756244124793,11.846925541985936,-9.542651828955744,-1.8290921687572907,-3.1633593774657425,284
-93.55562478160924,64.89940319927553,0.6410732053864858,127.59863022719712,62.48264708329226,77.40033033022412,17.118680119126125,-109.28402761578751,-69.27423353966536,6.000000000000009,-17.04009785327762,10.866723050735272,-10.65933624653074,-1.815423028571032,-3.4281990309696653,285
-98.76774434688068,65.88947720195598,6.64571442850437,124.63334506821909,64.0152664121982,78.15639530458431,20.71403701655239,-108.0158700899821,-67.7279018481413,6.000000000000009,-16.5257298378166,10.564465165365537,-11.046147662573997,-1.8115636455792048,-3.4455818481162503,286
-95.57367556895434,68.037033807069,5.047835753698389,114.50560262047453,67.54370055527737,83.11401547242717,22.760951364468262,-94.46632102621278,-63.40655818497724,6.000000000000009,-15.18418546611485,7.652929196318579,-11.491901574295007,-1.2735222031477322,-3.246858645947089,287
-93.83759541033992,71.32051945181905,5.844487858724269,107.4605603417103,69.18267125409784,84.53714383917766,24.846013757752665,-87.08053854146956,-60.621995902227155,6.000000000000009,-13.79144328883392,5.106125678250089,-11.962967456259317,-0.7858885564648364,-3.023758132583091,288
-89.621779524874,75.55761370581071,7.6758735210998115,106.88779914663502,69.68893320562883,87.34961791048283,25.8844671583546,-87.2677464613767,-58.99591949936211,6.000000000000009,-12.56512805722172,3.1360194096132483,-11.678103379580822,-0.38635490554545504,-2.648999982613132,289
-86.25605284550043,74.32384052671749,5.562727082083836,108.99708776649265,68.43977661358339,88.00467136300703,28.66165898424014,-89.33494378624462,-58.80492631611812,6.000000000000009,-11.226586502942537,1.734424686461795,-10.95713328970448,-0.12885049139903088,-2.1931084673247163,290
-84.74817541120944,75.52972298185814,5.7846621049881595,108.62890748934583,66.63040554004314,87.68228572628698,32.22011082348434,-88.85347854964355,-58.484732872640606,6.000000000000009,-10.594466464955776,1.1627844870764996,-10.367411680681482,-0.037946169960819946,-1.947614625449525,291
-82.80403745819645,73.91752602161003,6.68461183338655,111.97663636493719,63.144954430464246,89.30977233191791,32.69851294252249,-90.83205945632757,-60.51830191769076,6.000000000000009,-9.626077730874668,0.4396864944231571,-9.772415885597447,0.06531497806518483,-1.655946853942698,292
-80.71843921011556,73.83725151184761,5.762453682635152,114.22890210416693,60.25405031308805,90.4700279943191,37.830383292514874,-92.49097687443515,-63.58450949472954,6.000000000000009,-8.464902173615007,0.10080232075686296,-8.459779629440728,0.0777943425733209,-1.2556403039079382,293
-77.25503276024783,70.77793656407133,4.427039016263907,115.98554968860775,56.72060557827243,91.23920818854964,41.66787772854119,-91.82653037455262,-66.42886098750235,6.000000000000009,-8.164422302395872,-0.489544268082566,-8.019655822162285,0.1494170333490582,-1.1421512695494513,294
-70.83864078578875,68.10707783711355,4.90233211922468,118.9529089838173,56.03669354500774,92.18218840975719,43.7052889002131,-94.40997759261023,-69.86276730947125,6.000000000000009,-7.9008181353686515,-1.2778352092903562,-7.091442115557636,0.2201729808915416,-0.9719734722180026,295
-67.30878182940297,67.72765025414243,3.35041262355942,119.42464051355651,55.054568041877914,92.97306630988514,44.456863339381286,-94.24900278998959,-71.31420407221398,5.906745474858461,-7.934471707409873,-1.638697567954665,-7.110356874101791,0.266352748655842,-0.9760222422206233,296
-61.601906239380085,68.44104180919473,3.748083644199798,121.82903672450273,54.54099519010604,91.66840523607179,42.93106627032714,-98.22696817774091,-73.99453483732218,5.528585752555155,-8.183747594535724,-2.092644892748844,-5.9620819121641215,0.26435397863257476,-0.8446958419400628,297
-53.93748699402233,71.52117634276837,-0.7808415488550339,124.0603117971072,55.02343809239796,91.07004874560519,38.03579490588442,-102.90504342012173,-75.90895630122932,4.8837166834171715,-8.13758737356465,-2.5765999394974366,-3.859731744398436,0.19395253157222755,-0.5457062472030245,298
-49.115546385045526,74.61200398252738,-6.172654966969469,126.90011324730911,54.12541733672834,88.78098579410982,34.404735172149195,-109.80300564506337,-79.5645214616891,4.376629818900682,-8.012579290794328,-3.3228828374953316,-2.225433001346083,0.1365560866979123,-0.31070088690947967,299
-49.448252348830195,72.47508358655067,-6.359981724146667,131.00104119652042,53.246666769196075,85.09912115020056,28.237239130904808,-117.48029928065546,-84.312661230265,4.00561797190726,-7.623481129847069,-3.8633091740736347,-2.5752473274254863,0.18318125877514194,-0.3406981519637892,300
-48.43370971642119,72.61053788818651,-6.235772931314239,132.73881927549047,53.36121407334492,84.68754721290298,23.196690409314257,-121.16246494381089,-87.37060582653348,3.8030000513824183,-7.712685351041673,-4.100267794027549,-2.9672837484102033,0.225019739093236,-0.3962270610018609,301
-39.986325063086355,76.91682763951418,-12.860787964006986,131.00751906812414,46.68220418672361,79.42078466013577,17.775903996009422,-126.17944041786814,-85.94963077870193,3.2637567453296246,-8.705277320058983,-4.583964891597433,-1.5049099682088634,0.1250971190287417,-0.22883366664904706,302
-32.672054610002306,78.2975106126307,-23.14161895972797,126.2081165842328,35.33582048973344,74.94501125428592,14.733998562146482,-130.49635080260228,-83.98038722922415,2.741419991625446,-10.893132457093419,-5.3446768293682725,0.10270033819937964,-0.009766419595200826,0.019772635673076213,303
-28.201642409508533,77.64312537047948,-33.388558721333986,118.50001219972958,27.641355745824423,71.51209724261454,13.329125784099078,-128.80432293506837,-82.7836166586349,2.348893095872,-13.026628167054033,-5.376666958167155,1.2212628738927698,-0.1149307545894948,0.2837178560187598,304
-23.651702667351483,74.79379135509043,-41.77307911802961,113.94096162467183,21.758231734545284,67.64658686113025,15.077883759043576,-125.06482126105253,-84.22288697593352,2.32015066799955,-14.836944238764744,-4.707902018049176,1.2090990825244028,-0.09959830552864453,0.32127996046240076,305
-20.17526323847393,72.62804568355779,-49.95856093671279,112.05058753908347,19.857911796713726,66.0953960481298,16.98165437529043,-122.54692816970984,-83.4539023227827,2.34205779554092,-15.54449043052359,-4.671847746793059,1.3120966139763242,-0.10707932687697357,0.3661197142512362,306
-20.25896854788065,77.33480218135739,-55.23961920887325,106.76610610257747,19.07896744277519,71.78614540030722,21.007080006898722,-113.10639929545312,-73.2458161831443,2.749741491391984,-19.056002406273524,-2.6617686712084905,0.7965330391255115,-0.03725989862366451,0.27537144544859066,307
-25.81760423751132,73.17732869169828,-59.63406140674385,102.56419634444393,22.904932723771385,73.27809115968994,28.65913768009925,-100.33106124220502,-75.63785851484744,3.2145363366444117,-20.66273128315206,-0.523250230087452,-0.9774791191567801,0.012685201539287937,-0.3685470089172653,308
-32.11883284581427,68.19714395834754,-60.47287970044064,98.30021842744068,27.22779058751692,76.46788321699482,37.42845064214935,-89.98894753995116,-74.4737341778062,3.87925423462933,-22.043234001781027,1.8369403685450176,-2.615390298494528,-0.06628241209681285,-1.0604009875243308,309
-37.34539764207604,65.12177846909444,-59.44266204136814,91.94337105501026,31.035771997946025,79.25013138530846,42.693023478850535,-76.27895791577166,-72.28316912612205,4.560669220913716,-22.53870496861751,4.087629833471341,-4.020506564470972,-0.2520768630031578,-1.6764139257639616,310
-41.94153318899346,63.25795835333901,-57.5417162347316,92.1367953011088,33.33917295015297,82.03479605553677,44.67873294671543,-73.87460051764018,-72.16043660937777,5.1264072646478,-21.384690261032766,5.125039367597939,-4.815437039946269,-0.3835717838124606,-1.9002387718695375,311
-60.53709789663951,53.60119128840382,-37.97226862939436,87.3203597847472,37.73471693616685,84.87391861734086,44.45588803869614,-65.32942725595308,-72.19222307363356,5.853357986823357,-20.2905837149404,6.71677745091779,-7.443882953496073,-0.7516406534930243,-2.7976171969379573,312
-74.28125966375758,54.41522198463106,-16.264229510252072,84.18883841688587,44.200921312273145,87.82293530191215,41.985262768860345,-59.71244528329488,-70.86946826676055,6.000000000000009,-18.473559907181137,7.788464483217838,-10.019139588248567,-1.1416319440298663,-3.443346566163352,313
-81.8774760448232,59.09335378329901,-1.9218176436285632,87.55332831048955,50.730018371785846,90.76549885635225,38.72540261928534,-57.599289340802535,-67.21229096983905,6.000000000000009,-16.821439664557193,7.016569337265145,-12.647118199616578,-1.1888085769682895,-3.956911116243251,314
-85.10414187719823,63.54136279264833,8.123091878547278,96.64921844364306,56.115016186944565,92.7263511992316,36.9432351494715,-60.79491397346575,-65.25062573702445,6.000000000000009,-15.082258963598301,5.494410669743467,-14.264937884338607,-0.9282780124800419,-3.9701187932785453,315
-85.68805276531876,65.70073455515471,15.681733650573198,100.95278089257532,57.41905105693908,93.04177680260362,39.05264471744172,-61.979068403784865,-63.75801450446135,6.000000000000009,-13.767685703033562,4.996118046191515,-15.207735546551016,-0.8595055142625627,-3.8545192092992973,316
-83.80210065142012,66.3711979674876,17.500892924591287,112.77063263560481,59.45093333491304,92.88630335242962,39.44269454671227,-73.46614988065924,-63.290487769342285,6.000000000000009,-12.124234770149874,2.7639039585017238,-14.639951018978666,-0.31524478865751787,-3.2000064039175724,317
-77.93627826976115,66.22982352991347,16.956883790226218,121.8653345904612,58.17527244041876,93.09813681039991,39.36124272716906,-83.67322351422857,-62.92892496307086,6.000000000000009,-10.743221117937418,0.8468405604458932,-13.813184145663172,0.10860218503124905,-2.620449432778492,318
-76.41882762963478,68.2996041299425,15.447229186857552,124.78570983508692,54.988511445539814,93.50621227697926,42.15802573610312,-90.82275883225314,-63.39347348583644,6.000000000000009,-9.20145753662555,-0.9785313400167994,-13.430129768860043,0.4843882535192838,-2.129754316365056,319
-74.34354275723983,71.6856936935399,10.095852944327008,124.4582871877792,54.426231382057395,95.42783666754089,44.600958530402195,-93.46159829606549,-63.98838241784703,6.000000000000009,-7.904096631162533,-2.492568872369102,-12.289752211465931,0.7188635474581793,-1.6367311853462643,320
-73.59385715966927,74.4725422597803,7.891724531745426,123.91318154944811,54.54368279455357,96.63668279837658,45.948774741356004,-93.23568575630634,-64.45215879476315,6.000000000000009,-7.217033570247406,-2.9458480375046068,-12.292758894076224,0.7997619687311034,-1.4777464823506872,321
-60.083327760586556,70.7474484604047,5.15350899538198,125.99206157823119,52.348622083716215,94.59508697523906,45.12565770114976,-98.30481492641358,-67.67679245352684,5.887635006627693,-6.870548175528715,-3.212137222350116,-10.00273088477629,0.6679358365140855,-1.1506332443097929,322
-77.0772736457366,67.63388018410886,2.488277053697792,127.8849511181548,72.21599225169243,74.38264707982776,31.846769202327806,-110.69646243815984,-74.48900724871221,4.626855830576486,-9.784252984437979,-2.3746833228046453,-1.7861792196027937,0.07996403444213021,-0.30683580251861087,323
-91.87362821685021,70.03644954628784,7.235194971113251,126.04855687424241,93.10744970621619,64.08760565257116,12.160685327306448,-111.14894119347498,-77.62861118743058,3.5220257597473172,-12.006815757028416,-0.7594911613329249,1.4912237199649223,-0.016080615113901343,0.31737169379588503,324
-94.8984804105279,74.55858355666233,9.868780356426095,127.47391909645336,100.91954779591524,67.96039172132726,5.83243565329166,-111.21363498608892,-72.2371779550659,2.4699900678696887,-12.225793137219418,0.17999433563624184,-0.3326984148637528,-0.0008601223268210477,-0.07209130551514573,325
-96.64862716267281,80.5841015576992,13.160800028507264,130.82466307777912,102.82445983080558,75.00401870488942,1.6177019311810137,-115.99348792574808,-61.067177368654505,2.508255390255578,-12.25006777246466,-0.03660734695265567,-1.128072718161528,0.0031485955637288645,-0.2449079976058592,326
-74.65176940389372,68.04440245760878,21.09026427183642,134.31746588544874,88.30772837667536,74.72660625859675,-6.015995866045496,-125.51191434321657,-39.02637404106369,2.3598169634747848,-14.983633653976339,-2.4070200059675098,0.600509190032764,-0.02528673849228878,0.16084649822111965,327
-51.15753782517021,46.09023582545612,22.983366819305516,135.53735013991027,60.95615884687148,63.109011293521405,-9.845532208997648,-135.06557093015493,-32.21988101438389,2.363544134598707,-16.92420194068392,-4.232568817944843,0.8920873767633968,-0.06688153642920112,0.2719258848132005,328
-34.7001179059432,30.086464770692416,11.863815398783515,129.34720360509021,42.88809538265299,50.47475354866482,-5.411120815317809,-135.5412855201373,-36.26827985428342,1.9758588884000017,-17.222706465949415,-5.695389155355479,2.000878363199181,-0.1979411022899857,0.6234240265513358,329
-28.96724340877488,27.428527728001665,5.004553837627173,127.28480250425636,39.13650952513265,49.49632386768556,-3.991999013558956,-136.62673356934894,-36.15238275502322,1.8263339370985732,-18.11958712532865,-6.664793251724581,3.0008646485454022,-0.3427300129357587,0.9901774418341601,330
-10.5857622905833,22.15019274763975,-9.21552877412458,118.58601268237437,25.576934965052605,39.329318549939885,0.9429521019503251,-131.30811325518698,-42.63419333075205,1.3829882461579344,-18.14448083964465,-6.428518142860592,3.746403870711776,-0.40329022379645496,1.2398824491176188,331
42.38835969405824,21.05540115216646,-59.30330104061133,97.62690449415632,-17.300854469608655,21.982230259691267,37.083951113308004,-110.85926343131644,-87.71779027783641,0.879671637653829,-15.43684063667227,-5.0021522902597155,3.9396718320587842,-0.31981233924928515,1.0984404363303453,332
67.14355891034789,31.400609947169944,-81.78446010608272,71.38341550149198,-50.67412009552764,25.337194606046452,65.29647402288886,-86.19179615861334,-90.0,0.9798058386862475,-11.400538025966982,-3.958498422473585,3.0106217816220546,-0.1964128999604386,0.6121610449347575,333
76.35936781462722,47.20968177806115,-89.44621568540414,30.71535397741404,-69.56913970781282,37.73204429436261,82.1204085931726,-52.67500211367268,-90.0,1.6018413069640896,-8.535736518843771,-3.2616672171568,1.918631398438099,-0.10570798652378027,0.28972115469192394,334
80.97805298170739,48.16554482051318,-91.37388604294499,28.298822862089672,-75.16437735116457,42.549800297613096,84.50107922256082,-43.32927311742066,-90.0,1.778608188272154,-7.893418510922291,-2.880176463267313,1.0885603418716032,-0.05384986863144213,0.1514289296701168,335
84.36139766059937,46.555877790887735,-95.11936888658133,28.298822862089594,-78.44371759296239,47.57682886712917,88.0531942694417,-28.298822862089594,-90.0,2.275785082658861,-6.052006572257483,-1.9675701156108363,0.024688586854562624,-0.0008523426863553001,0.0026177158587566726,336
87.1816010685024,48.97833833077486,-101.12989648253993,28.298822862089594,-82.05182267373738,47.48212824792369,94.08880483602377,-28.298822862089875,-90.0,2.348826033139238,-5.159051953267679,-0.5777892150255975,-1.1526417571140093,0.012717382495622733,-0.10394467892063346,337
86.68149692298772,53.660898083090295,-98.28412877660152,28.29882286208957,-82.5170439704543,50.16284399233057,93.015045858034,-28.29882286208977,-90.0,2.244325568990765,-5.318033581721729,0.6321475875852669,-1.7524807729257301,-0.016921749607439366,-0.16339824565926647,338
84.79732268184779,57.46524624635754,-92.25150832375351,28.298822862089672,-82.50917234581564,53.240592631817286,90.9727945181155,-28.298822862089594,-90.0,2.0337549942075372,-6.800690885613024,1.3635022948295281,-2.0473159017964533,-0.04470155789930096,-0.24496562329737107,339
83.51082799943602,57.69001475552863,-89.10002924007941,28.29882286208962,-82.83170214546234,52.90255083851205,90.6941378487127,-28.298822862089697,-90.0,2.07347467326411,-7.542842181079848,1.8364898124895859,-1.9573749959748246,-0.05886555691859731,-0.2601950871806747,340
84.84194846626106,57.32184282494602,-91.12840706203274,28.298822862089953,-84.03967196417672,52.330697716044924,91.02365164147432,-28.29882286208972,-90.0,2.0246769508303513,-8.63945883895635,1.922110782400223,-2.3596123442459604,-0.07268574199056023,-0.36003190848546995,341
85.26699736527723,55.97474057401037,-89.92942747231477,28.298822862089697,-85.51895680423533,50.36688802286039,93.81211031213151,-28.298822862089544,-90.0,2.185511256082769,-9.69911208500598,1.6773353304540275,-3.047844740249027,-0.0766418493120869,-0.5230274420530084,342
85.62712503376001,53.8350267101293,-90.74108311943496,28.298822862089594,-86.45195439543765,48.12250959161348,96.4021694757435,-28.29882286208972,-90.0,2.2438047760561477,-10.832235953255541,1.210030884853663,-3.9969341286647793,-0.05921508559353207,-0.7670760575892283,343
86.17593998950036,51.67800779658506,-92.0917771158984,28.29882286208985,-86.23129269635207,46.23837821574679,98.56208824068268,-28.298822862089875,-90.0,2.247610162563445,-11.366043812187264,0.870292181976104,-4.753634621703357,-0.03395130466382923,-0.9574478812897425,344
86.26607551697332,50.873116703813594,-91.74796080705784,28.298822862089747,-85.46907317389079,46.05963328276651,98.42720554250508,-28.29882286208962,-90.0,2.218878754798912,-11.254874130706801,0.6209941172659302,-5.110041100919658,-0.011080591032115606,-1.018024967820206,345
85.8825296695747,50.108318256245134,-91.39941063238676,28.298822862089875,-84.37194593090874,46.08750427437656,98.24723195242657,-28.29882286208985,-90.0,2.233245961984254,-10.8673531336835,0.5178043874836558,-5.358301933777163,-0.0011728153005913626,-1.0294558603858106,346
84.7315681093457,48.69355070736614,-91.7443103390655,28.298822862089672,-82.73648880139531,45.88781482775506,97.63692528798815,-28.298822862089978,-90.0,2.399132310124062,-9.418734242898992,0.11629474625114813,-4.9376326749058395,0.02512588856612483,-0.8185184297227761,347
83.5498522273711,47.328050718274795,-90.51357144124462,28.29882286208985,-80.76951078335837,45.504781729290215,94.03446324670368,-28.2988228620899,-90.0,2.7252283178534844,-7.44687952853218,-0.2642220007447193,-3.8160048213920295,0.03433966804343041,-0.4978446232363242,348
83.08623484188864,45.633007431842934,-91.8665465039297,28.298822862089697,-79.27542353607511,44.80641389122351,92.96128505454065,-28.298822862089697,-90.0,2.949218015137717,-5.766457466132789,-0.7629095989154993,-2.7490728304342036,0.04343932484354317,-0.27663574888051523,349
81.4470960776157,45.247096709226646,-89.3610425538321,28.29882286208962,-76.94636962948431,45.091122828943696,89.10853244440318,-28.29882286208962,-90.0,3.009051177081203,-5.052915390303845,-1.1353047304885142,-2.1489305502179064,0.04630675804948024,-0.18916742836878578,350
80.58389649694834,43.930528600614615,-89.13386552717402,28.298822862089647,-75.98629457189016,44.35087862628404,88.13347481910515,-28.2988228620898,-90.0,2.965132517122143,-4.767236603312009,-1.3662204580922692,-1.752055469224333,0.044159561673417745,-0.14545606591202156,351
81.34730633085601,39.55070957522928,-91.5371611720417,28.298822862089647,-78.08290695133644,41.01121607537367,91.33200760233919,-28.2988228620899,-90.0,2.7025377183799177,-6.140190058454206,-1.8562738695456935,-0.406556243077856,0.013407511923415872,-0.0436899485634417,352
82.51053076177884,35.8400730064051,-93.78774547612979,28.29882286208972,-80.92984398489374,39.158309454847064,93.13359065631622,-28.298822862089594,-90.0,2.5686497677722815,-7.824871805799962,-2.06218680935826,0.6883301572113524,-0.024448472931819083,0.09473912592765593,353
84.3157826230809,35.24804021701986,-97.43710847275669,28.29882286208957,-83.11580400022301,38.60722895103093,94.69050111039795,-28.29882286208962,-90.0,2.421839595153429,-9.366860582407426,-2.221329715536615,2.12035424747407,-0.076859081055258,0.3511847824800407,354
