JMW9912/AVATAR/Dynamixel/dynamixel_control/data/csv/poppy/.data/waist_test/3DoF (3O+Pos)/0423_1017_13_16_3_dof_waist_with_position_adj_poppy_bvh_motor_degree.csv
theta1,theta2,theta3,theta4,theta5,theta6,theta7,theta8,theta9,theta10,theta11,theta12,theta13,theta14,theta15,frame
-94.43494790221065,24.917594212411338,94.45756007044649,28.298822862089697,0.0,6.815183633119301,-45.34275525076013,-28.29882286208985,9.061519176957281,4.529334041110131,1.2498088126880578,-1.3807756505068154,0.16477843651807952,-0.003977889875868406,-0.0035892133048849675,0
-6.210377367958941,28.542263180544236,94.45756007044649,81.60416798558074,-12.732539129569854,51.15144871932641,25.891300463571767,-52.16559216304453,5.8835785941859235,6.000000000000009,1.2498088126880578,-1.3807756505068154,0.16477843651807952,-0.003977889875868406,-0.0035892133048849675,1
-8.24747248242124,58.09220965118321,94.45756007044649,50.30573517217598,14.421030545552092,29.67011293011222,21.9521060914201,-62.794538595322095,90.0,5.599172207444953,24.43505141301592,-4.0300740095940455,-14.984140641967501,0.26093130326225134,6.866208368720201,2
-6.876267184109642,57.8932464953362,94.45756007044649,53.61430968849726,13.1340925379411,28.95968068781374,21.15248405728152,-65.87516199986271,90.0,5.8374957036342,24.284220026265693,-3.9478977510013635,-15.297074530524686,0.228381265418582,6.958951161381802,3
-5.087536353617648,58.03831230886895,94.45756007044649,56.131706606561494,11.29481303691714,27.016826349947443,22.92467755271353,-69.12979445543841,90.0,5.952530982838052,24.114297469178528,-3.8222112251013973,-15.63956286143132,0.18094784575192405,7.055320460415963,4
-3.3001870062944194,57.900746783178725,94.45756007044649,58.757909379244516,9.61362412208884,26.47952239687745,22.375017620207906,-72.32446566392248,90.0,5.853315933642408,23.674568091417335,-3.806552324085771,-15.789631042780828,0.18462780173945575,6.978978502090151,5
-0.9200310613842618,56.49178518983648,94.45756007044649,61.80183115120984,6.075507482888908,24.97848902332614,25.425771809347804,-75.4111410654832,90.0,5.677198375184863,23.027499090172366,-3.869746623656522,-15.783863883931124,0.2270518583047451,6.769426815079508,6
0.7337001546055719,55.97027275038983,94.45756007044649,64.75163752419192,3.967797774674955,24.56864484439758,25.104105202246956,-78.57938458740928,90.0,5.498800430678555,22.346535055809802,-3.919538805045783,-15.81009048267964,0.2651226439708327,6.564124884379178,7
2.5042429648843925,55.461158035577235,94.45756007044649,67.64979692356435,0.39089606324009546,22.9743818004766,28.073860431611557,-81.63652988146845,90.0,5.317857925768122,21.65130467911035,-3.909429938494252,-15.825666685616545,0.2864681840209762,6.349472753120424,8
4.020463771150956,55.321903290384476,94.45756007044649,70.48189583178663,-1.5860662869088502,22.721478844638284,27.625608938309174,-84.59348269694907,90.0,5.119002173150807,20.939581842893496,-3.8735861137577747,-15.795946415267377,0.3024845759743385,6.1129462322456005,9
6.429917537320475,53.900997567384856,94.45756007044649,73.20184289254495,-3.7815398943588194,22.355261336835216,27.576861891390596,-87.52926112663758,90.0,4.928627151927301,20.189999597197573,-3.843065971909979,-15.74617566044773,0.3218660598128801,5.860401592416145,10
8.097831363852356,53.65674156911546,94.45756007044649,75.86903237538958,-6.532297751598302,21.462560883468257,28.726940934196293,-90.428551705327,90.0,4.681143230249925,19.4519607848853,-3.7408650051731156,-15.679469462565857,0.32040648211963113,5.606518362235668,11
9.86787820810563,53.51592324497524,94.45756007044649,78.57754519810757,-8.974972483248916,20.567903682694126,29.419655370280772,-93.2885309407691,90.0,4.347654932555421,18.67198281558148,-3.5578603746971713,-15.614365556181387,0.2973153305219963,5.341769757886356,12
12.375459806463915,52.28470910685532,94.45756007044649,81.20340580465681,-11.173227308906085,19.542843425912583,29.723763833629008,-96.17568699634519,90.0,4.029436886828706,17.852353596500485,-3.3640372906043585,-15.622603781128436,0.2709129076592668,5.092956146830381,13
14.072659604562373,52.37795447606385,94.45756007044649,83.70792443845109,-12.624841509775143,18.555003019305207,29.36504921910444,-99.09156929168321,90.0,3.6954955339332227,17.063575485912036,-3.1497401311185422,-15.612702112269934,0.23858003708276765,4.848818313732902,14
16.428012478877438,51.04687231408077,94.45756007044649,86.2509129181056,-11.514582089257354,19.21500471973883,24.83902012452635,-101.89941590006366,90.0,3.378810301956335,16.269847790619494,-2.958278887371656,-15.495769320948643,0.2161075430216858,4.57465023186344,15
18.006658191574545,51.00720050929134,94.45756007044649,88.82207471154369,-12.178893982611383,18.54245472151336,23.779510379513397,-104.48718155789973,90.0,3.0658528440802293,15.513625411134106,-2.751944817551921,-15.290685978153794,0.19066005476139355,4.2913732420680955,16
20.23321039623435,49.7198421191046,94.45756007044649,91.16284519486572,-12.371329063235567,17.768980751135267,22.213445511955086,-107.04536578044754,90.0,2.7842877530458203,14.757923093689426,-2.5314287178485384,-15.15296028769776,0.15989897204824005,4.033231146139318,17
21.638071349786063,49.720261817554764,94.45756007044649,93.52631708150876,-12.166908655038945,17.14499259636222,20.29853930099956,-109.504479669653,90.0,2.501769614179225,13.999117188584108,-2.330844395994056,-14.914784422127287,0.13733173472848448,3.7550792025272415,18
23.913014833588342,48.25817977730548,94.45756007044649,95.81073068722843,-10.744612083813326,16.48058888188329,17.15214623107464,-111.97597295277569,90.0,2.334879599720518,13.284218090095242,-2.095140136188009,-14.64999704143593,0.10488395413255219,3.4894695761353174,19
25.10525723399762,48.31168785420259,94.45756007044649,98.02362078711072,-8.905156485739692,15.706145128540578,13.585289237784597,-114.45215608823456,90.0,2.5899747387537877,12.671232437818325,-1.9813420701538942,-14.418851015779296,0.10010471185047513,3.2701724915236006,20
26.2492278696085,46.69518184391736,94.45756007044649,100.10048796152986,-7.022843617911284,15.47955395862093,10.656283435441912,-116.62364189685138,90.0,2.7632178865174355,12.273224769676421,-2.056326092698921,-14.001103671551709,0.13902132818470847,3.0766483285381074,21
27.968809837069312,44.363176128972974,94.45756007044649,102.82168921687877,-5.392488645092911,17.47657741984147,6.3276110788125495,-118.4288284928093,90.0,3.141619575186366,11.58288207105068,-2.106037706888761,-13.40148330176036,0.17866545144694182,2.778906394906529,22
28.433562656546155,45.46494534211248,94.45756007044649,104.02849895704794,-0.12014243838790664,16.647200385122886,-0.22826170458166817,-120.80470397795058,90.0,3.1785915365739577,11.370340522875583,-1.8176196279373826,-13.460833666346627,0.11518087007820489,2.731971967484929,23
29.774512725838846,42.75641651105391,94.45756007044649,106.31226703503503,-0.5514477613608365,17.369369046814697,-0.8477761806849532,-122.2945120457874,90.0,3.3459065936340333,10.460421052705858,-2.183245310742252,-12.573234255550668,0.2297639626091896,2.3547977276392262,24
30.251048269892834,42.58634790038896,94.45756007044649,108.24578340937228,1.577002465214142,17.571091196090702,-3.9386274941235713,-123.8257821403177,90.0,3.518488846243147,9.889379490520545,-2.236251746644828,-12.141166705248779,0.25414232716447616,2.150553820181841,25
30.25321441930765,42.829498791319445,94.45756007044649,110.16166996205365,4.933762735267669,17.716982306726248,-8.161794821220182,-125.33917463136214,90.0,3.6584373457454578,9.39980380628281,-2.2012970511624323,-11.894922494216056,0.2563606306922054,2.002014695730461,26
30.407914230423387,41.30807388266493,-4.931404861663562,111.98160601485787,9.603207864437433,16.184410010861182,-11.991615830777516,-126.67174422861773,90.0,3.8192359346073106,8.893484371409443,-2.2007955287409358,-11.683712956292498,0.2654644316242837,1.86094386267523,27
30.596590398452648,41.61243602174586,-1.9428081032576903,113.44032072741496,13.207851630813984,16.65217332258712,-16.236876640672687,-127.83162649660436,90.0,3.9368847442326245,8.346688678737669,-2.1664427749702844,-11.531874975132595,0.2681601355957839,1.7240071651003155,28
31.077390983410904,40.36923499532019,-0.9085561931087103,114.56149964876278,16.982770251230665,17.195557664571826,-20.75767255107938,-128.85870732172182,90.0,4.027216983863028,7.739805111387726,-2.041202032198709,-11.445353726981441,0.2540073826455891,1.5856395070129958,29
30.92106281277412,41.0332897536395,1.9677452891866614,115.70000092719584,20.679187987230335,17.990831503936402,-24.962968770071733,-129.8072116261404,90.0,4.243238318088974,7.227724224891643,-1.9865217863992315,-11.333431319530215,0.25190879505350494,1.4665292582672746,30
30.10262914057909,39.79846458530613,3.6181987309616446,116.98378701890047,26.584515521068383,17.50952596971925,-29.29096842866999,-130.58699603965053,90.0,4.483838213319967,6.806343289483886,-1.9960450548238702,-11.129269595369156,0.2594984640557356,1.3573790615922399,31
29.553570013809015,40.68974619117948,6.481918809599004,118.05361193492297,30.01715744096301,18.974330572312457,-32.71207554444349,-131.2657408502756,90.0,4.646755944009376,6.399065931594747,-1.8956288420783385,-11.00812907491459,0.24607434081605936,1.2617465936987546,32
28.454359491660696,39.856527074564895,8.10974777152768,118.98357761778168,32.876678961306304,20.53928188614658,-35.49245512416188,-131.81988208162883,90.0,4.869134847236449,6.0123944359083605,-1.836562463752944,-10.903774328848332,0.24044465598518971,1.1745440490973134,33
27.298260534876448,41.17573609144979,11.019778447505178,119.75765881317037,38.719974987132126,20.944333633962945,-39.32408638933632,-132.25802656008872,90.0,5.059745603169881,5.677760796412445,-1.7521091406462261,-10.788155468701522,0.2289509577270041,1.0971191190130385,34
25.678180560970166,40.14577226392812,12.832352984584674,120.56901028655808,39.6172583555924,23.17250814240565,-39.290208032632755,-132.3081649190521,90.0,5.2683044869668025,5.485272491609937,-1.8194068719334493,-10.3901441841131,0.23948030034177867,1.0220464426299696,35
23.91669685334112,39.751492781965695,14.607930190284408,121.2117342559043,44.151544727529036,23.78817209752944,-41.49728343212989,-132.22712776375292,90.0,5.203712512464866,5.233264958833714,-1.7650571092278948,-10.281987311597279,0.23215023156060272,0.9649734126303416,36
21.945985361000524,39.70775395618218,16.461034776900288,121.67608477010897,48.35261379789618,24.41783010888334,-43.42076315440472,-132.05969046495906,90.0,5.0256832679763335,4.917972967248912,-1.7189565880160784,-10.283659793429045,0.22885977714131414,0.9076721075310427,37
20.69886718399754,41.54791623470403,19.293855457452764,121.9837599962295,48.784291805304676,26.342955875423193,-43.352103851123196,-131.7282865443131,90.0,4.916014768073818,4.561202937200044,-1.7401248382722847,-10.271892245835348,0.2380801124646947,0.8429023781186634,38
18.430649288503478,41.63225321582598,21.29805498113976,122.2320745486393,51.466151283685406,26.82267300760343,-43.52741949443884,-131.13773672024664,90.0,4.8145597215693545,4.251333193521454,-1.851420099175449,-10.163604803661697,0.26083519825008306,0.7805628179045573,39
16.150960641537846,42.02697282625286,23.172669507482897,122.40134632836148,51.05507562354522,28.714125820493233,-42.285358788198806,-130.42909099533523,90.0,4.633483502284771,3.949156833980067,-1.9501478278217215,-10.117881407266388,0.28197496070521955,0.7251393775646088,40
13.89268666021029,42.76497493517922,24.83009232903224,122.3929421857878,53.292865304606806,29.256898620334148,-41.81378329261792,-129.6325176631699,90.0,4.513233694234769,3.67212805510697,-2.024754348409151,-10.137749231825934,0.2998066637105206,0.678800550729095,41
10.438912859996043,41.888910421189486,25.75541547553482,122.2487623232633,53.00315094585004,30.892945723590415,-40.19278543016805,-128.63004754251895,90.0,4.347783854044295,3.409473359319775,-2.1377011539081483,-10.08308313135781,0.3223186638243415,0.6305965025972831,42
8.147829417646923,42.807872814135834,27.271662193472647,122.08131791063141,54.03161429041234,31.63082562722454,-38.67032048921323,-127.43990858838954,90.0,4.116806987222103,3.1735675006635944,-2.2338293246378567,-9.987630823159314,0.3400133496214604,0.5847890081548603,43
5.907273108611866,44.035289375424945,28.49398483707722,121.86482416702349,55.15689725448651,32.401859592618266,-37.09237242040256,-126.14848140333892,90.0,3.9533468918761647,2.9975772761999573,-2.2810058276538014,-9.931457683299964,0.3491318039259858,0.5516130860784889,44
2.2734961524205444,43.81506340191106,29.08781934862777,121.45833333411781,54.28246529547305,34.59983678524661,-35.24241238074865,-124.80132264259854,90.0,3.8407802808833034,2.858659728720486,-2.353701382410109,-9.891461193508302,0.3624643142757992,0.5264340944555165,45
-0.14685758432578666,45.19852811612294,30.424232536552864,121.04525284014389,55.23406140550543,35.20853009696764,-33.26494277573412,-123.28210033469941,90.0,3.677846369199609,2.7338860478052176,-2.4530145904590706,-9.781791787211949,0.37764768716424385,0.5004672001171253,46
-2.4857319462814154,46.61507121302208,31.706859486162372,120.73392430505683,54.55135453709292,37.32761015293998,-31.447276061365848,-121.6073799721352,90.0,3.477997704512511,2.6365160689471265,-2.512754982108718,-9.659249829379037,0.3848589375071677,0.4782906782023994,47
-5.983618623328709,46.63388845447653,32.013299335780786,119.95294248633485,55.61062051544818,37.838749197953554,-29.375095488995296,-119.8012652773993,90.0,3.361216538673976,2.6038246282141757,-2.5552050696861976,-9.551566381065463,0.38852983792492846,0.46776756482493137,48
-9.50059758793827,46.77913360166532,32.33614599477203,119.12654051133124,55.23648785506348,39.83259203117456,-27.706019865861144,-117.95451600417293,90.0,3.188932464186797,2.5670496129899614,-2.6241000804370604,-9.438927686509425,0.3962298347875164,0.4567779999131374,49
-11.851788379507827,48.68133031163188,33.351876138309756,118.38623788913488,54.520492022901955,41.76473591372656,-25.627717911602304,-115.85852966138563,90.0,2.9090300705646297,2.559884749099091,-2.746499649205769,-9.235173084415848,0.40828099755743247,0.4466862914214501,50
-15.4936645767904,49.20361739518114,33.65469242746889,117.62559541680713,53.7532520838381,43.653999302177674,-23.470633657343225,-113.44963679567714,90.0,2.6857567721026485,2.553095656402461,-2.8818702046812263,-9.043478732648973,0.4219819371922374,0.43738093529041755,51
-18.778199025188066,49.88275544431329,33.64700283097553,116.56437368311113,54.31755713759768,43.72919546130109,-20.810202509233253,-110.93554729594302,90.0,2.46427086657295,2.5150982532822272,-2.9925165826666937,-8.964097979374507,0.4363349088127948,0.4286820221946773,52
-21.900556717267644,50.70090757031244,33.446352312363686,115.28239042151763,54.0512181559787,45.361912524168574,-19.17984145487027,-108.37444657890478,90.0,2.2746290027688327,2.4919822573054464,-3.1324285176645774,-8.870406293288397,0.4540485979265695,0.4219628737449817,53
-23.939694893144814,53.154807648348644,34.353415942700956,113.99423707287126,53.60256509902035,46.924071959563854,-17.306376576496056,-105.68199851380842,90.0,2.1507715454208176,2.507618836620755,-3.346209583628036,-8.669600859907096,0.4766854504746228,0.41645990285458473,54
-27.033278461509994,54.20341984097504,34.24174964090788,112.5354339158534,53.533402367493956,48.505133358877664,-15.787995651678271,-102.91444431922856,90.0,2.0421929617568275,2.5690321492418873,-3.455098152360599,-8.481450504560003,0.482504390727986,0.41694068652307037,55
-30.66937129791656,53.96831084114093,32.932007521566426,110.70800478076366,54.255319348675584,48.46351624374783,-13.115193577088364,-100.07256023502165,90.0,1.8101024149316887,2.6217834524378136,-3.50835894813725,-8.340716090977702,0.4822368056989082,0.41768358176937637,56
-33.02562752403592,54.85524964446136,32.34418035041704,108.59509391717454,54.31004490941453,49.9812706141543,-11.693583137784255,-97.16481036811734,90.0,1.5609683164744936,2.6628848666803795,-3.6099690644405658,-8.1456112468299,0.48573345875042706,0.4139913911658402,57
-35.45753314637902,55.59098033528325,31.73085850204022,106.43598463028431,54.06505075526491,51.45797574667095,-9.985452078773022,-94.08128650962729,90.0,1.3938160931186923,2.725901505429485,-3.7555679697395945,-7.870367426373196,0.48977166841621733,0.40892005670099935,58
-36.74557279637512,57.72890032563862,32.07700764583408,104.157159157098,53.91750493500268,52.83360417842497,-8.430002477273137,-90.93633410409899,90.0,1.4299242255989748,2.7812579504593415,-3.90633220282836,-7.654032871881966,0.4967943406899892,0.40553439853413714,59
-38.95590781943624,58.41928936301186,30.95270120711869,101.38448816096242,53.961669554420666,54.08640747999955,-7.048751766983629,-87.6751995760281,90.0,1.4282453187671689,2.95173656747799,-4.064235414002452,-7.511227997074996,0.5073990380399318,0.4210669976316771,60
-40.9859382233033,58.924925242154,29.77915337182907,98.34488964124243,53.80450114469994,55.27193553480962,-5.63182408898662,-84.3790111281314,90.0,1.3195974498055476,2.986679152928616,-4.242667551402539,-7.318674109900557,0.5177001782878327,0.41537904054107716,61
-42.74406552670217,59.280721222931646,28.402954412818357,95.0172750120033,53.49598927403173,56.506339656761334,-4.044311104729815,-80.82206215391471,90.0,1.2853958351776615,3.0081877349907913,-4.44648984033518,-6.995318649555098,0.5208167461641976,0.3998051115890414,62
-44.18451280916759,60.8005809587066,28.94024794398124,92.07375184743103,52.91695601813388,57.75187492859164,-2.111416923451454,-77.12799978406433,90.0,1.2474852936441796,3.0765220620691096,-4.762039373028689,-6.500552221352812,0.5212080099425017,0.37926607885768066,63
-45.67023123127804,61.12716335313161,27.02671652302923,88.7079288080259,53.0971541643646,58.86325788316302,-1.1334625650810137,-73.93018075626463,90.0,1.2992246654652992,3.144161972658351,-4.826842736318852,-6.434123042745535,0.523030772456674,0.38310644773369845,64
-47.30629476458541,61.38072047422116,25.144820524069296,85.35269576781651,53.34619304378232,59.97934120473571,-0.010861770885204918,-70.85340691238738,90.0,1.4219848032567395,3.354198071822247,-4.969211851520904,-6.245633478287159,0.5228102075214578,0.39482804554069095,65
-48.18459832619496,62.80024340684407,24.883539689424566,81.99181546010745,53.568645213113385,61.199889450630764,0.9651319538433872,-67.81023378780358,90.0,1.4622777076095579,3.5451284945091106,-5.118606512396668,-6.023469266241952,0.519833224376728,0.4007535373904638,66
-49.603001483856055,62.79636382610181,22.963807643550393,78.76203250117912,53.629522691782974,62.30317068436668,2.354977363560953,-64.51190345583707,90.0,1.4802944479836477,3.6445883662540535,-5.218842740054702,-5.792724053812012,0.5104750925523491,0.39500154564718765,67
-50.99152805946135,62.79210729468152,20.99252406196433,75.74150122280226,53.7959829039829,64.56362750693846,1.4736333828525008,-61.27964779983949,90.0,1.454656835819313,3.7182769890922027,-5.298389376317319,-5.565563569710112,0.4987129459948375,0.38610675415533857,68
-52.14097012777276,62.86809517667552,18.797349380556195,72.75109140700455,54.282732931664356,65.56044938383805,2.4251136216202434,-58.62190022918131,90.0,1.365409797922272,3.7416311933004067,-5.3765426255432125,-5.423749195889074,0.49385465294603725,0.3782451427961765,69
-52.95221887576164,64.22878270645533,18.56690682572807,69.8562849764004,54.800893184397104,66.54481827481459,3.424120280510111,-56.30570780782207,90.0,1.2558758000071557,3.7751053506125443,-5.569788993533006,-5.2154636061032225,0.4932025213020312,0.36673013835560303,70
-54.373460448809716,64.44270925912397,16.6744183277501,67.18252140969439,55.14541559195771,67.63293081199495,4.571328311753548,-54.13737448006538,90.0,1.16340457417236,3.76691987335365,-5.852380326539116,-4.914040743998501,0.49014529904955056,0.34467299705038773,71
-55.598417817023304,64.68208113260151,14.665234342576946,64.5120276250021,55.51223242932412,67.76300397184261,7.832552946206963,-52.193367944992254,90.0,1.0549617695411428,3.6609609698757044,-6.1030235267015565,-4.648200771759963,0.48526742597637806,0.3171768529045247,72
-56.58614413206053,66.02084854143779,14.701168736412008,62.00850691088522,56.112949510087034,68.89616115003103,8.804384302945028,-50.33863342442071,90.0,0.9592424073532522,3.5587286028369562,-6.344126499933825,-4.333691433217908,0.47197373997600656,0.2874312223881256,73
-58.09364696784061,66.35650630544339,12.947642327102999,59.734956075407034,56.53121356660048,70.01967594340228,9.928808407917245,-48.43732304797036,90.0,0.8380178816245115,3.4421932113544584,-6.691630191485115,-3.898058980650239,0.4497244021360013,0.24980356970387493,74
-59.46017349696995,66.81651431394357,11.08914754468557,57.41730394367494,56.954755477184335,71.10143755206808,11.025487431216824,-46.615020473502845,90.0,0.7297560965579074,3.298923517996142,-7.0931769714645565,-3.477354629235832,0.4269789475990765,0.21341391033207255,75
-60.33949457189986,68.35543194993723,11.103510803120319,54.82522437751087,57.47106713246935,71.2885690035694,14.293017713561309,-45.13075827070048,90.0,0.6553937094398578,3.1669995289382764,-7.510915367130405,-3.126769967791602,0.40787200608155927,0.18414571182136075,76
-61.28238730617936,68.88295244474989,8.979391819319446,52.24616788226591,58.27691069650635,72.19774910112659,15.104428432785307,-44.08491171096833,90.0,0.7591548038136632,2.9548843549197445,-7.903448450366683,-2.788819905810362,0.3839393250123891,0.15330160592909065,77
-62.06638703841677,69.94947346753655,7.9952125247436205,49.723979482059974,59.20453697175584,73.11041437414238,15.799257857466243,-43.27727320329142,90.0,0.9833822812188476,2.770509784175332,-8.227136905372289,-2.4733614913681485,0.35527909734920876,0.12736054524977716,78
-62.69702729584804,71.09146667309717,7.067589880988,47.066184537146675,60.088686107691366,73.27410149792024,18.701539661391703,-42.771652504409055,90.0,1.2546018353430934,2.6155153285579047,-8.48685946095876,-2.221910293910157,0.3297935294013936,0.10789324657057575,79
-63.2332714828988,71.4031875698905,3.924034526623555,44.32170301544514,61.26445868139351,74.23289765422462,19.19465357830932,-42.36749708253602,90.0,1.5852315514444948,2.4406396105134847,-8.690510314982163,-1.9754005552806333,0.30067051979737436,0.08937945700044915,80
-63.47569657447881,72.57193658345503,3.0504770091745432,41.45395248924625,62.42702492585771,75.20225471449814,19.64988099155228,-41.95289496623827,90.0,1.8840622843987782,2.2447549762093093,-8.866421916963104,-1.7470382950195613,0.2716258278478474,0.0726211728224136,81
-63.6532269642224,73.05230448665046,-0.06657602463840213,38.527180228107845,63.285222042992366,75.40756263553133,22.43613021136157,-41.65260252728779,90.0,2.0998264051068127,1.995030253488167,-9.067689012733762,-1.5554875248778777,0.24761354047795336,0.05754409337785901,82
-63.62164455041738,74.31953564962888,-0.9395555107716769,35.34910274826668,64.57644579799295,76.26874729836294,22.729733241582363,-41.63304861673751,90.0,2.255695559325616,1.7607259266549717,-9.243911318156615,-1.4476982866690862,0.23512258771112238,0.04747241687838171,83
-63.416979005918286,74.96471826067872,-4.125404495227165,32.107407485060584,65.57030263727596,76.40787192505317,25.312522028061423,-41.548305157284105,90.0,2.5734346272944477,1.473463417930217,-9.36578816212487,-1.3662025289685182,0.22495701672396126,0.037823992596324074,84
-63.14211784221062,75.70565485655705,-7.193139692076313,28.716971367515487,66.76125393142225,77.22963751497196,25.610456638345855,-41.36886075771374,90.0,3.0277617955007616,1.1424876827463584,-9.519008264579519,-1.2112867085154464,0.20287491455420203,0.026301002796473724,85
-64.18454395823741,76.8665040488764,-7.575736042642405,28.29882286208962,67.92177870154798,78.03655458547817,25.843914574608245,-41.355313536127035,90.0,3.54131458872697,0.8023875685275583,-9.643901331632229,-1.112971643172225,0.18897257145539398,0.01742295826174609,86
-65.22139471427592,77.42302682585415,-10.265239615560636,28.29882286208962,68.68803034061409,78.13284892681088,28.421609929597473,-41.35410731513318,90.0,4.043876791625008,0.40520802852133997,-9.76019039155411,-1.0230517538398198,0.1759077696745012,0.00880597268243036,87
-66.14535872565749,77.9750871042147,-12.861807937947061,28.298822862089747,69.78245098344492,78.82101017771194,28.680290310327685,-41.36287164130491,90.0,4.537948918127412,-0.10242383808199257,-9.949361595028638,-0.8990508866639193,0.1577141428520785,-0.0003698049462120315,88
-67.11999767372383,78.55291170963507,-15.378148557121087,28.298822862089697,70.74125090664762,79.43811767141744,29.028912794548408,-41.34325581785866,90.0,5.021205752658952,-0.5576670874137565,-10.213919058085478,-0.7160315703987546,0.12906149942394662,-0.006163145803896459,89
-68.32028020076847,79.58829685769409,-15.505134821101308,28.298822862089697,71.25236360786471,79.37319360788295,31.74269228857378,-41.26622116816775,90.0,5.465657350613222,-0.955734093867398,-10.465373341626517,-0.5130130724961631,0.09481215430968788,-0.008133917900138546,90
-69.40942357467647,80.05670625202431,-17.98435259997689,28.298822862089697,72.08297725743292,79.93660898672117,32.115600065048824,-41.202474242279486,90.0,5.853671340161167,-1.361993207239813,-10.705046019127423,-0.27127947953309683,0.05131363765243448,-0.006328472886914647,91
-70.39143901966605,80.50784279260924,-20.427029579334967,28.298822862089697,72.79558890414143,80.55579776157565,32.52231722633892,-40.89362289628478,90.0,6.000000000000009,-1.7726011721233974,-10.911794883404612,0.012659302911452385,-0.0024416237902390703,0.0003920445347860639,92
-71.3503111900909,81.00242985770451,-22.764749801508465,28.298822862089594,73.40416603628962,81.09280907156023,33.03026331210491,-40.600556867689235,90.0,6.000000000000009,-2.2060073489907666,-11.193885206440068,0.3740036292006635,-0.07401869634947701,0.01464831124611083,93
-72.41545436938384,81.52691936882945,-24.99810569977728,28.298822862089697,73.91245441162211,81.50491299722985,33.655923089918204,-40.42944645611643,90.0,6.000000000000009,-2.6106095372222815,-11.578056564092762,0.8193294872771274,-0.1677470895670781,0.03855503931975617,94
-73.42209934425084,82.0595998772297,-27.22951976918213,28.298822862089697,74.41325379109668,81.79243193708314,34.26920528194721,-40.55290996167821,90.0,6.000000000000009,-3.0405272631853393,-11.973612643257999,1.2577790759563983,-0.2663303148896975,0.06972703720428153,95
-73.98793080176527,82.10622249522957,-31.89483833853045,28.29882286208985,74.9959412175122,81.99335827416049,34.805808627843895,-41.06593861351542,90.0,6.000000000000009,-3.5377879307546327,-12.328896008945406,1.641075388722102,-0.35778846612330034,0.10656951190212262,96
-74.78676081371884,82.52925858229857,-34.101914477251135,28.298822862089697,75.4686226903349,82.22692361339506,35.40410235926057,-41.48706679903418,90.0,6.000000000000009,-4.037590154791658,-12.640892806182109,2.0924404211675514,-0.46750552126976125,0.1562062338718606,97
-75.57155329825063,82.92818339897931,-36.23360313584771,28.298822862089825,75.88200070613131,82.37867746697133,36.06142747660216,-41.94233381969942,90.0,6.000000000000009,-4.539554884761017,-12.970468680204442,2.6065492813996607,-0.5970607891452755,0.22047827478154702,98
-75.98500044982423,82.9184641512875,-40.731960255518004,28.29882286208972,76.3626959456771,82.32895737457137,36.71665909715567,-42.773409901078345,90.0,6.000000000000009,-5.068192653568661,-13.356158746392657,3.1219984648446277,-0.7357810053670351,0.296834171383789,99
-76.69450803576983,83.2568105542648,-42.80882222881196,28.29882286208972,77.28555826313642,82.85462829746447,35.03303779138476,-43.70546753140816,90.0,6.000000000000009,-5.576172069797794,-13.730029074212975,3.6488608587660973,-0.8830820100556361,0.38420131786814354,100
-77.05579113516434,83.10797167619377,-47.2983410858054,28.298822862089697,77.56945518435703,82.72827687425347,35.69939984968822,-44.60599258572044,90.0,6.000000000000009,-6.064675203070215,-14.090082629653859,4.159068457470299,-1.0317446281634297,0.4790802586480719,101
-77.44469959260643,83.39630328264624,-49.33628770909452,28.298822862089697,77.68311291760422,82.62457961299305,36.39285819064815,-45.491541758923205,90.0,6.000000000000009,-6.598397362884134,-14.421259143358068,4.670042416635313,-1.1839927132211554,0.5880818359656277,102
-77.84602410659747,83.6040660547409,-51.35165699772814,28.29882286208972,77.74178954407186,82.5467381859807,37.11233859578839,-46.365391573086065,90.0,6.000000000000009,-7.086754520310229,-14.717740334886527,5.205981784366913,-1.3445268828425434,0.707749106449055,103
-78.64571242060447,84.0138869042828,-50.989715484353034,28.298822862089697,77.83098637975286,82.41934464233155,37.76442554989494,-47.34599304291954,90.0,6.000000000000009,-7.520134279048469,-14.945360364560429,5.718375935839374,-1.4965184055717695,0.8288126248497463,104
-78.88327025582095,83.99185611266525,-52.92398183107274,28.298822862089697,78.37226359468772,82.93243185743353,36.15408831990403,-48.438880487443654,90.0,6.000000000000009,-7.97051338931631,-15.156813142648302,6.291136244379094,-1.6651716393748088,0.9712638133937285,105
-79.30450951813297,84.20310208540666,-52.3951129157734,28.298822862089825,78.39225193691892,82.71331338152982,36.83882758686806,-49.570153981769664,90.0,6.000000000000009,-8.407665818994067,-15.321450478525364,6.873330860351127,-1.8331680176636005,1.1245265506841025,106
-79.91077947644665,84.76376946950319,-49.289564288520324,28.298822862089594,78.39778720646943,82.4334875116917,37.62760949154392,-50.63389068888918,90.0,6.000000000000009,-8.686724579346423,-15.535930835951282,7.569802976892402,-2.0399345287160155,1.2896370213658326,107
-80.03930259460323,85.04781204410381,-48.33423989033658,28.298822862089697,78.09698999121595,82.00713590815852,38.691780716243535,-51.863841378834984,90.0,6.000000000000009,-8.865285349620581,-15.911738261637954,8.450553383088582,-2.3237182315933382,1.487379355117481,108
-80.25469978332002,85.55083690572327,-45.24143800698793,28.298822862089697,78.20041724364954,82.40734317715508,37.14948709458966,-53.056307402993745,90.0,6.000000000000009,-9.178474840221211,-16.11936719323313,9.049658238299516,-2.512525222957042,1.6581593881449155,109
-79.72948709015529,85.57872178098849,-44.85416930755137,28.29882286208962,77.84910285018431,82.04013190504787,37.47238774242177,-54.38164123366576,90.0,6.000000000000009,-9.567904770416089,-16.18692811827015,9.28792493192292,-2.5839688188746237,1.7720750548375748,110
-79.10625526954306,85.52943885634647,-44.45562602233985,28.298822862089825,77.44305474584199,81.64197469032813,37.777282866993644,-55.7831264590057,90.0,6.000000000000009,-9.869615282325576,-16.277388480836926,9.495721522348115,-2.6522870244281336,1.8685077405167254,111
-78.34382848447763,85.3496813828243,-44.10296126759842,28.298822862089594,77.06859310878178,81.22781553862049,37.96065619968558,-57.22347895382997,90.0,6.000000000000009,-10.17401032544141,-16.31208452366166,9.625805254310755,-2.690452453715811,1.94969292766962,112
-77.5288242538108,85.1730234595578,-43.76624515405555,28.298822862089697,77.30339378694056,81.58410175541148,35.81261638470903,-58.653481654266216,90.0,6.000000000000009,-10.441199365056912,-16.346207459717085,9.733668359994114,-2.7229902858494,2.0208620058953493,113
-76.67568389851628,85.04560982512287,-43.41060162447042,28.298822862089924,76.83577661789714,80.95884191617534,35.93212700025517,-60.19806713960114,90.0,6.000000000000009,-10.626326404067235,-16.482705093497852,9.823576387595745,-2.7705411021171353,2.0761249661676446,114
-75.68161796710255,84.86923333654401,-43.07603292309768,28.29882286208985,76.2191013203581,80.29498998530241,35.98603389180732,-61.67458627228759,90.0,6.000000000000009,-10.786004141011919,-16.637130097192543,9.846163226216817,-2.8043074020876935,2.1119054547485043,115
-74.49493803975047,84.66913843997338,-42.758599480391965,28.298822862089594,75.4521344169253,79.66510985428646,35.980450583520486,-62.97090180240362,90.0,6.000000000000009,-10.980400944651466,-16.75560261685193,9.823617427984065,-2.8192902252603367,2.1425656803885667,116
-73.66046882175151,84.86405118683716,-40.031027231748766,28.298822862089697,75.35234856116604,79.9096512205136,33.7148662740288,-64.32957422729883,90.0,6.000000000000009,-11.09515906087942,-16.895380606853085,9.815482749888739,-2.8426034995475504,2.1629332031577904,117
-72.55996771933697,84.56194884024941,-39.69102431177131,28.298822862089697,74.64294340951601,79.25176553294345,33.67217731031738,-65.65768805987064,90.0,6.000000000000009,-11.148645555254854,-16.98349967835232,9.83460187126064,-2.863966388425554,2.178373057089833,118
-71.37399780975261,84.23980496604976,-39.29922880893973,28.298822862089697,73.70547062227811,78.65589079186059,33.692199613166295,-66.81246623930761,90.0,6.000000000000009,-11.230991825594048,-17.08101239223744,9.884828756941484,-2.895442855688508,2.206779744701563,119
-69.98219321938836,83.92340368033852,-38.92141861061498,28.298822862089594,72.71566564696899,78.03446647349756,33.642144699298605,-67.90625351869399,90.0,6.000000000000009,-11.330306486139815,-17.17033618712672,9.892591171366847,-2.913874696735181,2.2277143999134883,120
-68.82744548012685,84.0335840651377,-36.20312129459497,28.298822862089697,72.56785507568031,78.4173481775924,31.257986738988055,-68.98869845575425,90.0,5.604166473614278,-11.428681251612996,-17.222313121192627,9.861952232996043,-2.914780190902202,2.2383212604583353,121
-67.29463034288861,83.7356159280012,-35.86447357792639,28.298822862089672,71.52182811593613,77.80127372224425,31.12144435713475,-69.91836153296636,90.0,5.273576339730893,-11.566507874028918,-17.283599182975276,9.840125877672547,-2.919611416246606,2.258170535936036,122
-65.69599688053077,83.4465840011292,-35.54477783279365,28.29882286208985,70.27486440856428,77.18101963396136,30.96850944987243,-70.73785672040009,90.0,4.8847052653294085,-11.678463195290348,-17.364441358971288,9.786854864185948,-2.9195897199534873,2.2656398610167554,123
-64.06839984211955,83.1642201055528,-35.25555784462236,28.298822862089697,69.80769157100909,77.65270377927979,28.556675891269244,-71.48896577096843,90.0,4.463493524901364,-11.726848750277927,-17.433885537551046,9.717662689600028,-2.9132195861380383,2.2575164159941985,124
-64.55284862573082,81.37908510195962,-34.738128993762835,34.24262193227652,68.92607595899715,77.03491338829362,28.246726713149727,-72.17839076722466,90.0,4.078823620489913,-11.805350037109225,-17.4848841548819,9.581820513549111,-2.8845271278206264,2.2371135200300514,125
-65.54061963484942,80.219145650218,-31.82030300658009,40.49022781298759,68.13913363190497,76.31129090067624,27.827735429210154,-72.97935589775791,90.0,3.631038438078163,-11.891739705499651,-17.5683256749024,9.354698163605118,-2.835753103587971,2.194674466490682,126
-65.85280016189562,78.6606739311153,-31.326118239357047,46.17631415830896,67.34228877895272,75.57400361668182,27.2888466840938,-73.77112841836366,90.0,3.218125807070197,-11.984473496828869,-17.592080574581,9.06097618356845,-2.756728898139122,2.134748081507251,127
-65.94303135064493,77.22003854279716,-30.841143533608307,51.48282904528114,67.25953075243869,75.99593731202697,24.491997122650343,-74.57220088520684,90.0,2.8607454863859627,-12.064625405714995,-17.57928513619636,8.744067120303352,-2.6643808655541954,2.0658039219651645,128
-65.93305179297623,75.93042934675186,-30.315936433485238,56.37898664105771,66.57430440618086,75.26046827683814,23.917758234845547,-75.24445580906777,90.0,2.5460348054541115,-12.07923565151168,-17.597815914228036,8.45376325872497,-2.5846464341438993,1.9936440703887897,129
-65.83708659163636,74.66687173261273,-29.827079751450373,61.00773555559364,65.69722187127047,74.58367479886405,23.30252894358322,-75.6068537422997,90.0,2.4921208575119267,-12.105433935864365,-17.580852988182805,8.102601505357045,-2.4812002274995146,1.9074787266217472,130
-65.96148595003216,74.4771368209996,-27.412384055072895,65.33480766321318,64.9495660543511,73.92641434364758,22.302053361726202,-75.91685755242572,90.0,2.7874990892727385,-12.2407739744899,-17.386509684961023,7.448596061859158,-2.2640799327640537,1.7579923258352743,131
-65.06676730206027,73.40902172950489,-27.59240164849186,69.32897335381793,65.07819459686081,74.4521424338284,18.768069176472213,-76.49288366268823,90.0,3.2698063237492425,-12.436241732383921,-17.03877967689724,6.5562334734938466,-1.9622733359201459,1.5538482393038957,132
-64.19123062783275,72.39697622282903,-27.58873849057996,73.19871054166471,64.7226259273716,73.70872810426414,17.53892549317564,-76.99994354689252,90.0,3.8002362739049516,-12.539172321778338,-16.760831749437944,5.81871860104966,-1.720250901884056,1.3780310187735076,133
-63.96863605896773,72.6904181688733,-25.22992099900988,76.88026837604298,64.31607093027169,72.92376695966793,16.467799982174693,-77.46892524124455,90.0,4.371636262502056,-12.610393362616113,-16.586481327209857,5.193591430803443,-1.525482634601653,1.2281758891082701,134
-63.13169238114171,71.90214317565568,-25.017584673478417,80.40236706484286,64.01924544695122,72.14310792506834,15.47129918540522,-77.97748422944694,90.0,5.036428032781967,-12.681604432654472,-16.46496789832486,4.613885205324256,-1.350600884223003,1.0902763419729142,135
-62.322696082706955,71.1058858801898,-24.779226270992144,83.82770859764915,64.31254561866652,72.70944620909658,12.353753754452914,-78.40896731794115,90.0,5.912106507114987,-12.637827351066074,-16.316473274464744,4.065621891823196,-1.183428528266948,0.9517559220277493,136
-61.98267925306487,71.70161295298566,-22.45715417122368,86.98031173689321,64.32406429846097,71.96371400548296,11.286846348753553,-78.82586208000218,90.0,6.000000000000009,-12.58093640800857,-16.139820007282697,3.499817465553666,-1.0111326803515217,0.8106044817688687,137
-61.17263644937218,70.9586691727677,-21.985045416605878,90.04814455804215,63.996613484456546,72.61872320671806,8.48563726975379,-79.05108631412277,90.0,6.000000000000009,-12.569357150389916,-16.089665333786023,3.0773780858012643,-0.8889658810515841,0.7089568357571279,138
-61.084104476051365,71.63042105956531,-19.408398600845647,93.24861190530518,63.364711203245335,71.98528918089893,7.8074020460466755,-79.22975231886933,90.0,6.000000000000009,-12.617019041649717,-16.01025137616786,2.710699592968188,-0.7811646284140442,0.6243952801917396,139
-60.395717684198424,70.90107020685923,-18.868272602918143,96.3428051319297,63.17449395396246,72.67686302210704,5.016457545782322,-79.55680319063288,90.0,6.000000000000009,-12.71664866437126,-15.942396728101697,2.309087942081988,-0.664613916259084,0.533842811403995,140
-60.235282639190416,71.69994217349284,-16.27889446450933,99.21844825898921,62.83937204237397,72.00911882619795,4.293425686035155,-79.84234211563145,90.0,6.000000000000009,-12.81582694087123,-15.894037077411966,1.9188271876806904,-0.5522994524997769,0.4453037439689906,141
-59.63953414078073,70.99382063870011,-15.658996117490343,101.7223183471103,62.49697562796541,72.79739601598209,1.6293790605902414,-80.12729461970255,90.0,6.000000000000009,-12.914079148719665,-15.835307473947505,1.546602794393407,-0.4448122751609988,0.3603228426887302,142
-59.59031040318234,71.95453219046719,-13.14243080863052,104.07681499701891,62.06026890851374,72.27914894311434,1.0528570848579726,-80.47897451346397,90.0,6.000000000000009,-13.02070160671353,-15.779242215650758,1.2237026080404114,-0.35161690994957673,0.28654159502765475,143
-59.231499688602355,71.28534322937496,-12.503594152319204,106.44547894544183,61.80436710313258,73.20242295932708,-1.5039634494296068,-80.83369216483725,90.0,6.000000000000009,-13.073936816610003,-15.679079680376027,0.9536742062066728,-0.27280480547305774,0.22362131990482473,144
-59.37928310303248,72.37463028869729,-10.029879590577089,108.18100051235858,61.61369815238037,72.761630363727,-1.9743551166470958,-81.32376870229537,90.0,6.000000000000009,-13.118221145419298,-15.630249962895462,0.7815492778318023,-0.22316478871514936,0.18357566964113523,145
-59.479857849911625,71.79755397626336,-9.153361010344714,109.79190067817224,61.217386671553925,73.72376687017525,-4.160800168594439,-81.79451577953203,90.0,6.000000000000009,-13.177045423010531,-15.694121312904523,0.75882670161374,-0.21769745676598637,0.17902493244479076,146
-59.88068849782379,71.2541280844314,-8.181560164630152,111.25819169997942,60.6934305084613,73.37298679192592,-4.177188562422085,-81.96475111626087,90.0,6.000000000000009,-13.237880586003032,-15.822741338024931,0.810209912243933,-0.23441201677213483,0.19216617899210447,147
-60.17201513138884,72.56791139533574,-5.9136094016037895,112.47336483878162,60.56066748352646,73.09324411094873,-4.509159269228821,-82.37728653464477,90.0,6.000000000000009,-13.458921861022828,-15.789103986409163,0.6653328794027077,-0.1924392815128172,0.16028248212118634,148
-60.66215370862299,72.21019664239637,-5.228480034536168,113.42600092994654,60.20806274966395,74.24177769839876,-6.504519467225044,-82.84968577540482,90.0,6.000000000000009,-13.597971612031502,-15.888801112800607,0.6797369649514443,-0.19800093265579702,0.1655273582849428,149
-61.19410053973625,71.92821972988973,-4.696742678610989,114.0804687113135,60.07445747103452,74.00077768873723,-6.6048957195418865,-83.38803236341498,90.0,6.000000000000009,-13.769391013582233,-15.959118887143159,0.7189110658786259,-0.21046607756504962,0.17741704711457856,150
-61.95732905295665,71.7178976477781,-4.128992455810311,114.6669410994489,59.81274745075064,73.79935733653176,-6.507901271322481,-83.69049641766487,90.0,6.000000000000009,-13.961136954898528,-16.090270254798067,0.8761954912333516,-0.2586104027932146,0.21968708015035512,151
-62.950970286240526,73.36179892450333,-2.1030482372341774,115.11557110018781,59.47182632285547,75.06500894784486,-8.356593211618286,-83.9182223022395,90.0,6.000000000000009,-14.133730740770957,-16.174653829608594,0.9901173472330056,-0.29378441292228774,0.25170184177969107,152
-63.83431936858975,73.27376454066798,-2.005156656824244,115.29307796066291,59.48717077542022,74.93031571115404,-8.49328200403809,-84.35493356249741,90.0,6.000000000000009,-14.378686552019326,-16.188450593533933,0.9645151606001054,-0.28678021262977255,0.24952223957039882,153
-64.57263484845527,73.26976221902032,-2.2039394409827295,115.16589836377192,59.841979599127505,74.80936118604548,-8.81647175780443,-85.12114657707338,90.0,6.000000000000009,-14.705435850128977,-16.129394155823576,0.8697205269399582,-0.2581363823994049,0.23008238106951265,154
-65.71689789904984,73.27633333002815,-2.1550259496101356,115.02237891195908,59.980452048641915,74.74200048150483,-8.772691903083254,-85.57690177822262,90.0,6.000000000000009,-14.984093723084156,-16.18520985141156,1.0377432758509,-0.309045489107196,0.2803571817657941,155
-66.7575693886525,73.26769906201142,-2.3611730395672073,114.60384119257714,60.24825894721356,74.75794121341522,-8.865389931196077,-85.96144026383173,90.0,6.000000000000009,-15.255386602902833,-16.113098596720175,1.1259269139506352,-0.33383311633461,0.3101195696078975,156
-67.63993559219529,73.28485254026212,-2.8574882159546413,113.91920856759636,60.7694217607236,74.81475857184181,-9.150493773535205,-86.4416945489407,90.0,6.000000000000009,-15.576139447628337,-15.931496999512706,1.109672823441315,-0.32555762654483955,0.312242465089754,157
-68.66072426927558,73.38007229593681,-3.387466509851107,113.03784497174512,61.41190409603203,74.87820105044493,-9.340545775104149,-86.84010680801279,90.0,6.000000000000009,-15.835488755958107,-15.784405231536441,1.196714991905834,-0.3477551553440736,0.3427850559859797,158
-69.76880686776308,73.54483688188944,-3.8803134277809956,112.00520020087178,62.07638508190665,74.95055499874651,-9.389646503101362,-87.13908892300782,90.0,6.000000000000009,-16.048929724103814,-15.690931062669785,1.3957016544391123,-0.40263225308660916,0.40601324518306814,159
-70.94219325033905,73.784965538556,-4.399685754740213,110.86683356055667,62.80364818403268,75.03448856751818,-9.365166136379688,-87.38726462830651,90.0,6.000000000000009,-16.268324883520783,-15.626895452367755,1.6452817384580982,-0.47186185262098895,0.48634790845374576,160
-72.08796620825386,74.10464196429622,-5.001345914250896,109.3948200067499,63.52323092976205,75.10133702680737,-9.324514802478213,-87.62538635698941,90.0,6.000000000000009,-16.46143930032325,-15.593304670260128,1.874400668785517,-0.5355530339753626,0.5618808302932339,161
-73.08948965880347,74.3921528230289,-5.716364445889568,107.74961655105209,64.47508837523041,75.2549426295271,-9.37659074863548,-87.91947461737338,90.0,6.000000000000009,-16.6665635659463,-15.44771151554233,2.095502496954745,-0.5919269875188421,0.6372517281008534,162
-74.0054606310845,74.71160949062418,-6.465031026800804,106.02799050847086,65.55332736546237,75.47285880062641,-9.404120972603806,-88.1828959618083,90.0,6.000000000000009,-16.925684473758935,-15.268927106972814,2.343000884588373,-0.6526449307011697,0.7251846445817411,163
-74.64589378176925,75.1592898618338,-7.272630217319895,103.38012655742037,66.47395104271715,75.70997051403052,-9.273860909112809,-88.1295519512277,90.0,6.000000000000009,-17.186449245395547,-15.120506113259747,2.6657507810069325,-0.7330249616379125,0.8400242784982652,164
-75.44907680474006,77.29552723201247,-6.231724494207478,100.78378989447201,67.32891420795526,75.96093539868183,-9.08448129367965,-87.9637370644726,90.0,6.000000000000009,-17.442819127867903,-14.97720906279391,3.0088606580889885,-0.8166475642815425,0.9648719356685171,165
-75.9130852562306,77.73257022863693,-7.0499406880922795,97.89226508125171,68.69607655492182,76.22514852204773,-9.07416933238414,-87.92501128734354,90.0,6.000000000000009,-17.618843541899935,-14.754981900495537,3.2864255940977785,-0.8755340238986076,1.066490095865377,166
-76.2576104554677,78.21968132746244,-7.795127171395682,94.60354074855415,69.95262305349306,76.53048189970148,-8.926989482349216,-87.76708922063304,90.0,6.000000000000009,-17.812394316658988,-14.561744343309439,3.618216472658769,-0.9472659359712059,1.1896499213390992,167
-76.34626504581682,78.74608887944234,-8.572013435548335,90.83097641894729,70.73250273234582,76.90470180105912,-8.687596780924979,-87.3399493663807,90.0,6.000000000000009,-18.023925553660828,-14.32800683205934,3.9421090265758525,-1.0108925595254223,1.3141559714183304,168
-76.23599143691659,79.301992345965,-9.349801447541173,86.7672739323061,71.85755153026504,75.77506849187665,-6.647243705546753,-86.74903456771199,90.0,6.000000000000009,-18.19968568746561,-14.045374260863339,4.271814769412142,-1.0681817253163788,1.440475245529796,169
-76.04614604903576,79.96944373886923,-9.954583522711868,82.33004934154174,73.03438585273047,75.963651603558,-6.399217508199756,-86.20783951776941,90.0,6.000000000000009,-18.3041176411782,-13.90407567073642,4.669083248423739,-1.149220469983822,1.5868657845460223,170
-75.72590417803576,80.70374991208203,-10.475367631901495,77.51074028284793,74.06948861422458,76.13485298849649,-6.064835212742889,-85.65230275828164,90.0,6.000000000000009,-18.421189718138884,-13.82422193951054,5.079669920180859,-1.2361638870326228,1.7414207306746132,171
-75.26827975371815,81.45868205564123,-11.125272544141918,72.32953864023135,75.12914788467094,76.42070918403763,-5.816610668155202,-85.0360526508944,90.0,6.000000000000009,-18.525284967538497,-13.620696958513813,5.415914887789597,-1.29117126495506,1.869995385752497,172
-74.42339594577719,81.00998791104446,-13.97139759509949,66.86834928508485,76.37037425617346,76.76694068172642,-5.68786020928041,-84.28212492028558,90.0,6.000000000000009,-18.504313989481044,-13.284462157407049,5.706050942539803,-1.3179999358764038,1.9691871053186956,173
-73.52538823020578,81.84902240505401,-14.62299639683017,60.897736834845915,77.52180047342068,77.05264573587877,-5.558826118049161,-83.63586599889608,90.0,6.000000000000009,-18.506526150863706,-13.0103015025984,5.966895627187849,-1.3418427795285326,2.060695327401489,174
-72.15593113082713,82.84716559280251,-15.30269885772272,53.9422060254752,78.83684770869257,75.84143117748508,-3.5979794471476723,-83.1058046727128,90.0,6.000000000000009,-18.48707158601159,-12.780862033986102,6.146682113408615,-1.3516710489649286,2.121050187169129,175
-69.92741312035928,83.18739531817009,-18.296382292708305,45.81326591590683,80.28882786153085,76.04184393982692,-3.670597062894319,-82.72223266673959,90.0,6.000000000000009,-18.464438619604458,-12.53812315282002,6.258802431546528,-1.3449901596699556,2.1567569494466294,176
-67.56094270070062,84.58995983851466,-18.852817883693675,36.559772537615956,81.7028486786882,76.24677488800813,-3.6045118005063066,-82.28591437579931,90.0,6.000000000000009,-18.358276044218368,-12.294909617608424,6.503641341089424,-1.362230031406278,2.228859733077989,177
-65.43956198191364,85.3537750523427,-21.499529986383063,28.298822862089697,82.9664167598826,76.41346338996777,-3.3943211601516703,-81.85994476455018,90.0,6.000000000000009,-18.235487090505153,-12.097519807656873,6.862488803025501,-1.4037666539873026,2.3380976809312255,178
-66.89285274458777,84.87578353956604,-23.831850709646613,28.29882286208972,84.21624484389918,76.54055504795727,-3.1916384037022776,-81.60819353557736,90.0,6.000000000000009,-18.173458885095492,-11.949846228402626,7.199748287624182,-1.4449625853882533,2.4469844811952863,179
-67.93086055030214,83.90449915268303,-28.578524014863234,28.29882286208972,85.51728358040074,76.69373800789346,-3.0480416459115767,-81.53593500139311,90.0,6.000000000000009,-18.143305637590053,-11.76981714838432,7.49287945023688,-1.4713951817223705,2.5440546627534446,180
-69.17764229188242,83.32132465068352,-30.894110369898385,28.298822862089825,86.80804761482985,76.85872015916802,-2.8548568047474223,-81.35159292041892,90.0,6.000000000000009,-18.071043612409238,-11.531721057026843,7.852632095387197,-1.4979828124889458,2.657268186128425,181
-70.19263771173944,82.26817330100286,-35.42193445428773,28.29882286208985,88.04631349238448,76.91282545505285,-2.5172014156074027,-81.16497745857056,90.0,6.000000000000009,-17.95590237914029,-11.352986706728773,8.36713239295801,-1.5548529429266855,2.817138876940612,182
-70.43275605159585,81.91870174019641,-37.34366371639768,28.298822862089594,89.26778967108415,76.8824977156062,-2.0465539590415416,-81.15634072643722,90.0,6.000000000000009,-17.852203856827504,-11.244206795400547,9.011227351569422,-1.6386185522562287,3.022750921328576,183
-70.72947080746819,82.18342361853921,-36.80186221642024,28.298822862089647,90.21803716464417,78.25704867197899,-3.4174841512385217,-81.21792778831734,90.0,6.000000000000009,-17.798285146823233,-11.136121578216546,9.729559045928957,-1.7283894654134526,3.261463341536139,184
-71.27716709513211,82.75283024827587,-33.80046892802169,28.298822862089697,90.6164771775212,78.26753649461136,-2.6902270567606292,-80.76060665258098,90.0,6.000000000000009,-17.750960116677675,-10.927043918590444,10.534587122422655,-1.804604774969146,3.5293420541555873,185
-71.65143479729562,83.24125635852677,-30.716849435023807,28.29882286208972,90.965626095266,78.28725374306146,-1.8937773335730463,-80.49152378735226,90.0,6.000000000000009,-17.728253191813405,-10.690332271159678,11.413083330508744,-1.874352097369621,3.826570687170305,186
-71.80426684544358,83.49109747991821,-27.578516657141833,28.298822862089697,91.6345355431851,79.84368869333645,-3.0165338605906653,-80.70174129550458,90.0,6.000000000000009,-17.81451331600879,-10.286059372638123,12.373751734624742,-1.901844266613378,4.173827268857771,187
-71.38248704583705,82.70506192749889,-29.348339357968353,28.29882286208985,92.4364132079704,80.11112504262762,-2.2441135304636646,-80.56814001833355,90.0,6.000000000000009,-17.91644481250968,-9.649774587240119,13.30086550919973,-1.848342010316163,4.509364335658824,188
-71.23245580569271,82.65529898795705,-28.854070041909583,28.298822862089697,93.24847396645555,80.16566060820804,-1.6528804370192436,-80.45309936199246,90.0,6.000000000000009,-17.94652641599633,-9.195138593075384,14.067227034160473,-1.8033503013681456,4.774632852666231,189
-70.99861541501147,82.83098957432274,-28.46074008504288,28.298822862089825,94.21154979895023,79.99951626793383,-1.2728009872791595,-80.61676619633212,90.0,6.000000000000009,-17.89457508730094,-8.954478724946831,14.665137468920028,-1.7895269667413245,4.963344242314847,190
-70.73336268303943,83.05854929197116,-28.126288654655973,28.298822862089697,95.04326706999257,81.3707334599168,-3.3258910398747243,-80.76879840970449,90.0,6.000000000000009,-17.76880412800269,-8.789353881684972,15.178654905554646,-1.7856835822196884,5.101938419330428,191
-70.47243004824168,83.33432750885576,-27.993613382420072,28.298822862089697,96.05064747274922,81.12357693416558,-3.3766952413746396,-80.84336413121852,90.0,6.000000000000009,-17.544190565263833,-8.600619935052523,15.509999331560127,-1.7615823461559876,5.145035435202189,192
-70.15873913524611,83.68342197063181,-27.893606215028708,28.298822862089697,97.02538120111599,80.77277021053361,-3.509171828975767,-80.95020700049298,90.0,6.000000000000009,-17.27667437922,-8.494220384039332,15.780758418025625,-1.7565178896669296,5.154758631971477,193
-69.73234797113686,84.01617649978566,-27.7618984873637,28.298822862089594,97.87963382815677,81.77875838228998,-5.609859215005226,-81.26678459836994,90.0,5.7229957738176935,-17.07844692173983,-8.456970068274867,16.041246512201447,-1.7682698494496614,5.181836617590939,194
-69.25074978589964,84.26581967625079,-27.677938867327438,28.29882286208962,99.00901689349514,81.42080546310783,-5.839291522604307,-81.6281594076782,90.0,5.321452731388056,-16.846980735698875,-8.368132660318654,16.269566423399173,-1.7635162252765526,5.184383830061935,195
-68.86481043863476,84.52404063095302,-27.534784143643673,28.298822862089697,99.95626858468889,81.03711726814598,-5.977628294869066,-81.79334526835339,90.0,4.8908810769966475,-16.593426125022205,-8.293835650788882,16.558063782983773,-1.7670213536297876,5.198400424488091,196
-68.53606264013162,84.79741512356877,-27.399920229569705,28.298822862089825,100.63998500039446,82.0272924911484,-8.075975235377987,-81.97412630199398,90.0,4.408360866924537,-16.372070893948013,-8.251148192674956,16.819080006909385,-1.7770012662064376,5.212373106857071,197
-67.9001457684589,84.58510199510128,-29.745589660628045,28.298822862089825,101.61766173933285,81.66524984385975,-8.364119977195468,-82.26005806019978,90.0,3.971149808810548,-16.118819267450785,-8.204678450069222,16.973609246653346,-1.7805493507075505,5.180308272531583,198
-67.47833380462487,84.78308230090693,-29.707209775751195,28.29882286208985,102.51885304981772,81.34464774808744,-8.61376505699119,-82.5013269924258,90.0,3.6428832894415217,-15.845307199103614,-8.151187036131903,17.12986607857421,-1.7828016713727517,5.14079866931805,199
-67.12788455192135,84.92783240058505,-29.637768377247085,28.298822862089594,103.15955826922732,82.41264452783344,-10.723377851457988,-82.65124624948218,90.0,3.445062801046925,-15.506314422884191,-8.01682935171911,17.36494280565838,-1.766765089543809,5.0996275136492395,200
-66.7771076480375,85.00921653257896,-29.580057106363537,28.298822862089647,104.04863016471286,82.04205320258025,-10.95442813787171,-82.83094450903496,90.0,3.280003379675419,-15.207337360524091,-7.814366705797535,17.6177931570879,-1.7281583529922973,5.070877382806928,201
-66.39318558697542,85.08007185362531,-29.482003500184007,28.298822862089825,104.42866763581824,83.01499416113899,-13.051255211223795,-82.8730300907795,90.0,3.094186401303305,-14.939722355039702,-7.669819757137177,17.881500662623797,-1.706283976867657,5.055362358145569,202
-65.96423895975309,85.18119310309476,-29.449678531273186,28.298822862089697,105.05266039972679,82.64538527797431,-13.268804105564918,-82.8014055618748,90.0,2.955198781459424,-14.629318401397763,-7.5736751157217235,18.055420745909792,-1.6967215155718398,4.9994293992092045,203
-65.51531406122363,85.27717722416519,-29.48951690697111,28.298822862089697,105.57160240300088,82.29892717704853,-13.509529965401212,-82.66715323834154,90.0,2.781548552165711,-14.285850732541618,-7.442613323346635,18.17581554969998,-1.6745838827406396,4.913953875799656,204
-65.05007041655526,85.31616889311003,-29.54884778133251,28.29882286208972,105.5897591025057,83.33906694954943,-15.616450511334218,-82.43645622139269,90.0,2.634914948497287,-13.9432344023342,-7.258080515394558,18.303728473680533,-1.63531597049588,4.826922769234245,205
-64.60144143076097,85.3631658993315,-29.58495455302659,28.29882286208962,105.89982392588819,83.00799237590505,-15.742883019991199,-82.10968284560401,90.0,2.5566101734539397,-13.58029729724006,-7.06921564466138,18.46723636006254,-1.5969225711587625,4.740944895141062,206
-64.21084890790813,85.41881313958493,-29.537940070118044,28.298822862089825,106.15001821291862,82.62211927390327,-15.802551009534128,-81.82936013789475,90.0,2.4426775052300944,-13.200661573306952,-6.950490917268844,18.680850000523506,-1.58436034534182,4.663916918859808,207
-63.84513011851765,85.44689101972965,-29.500567349712444,28.29882286208985,105.93030617422963,83.53537623298014,-17.800044743785467,-81.52798051422648,90.0,2.328236684535039,-12.8007975409256,-6.83612918611183,18.87736299579803,-1.5734741008405553,4.5732222580412385,208
-63.45889456785387,85.46547171996156,-29.51396811701852,28.29882286208962,106.181500682185,83.16629492471031,-17.90796335843461,-81.40639094220234,90.0,2.247003586043173,-12.382484304930509,-6.713872264361352,19.024423118731704,-1.558856347372483,4.4611297525668325,209
-63.03497722315167,85.44154534574223,-29.617558401513072,28.298822862089825,106.58525408102318,82.88988376714812,-18.086520767279175,-81.3669262144831,90.0,2.2551890158741448,-11.979131523305101,-6.51501674063787,19.118123082364548,-1.5156171913282306,4.335470810481016,210
-62.967001950164985,85.90370671521606,-27.27334734224856,28.298822862089697,106.32962283053502,83.85872186160869,-20.085824911749,-81.21485073308277,90.0,2.2330912617884504,-11.545242619417742,-6.360901304499676,19.26005336750053,-1.4909898375074002,4.211716364486156,211
-62.659228444539075,85.95375943089567,-27.315026226912025,28.29882286208962,106.40277587422034,83.43576836732842,-20.171991290949943,-80.95507562784665,90.0,2.172642034501417,-11.085495182988094,-6.2373973101488955,19.379705490245883,-1.477342889258162,4.073930612782783,212
-62.34569619970211,86.00697609647095,-27.379724510054363,28.29882286208972,106.50331797730782,83.00146804657608,-20.276388844552713,-80.66250204218507,90.0,2.1291762857534686,-10.598069454120514,-6.096738652775928,19.488541531426836,-1.4591321122815328,3.921778345136408,213
-62.12571322278373,86.08444344104947,-27.40697528036396,28.29882286208962,106.17194546096964,83.90332827093278,-22.253178460180422,-80.5786785425982,90.0,2.0908157232514055,-10.05130274317148,-5.9978992293281665,19.606279178129785,-1.459064990679884,3.7518415765652766,214
-62.01272789638352,86.15038999628038,-27.408622869937656,28.29882286208985,106.30231560417559,83.50337578193945,-22.27976246108449,-80.51539383015434,90.0,2.0388664252952684,-9.483576141395362,-5.918730053065065,19.722873223406214,-1.4673683441318284,3.5738749162288825,215
-61.8814516586269,86.2449839272859,-27.39591763947005,28.29882286208972,106.32488552870849,83.00255419633451,-22.328887789036774,-80.39457215235652,90.0,1.9785945821358208,-8.945452628130425,-5.878706191741381,19.83238806479224,-1.4878475903873785,3.4054907481180834,216
-62.05869970244772,86.23211822846399,-27.409733184277485,29.17138258539349,106.3967742700062,82.66463085832696,-22.337962285494953,-80.44998480867419,90.0,1.9266112271781062,-8.381678546034683,-5.861426443990963,19.88285624990568,-1.515506568748313,3.2178304897013,217
-62.562212746312085,86.08737648767725,-27.401308749457463,30.678299117516193,106.73321873016475,82.23689309396323,-22.515048991414044,-80.84407198124791,90.0,1.8452311682077915,-7.783289691626096,-5.87717555991364,19.90328170479413,-1.5554467078596828,3.014827883830365,218
-62.96223915068565,85.96118565735854,-27.427248637855186,32.10333377248542,106.90698188342726,81.78811431799204,-22.679453242114064,-81.12371739026345,90.0,1.7453459395170583,-7.204671319718854,-5.902897405855971,19.88536430881168,-1.595897195847756,2.813545043224349,219
-62.97335092152472,85.98411610264651,-27.679893111862263,33.04825173857674,106.43097231242524,82.79814872913045,-24.82302293979724,-81.23916891062213,90.0,1.697758755201856,-6.666050876941617,-5.89711056669145,19.668955434857562,-1.611692449198694,2.596293067883484,220
-62.65745320054952,85.44142203983088,-30.363338766830577,33.84729714734309,106.51393918093882,82.63544763274487,-25.100833053706136,-81.25309976680549,90.0,1.649348825380266,-6.14963974501455,-5.863348423503653,19.369193924337793,-1.6104446869314943,2.37795669501065,221
-62.82544741649409,85.38793600717678,-30.552871935286184,34.692815101928296,106.28256082361756,82.39946385867354,-25.18762040949844,-81.19493359797816,90.0,1.4540989873756007,-5.672414694406134,-5.881089586074675,19.156744222188212,-1.6283558364401165,2.1921488875651427,222
-63.00520039450313,85.27973139544744,-30.831069530252197,35.61668084634639,106.02803879475019,82.25886675589842,-25.315064362888084,-81.20207625781474,90.0,1.3275891968396716,-5.262878040622843,-5.8422848471446995,18.86760834241399,-1.6177782762977049,2.0198276289492476,223
-63.05978373085704,85.18373007673415,-31.30151800591485,36.43057373362216,106.0386984879434,82.31179021130092,-25.619412880299624,-81.22810818861623,90.0,1.3365782047995025,-4.841536917222833,-5.71098887905846,18.426319219892786,-1.5666258472641117,1.8262005476467598,224
-63.06711693799279,85.12539876140816,-31.725413204071884,36.998843399370514,106.036351111939,82.38360749563444,-25.85570762376063,-81.36549727348881,90.0,1.33286394903611,-4.351540465812911,-5.63498355233621,17.996649624297344,-1.536429305154383,1.6223788911759407,225
-62.70103130701726,84.3913928690629,-34.4894297999207,37.6297694087466,105.97693196818108,82.52615977402976,-26.01808662918636,-81.61514494643481,90.0,1.2794934534829034,-3.8838435691225444,-5.525698937846545,17.582435819434174,-1.4948566112985378,1.4329763250109842,226
-62.844276723539345,84.16170008661501,-34.92556002402735,38.54775690361378,105.92735430571253,82.65168114753001,-26.24736854987813,-81.88227568174636,90.0,1.198686686693635,-3.4963219793705633,-5.382776157965816,17.145756105878238,-1.4375334369308141,1.2711581538566572,227
-62.97758297219718,83.92564546064078,-35.33461168976015,39.42001355678461,105.83234964115218,82.72278027646313,-26.504025629251924,-82.09760811818025,90.0,1.0665924631227501,-3.1218796015438883,-5.302593304189497,16.685734999832587,-1.3963375894774999,1.1205448826897686,228
-62.87072280184515,83.59257546281052,-35.74402228622121,40.093675036328015,105.41894341071615,82.80894069471087,-26.679384684980008,-82.09352702516442,90.0,0.8340502851476004,-2.839164267431499,-5.253232385106253,16.190949609750522,-1.3569811562549654,1.0007634945062076,229
-62.67954880568655,83.13496462875506,-36.215067115688065,40.824473472189226,105.31348814684603,81.6576641290842,-24.905696355697977,-81.89232641014979,90.0,0.6513907680297447,-2.6263369424746905,-5.1415402595139685,15.645853230691923,-1.2935492648385125,0.899418962449723,230
-62.50488606427401,82.61389992831228,-36.78534312650703,41.68815193496681,104.64408564894939,81.80459762527515,-25.079972635250158,-81.60408487941844,90.0,0.6175988606372125,-2.388025756355171,-4.926377172533284,15.043697538945315,-1.2003539328955397,0.7891413123153451,231
-61.72458240337838,81.52371823875072,-39.737737145429875,42.39336988837001,104.29239094436414,81.94517424239363,-25.434261696009763,-81.67751903675958,90.0,0.4917632733922305,-2.136888696256578,-4.747200236069223,14.386262952362697,-1.115423173420762,0.6801576509137399,232
-61.232667102064504,81.09247097050228,-40.31328798940683,42.83274932190016,104.6064926207955,80.75295283696671,-23.98843291224157,-81.97023783119647,90.0,0.39537632081251195,-1.9560036303927082,-4.628980287218697,13.71882992238947,-1.0445681930481507,0.5962448486796409,233
-60.78023833644433,80.58797818678748,-40.83343125879854,43.32746043363338,104.03561162353193,80.7494473108987,-24.296435201188597,-82.0626772213466,90.0,0.4509968918065328,-1.8038690031333,-4.517457815282924,13.084225165540813,-0.9781039032858706,0.525899747616207,234
-60.39605215151076,80.03746471879433,-41.29647146981687,43.81689868621467,103.73048152413476,79.34640964507952,-22.563049063569686,-81.84151533152497,90.0,0.44794618146791404,-1.5540721395466073,-4.408328326594046,12.490117284904894,-0.9185645334871233,0.440632485883775,235
-59.355334926668135,78.91662545951976,-44.09320049943104,44.1204886567138,102.59720001441275,79.10108865589108,-22.5719009757039,-81.48005240295922,90.0,0.36625647403081846,-1.2739338497581343,-4.339534217242291,11.920133967931807,-0.8705729390666259,0.3568680642682068,236
-58.724991585908526,78.41546559624344,-44.5015319876375,44.30920755831061,102.07539280164075,77.54902823458467,-20.754923180767417,-81.43580394173561,90.0,0.36738789133849165,-1.0710330748840204,-4.295899658623111,11.350935991505775,-0.8261252660927058,0.29496722332575503,237
-58.033806616676614,77.92757304561219,-44.82573796519832,44.323775619440944,101.25362047585635,77.30810565036779,-20.81954015457828,-81.90301166817244,90.0,0.468363142529878,-0.8883453975116181,-4.313693566214134,10.82730149814186,-0.7960039923454246,0.2437977740380426,238
-57.27811775300681,77.32206498761113,-45.10010780931823,44.33547971710292,100.75495384054591,75.70572726171329,-18.93301590508096,-82.21434144685763,-7.84431732894657,0.6491765001842671,-0.7630618346366003,-4.3065155979467455,10.356296518049792,-0.7631626622702736,0.20745164904524402,239
-56.477878005473,76.63421940097699,-45.268972236819614,44.345613998031844,99.91600735104022,73.94263573712418,-16.876022288610493,-82.29738424829955,-3.133382776385761,0.8754800631298999,-0.7011865453483783,-4.316821458239521,9.980971936015628,-0.7389593407166766,0.18697611086583146,240
-55.109875501351084,75.28415752376237,-47.69932460486553,44.39022371014466,98.36804811498276,73.37764400078844,-16.407635182857298,-82.33169849364457,5.134090508910454,1.0647904054691146,-0.6292651288953942,-4.3694048460971535,9.745548777855902,-0.7319315033607233,0.16968316922432072,241
-54.3324985566355,74.49545704506431,-47.75221162760267,44.32288159166129,97.10035837707426,71.44163763313217,-14.020516606701667,-82.29893148056694,9.151179238341044,1.1421196706840364,-0.5155867679580521,-4.382227921039537,9.487021799430762,-0.716608652904472,0.1450250345154438,242
-53.38638369093053,73.79556836814933,-47.9147690376639,43.98963344246529,95.78980139728618,69.8818266254937,-12.127385080011356,-82.16315544643854,8.51905603792347,1.2496348526804277,-0.36201217288456555,-4.3383524613881645,9.170450440925983,-0.6880641348759876,0.11324456129199648,243
-52.47048449636897,72.97474560298986,-47.84849330825096,43.68156170288235,94.06545418070745,68.51925323450838,-10.384457696621606,-82.03603803830421,12.962516426759635,1.4226683401739646,-0.27593813695300756,-4.390284396845782,9.028847454949283,-0.6868627290351587,0.09780279292203219,244
-50.77395239585937,71.54032355779185,-50.267006668011845,43.30889623520147,91.97145701355839,67.22552855665317,-8.565824702465427,-81.75654472976206,12.561794084338262,1.5981933137554163,-0.27041427309175475,-4.413598256842649,8.89493355047002,-0.6805013653421026,0.09499233368396387,245
-49.606751094873935,70.67776432954413,-50.32302019757988,42.66317759540303,89.83321178483165,66.01755221496336,-6.742207844110854,-81.33665486091245,7.440252002935727,1.7994446951181948,-0.24685238070362206,-4.362176489450254,8.722826892232934,-0.6599307936021191,0.08798451745628548,246
-48.55203892890405,69.74316375473066,-50.28871516306028,42.053941172421425,87.63246195685265,64.83202592113818,-4.768855686870818,-80.83522124707046,6.708160601033914,1.9895879041280087,-0.2287900729003083,-4.323518674713637,8.640114142333653,-0.6481137317658684,0.08352560472724758,247
-47.30113837427307,68.87737645139073,-50.24208579634362,41.229625571101494,85.22713968450081,65.02391219275766,-4.665782240401644,-80.31073589491008,9.187531655523868,2.1614826332173953,-0.25223358583594385,-4.322445850058386,8.584058994718212,-0.6435338054994533,0.08615663173788815,248
-45.92968631766128,68.0453161524021,-50.195009120675756,40.23243800774263,82.84045284967337,63.81792188870112,-2.582812994748773,-79.65264442613653,8.813458742861389,2.3417488632996344,-0.2891954913688594,-4.3268648007625545,8.564070298630995,-0.6423025065600273,0.09139777261301192,249
-44.683729682304836,67.13024893385045,-50.07930065089682,39.32169310320475,80.26811295620166,62.66626454838814,-0.3856717782227079,-78.97802025245439,8.602228217300793,2.5478522956834966,-0.3007850635176936,-4.349639719179144,8.595515804610312,-0.6479237137407611,0.09389886831434126,250
-42.70523000011461,65.76856508890681,-52.54823647295732,38.36693879380162,77.6182169141268,62.97641325785046,-0.13729990773004982,-78.34085308086753,8.796013660546729,2.8192721150220623,-0.3646688865138567,-4.36969405264138,8.61860766550566,-0.6519429412876055,0.10408205988201001,251
-41.25561482605161,64.83938047404287,-52.44684413565466,37.37319802615069,74.85386660406661,61.95584107431438,2.1761581302250286,-77.66115718127762,8.63386340185655,3.105508544827499,-0.4875453179476423,-4.408551210268329,8.680517114903088,-0.6610528772904352,0.12417463508024157,252
-39.68161621120835,64.12975611447095,-52.49757769763493,35.897428506437954,72.22858281263551,62.31021410141575,2.4097879415706704,-76.87012482879045,8.315769524351568,3.188183299122945,-0.48425187075395143,-4.399144419772208,8.699313950788705,-0.6610678111652614,0.12394471157971268,253
-38.05915363622201,63.592632626605344,-52.64270609320506,34.0259650536759,69.50950416237889,61.38816682842887,4.7428735924851475,-75.83950094906949,8.89062261146133,3.1761805220055757,-0.3504992963560368,-4.364846288007099,8.71280300120208,-0.6583918821231605,0.10355647176519646,254
-36.51527273587891,62.99919979605555,-52.695297993737675,32.29024347743858,66.75917713599823,61.81900542440913,5.139245969927124,-74.67178410696502,9.704139396586632,3.2656932689713343,-0.2448798678649945,-4.388391978841917,8.78646402997566,-0.6687364228906709,0.0890023410263677,255
-34.946842639550255,62.56386426435711,-52.74512436132636,30.200307388574213,63.940066961524934,60.90105844202304,7.646911193213742,-73.5826550722581,11.003684212937209,3.3192636072466737,-0.10466740986652992,-4.480059485521525,8.857621662731509,-0.6899590782386666,0.06965168276495595,256
-33.929389479158786,62.38971118142117,-50.18966112419821,28.298822862089924,61.13857020591833,61.334235018849725,8.128341106963182,-72.22169622176995,12.815239514184215,3.376099022339848,0.03514377373412605,-4.573495490703354,8.962990953948974,-0.7144465595831562,0.05048800440439934,257
-33.02949611241184,61.20889336371661,-49.96751022082074,28.298822862089697,58.246790557213764,61.82083179986785,8.62384335050316,-70.58901924627642,14.2779495159931,3.4147504804833373,0.18440245737945274,-4.635450247333331,9.065571335891397,-0.7342632841203663,0.028973916678614334,258
-32.10700028860387,60.01176204714577,-49.80350767739556,28.298822862089697,55.194470346166476,60.95392857589203,11.524801543288964,-68.86828396054854,14.210668188068974,3.3221213724146965,0.39968054462747904,-4.656347391099119,9.124763229192776,-0.7451236441354832,-0.004328395173857439,259
-31.517492045099406,59.18598976727836,-47.075615049736456,28.29882286208972,52.46411526177823,60.95038128089461,12.858102236178846,-67.08075674531716,13.463533038905974,3.2902576262591783,0.5974962916344584,-4.6609970692230815,9.1993793134243,-0.7545381075962149,-0.03544076494142292,260
-31.11318512893322,58.37815030704901,-44.21766751354168,28.298822862089697,49.579942608792,61.04016503560785,14.348180900048048,-64.99986091078077,14.283822949488902,3.2703953641511045,0.8115460053757039,-4.72865195263266,9.350358831809315,-0.7809062785652148,-0.06888751275889558,261
-30.71236328594701,57.65272677569827,-41.46849096573039,28.29882286208972,46.955816092527755,62.40347558145284,13.566025311986897,-62.4376590864954,15.017526738504463,3.13019928611034,1.0596111783401119,-4.725584740020045,9.42638295726352,-0.7902101689848982,-0.1096055862190851,262
-30.26349595639445,57.09864923864387,-38.21952166651346,28.29882286208972,44.04054901135317,62.67430564156594,15.02108994955044,-59.77708909078658,16.532783541698258,3.0633083580316454,1.282535845582517,-4.77086598813686,9.47036530802676,-0.8045589754761296,-0.14588615622348552,263
-29.65642712885303,56.50631264389914,-35.722056009829906,28.298822862089825,41.249259110388046,62.99511857690263,16.402030703308533,-57.249213169777875,16.818637838801404,2.9989646774134076,1.5009344732940286,-4.822230188637318,9.541414412782956,-0.8223696536787716,-0.18198579229054787,264
-29.058500311400522,55.795509038363356,-33.25898311618891,28.29882286208985,38.05649525229109,62.61491116293079,20.134928244316715,-54.388580376084114,15.04466236785277,2.927828347280677,1.6779065388657692,-4.792192750211247,9.695867247222608,-0.8334206877414512,-0.21406197359357737,265
-28.68538867991784,55.64866151526199,-28.473598602034055,28.29882286208962,35.51512139799599,63.195664504386706,21.254963412573623,-51.395558840405066,13.46681397775553,2.816506508088398,1.9000769366633075,-4.687065281678229,9.728004418741296,-0.8216571863010284,-0.25363958152592303,266
-28.210812939222816,55.69998985720109,-23.831015763715666,28.29882286208972,33.20754913850715,63.667119388755424,22.216175318819776,-48.41813287001802,12.569137802114241,2.6831839015946617,2.163571127099943,-4.600717046680828,9.687255479763742,-0.8074115436353089,-0.29851124866281004,267
-27.667013957701787,55.83123780137064,-19.174278463629047,28.298822862089697,30.58917404613084,63.27454502155776,25.567769212428175,-45.65557828217917,12.804219596426934,2.5817763832724285,2.384559084279092,-4.591355887782817,9.657473019569615,-0.8065532776202207,-0.3350762846773531,268
-26.919889644587215,55.43053487661974,-16.95074878419565,28.298822862089697,27.890084379269666,63.0332266527758,29.005931089148017,-42.83671579654961,14.767911032745928,2.491469190211042,2.590357675214613,-4.620039822221724,9.658566372311343,-0.8145634434985829,-0.36929812837403164,269
-26.15309433084832,55.689941060973105,-12.567766959271019,28.298822862089697,25.548942637645467,62.72120307768453,32.17425520585628,-40.313768155997174,14.232599179775564,2.3677157229099306,2.815105440498514,-4.545113977019897,9.524152318855212,-0.7935961746290642,-0.4034306004159028,270
-25.185832071814197,55.506075623687266,-10.702797320445908,28.298822862089594,23.32118070877003,62.40851750499168,35.29706809747154,-38.04484635582804,12.755595445017825,2.29000623906205,3.042688206490548,-4.467891895612859,9.33082348631475,-0.7674210396240206,-0.4346026973160825,271
-24.117865482841896,55.43313338077831,-8.955327666074227,28.29882286208985,21.826418537773478,62.42816406734563,35.71590365702939,-36.33462926841796,11.371764273627834,2.3204080186808156,3.254536215678958,-4.377407241151726,9.063922818848313,-0.732970702789503,-0.45855040593609087,272
-22.932677945239885,54.85807850770124,-9.578306545535439,28.298822862089697,19.932354745839717,61.67500375417439,38.63650236769102,-35.054601012703294,11.006750502567868,2.3511062374569334,3.4271273243295615,-4.3448000615664375,8.828325087742346,-0.7101716111172175,-0.475093983748242,273
-21.655411312437053,54.36419880926322,-10.25528763997278,28.29882286208962,18.168157748765626,60.725996856256856,41.50122304609292,-34.37988882909813,11.110673149447253,2.351739458497987,3.5584535586641217,-4.335510702620473,8.51187110005137,-0.6836545376848845,-0.47959992935259493,274
-20.470003968725774,53.917210587994504,-10.901025796124582,28.298822862089697,16.450183997344958,59.7075896185467,44.423836749603595,-34.06770501740937,11.651074264575547,2.356189043177582,3.7328538498340644,-4.35681854941975,8.128107854300167,-0.6562676194778894,-0.48474239176873424,275
-19.173126590584523,53.5245982475963,-11.712522787175764,28.298822862089697,15.33616905522988,59.020015086952064,44.64984669105209,-33.990155158862756,9.873077804293885,2.359388109777688,3.901321192940405,-4.295499756293183,7.667102977275294,-0.6106339388861515,-0.48290471796424383,276
-17.609094732639146,52.69802239580588,-15.117937306885091,28.29882286208985,14.257679752081325,58.33043166209,44.810200413513826,-33.91693554083464,7.1452939113899046,2.3533293414428647,4.040370304801248,-4.163367438606838,7.144467582205133,-0.551603558867852,-0.47102521152500615,277
-16.0211990749897,52.48944846680293,-16.2287906618656,28.29882286208985,13.608392344260539,57.28760058054743,44.706586082098646,-34.7391431105686,3.462119618738335,2.414731886444388,4.145751478561462,-3.9834852625577364,6.534510166393794,-0.4823659953932973,-0.44675600796362014,278
-14.393347206984926,52.157648699929325,-17.297636734608552,28.298822862089697,12.759844686185273,56.51010584568077,44.755471854670354,-35.279509551694396,1.1491478648302882,2.4666626152190236,4.213749018789859,-3.825561292763464,6.063711866505149,-0.4295378938381776,-0.42453615894266966,279
-12.657465472438679,51.86531740645393,-18.55549505989304,28.298822862089924,12.074915999403416,55.82060550134408,44.7471946835816,-35.37718724020267,-3.467805557255251,2.477321128327357,4.37499647516018,-3.5847042276999614,5.583164688683699,-0.3711158964464452,-0.40949234151546987,280
-11.14780626281793,51.86324731861613,-19.532823785753894,28.298822862089697,12.045882018103224,55.107991718989936,42.16903481267978,-36.49279209135125,-1.5844852852682774,2.403540341514991,4.5258807943706225,-3.5654787627925963,4.923367189343794,-0.32415775344414816,-0.37610212290531786,281
-10.793865691722305,51.92139258887236,-17.5074343299848,30.011975949474184,11.544245022949164,54.12460523410206,42.22112741138353,-37.4440011223135,-1.5079974885623597,2.3033439826616013,4.74954858160781,-3.4767152806401356,4.46509669039845,-0.2864403161393258,-0.3600800560535754,282
-10.977230336164343,51.165787346343656,-17.359110488236446,33.12820619886177,11.404372732304154,53.73018604566639,39.77013987631766,-38.48824186929744,-0.06191292485881371,2.281778012262151,4.876613836661467,-3.4820717273413897,4.066432767671568,-0.26048239102085974,-0.33790714856770193,283
-11.35857857522098,50.231674719889476,-17.002124313233963,36.53477403215883,11.379655158021091,53.32261071802374,37.2488759901308,-40.04022881512056,1.1644534734463308,2.3778075316752707,4.930933617151164,-3.516429280156932,3.7023646087231117,-0.2385562353000566,-0.3118744547719535,284
-12.053639425578089,49.92560859430622,-14.148382024013493,40.18611008304045,10.925549921899641,52.31422823864417,37.207701676723126,-41.78230839378749,0.4711466320745309,2.467632333210022,4.933019074903744,-3.476795259405695,3.353474496069502,-0.21288595068534608,-0.2833367636786774,285
-12.307870528390177,49.04584113753479,-13.924515647095824,43.659041697971176,11.33320862049428,51.729054122218756,34.30738781506869,-43.887074208803874,0.10015211758621025,2.5716092638382,4.940776596524544,-3.3849331436483863,2.9536394962045516,-0.18187719754359585,-0.25073543974419266,286
-12.490000743518179,48.120956564546574,-13.690252067391112,46.8788513362406,11.233397966038307,50.483696310904996,34.04392700920832,-46.27852564101399,1.1431786731621354,2.7521123297683436,4.958205144722132,-3.342276600775827,2.6034297378926174,-0.15770766896136612,-0.2223386041366873,287
-13.011961811956374,47.960852659537686,-10.903863675062977,50.037023620643566,11.56225646353504,50.179663457227534,31.292014012739685,-48.552192767356985,2.2878685906286758,3.1063349919667553,4.954157793236162,-3.3539294224427834,2.386910024726064,-0.1446912079218065,-0.20394104411653083,288
-13.431333237985852,46.73667045149015,-10.303365986351805,53.58479733460569,11.169829412311463,49.11092445889617,31.152000899381594,-50.96277408779182,3.819917669815879,3.400404398929861,4.796715249367567,-3.375414667296913,2.200021236533803,-0.13373886545319158,-0.18208635162809855,289
-13.481795525164308,45.70417752303149,-10.061924306978243,56.7723943254953,11.821210045452599,48.59091901177698,28.01066832589127,-53.70994059222532,4.114365679217102,3.6059848002438195,4.661612476087819,-3.2798961206700366,1.8517947591491233,-0.10890377410846776,-0.14926083712007465,290
-13.884779083622474,45.64772699581602,-7.381392196300534,59.99254165798458,12.432403834098228,48.27890456964456,24.942491759923545,-56.30673884515143,4.49702728375886,3.811304476621114,4.532447828643299,-3.197515660155116,1.5755738938755348,-0.09000742945080484,-0.12367609343222745,291
-14.362962294910679,45.5949721990295,-4.638209495445062,63.236282519751526,12.334452710169202,47.18181434310418,24.578948534485736,-58.739461037041494,5.758774265927357,4.076467312627101,4.398578792979539,-3.15572446324155,1.3546107174207247,-0.07613366546317833,-0.10330788594756886,292
-14.66446571096982,44.397453269620115,-4.181606836467901,66.37627721106176,12.836566918076116,47.04846516917427,21.629297436195593,-61.22028960605053,6.2269895498529415,4.255047596109606,4.280592363516244,-3.0992459844026934,1.0988262101552237,-0.06044958036559934,-0.08167291977587146,293
-15.002380110640484,44.432670918592926,-1.6719360069848739,69.36713987627714,12.904414118824999,45.793808591227226,21.130286473052898,-63.76070870451027,6.564688383344405,4.285797904604797,4.223278358652172,-3.0110745348832073,0.7962421623764526,-0.04240599925381105,-0.05850550021164967,294
-15.316980423706681,43.30339477642349,-1.288994677977634,72.15665700162049,13.575581916580367,45.612676799527385,18.165414082396108,-66.3170120758426,7.5715804037935035,4.267935815679142,4.229992924385253,-2.9707539990794944,0.5226072543446539,-0.027371664936236873,-0.0385290505609295,295
-15.702906792345564,43.355959026831364,1.2815146834535218,74.90912546031913,13.449389419735796,44.67305488197192,17.915628052598404,-68.63553563325178,7.964925787734158,4.432173992398601,4.1734294620028605,-2.9784144246581006,0.33493063193439226,-0.017544305338549362,-0.02438867665297919,296
-15.771767590522392,43.42069683585583,3.5799424595411007,77.57799309117905,13.967764356708582,45.05046580696858,15.058477191743137,-71.01597933884852,7.074667159818113,4.581684816048031,4.051175425281551,-2.8979400216863906,0.20181477860200991,-0.010267028755966528,-0.014275437030688308,297
-16.00966842532953,41.95359336649709,4.0406498912555415,80.16521952915707,14.251536198271934,45.50676104230719,12.435438129434038,-73.31877883148681,7.206772885051571,4.713498472670401,3.9372336522296663,-2.8694053189605144,0.1615857828914462,-0.008133951520815195,-0.011109904654870304,298
-15.86209415168563,41.838407237689545,6.218100107743619,82.5278967353995,14.180961479665804,44.65114027988907,12.12332981274629,-75.75236257400223,7.71732138879876,4.903343729911537,3.8035698791828767,-2.8771317330240946,0.08647857587867236,-0.004360154455560344,-0.005746037764377442,299
-15.810874842731833,41.73865259750194,8.4094176151195,84.95789795781388,14.097905679713058,43.94324060949524,11.896543924379637,-78.00836260504616,8.780101333694644,4.8956218609250985,3.7135693525769935,-2.90683711690664,0.10481564745368471,-0.005339705969699524,-0.006798189813630491,300
-15.702811137418319,41.76591615841768,10.462469362941647,87.29990565798518,14.382858708889685,44.61174210973829,9.421194203921175,-80.19317104200823,10.48108748656055,4.792520812762604,3.6468267646296155,-2.9106618931284967,0.10835099206483363,-0.00552676029642477,-0.006900572434049535,301
-15.592946936408138,41.28063585501764,11.808229003162666,89.52061426913417,14.397142842827416,43.89392557489935,9.088555662097907,-82.46658409235462,10.815127590941394,4.742446220886279,3.5611269570215316,-2.8797542161313805,0.0650976436063565,-0.003283284971240902,-0.004049399807331332,302
-15.62114715431886,40.177637026307174,12.442352681491704,91.6612115389581,14.795591629862665,44.65097029127686,6.57552804499635,-84.72117107063468,10.774119280890451,4.678205406576173,3.5048813182024845,-2.843029377578372,0.055268545843906794,-0.002751470174693918,-0.0033837735012477096,303
-15.184301032205845,40.617730459456084,14.685031980020215,93.77093855987071,14.774867951670617,44.089241888860464,6.339391332221833,-86.81445323264711,11.9238257993422,4.596038995979403,3.426726450042046,-2.8417146855905813,0.07046449504773669,-0.003506580613484062,-0.004217200502862045,304
-15.14187125421407,39.62329930051967,15.38655805247344,95.7041427297551,14.810120707940442,43.536202765360166,6.002094126868223,-88.88679505095116,12.371846751686126,4.523533275952709,3.3059148561808924,-2.793166286144611,0.03891966383618557,-0.0019027664739738712,-0.0022474808902289323,305
-14.330896377352131,40.169642653511325,17.17797486600955,97.54018960199,15.245212811061638,44.59407524813841,3.5502297411704564,-90.96073064586956,11.665980390248711,4.412693155151012,3.256252716194316,-2.6993209174722366,0.04926203342758376,-0.0023275164975164672,-0.0028016971632677918,306
-13.520963645356264,40.798384855525015,19.011894618098534,99.3974271258973,15.457115357611947,44.18307471563357,3.1546138280219966,-93.12611211436241,11.657335314190595,4.335693692658733,3.1601518782875995,-2.6556454394017903,0.08895500280785447,-0.004136100670731651,-0.0049080992800141915,307
-13.690915096441968,39.996344262371665,20.041751891037894,101.34739591854532,15.367981430759508,43.860596876804,2.9384281283452927,-95.30593339994584,12.441984042276388,4.455510325364392,2.9108970041854136,-2.700461977264713,0.14372165973057227,-0.006796839967801904,-0.0072995310115486775,308
-12.845593096091624,40.822358411470994,21.967893953629446,103.16813506708444,15.59395137117083,45.22418226545879,0.6976391886026789,-97.56134138512903,12.6928998544459,4.47056376746244,2.671297086411015,-2.7016566074085864,0.1791996511530029,-0.008478322785041008,-0.008347648677946582,309
-13.091682402617064,40.083902108165965,22.913470128174833,104.92798332961816,15.873965345481706,45.19955895606789,0.35306013353306065,-99.67210801377072,12.781283277225393,4.260505847272823,2.5487061771027166,-2.6837301433764558,0.27449239892270916,-0.0129086386710251,-0.012187554918698948,310
-12.3602733628429,40.929689005820606,24.811044093927674,106.70380332172046,16.250567276475554,45.281091078686764,-0.0018093132526808158,-101.67001996623483,13.786072784906416,4.024292554945831,2.461361637445942,-2.6693906085902754,0.3925995268300271,-0.01837902623110444,-0.01681322618836996,311
-12.986754276673063,40.35756052315698,26.075693915927662,108.6424358056714,16.71312907105195,45.45174310234874,-0.3561347017379508,-103.66530975571338,14.477834765501601,3.927542110255389,2.3858064228327462,-2.6888433551135007,0.5004814370376404,-0.023615801856325336,-0.020749356389557473,312
-12.36428061052075,41.57907176715567,27.957680783016688,110.49735554715143,17.381369663732176,45.58307704069221,-0.9278513883301999,-105.8088102430692,14.054996596091417,3.9274541728404695,2.2614493478772304,-2.655231484500317,0.5350349485387049,-0.024930481332526604,-0.021012592722654426,313
-12.907469481762666,41.29419553335299,29.04842492612778,112.19305409124986,18.05834014628106,45.704368840057214,-1.5305426036099798,-107.99521486828182,14.557141307699535,3.8745662244100427,2.0965277828094706,-2.624656201664625,0.5900962515359857,-0.027179694748419733,-0.021462450781392625,314
-12.351772690795082,42.489644492465196,31.092655030451613,113.91433753093219,18.65756043708328,45.69494184777426,-1.5766051284591829,-110.06563846166475,16.910051310898446,3.7129591680709098,1.9582143168696218,-2.695823851788886,0.7435319827330754,-0.035194550885176284,-0.025194061687038347,315
-13.355173670528972,42.304059531828855,32.63937253990416,115.72475976720133,19.20754740756065,47.77024665096279,-3.2174075996948877,-112.00730665438151,19.593732383602553,3.5424940378086505,1.8414782934781817,-2.8043650626074244,0.9073195738487071,-0.04469724600747753,-0.02881822507562231,316
-14.384327193637137,42.30896820561233,34.179689457188275,117.50680490248361,20.015336319301387,48.03359432691369,-3.3733934560444445,-113.97065822049733,21.018980717426984,3.4764387985519645,1.6605031697139934,-2.8757488456068776,1.0352818686624115,-0.052296638706184194,-0.029540880990325508,317
-15.360653992512697,42.39211864252717,35.706900367559456,119.19683989659089,20.857958007030952,48.264634970761676,-3.612018975398535,-115.91695409994948,21.322700601992757,3.439145073243511,1.4258467629756033,-2.904006885656072,1.139416992324701,-0.05809706062623547,-0.027784657712591084,318
-14.722803116597827,44.20663344874293,37.379675919613724,120.7718318025372,21.967638545628944,48.488551605448485,-3.8222919360691927,-117.81689775942603,21.319309276827553,3.337961792723382,1.226578590762975,-2.883286624583705,1.1999137719557993,-0.06071320731409217,-0.025056938911589947,319
-15.828691589952587,44.798493334005045,38.592376854022234,122.27940373598426,23.134071249786825,48.77300075275719,-3.7177958679946506,-119.57609816116006,22.886350884233,3.202104849051951,1.0642543344241921,-2.9089002557993657,1.2729741964171148,-0.06495352495834984,-0.02292751601728298,320
-17.020658856695118,45.4318974434541,39.952815815520424,123.76376268276901,24.248802941184337,48.78139896876749,-3.0819811196653246,-121.1625898235982,25.09306045045624,3.0359574242106864,0.8846221785366483,-2.9842543810538795,1.3949921207095397,-0.07298839541717232,-0.020652480840461954,321
-19.86289921266593,44.85837790306695,40.80704583807822,125.17472775116569,25.619185451684455,50.01750109128692,-3.5648497879125474,-122.79517986214913,24.8292800023954,2.8971884934522434,0.6778315690992261,-2.9915820480089597,1.4734777790113938,-0.07722623565672941,-0.01644065586749203,322
-21.14265727921482,46.105106408360236,41.859094945441605,126.52713545879162,27.254147308618325,51.313783501859604,-4.065349327387681,-124.36134727361399,26.027018570211062,2.7229930751981715,0.5262938581161376,-3.0113821975131683,1.511355439872236,-0.07968553637492078,-0.012832885718172147,323
-22.43107922270895,47.66886469362669,42.72488124598046,127.74364018932579,29.137882456350226,50.7541602324379,-3.070880122997526,-125.8314820901822,30.49501661586065,2.5069794308519167,0.4111622573029443,-3.058004491281207,1.4765957959920577,-0.07901432798863513,-0.009578853039202686,324
-25.36322089711925,48.005441458445205,43.07146418079004,128.92001924749349,31.10647548177315,50.271435023013964,-2.060114952028631,-127.3011150796844,35.59568260585643,2.2479066856163232,0.2638261718994876,-3.0771415958673063,1.44272575098743,-0.07763443267268805,-0.005666160140406156,325
-26.59288090242167,49.90394863189315,43.729913890222896,130.01232865931306,33.11154611925213,51.893260954906374,-2.3135669568381085,-128.61365148692363,39.523839707278775,2.0700859364411515,0.11898467593043317,-3.1256374199883363,1.4649632481952377,-0.08002743201087484,-0.0020192807710659724,326
-29.487544407795333,50.74106087991329,43.806073567037245,131.07006308299634,35.289956743223236,51.6657504838196,-1.00225754396829,-129.68167143456782,43.13576811812761,2.0214510580860767,-0.03948699969327197,-3.19521208822887,1.4373139380339168,-0.08021692963362516,0.001996824803021295,327
-32.33002031603541,51.89864415415697,43.69728382457343,131.99007861150784,37.48365146746723,53.1734346069717,-1.1000158950603411,-130.61398266815436,49.53165813634734,2.0043056767801315,-0.18533590694373217,-3.3063395958987765,1.3682897412682613,-0.07898681821179392,0.005369443918829051,328
-34.35607695559318,53.99909507653499,43.75059505455902,132.72036885589472,39.70134369880274,52.844504747536675,0.4869637057694058,-131.26830993795969,55.95320961448833,2.0169487763021987,-0.33429100407693685,-3.4446786155064264,1.3385980169300635,-0.08047736236331561,0.008750566530341732,329
-38.42580985215652,54.38143525506733,42.73444550695668,133.39990098922868,41.957268051983895,54.52295755406253,0.7748290054429094,-131.7019129182004,61.64013021630804,2.0238454325405915,-0.5109326975683258,-3.554185755150591,1.264469253000896,-0.07841042701665903,0.012141794754095039,330
-40.464050675151874,56.29478562380155,41.46245042566021,133.86949269320678,44.390609186396134,54.251575385985326,2.5114502463789763,-131.92522304582772,67.98776101729827,1.9408238790485512,-0.6497470055677288,-3.569953132941638,1.0983660334263674,-0.06840539441938939,0.013112233488961072,331
-42.51485236163332,58.306088981871056,39.863887268345934,134.0687376822624,46.85762816427323,53.91490910710327,4.368510220902697,-131.85035205128753,78.37514718732615,1.8966539894537997,-0.743261588346815,-3.572757638310244,0.9066750183542197,-0.0565193238980177,0.012209746958642048,332
-45.90720117025539,58.829524031112754,37.10762239615075,134.00650938986996,49.55810059629252,55.410061252992385,4.722278151216889,-131.60949889223974,90.0,1.9135309660450863,-0.7818747426223771,-3.5502996114105905,0.7118056112072633,-0.044105553206923886,0.009988153178773166,333
-47.94656647778443,60.741285265294344,34.90098593230761,133.76180124925904,51.85347601664543,54.903222862551836,6.8611276377515775,-131.22155261241656,90.0,1.996384910062701,-0.8348636918317015,-3.5554096982227894,0.5898517316700249,-0.036608304484010624,0.008783884093030717,334
-49.947761181956224,62.641199955728034,32.42104398257066,133.31257345405544,54.262283208278575,56.09875646530409,7.369319883813811,-130.7339155166197,90.0,2.0851803213592217,-0.9711891954358843,-3.585671907927666,0.4141887276951051,-0.025932583740960264,0.007115093869660722,335
-51.894791719390824,64.53237754414265,29.490843246429755,132.6334033615915,56.60923673652921,57.194240236617574,7.92028270366771,-129.9243749288442,90.0,2.1591856937719007,-1.0974684484625572,-3.6054314730636468,0.10905627663220477,-0.006870878996782775,0.0020957043906658338,336
-54.541945961747544,64.38083704313146,25.024179528110757,131.74237784310222,58.65749220208346,56.3893756785664,10.160665960243593,-128.7706565348533,90.0,2.184831195436851,-1.161066554860558,-3.5589534366822853,-0.2991788065539999,0.018627193476489515,-0.006014920342339229,337
-56.04630423406345,65.57702671497393,21.457473531636555,130.62949819900672,61.084770644958624,57.3641186169156,10.68703043502035,-127.47138837259203,90.0,2.2379976211720556,-1.253953744907998,-3.523838961076244,-0.7317078620950073,0.04517097507484441,-0.01572835521663885,338
-57.7504240013031,66.59568250579446,18.023034675438304,129.38917436754966,63.14481082708154,58.70880979557693,10.87422536467385,-125.95135162650053,90.0,2.33573239328032,-1.400040725223992,-3.5740209102653093,-1.1169846605139733,0.07004978111925461,-0.026617739304776337,339
-59.54290930923244,67.37502682748793,14.631096419114833,128.3622179477638,64.65660350274653,59.32769625694589,11.71170827382158,-124.27031273414066,90.0,2.534702668963025,-1.602228476808614,-3.6400382020792645,-1.450374934868518,0.09280913668246198,-0.03939741322695646,340
-60.90487527082623,69.86526148096108,12.35652315862865,127.32895162801383,66.04544093542637,59.89783929836948,12.470340528092514,-122.31431246709647,90.0,2.7362108937456195,-1.7151582843430988,-3.731808066959043,-1.7801215768311844,0.11697246570106982,-0.051492750157325434,341
-62.45090096966273,70.29034837892412,8.498656545539664,126.09733702104766,67.39139210719135,60.454059225379346,13.103416027341671,-120.24738467471754,90.0,2.8920410014690625,-1.8449695815687408,-3.816409433797701,-2.161228169619962,0.1455293915209087,-0.06688325925015332,342
-63.8606865031057,70.48416147122008,4.745120533504335,124.8616701798357,68.68199103843287,62.76687876162248,12.076626422202786,-118.02020094281927,90.0,3.101091191314129,-2.0069173573047343,-3.9834047540371826,-2.436998707820652,0.17157954712761544,-0.08176409816214425,343
-65.0022796083761,72.32325809035639,2.614066714508237,123.88803919861982,69.12625035336518,63.167970750761285,12.816601790538735,-115.76439638895644,90.0,3.2167001904147026,-2.259560169747987,-4.199573427833111,-2.6029848618397455,0.1935594855278445,-0.09833322239132222,344
-66.38694235760194,74.10462761593678,0.804620109467211,123.19274397660926,69.47938597468408,63.44911117902558,13.520098481931823,-113.69942617728721,90.0,3.362639473595988,-2.5595670598387894,-4.479591374755152,-2.6897488196171673,0.21369541575439016,-0.11525356866218626,345
-67.80777461256152,73.63655092596312,-2.5480591687853487,122.54872007542046,69.54183314125382,63.79762934528159,14.266104250569636,-111.40555922184971,90.0,3.4847254157530942,-2.787798445051327,-4.714143188178518,-2.7347062168984766,0.22889331216010428,-0.1277398024145156,346
-68.91163234029284,74.91286764815011,-4.269075798634553,122.01910302163448,68.91521930970801,64.29076565705839,15.088676134884025,-108.84377953829538,90.0,3.45397374971788,-3.048522926806608,-4.8176988220347505,-2.701779081243627,0.23136895306885918,-0.13847410232858426,347
-69.64403609011242,74.27377780979835,-7.552760557470842,121.90534537039564,68.25665014219315,64.7713021655093,15.742865345791833,-106.394540424694,90.0,3.2597763401061575,-3.358376874435558,-4.801066243985946,-2.6107853117219815,0.22309823306516643,-0.148165519766589,348
-70.62662658287566,75.45657419756805,-9.024017138070809,121.75986251441469,67.43064580688576,65.11476117095603,16.368585465107195,-104.1841326134519,90.0,3.1961081374407336,-3.693811214629382,-4.878558563303841,-2.5302560386879516,0.21997736664708917,-0.15853793293615773,349
-70.98721605401683,74.58175265406219,-11.955518600449038,121.84035667329059,66.34387021616493,65.62193350050723,17.005883973648082,-101.74701439521972,90.0,3.0355567959925343,-3.993485363787132,-4.787589696297428,-2.346884253232635,0.20036351496887345,-0.1597801893712797,350
-71.5492828755414,75.44589482752718,-13.090019668521398,122.16607268736924,65.05990270361664,66.1234978894947,17.6286810601564,-99.30606617240045,90.0,2.82368087104192,-4.2970063790452055,-4.686039488392899,-2.143054742815145,0.17915112847396777,-0.1577108731121502,351
-71.9685004102326,76.30119675535842,-14.297644554541945,122.40359678672296,63.777704074054896,66.56254465935184,18.06013828332906,-97.03478932595381,90.0,2.6550061910698743,-4.610603766581753,-4.562809544247086,-2.078609728281013,0.16944515591601522,-0.16459210059084808,352
-71.69056814430535,75.28786367196207,-17.194595549762667,122.58099649267686,61.79089030059492,65.59937991218645,20.488069326390146,-94.6562986132737,90.0,2.573941373577219,-4.8156029706178565,-4.347375063663876,-2.0450546966518632,0.15907929328015546,-0.16948758177802614,353
-71.61488089801323,75.86468875181365,-18.231445081737025,122.99695621279179,60.35991040319959,66.20163497220611,20.814859725023933,-92.2527661717175,90.0,2.4856729264474975,-4.962099278227063,-4.0612233882638495,-1.9979418244469258,0.14539983188383868,-0.17096653205923487,354
-70.70181570998112,74.65277429140183,-20.967808742998287,123.58275126719057,58.990969462280326,66.70025000193311,20.981584836757065,-90.02555805896075,90.0,2.3945144107704595,-5.145377071191551,-3.7668201427424193,-2.029585373080503,0.13738813381134898,-0.18036080963888285,355
-70.40875290305142,75.24081669054063,-22.018126262688497,123.9992462806789,56.901631677861985,65.74439551572463,23.25584728499787,-87.78870664957236,90.0,2.3556572425511444,-5.251476847214974,-3.5310702292674256,-2.162731465429958,0.13775248464412684,-0.19622825021139595,356
-69.98970120117959,75.81242215911921,-23.00411448362123,124.30878501816397,55.27303905683484,66.18977321019258,23.421481691347754,-85.43341035350902,90.0,2.3736732262237195,-5.315920213858104,-3.3204739514012145,-2.313832648136584,0.1391496925251831,-0.21253917816370774,357
-68.79269708948111,74.63142584262069,-25.556367098584726,124.74441680537373,53.43559825024511,66.5934636911633,23.656364945347367,-83.08830896687401,90.0,2.5104929450591866,-5.369103246808435,-3.1755137372887816,-2.4401677030521465,0.14083480429564657,-0.22639727776022042,358
-68.2471870298138,75.14126613286294,-26.48644249179961,125.14931456141012,51.259399185875544,65.55724576515135,25.8594560582925,-81.04817869480112,90.0,2.6454079985180634,-5.327803760344154,-2.9939877956867247,-2.7332826654044386,0.14962014147286815,-0.25140589637424304,359
