JMW9912/AVATAR/Dynamixel/dynamixel_control/data/csv/poppy/.data/waist_test/3DoF (3O+Pos)/0423_1028_13_18_3_dof_waist_with_position_adj_poppy_bvh_motor_degree.csv
theta1,theta2,theta3,theta4,theta5,theta6,theta7,theta8,theta9,theta10,theta11,theta12,theta13,theta14,theta15,frame
-94.43494790221065,24.917594212411338,94.45756007044649,28.298822862089697,0.0,3.9747615163935133,-66.61159636734803,-28.298822862089825,9.061519176957306,4.529334041110131,1.2498088126880578,-1.3807756505068154,0.16477843651807952,-0.003977889875868406,-0.0035892133048849675,0
-127.11324142039986,94.88911495366001,45.782416134266974,28.298822862089697,44.27520834630218,101.60013244531083,-66.61159636734803,-80.77500369529426,90.0,6.000000000000009,1.2498088126880578,-1.3807756505068154,0.16477843651807952,-0.003977889875868406,-0.0035892133048849675,1
-69.03870650941147,80.38631932262285,-26.89385540829163,110.7420388101971,74.79448418889493,62.84302848275255,2.5810601270164795,-136.82847787182155,90.0,6.000000000000009,-2.994391824445905,-0.279793772587142,-59.08248680075385,1.6983767119005642,-2.4360190035954363,2
-68.95129588585843,80.16942432903353,-26.533445638352987,111.72176611978328,74.5294983660399,62.903089254247774,2.778030999534805,-137.02570351150305,90.0,6.000000000000009,-3.082875972557981,-0.08906927775929334,-59.27986373777247,1.586920485144674,-2.610188623395151,3
-68.93045107610638,79.98813008219449,-26.103096745204198,112.6749961716368,74.41991953402365,62.936238287090745,2.9806183882267168,-137.32221648935968,90.0,6.000000000000009,-3.2262112471096414,0.07411741933976382,-59.50314131782371,1.527439927338382,-2.820439620827998,4
-69.87435122126124,81.41145272988786,-23.96861010441322,113.61847717519198,74.44703965053984,63.12027005043982,3.5853094218807127,-137.5405106439059,90.0,5.621973012796615,-3.365599187804575,0.22163077907528556,-59.68564319239735,1.4778879778974905,-3.0198078996635958,5
-70.00893884127052,81.14298100908397,-23.827007903776945,114.54268648638659,75.02994402797815,63.59050242415482,4.228195945779846,-137.70513947616183,90.0,5.2723153468773205,-3.3761171468624513,0.4598085880354029,-59.92948680811115,1.2884283252190076,-3.1558248032150487,6
-70.0664449868876,80.91956256170779,-23.80538981886648,115.40873628520414,75.75050440111117,63.961903394686594,4.460605237280119,-137.91504889781038,90.0,4.860036746141124,-3.403609735867724,0.7369037582488904,-60.2187194280895,1.074816132940717,-3.329761452700554,7
-70.1901901550052,80.79541548157584,-23.758445859292426,116.20746297638428,76.44506629108305,64.17935114684686,4.601645047363888,-138.21430058799928,90.0,4.4146156064525535,-3.502894480263583,0.9336775530985386,-60.48112362276201,0.9655333935672424,-3.527027974368076,8
-70.46977027131005,80.59221144764005,-23.569368130572055,117.0569214765901,77.17039637707762,64.452472847716,4.9538620630994075,-138.65656247640453,90.0,3.9067382004746753,-3.6225724804585298,1.1643915898039308,-60.665858113527435,0.8333953767768673,-3.7577015485280922,9
-70.94136748010365,80.23451937538884,-23.368836898000556,118.00678999804879,77.91370684559239,64.85097925630855,5.413770347577036,-138.91765893085014,90.0,3.4346333581262223,-3.636173510941871,1.4329378257163934,-60.81471825766675,0.6119286449416348,-3.9143355945844207,10
-71.24171583299085,79.83785930337503,-23.473854034250795,118.90500364859041,79.1033294960209,65.3983805233326,5.545907130155534,-138.9935807689612,90.0,3.053657930343079,-3.518784506295768,1.7854050333716665,-61.11297308465083,0.2545248989006387,-4.008674056517621,11
-71.55295320167485,79.50383879430817,-23.568434963661733,119.56905864213132,80.66112767519489,67.85409635038182,4.170223778268155,-139.12543934994096,90.0,2.6415599423084775,-3.451023350799165,2.125022677543163,-61.464257838184054,-0.0664920125831571,-4.1459168355983085,12
-72.7800368471224,80.8251988222883,-21.76628780730622,120.17840106601632,82.13920862093262,68.38277474228187,4.637169509653856,-139.26876418776823,90.0,2.1773864199303,-3.4020089474176674,2.425291977947928,-61.65814278906176,-0.35048061557808274,-4.271881034337545,13
-73.55094826121811,80.38283492568013,-21.598647429504698,120.86411939239072,83.5118722124054,69.130623121517,5.38474182615978,-139.28628080835892,90.0,1.6822006839747925,-3.3593340392148727,2.734970396452188,-61.73387357884584,-0.6440951167051816,-4.401746984471838,14
-74.2994648825693,80.15909784349249,-21.41420772243283,121.45258057106574,84.90826913654163,69.35974387857067,6.218914044330902,-139.20407004384833,90.0,1.248762259125351,-3.256475854042117,3.0987283610217533,-61.935055984037696,-1.014588522483699,-4.516810526278247,15
-75.00055844664993,80.05936217002129,-21.388502106442196,121.871777490836,86.50029281247437,71.33713783883796,5.209724498026375,-139.0597430575766,90.0,0.9039927153272089,-3.1720993329395846,3.449917295370624,-62.19962575342958,-1.3645561210415977,-4.648516547735027,16
-76.00761774747548,80.12054066982675,-21.175263480782036,122.22122927455528,87.79691572474671,71.38358420230283,5.851863833831853,-138.9584237450162,90.0,0.5453581207342195,-3.204216404726228,3.7395373669998007,-62.38770716682717,-1.6009583865937234,-4.846912680947935,17
-77.08566333189007,80.13875463745833,-20.905368804256305,122.49707152599292,89.1692156907394,71.54844910574772,6.641343592351121,-138.89411869879063,90.0,0.24859020585123107,-3.2289470496418042,4.041879367600396,-62.567438312818545,-1.853519276719461,-5.046568334226383,18
-78.24604207998735,80.1519085351324,-20.652103466293422,122.80770059518271,90.47852213471428,73.55371147866646,5.589971928289178,-138.67029762480655,90.0,0.26783868770699787,-3.1746472847340277,4.277618084135553,-62.70970483232752,-2.090549280884229,-5.138035044592677,19
-79.44948515967045,80.22733303597494,-20.43447006466512,122.99924120793419,91.22061003774036,73.38780776794943,5.523524581764776,-138.41848368457488,90.0,0.2584874474096511,-3.1256576747218894,4.381138652857018,-62.88445259273464,-2.206914153382556,-5.166506889568026,20
-80.71546130010269,80.35800450086218,-20.194209687378976,122.98837733925018,91.7270603187543,73.23481597942464,5.372873193489943,-138.2423699916361,90.0,0.20970629765917653,-3.087805910189087,4.410307811703506,-63.04475733899981,-2.2513812714141883,-5.163471150431809,21
-81.84986663409353,80.44388948510732,-20.049297111612603,122.93990852694283,92.24541308449443,73.08449381355292,5.141212114337373,-138.05826254697217,90.0,0.4379716959157106,-2.935338014026713,4.491165278822233,-63.168398704203476,-2.4053068056179283,-5.082840302746413,22
-82.80881648634343,80.45908631372826,-19.941092996613143,122.92528486931589,92.8842079402255,74.67067044899538,3.171669399927287,-137.8168273726702,90.0,0.8333930676380635,-2.7475715647282164,4.5702299584433455,-63.27075873618847,-2.57778230461447,-4.967754571060828,23
-83.89488741617753,80.60505228933583,-19.687094223079022,122.89738918335819,92.94523341623356,74.03285327166027,2.4020125503098964,-137.56720240933288,90.0,1.1728806040722342,-2.6841431301742067,4.548768116510904,-63.26784214385333,-2.59325184939379,-4.898976450514703,24
-84.93146052438459,80.78155660643988,-19.426681553731257,122.86145821538503,92.72552904884587,73.12566591125956,1.2327583213880682,-137.403836989017,90.0,1.4718440756657512,-2.6796069257186894,4.530384946502581,-63.25816004934021,-2.5793197353358677,-4.883942825088545,25
-85.98662777230744,80.89524578751771,-19.067016088504396,122.85686624812048,92.32791789178523,72.19623857876662,-0.0014568314047354296,-137.4493945533972,90.0,1.7638685215655947,-2.7357376307969634,4.568444130558462,-63.23350163061312,-2.5829000582829864,-4.952737827938185,26
-86.88318141828172,80.91754768915364,-18.789721021925974,122.77617394907905,91.8583174793834,73.47518023672292,-2.485904048766972,-137.51654669674824,90.0,2.130445826913123,-2.6877950756322613,4.658233004160217,-63.223849877614235,-2.6895689584537488,-4.958202285036208,27
-87.509371362149,80.98882234160712,-18.7016771858221,122.62228372576818,91.46803178762445,72.8645266627797,-3.5469077718856776,-137.5257074258452,90.0,2.5327316650252625,-2.5520411040385116,4.838231070158997,-63.20477061315903,-2.9249351801507073,-4.933746022275818,28
-88.09052997116368,81.06417779620897,-18.546463796478065,122.49489592093848,91.17853196554749,71.7344843306244,-4.343582095642893,-137.6890427725878,90.0,2.915953604310834,-2.4883205596792775,5.002514730609807,-63.14828029127111,-3.1067745867812477,-4.961362143954284,29
-88.85701715224448,81.08265376971715,-18.092297248177047,122.51293871765341,90.42422152394366,72.22499469093707,-5.9120149339130785,-137.86307803690386,90.0,3.195327405375485,-2.498336778419342,5.168763073025157,-62.9256806572788,-3.2496624683084723,-5.038988927244394,30
-89.54294806163641,81.07215937855543,-17.64822706929702,122.60367256222281,89.66727724176496,70.78206719435344,-6.008423281767966,-138.04079992782533,90.0,3.4715807747385177,-2.4528140838846437,5.423074443416254,-62.651074054579354,-3.500049930453157,-5.108276707271766,31
-90.05931070490227,81.08431037710741,-17.303480657086784,122.56165831608423,88.59545402570485,70.96761610353312,-7.6189603759080216,-138.32352109259034,90.0,3.7679586166819825,-2.4155951493262675,5.722066628520837,-62.4224215368004,-3.784546362666849,-5.211883818584368,32
-90.67361459300051,80.93853004277352,-16.753357325695664,122.87056188849105,87.7517651289512,69.17102298066443,-7.840193197748108,-138.59940755133445,90.0,4.065461832930573,-2.4304871674841353,6.001217382165513,-62.14052070087596,-4.021828321117611,-5.343072050439382,33
-91.14667456278067,81.09537319686574,-16.313649262771225,122.52459272967252,86.64569754942058,69.51805438671391,-9.303240298918421,-138.87450104980158,90.0,4.330075248693653,-2.502021696899986,6.302645849572989,-61.79862589425692,-4.247140335319803,-5.526388504360382,34
-91.86392766885724,81.06743750250857,-15.602790202350283,122.84709374855863,85.89480734749351,67.81618281245588,-9.520777393054027,-139.16277316490417,90.0,4.431573296211663,-2.6159574933247,6.631189480874871,-61.361544675795145,-4.471941196262302,-5.745752367123839,35
-92.63476279936049,81.09338384021386,-14.725009143658108,123.21245104194807,84.95588904488064,65.85466530874491,-9.655652836770368,-139.47006437299913,90.0,4.423663836132418,-2.848455106509803,6.9522030026980355,-60.808985791452244,-4.626963349382246,-6.0445283469594555,36
-92.59501787967613,79.35413453613278,-15.619884083844402,123.2615237469003,83.52795633118943,66.21378396894914,-10.836815543757567,-139.71700836869087,90.0,4.552751795471849,-3.090652978311414,7.273370199755142,-60.309269906283255,-4.778661952360491,-6.35150248154511,37
-92.77423420904587,79.41684018918511,-15.216042348960325,123.01124698520833,82.92581946015173,66.06846400730255,-11.36748452470751,-139.96660826809637,90.0,4.860259157028803,-3.2155851868145624,7.596091268861726,-59.984957977090666,-4.992963534853353,-6.576100363859167,38
-93.51692449810814,79.54926327602965,-14.49865008308761,122.95585099185065,82.84437206558057,64.0733592344538,-10.098101785273919,-140.1428413768413,90.0,5.073139138560111,-3.4295233890606514,7.853387933589721,-59.525446986942015,-5.103950919555312,-6.8212545800713995,39
-94.33254118851968,79.61777538893442,-13.730556666540114,122.9527208247276,82.52263037092801,64.1352984550209,-9.733080358250168,-140.21183531291626,90.0,5.276724664574993,-3.6440808674742833,8.091456390413812,-59.08406742411464,-5.198909802692812,-7.055191804739631,40
-94.7815440775582,79.64710058064351,-13.267858282830462,122.89064179171532,83.17106874079084,63.753909984004295,-9.469229794498412,-140.46764426719662,90.0,5.44775246376376,-3.8093891523628116,8.374380984945425,-58.821243694110855,-5.35980709869121,-7.29215511295478,41
-95.45329750591847,79.81852937144755,-12.534527855963594,122.87398568243518,84.03682567108305,64.81720949641688,-9.594386675641672,-140.94179728628052,90.0,5.480690399368711,-4.145470706307455,8.621771698772752,-58.34684217970726,-5.4063698427772096,-7.619802647245717,42
-96.39326117956337,80.08048412062678,-11.500231084208792,122.86482651014691,85.07907991238811,64.60359605284975,-7.680980309307098,-141.22875346326447,90.0,5.52899884188801,-4.53622294525792,8.817503506875113,-57.62441552231744,-5.3821595897824,-7.920904623906388,43
-97.12195770841541,80.26982020797962,-10.641524814464505,122.75376073070863,86.42227886674767,64.4390797546923,-6.012275458872996,-141.42013555543593,90.0,5.61082906626345,-4.81443484782337,9.027501562595711,-57.00452288730795,-5.426003600730156,-8.143152722947889,44
-98.12638227759226,80.5062899314209,-9.641492366736893,122.64447110230037,87.64020673993956,65.90752934520198,-5.671947225387939,-141.56271815507273,90.0,5.612151537795018,-5.10487014347913,9.105378955846207,-56.32152267967712,-5.353866474017089,-8.2987482736676,45
-99.23714582315321,80.67227342393198,-8.621872176976288,122.54959860240952,89.20354927891806,65.61322890299574,-3.904057987355312,-141.71618683247007,90.0,5.69657516610365,-5.358453973757794,9.139636482449081,-55.69343987399809,-5.264964299370155,-8.410004129059812,46
-99.78596083202967,78.85251973770309,-9.3720334156042,122.37511216036035,90.8923692780923,65.62844331238576,-2.0830413248906194,-141.68604688580388,90.0,5.863710166699237,-5.486800591181589,9.20247898638442,-55.20744429414978,-5.256771786542099,-8.453200510972334,47
-100.67357011141783,78.81803886228451,-8.59147246357856,122.10836950071683,92.57793460486177,67.59152039550847,-1.5910352214846921,-141.50800433684773,90.0,5.993198026312635,-5.542158177931063,9.17153517105377,-54.82081574698183,-5.202769641652393,-8.413716439623313,48
-101.71604492438713,78.704998859155,-7.805580174340096,121.96359706505898,94.8311820827702,67.64765685089192,0.08466130857927551,-141.41373236452324,90.0,6.000000000000009,-5.552034844709079,9.11243372755829,-54.515503547167384,-5.1455707627364005,-8.340400616646903,49
-102.78680432409213,78.80794053379405,-6.992188881309843,121.91095833752837,97.14894555358357,67.6150019466682,1.9438004525374055,-141.23166701192693,90.0,6.000000000000009,-5.645935351674656,9.040328549862991,-54.059032041026086,-5.04189963431832,-8.302692706698513,50
-103.78073421914301,79.20293016155624,-6.207799225424225,121.64897166451541,99.10197014395429,69.14396789625884,2.669019096234883,-140.99402070219148,90.0,6.000000000000009,-5.894330799855165,8.859904745572077,-53.46747235240351,-4.788625822309376,-8.321537412312262,51
-104.92216855024235,79.57583914308282,-5.33622933329241,121.40874818988742,100.7696135443715,70.2745037474344,3.417605055462117,-140.70682233385415,90.0,5.7976052161956,-6.188520328703351,8.59930122540737,-52.87876636596999,-4.4580061049004245,-8.346502607373557,52
-106.19193614040731,79.80574074793464,-4.483578544883444,121.25618364239672,102.2597095880443,69.28933655280217,5.490076289249805,-140.3263573477156,90.0,5.56967728697008,-6.4500226243395415,8.291879400358878,-52.43452938367544,-4.108960708366354,-8.354895147239715,53
-107.08903555799927,79.84198272397222,-3.855641006279183,120.99235282578049,104.2041557987563,70.14079804044879,5.665591231644301,-140.0093165824127,90.0,5.385519989976002,-6.691737825737096,8.019229003790675,-52.226548210233645,-3.7991811947329572,-8.40543455211111,54
-107.90309947545386,80.02530865132415,-3.348873155876127,120.78027493601026,106.10164838423128,70.65797927369336,5.689168737726295,-139.7117990838463,90.0,5.249949657126114,-6.981955473262026,7.740970177458993,-51.992435804351196,-3.4693737692035644,-8.488678290310492,55
-108.79945009635375,78.47303023482816,-4.254917153682333,120.03110688586719,107.81389480920572,73.04196638864752,4.5483087396119855,-140.09419654531092,90.0,4.88065909933418,-7.403962842598261,7.359860966528031,-51.64421479406086,-3.013823901419188,-8.618539091715032,56
-109.47657406292652,78.51102019580046,-3.5218585499539876,120.21921563643843,109.09325359980635,73.45180286280063,4.865081261006258,-139.22457780872946,90.0,5.352085980993949,-7.423352743339515,7.526828558538293,-51.13699208938869,-3.1489905675104772,-8.603253762735955,57
-110.38517526853717,78.91554950450086,-2.8970193884397353,119.97543203310084,109.96841580467941,73.26029405620906,5.045892997661693,-138.82200579684925,90.0,5.28353083731012,-7.845621524094506,7.247718140204058,-50.668931582678916,-2.7867328880796776,-8.748725760360793,58
-111.34918851182589,79.08029654387573,-2.2407252491453717,119.6459142711883,110.89152616218026,73.05680127223118,4.9772394047503346,-138.86380930749857,90.0,5.3065854373834,-8.287186067075137,7.027661324585461,-50.36141120323974,-2.46579365859357,-8.960317664967686,59
-112.06438657542999,78.98255446753905,-1.5561833663700793,119.6342673604032,111.79291946538841,74.71584335739085,3.218901731157318,-138.5290497375921,90.0,5.702249651420563,-8.551245038787947,7.107875708335313,-50.089565134707684,-2.4446821929585174,-9.144779957704639,60
-112.60212114071254,79.00167049512383,-0.9981847544719291,119.4714037802883,111.999391382326,73.98904366495712,2.721142103124341,-138.04610286486488,90.0,6.000000000000009,-8.936937452085777,7.1223688258931475,-49.82951594466224,-2.3310755887123347,-9.401990809074011,61
-112.79354857862005,79.13815804547303,-0.7972835644705153,119.26923905581026,112.1846742151403,74.96109567058235,0.4129557421714479,-137.4605376868125,90.0,6.000000000000009,-9.404482434483553,7.067399949960809,-49.70957700259441,-2.1314925845439325,-9.725910805820465,62
-112.85397557573275,77.73889103403846,-2.363344161070665,119.1248868875633,112.03729207428502,73.40923719572825,-0.7031606811658685,-136.63547241594327,90.0,6.000000000000009,-9.99182680190583,6.768777167486035,-49.534918154199374,-1.705216006945222,-10.049139785358303,63
-113.68385551492543,78.19186301633903,-1.9231782047575752,117.51607280919235,111.79198381211046,71.64094920793238,-1.5757929108320141,-137.73207728899357,90.0,6.000000000000009,-10.84897584637502,6.022397325287102,-49.26871041795336,-0.8470237436101554,-10.415330661895103,64
-114.43653987890497,78.0015493717371,-1.0851014696712642,118.45544871503111,110.7300175675608,72.24110566090262,-3.6445334735430546,-135.71603701013774,90.0,6.000000000000009,-10.744397608723943,6.528480576027073,-48.80008564312314,-1.3076887637834524,-10.405591914343402,65
-115.31548047682033,78.59461936769065,-0.7275065517625919,116.9787003830403,109.91146384620845,69.81017427610274,-4.594549171386089,-135.97382861582395,90.0,6.000000000000009,-11.549916141848456,5.569648046579342,-48.48298922124218,-0.32202388696353806,-10.652886553817861,66
-116.02216735356697,78.90477607147626,-0.2074782533899462,116.44038886261772,108.6058007523685,67.6762613366425,-5.2082758399368645,-135.39631872075876,90.0,6.000000000000009,-11.831141638467177,5.254175770049309,-48.04251492189815,-0.025467515076849186,-10.67797332409997,67
-116.46488392297631,79.27820349016184,0.12731288344292832,115.73499441885552,106.8448381426688,65.16363684485516,-5.832512568477131,-134.8854387891462,90.0,6.000000000000009,-12.155374271247586,4.849468256005123,-47.66686924895809,0.3544058193416399,-10.722541141963896,68
-116.91269905751145,79.49521364956622,0.4690588665464604,115.1306965732605,104.67818911707352,64.57361888542165,-7.697157968943373,-134.34837213934583,90.0,6.000000000000009,-12.379370873317209,4.480694973013376,-47.39304237577467,0.6799707330756589,-10.723002358552383,69
-117.56379837441754,79.63000547144917,0.9538874287544629,114.62268321755614,102.40304954887362,61.93693930036497,-7.931727551833362,-133.59577783661987,90.0,6.000000000000009,-12.500856443771662,4.12929400813449,-47.092097875164576,0.95289434636814,-10.6448957411232,70
-118.59462939980098,79.73985170932413,1.6206310204294685,114.17575259599882,99.58209610161069,59.020259245270054,-7.746300879139462,-132.57052813313103,90.0,6.000000000000009,-12.58295595155864,3.708314308346734,-46.7322672244362,1.255692154423982,-10.504558496006883,71
-119.47288765716299,79.84063719709488,2.1947196436231766,113.72754544296139,96.25545481906897,57.94384818193654,-8.615490756645768,-131.38591277344324,90.0,6.000000000000009,-12.626952460030784,3.2575031390022495,-46.429017050362425,1.5717750841950326,-10.33976665621083,72
-120.03738283332677,80.01781802531389,2.731721545251414,113.143019485751,92.7361840627469,54.768549044702155,-7.762588153318567,-130.03032879884054,90.0,6.000000000000009,-12.758351911227964,2.8197934265474944,-46.063667293368006,1.8944759512427058,-10.236494493678984,73
-120.58459501814393,80.16866522606186,3.375462846618481,112.67780328256816,88.14204084985478,53.423191066039365,-7.456989266656199,-128.08089885654414,90.0,6.000000000000009,-12.84426110442165,2.390086561551547,-45.648089480580246,2.185904310131107,-10.093739456860533,74
-120.98719277718342,80.19816254850615,4.001608427533292,112.27925776479941,83.3037650980357,52.27098570325322,-6.7253989730633625,-125.68614164237589,90.0,6.000000000000009,-12.884435435082366,1.9678978096240456,-45.33253261028551,2.4669837497292075,-9.94033556074476,75
-121.1833947354132,80.17742311444376,4.647645629822259,111.7734399127845,78.19769534980726,51.25189645241796,-5.593786711359773,-122.91956668385068,90.0,6.000000000000009,-12.95716204302996,1.558143313565889,-45.031184312480185,2.7477981587311815,-9.820221619149784,76
-121.4005799249364,80.18758997739154,5.460921541492966,111.29191256476817,72.67692776195703,48.51028639306379,-2.3327011723427074,-119.64444739389754,90.0,6.000000000000009,-13.069790453799923,1.141381117453936,-44.61047252696591,3.024882962693326,-9.708514388216706,77
-121.94220819168369,78.48093039447186,4.822600196118962,111.13296916651508,66.42396990988472,48.014870826374015,0.158465274466019,-115.56780835360722,90.0,6.000000000000009,-13.225215422940979,0.7818233254563742,-44.07852342086427,3.251470335874627,-9.627094189381086,78
-122.12199472990903,78.52263163270729,5.761874807620544,110.93673651867671,60.084000477864315,47.94458051274314,2.7960179813008668,-110.79909700570761,90.0,6.000000000000009,-13.380437569988228,0.44839832860317863,-43.56712145687793,3.4568758709525325,-9.558058166657524,79
-122.14955485011812,78.57982444504358,6.676195234783035,110.63485201650325,53.409323134228295,48.93170348100432,5.218756398992441,-105.56546986426028,90.0,6.000000000000009,-13.485861708015843,0.05060349310792019,-43.04864080112901,3.6871870416967116,-9.43545412498576,80
-122.59585745888386,78.68299433572162,7.710671980614534,110.75136691226352,46.3166240916701,48.71626864160673,9.862312516063728,-99.93391397716286,90.0,6.000000000000009,-13.5663257738548,-0.42825194847321557,-42.49411680852338,3.955674772391447,-9.26986838893074,81
-123.05789110660635,77.03403015566673,7.137409891989383,110.49871121089379,40.0198275206464,50.65674533377167,12.349083717062701,-93.64779821561376,90.0,6.000000000000009,-13.490909309621713,-1.0143140668472932,-41.90731637289237,4.242621911331914,-8.963692183950073,82
-123.58714534179832,77.27879017722832,8.301601477521979,110.83977133611197,33.68369240719004,51.57198699371328,16.783331395252812,-87.0970992616348,90.0,6.000000000000009,-13.402642966549443,-1.6677071307472493,-41.18658027084896,4.540797289106791,-8.6179042313748,83
-123.8393668785851,77.68879342169818,9.434669276224954,111.0577561123953,28.47781056767044,54.12887456421337,18.602646190339346,-81.30642846528563,90.0,6.000000000000009,-13.575645541337481,-2.3505104283767095,-40.361866800085075,4.898884515248093,-8.440878242725221,84
-124.29135618594303,76.38624060493517,9.013365009496294,111.15186087384781,23.712124395630397,55.59933208534884,22.123347319875027,-76.13940089227357,90.0,6.000000000000009,-13.71612798864371,-3.0712895462591163,-39.48162765735514,5.24701713050792,-8.230470145594087,85
-124.3390624307796,76.75842226525131,10.195418327656698,111.45568824423265,20.45688175253451,58.45257231719938,22.675229499141167,-71.65225913102475,90.0,6.000000000000009,-13.773159027565288,-3.7527980522144953,-38.61869121683793,5.5349016425454804,-7.9829240018374925,86
-124.45120452218026,75.50206657551955,9.733227591834401,111.81022759419415,18.08938454680539,59.876322450608264,24.870377340661065,-69.49364064853131,90.0,6.000000000000009,-13.970058632591153,-4.474069287067537,-37.69871323880864,5.854980293153419,-7.8189848259405865,87
-124.15739178604333,76.15641446607947,10.78470162843107,112.14899706826017,17.116691510747895,62.39030128901856,24.49243762978542,-68.99024611313521,90.0,6.000000000000009,-14.288803378473668,-5.304983081166163,-36.69177026023098,6.233787431019617,-7.704180319316768,88
-124.27161710238252,75.07143117850224,10.277093184842238,112.63009844379083,16.624422344933308,63.599062496545166,26.056257743183156,-70.22850259317492,90.0,6.000000000000009,-14.5615815033897,-6.166204263438602,-35.68936037279898,6.596216419813621,-7.559194415250147,89
-123.89279847424908,75.72570383702174,11.441653212241974,113.28502710436945,16.736779765115852,64.90184891037619,27.365894159200273,-72.33958982241658,90.0,6.000000000000009,-14.798477025983635,-6.916262455119238,-34.568690083045375,6.826712496899899,-7.39966204754233,90
-123.63248878056092,74.69754407467941,11.130043426094929,113.84541625580253,17.078235031549244,66.42793700806385,28.736047286269677,-74.9694951883037,90.0,6.000000000000009,-15.036504312299273,-7.667687318718214,-33.28447825959599,6.988609286857605,-7.218927894923678,91
-122.99172727902778,75.49279460397454,12.45271054138602,114.62024412244905,17.625615957641287,68.11558997669306,30.147428989704082,-77.81525969405574,90.0,6.000000000000009,-15.244311561025386,-8.41108157155836,-31.848965382167265,7.067957674791144,-7.000307023840436,92
-122.78943006267451,74.74014396333206,12.323356950569893,115.59256873056177,18.27499863835931,69.79131425395248,31.700801424858238,-80.51522474699138,90.0,6.000000000000009,-15.552052674514552,-9.222636327206104,-30.240904533829603,7.120456410586568,-6.800562123847815,93
-122.52755617341694,74.17690326936805,12.30103004497719,116.50846260729685,18.970540551196347,71.7105354923994,33.54489150839449,-83.35473577553446,90.0,6.000000000000009,-15.867331018913804,-10.157732114248214,-28.391033019028093,7.123013541769166,-6.543820031908206,94
-121.77878181898112,75.48047218626877,13.976674975404341,117.32691006345804,19.90104776874569,73.84593293803685,35.56731211049243,-85.97368800154146,90.0,6.000000000000009,-16.081937284026605,-11.152427962440933,-26.25155082596366,6.9921008579870225,-6.173799038670845,95
-121.14748165182945,74.9338222319136,14.30765295605945,118.01019511403594,20.966416131538754,75.92945600683238,37.65713435145965,-88.11304027316282,90.0,6.000000000000009,-16.275737878169256,-12.130827643905022,-23.95690316882873,6.735601386803156,-5.761713786246555,96
-119.65325698755827,75.9332940536977,16.054471910266265,118.6410741548022,22.236458319699896,77.76211106394835,39.78944327606785,-90.26040509114246,90.0,6.000000000000009,-16.48272721917397,-13.081145279172041,-21.699972681158243,6.414775859884976,-5.3527259983634785,97
-118.38675444572597,74.97694170725548,16.25240105829487,119.32740610765494,23.96240598528157,79.24107154756561,41.963517862077744,-92.71547901925095,90.0,6.000000000000009,-16.604674625860003,-14.01351146664794,-19.446090284345477,6.014887316409766,-4.8973810904155375,98
-116.55267596269624,75.71973643295196,18.005517757711463,120.01458033775141,25.945416859666356,80.53068953943365,44.3120340771358,-94.95489672495398,90.0,6.000000000000009,-16.589784371244033,-15.012027643082288,-16.99125258622923,5.4920781562923935,-4.338392862471993,99
-115.06730594585927,74.50521358916694,18.30247562618157,120.54855707349525,27.99202501838837,81.52820327310076,46.727905623633625,-96.80184049991212,90.0,6.000000000000009,-16.48486987619944,-16.02690810471163,-14.46985731728245,4.876390206104297,-3.7312030887747474,100
-112.68910352406479,72.75860763270954,18.078392978732957,120.68111551476603,31.253726468000217,83.05538069795367,47.0491698046884,-98.6986304568765,90.0,5.617150836879109,-16.395617035319063,-16.958593841139766,-12.209223629731033,4.271936117130018,-3.183033346323107,101
-109.79554187786323,70.68098053591068,17.47592705871076,120.67475155847976,33.368813285088024,83.04612314739092,49.26113230598802,-100.75140057402297,90.0,5.167914481998996,-16.277722283122042,-17.853558330151532,-10.079317132975664,3.651963353953374,-2.652822253331945,102
-107.25891288598264,70.33133047383356,18.786519511832445,120.08541269761521,34.194139697700564,83.50009524407866,51.18997117992508,-101.04693147945575,90.0,5.053244923448449,-16.141942056364833,-18.84762564244095,-7.85038179171876,2.9559166038471636,-2.0881835555405024,103
-102.15495537209672,65.9387243371987,16.098969509950074,119.78807954837332,36.95201992423597,82.05175329416784,51.63934318454099,-102.82114885682974,90.0,6.000000000000009,-16.03304638907237,-18.481817392876827,-7.170514008064038,2.6314853409463104,-1.9108097970344602,104
-97.18061137540383,62.439436025180264,13.617815113679441,119.1413564243415,40.65445807869156,81.84289805916748,50.971039850456094,-104.60585634640297,90.0,6.000000000000009,-16.02436303266045,-18.735721615029004,-5.870954517149588,2.16520505049534,-1.585108526349203,105
-92.62049568244416,59.172712082030394,11.199005594002656,118.11697575762773,42.47138696897577,80.72726349625671,52.772044970661334,-105.98291663114372,90.0,5.844364998943777,-16.065688237162046,-19.501689979064775,-4.037350178564897,1.5332067488223253,-1.1133949732686557,106
-87.48649600276924,58.675010156906865,10.812026462859288,116.55788910728693,43.927924325462854,79.69464617427951,54.78215253404547,-106.65560626416489,90.0,5.3930844020886,-15.967621844367557,-20.55149656486644,-1.8513691872708615,0.7316799249629617,-0.5189077362885587,107
-83.32470476878615,54.91991125531974,7.956423470160501,114.72091832118961,46.46477489333151,79.77794783484494,54.72177608567763,-106.67459964410934,90.0,5.411958761928465,-15.716225865632559,-21.663982954113322,0.46219052814713985,-0.1901055164267362,0.1307635170860626,108
-78.31274939863022,52.89743002157946,6.038226854686403,112.53420879456563,47.49666002989154,78.78379652030102,56.16587210528906,-106.61543953196968,90.0,6.000000000000009,-15.476994999863521,-22.52149224913147,2.4966233877374293,-1.0559718389185047,0.7125883592640687,109
-72.34291580572922,50.88900327967517,3.133517421709157,109.46320820211425,48.56341049716047,77.6970151955442,57.12314080287145,-106.53585483893283,90.0,6.000000000000009,-15.225598722159665,-23.101037390793294,4.267719940827644,-1.8330571608710202,1.2250238127935624,110
-65.69445153595161,49.07729401805765,-0.26935602668249414,105.8147724596382,50.82574719993567,77.67946711968331,55.771571913809254,-106.44891788609816,90.0,6.000000000000009,-15.197801032987927,-23.489658250673852,5.8607803786315715,-2.5365104104666742,1.7129210725622874,111
-58.79248384036553,47.60696524400238,-4.083285104441159,101.69884993490912,51.76992495778439,77.09958425885657,55.82903762275838,-106.09055334363113,90.0,6.000000000000009,-15.12190194734728,-23.732742170382824,7.422002954098493,-3.213214389472625,2.1999799316528192,112
-51.58210107336673,45.07743894813767,-10.270329453940647,97.11985730405812,52.69281492086484,76.38804345485448,55.97579670230703,-105.7217130162789,90.0,6.000000000000009,-14.949529913597749,-23.861421722074752,8.899082245642878,-3.83370598818064,2.6551181414953424,113
-45.01208502476586,44.68904928242636,-14.351177875392075,92.23563692756512,53.46825528600059,75.63535025512502,56.16172417387534,-105.50298289962473,90.0,6.000000000000009,-14.818973195270516,-23.986675172769758,10.321345322348805,-4.425400435319983,3.105448455420292,114
-38.2537548222087,43.24502758139467,-20.520411606477396,86.99993403677166,55.40298790354606,75.96794871518068,54.46302524367537,-105.32504336663725,90.0,6.000000000000009,-14.658448220463939,-24.13674371385799,11.785832620606406,-5.033430649639609,3.571368361188366,115
-32.415153309806676,43.5144196200668,-24.22148282035556,81.4443382213358,55.64760449449548,75.53385457343504,55.003063087617576,-104.97102559604228,90.0,6.000000000000009,-14.42086387831694,-24.266674630910828,13.339353047083707,-5.664970683471495,4.055391338784361,116
-25.714039989821792,43.84104466362004,-29.7744482241995,75.42585593710876,56.25227285581112,74.94695839388264,55.2923055714812,-104.9827964000744,90.0,6.000000000000009,-14.269478891419505,-24.274523494522196,14.630030955950591,-6.1535031168443,4.468496139494303,117
-19.581026988202858,44.146052180566414,-35.632099635153466,69.45272828335389,56.694029982197435,74.30010480739257,55.83084141977742,-105.16024090056997,90.0,6.000000000000009,-14.066975223311033,-24.47995631455684,15.918041643633932,-6.696093935662789,4.877212627415448,118
-15.400430867300296,45.48333034374245,-38.08055891693324,63.35814060377778,58.14094336653795,74.78592458828088,54.44950190410184,-105.34008487836135,90.0,6.000000000000009,-13.74431841890265,-24.757555282326887,17.225512696761555,-7.273750551474569,5.2628791728483515,119
-10.719689588939454,47.15535462946418,-41.12815775691843,56.226013441808206,58.94449503589837,74.38421771095942,55.028555855623,-106.21203388170817,90.0,6.000000000000009,-13.513247521207866,-24.713988611209313,18.43729161817986,-7.6987285582793925,5.6253628469896375,120
-8.622218672270575,45.756321513947164,-44.534749704481925,52.372018785740856,57.486457082449895,74.97637218523761,56.58858444026809,-105.02966443584448,90.0,6.000000000000009,-12.687946628026522,-24.884184701139702,20.814414436633722,-8.625003201540386,6.21376380776106,121
-3.509827449913213,48.31559432498178,-48.374615833249194,45.80578444600407,60.11024385200449,75.66261332603037,53.94358687084018,-106.05175882839517,90.0,6.000000000000009,-13.169873438082453,-24.224243082182838,20.948262418539997,-8.37474626189059,6.391860430152882,122
-1.8312171596303257,48.5496245912113,-49.40395031174013,41.74974400198783,59.73839227463851,75.68454951395705,54.86042309118209,-106.16517860907479,90.0,6.000000000000009,-12.798671223779506,-24.313020935985843,22.401072302606874,-8.902800330333182,6.792886477521073,123
-0.5114197911521189,49.67740965197307,-47.511014274849835,38.04818229684383,59.384003724099735,75.79959960933945,55.22711305320761,-106.55158944249665,90.0,6.000000000000009,-12.883158089179402,-24.180319859309577,23.233100081484714,-9.103077581467605,7.1241378837420655,124
4.503473725511919,52.97277674741177,-50.79800115699656,28.707955834243947,62.50823250026854,74.84953553046248,55.98659737656829,-109.41181896529407,90.0,6.000000000000009,-12.973229860859465,-24.026442773413024,23.994965314231013,-9.262055674660067,7.43333141098083,125
-6.773367441707513,43.332773276506735,-40.17891961762369,38.776966358550716,57.09089740481267,77.91717989394782,58.719253621191676,-104.66711356213398,90.0,6.000000000000009,-9.595824595158765,-25.830853517780877,30.164554597008635,-12.394764027641616,8.404508698684584,126
0.27602111605777846,49.28695415516568,-43.33512227186837,32.69721043869679,59.30206658450102,77.1120692280935,55.323519411622826,-107.32981854796505,90.0,6.000000000000009,-12.057102778112835,-24.342553280826625,26.748711992285333,-10.306798929814837,8.106769198435495,127
-0.057825957762692316,49.53835745499001,-40.83800200766864,32.32330170925975,59.2217095781853,77.01997482924648,55.46514876486438,-108.00223278530608,90.0,6.000000000000009,-12.081749342292802,-24.300368074843814,27.13310360872689,-10.395780332734995,8.258883007407848,128
-0.45144833005572427,48.940882697514866,-40.51860904908669,32.82748361927361,60.6349421395094,77.87563660277037,53.825138293673305,-108.7955805117441,90.0,6.000000000000009,-12.054691847560433,-24.391411694228285,27.608614895409783,-10.584357674238413,8.438260352862592,129
-2.616720181557203,48.13513049143579,-36.658385605557015,35.06113831204639,60.163263767298105,77.84978110701061,54.2419502916354,-109.07866943040148,90.0,6.000000000000009,-11.866025215938755,-24.53520309880349,28.284529273407546,-10.87365593297471,8.625584937849107,130
-3.7208678677935985,47.72792003603602,-35.93043922057303,36.69894205570413,60.168025550196646,77.56221710471883,54.14575024430994,-109.8070622371032,90.0,6.000000000000009,-11.917689957265734,-24.571943309422217,28.296591679088067,-10.892426490994806,8.659521643334749,131
-6.175945109001572,47.6814930878291,-31.90178766690595,38.827346864431675,61.57863100550271,78.33237374069333,52.293057607080364,-110.47479667641912,90.0,6.000000000000009,-11.784993259562679,-24.723689862325134,28.42710960846584,-11.024971592215174,8.665496700218142,132
-8.337507131985976,46.95139802388659,-30.92001545664887,41.16299728702323,61.56918868174099,78.09846573749016,52.31989767177781,-110.91367132624029,90.0,6.000000000000009,-11.604370307850232,-24.798980250138612,28.563638427238402,-11.122705032134801,8.640913252450899,133
-11.638108228150005,46.967560142558696,-26.407951001140827,44.68779649096177,60.87457059628086,77.8954746240263,51.793206105760255,-110.66055129827011,90.0,6.000000000000009,-11.579851367808441,-24.852497614031584,28.36026722547436,-11.09445466201513,8.558211604829038,134
-12.126197043619664,48.24805021572328,-26.137625076497635,45.53780021530413,62.492308448829796,78.24622160849503,48.665564050999194,-112.17302405656666,90.0,6.000000000000009,-12.14156412639258,-25.01705145328618,26.704383932241615,-10.636556377232507,8.204736922844402,135
-13.533837343355488,47.57618376187459,-27.689414933018647,47.01969535071607,63.15991441710904,77.9012903544061,48.46419948110282,-113.07753908030766,90.0,6.000000000000009,-11.972313285232225,-24.989540765706106,26.390188695366493,-10.538621213122072,8.005149412795912,136
-17.10348578721346,46.81394776015134,-25.416318338470244,49.65857622813659,63.39891661244086,77.71728810797816,48.749075310226544,-113.11961345623251,90.0,6.000000000000009,-11.327906943432819,-25.05506853413974,26.83628254060452,-10.761892064058603,7.8899177636927,137
-21.105371109090864,46.47202370970294,-22.81363858488135,52.30466719468156,62.994289792206594,77.64548636240178,48.788361806083394,-113.18429823343776,90.0,6.000000000000009,-10.775680668271594,-25.259849883638413,26.810641426176694,-10.906149719556018,7.654282352641805,138
-23.093285559274612,46.75552987727738,-22.167225677953386,55.01873571613837,64.70013197221544,78.7324350711673,45.77509497712952,-113.08810391237002,90.0,6.000000000000009,-10.978206561654364,-24.878398716486867,25.85383212140496,-10.38925652402165,7.353318528745986,139
-24.819370197982035,49.14009407120151,-19.35780560621918,55.65705407957005,65.38160057318096,78.25254515986738,44.92452674792205,-114.733441223076,90.0,6.000000000000009,-11.191063901183982,-25.035533423652264,24.23325090945747,-9.925318607981657,6.876773400704515,140
-29.68490409439399,48.33426469990593,-16.795044145823415,60.42532693116723,64.21396555451526,78.87667901498305,44.414088747722595,-112.8031163863038,90.0,6.000000000000009,-10.753460799357164,-24.669365127689957,24.257110836809524,-9.786977760439768,6.669214765618634,141
-28.665296906914328,50.94376503819575,-18.907210118854636,60.59727897318329,66.3795907732362,77.89883731507648,42.04759913091573,-115.36436604709695,90.0,6.000000000000009,-11.659256088646204,-24.39079335774219,21.07575831670585,-8.551218554958966,5.8960954176346085,142
-32.90840491590854,51.00346370006539,-16.67413714349195,63.43877025298508,66.60256260535567,77.64679153043613,42.10614636638225,-115.408960203179,90.0,6.000000000000009,-10.884775497004197,-24.623295416269414,20.970266154855356,-8.647587657650616,5.59567177471184,143
-36.20980625410941,51.434224556267374,-15.169697831489023,65.94855683592958,66.502469113291,77.54368484530718,41.82598423560729,-115.80108146194412,90.0,6.000000000000009,-10.609839993247357,-24.8327223428494,20.20742631529166,-8.47625669741011,5.26143121910901,144
-39.0641672397222,51.734349964153864,-14.512175813598649,68.63262638654966,67.04676453735637,77.62633896821033,40.991652803968975,-116.13380043916915,90.0,6.000000000000009,-10.461418235496533,-24.511228127438795,19.222403334254654,-8.00039688234556,4.874012270034679,145
-42.34302871723025,53.33705576583902,-11.739854539554859,71.8152792940095,67.99986660604362,77.56688920012421,39.918308803225614,-116.53496427117345,90.0,6.000000000000009,-10.341229498102997,-24.163973370796782,18.023471460655568,-7.44113450084902,4.443020069409688,146
-44.66010829414359,54.167450050996386,-11.707622243253958,74.23246834599418,68.30384384355209,77.57344373421371,38.941663875661106,-117.30857525337196,90.0,6.000000000000009,-10.383111429785378,-24.063255154430205,16.481889788303867,-6.840449639484412,3.987568122405258,147
-46.96425460402528,55.835041719513015,-10.022250514206615,77.21027114259863,69.50476735536128,77.70983317665063,37.52138767081241,-117.94163959072434,90.0,6.000000000000009,-10.493000834143938,-23.43218666744666,15.045352940117587,-6.10808924926478,3.5735993047513492,148
-50.15004483851862,56.23617205287587,-9.571623491615636,80.3036556920307,69.66347747114114,77.81962067960654,36.753373255538186,-118.46161319725388,90.0,6.000000000000009,-10.489036729669637,-23.332441279840957,13.759217355984312,-5.604604534146011,3.206554110715939,149
-52.797298764445685,57.80866949496883,-8.001389075976258,83.38949327583094,70.20340075997188,78.24030431543127,35.40191124964177,-118.89436873084873,90.0,6.000000000000009,-10.75016280292637,-22.713848476006685,12.132601477567322,-4.837411534829094,2.8034798271851957,150
-54.654647483381424,58.056960533976806,-9.05681230072848,86.11813546818153,70.44863153077004,77.00734673697073,35.586664240138255,-119.8360453604039,90.0,6.000000000000009,-11.061759776596809,-22.036304754961975,10.347207911447144,-4.027754753706504,2.376539859971793,151
-57.847463230456306,59.667363526656125,-7.160382377556467,89.055174782562,71.62638757314335,77.13129501818132,34.67907288733657,-120.52684073972463,90.0,6.000000000000009,-11.044380316445844,-21.74345124617178,9.205346966586884,-3.5544037683868606,2.0740644115606583,152
-61.91375317232614,61.32314006667211,-4.77695226844102,92.19260230634713,72.28495668860509,77.22335848449967,34.30343892420429,-120.81184771335121,90.0,6.000000000000009,-10.86725089322904,-21.726588096557332,8.468529763927014,-3.2821208227760477,1.8613899846229967,153
-65.71724559365644,62.982391175789374,-2.725427400600116,95.2779328036191,72.87821370614093,77.3504607396583,33.85152290733242,-121.19851116019393,90.0,6.000000000000009,-10.882682877699157,-21.658281528765432,7.664482456062529,-2.974166089139145,1.666579347994953,154
-69.58685892000122,64.51596839445412,-0.7936136061742457,98.4934171785693,73.49454525765438,77.50064220880215,33.31157669106386,-121.56313986996277,90.0,6.000000000000009,-10.867494240953734,-21.512062355833788,6.886272809729448,-2.663994647742203,1.4772651282160818,155
-72.91529053610587,66.02959239090262,0.5294182888077555,101.23111014230629,73.3712594794634,77.75495545317004,32.558020101002604,-121.68102432561484,90.0,6.000000000000009,-11.1205458700868,-21.30569074017915,5.720929490573344,-2.204544680875456,1.2309305891653515,156
-75.06656653693224,67.36953625390946,0.6052749737921341,103.44406431161188,73.39294708315592,76.5908219453047,32.672483464398816,-122.32268936454655,90.0,6.000000000000009,-11.494772426181795,-20.641819651135958,3.9741418970444005,-1.4941915175151417,0.858047122890842,157
-77.33213047191892,68.66246725093137,0.933918938486539,105.53759852769602,74.35993719686691,76.90971300033786,31.27768353033496,-123.02111465335108,90.0,6.000000000000009,-11.794437297510425,-20.11024008786219,2.5164278595088634,-0.9277750740849138,0.5449908220070832,158
-79.8928081189475,69.94951564914354,1.483925446673927,107.501956826901,73.88273428717453,75.57071517905177,32.02015998206133,-123.6080650245119,90.0,6.000000000000009,-12.012607057015407,-19.744343683458215,1.325811510322105,-0.4827696112734536,0.28745501923492106,159
-82.17845563528313,71.16120671880361,1.8683906993743886,109.55800584190364,74.6189114876952,75.82238349815735,30.804989859480248,-124.17697233323193,90.0,6.000000000000009,-12.259564732520884,-19.29825762969329,0.10921182276133289,-0.03910858839308173,0.02376681953749864,160
-84.1369456887792,72.34659077260358,2.325359495818224,111.3244217375977,74.66542326431806,75.9939501670946,29.76652036805624,-124.72435050630465,90.0,6.000000000000009,-12.567828893563423,-18.948491887136093,-1.105828026559132,0.3916228079630511,-0.24294302399875445,161
-85.94198057579007,73.2497211273396,2.783282139556562,113.2062161686363,73.96776865726076,74.61774724912146,30.254292977094718,-125.46566594306155,90.0,6.000000000000009,-12.84295361634136,-18.38162530774598,-2.3424121168730974,0.8102998082639667,-0.518370300053794,162
-87.42231091072428,74.1434097196612,3.2576390097725505,114.9170038945242,73.89008843160649,74.7823650868879,29.008554285373243,-126.2327577731136,90.0,6.000000000000009,-13.28478350451276,-17.827252824588022,-3.5690671942134036,1.2076361130295263,-0.807332590373909,163
-88.72323317310942,75.01795554279437,3.805230928986855,116.33552794230388,72.65974447646934,73.21279586777182,29.607067651342202,-126.99383744511005,90.0,6.000000000000009,-13.566958526890131,-17.32123433684202,-4.750707663449057,1.5747232315937711,-1.0853157532470326,164
-89.63402260456444,75.8336316219022,4.379033629395336,117.63420274003379,72.1999818837512,73.1891679828624,28.325298919956715,-127.82048194499002,90.0,6.000000000000009,-13.819667417600659,-16.78175889570364,-6.010725748873685,1.9481562771299907,-1.3833488315748224,165
-90.36167863706157,76.45479612838393,4.944282424912318,119.11753587910675,71.84322085811708,73.15414162466617,26.77041387337672,-128.76468185857803,90.0,6.000000000000009,-14.090043411464244,-16.120279218336222,-7.437974725710367,2.3419001241809037,-1.7260231487383026,166
-91.0183921857657,76.8787840734054,5.629049306173665,120.53435427528433,70.30688215187081,71.35336901261907,26.940656833804624,-129.66320199746988,90.0,6.000000000000009,-14.279150971332571,-15.414295576553313,-8.933576264285746,2.7226778800612195,-2.077905661495563,167
-90.89569564017968,75.48308999470515,4.805388661954178,121.4401671131249,69.28962297946815,71.29004282394881,25.310217269561523,-130.2141009052985,90.0,6.000000000000009,-14.480951542760673,-14.552385118486324,-10.497423750686192,3.0646839053446673,-2.4536814199486856,168
-89.89841263172691,76.06507568180852,5.400344831577427,122.56326196768478,68.56875108969982,69.51259659717716,24.922965153211155,-131.84578959646245,90.0,5.768764679188339,-15.004711288511306,-13.551688943979117,-12.168216834190947,3.381588495851745,-2.9358985988461166,169
-90.76787462861212,75.4368656899403,6.171285096408276,123.66057059979227,66.82004595226613,69.10739100453809,24.55960783224844,-132.43589626309884,90.0,5.74621966242141,-15.021334063735226,-13.291321279814992,-12.976890185858512,3.5647940033490038,-3.116996445784981,170
-90.52487511183485,76.88485447706621,8.721416549601166,124.62772257903946,64.66806309181554,68.82929289817577,23.760356327069164,-132.77847417158407,90.0,4.990448448105256,-15.181271537049671,-12.591792251438438,-14.206217356579273,3.758033775869627,-3.4357291353997974,171
-89.0834399771217,75.90784951403104,8.835008464460767,125.43452545281811,62.7785888688378,66.843655034417,23.49243184960522,-133.88548634433278,90.0,4.200105850839039,-15.482672823465235,-11.34174518419779,-16.00677470874067,3.934959575164715,-3.945444700060908,172
-88.26019647316151,75.02524686262113,9.597395781496475,126.2286303644151,60.8049671694766,66.46929479061521,22.29639005601739,-134.51195743016663,90.0,3.5796284184792033,-15.661092055342934,-10.351939406236474,-17.415009168121216,4.022520970098993,-4.3447072366725505,173
-86.98418772389171,73.87139364831656,10.18614938636848,127.00072860856547,59.05960523063991,65.88714276677547,21.263647731717388,-135.03729067314234,90.0,2.9446071581801476,-15.758476407939844,-9.282102347586893,-18.830112114847118,4.0393266861723935,-4.7363837361476335,174
-85.97557679646361,72.97498361047009,11.211062311707606,127.70200831801435,56.32974036716832,64.37664384594535,21.724134751844815,-135.30524000875457,90.0,2.3450515544636343,-15.993162813473507,-8.400991523364407,-20.025434096814877,4.041353033161669,-5.133454463308098,175
-84.38639449041968,73.88571553950457,13.453986028434198,128.17970867490314,54.51132809938931,64.60920861680799,20.366547479498685,-135.6722902655749,90.0,1.8524030892958767,-16.125960994253752,-7.46810883663709,-21.29357020065284,4.004106562999558,-5.526954586458792,176
-83.10625953111746,73.00416202918396,14.298109954043792,128.59317384934153,52.067855681414464,63.02307580683122,20.993279619324536,-135.85833275000795,90.0,1.4428836377353216,-16.18038260513925,-6.568222114245032,-22.476888381875142,3.9219872048454865,-5.880432942904741,177
-81.81607077544301,72.38910155688954,15.092658980566005,128.82132136733884,50.40378899404724,63.206869851396114,20.16873608169314,-135.84028025355232,90.0,1.234436802452199,-16.15964496833428,-5.8274812094300685,-23.601955695318594,3.858258469486762,-6.185363859459289,178
-80.60071106824337,72.04833121144463,15.916327947018866,128.95025402783847,48.8196768512085,63.42260977590378,19.689822663036754,-135.75140306410444,90.0,1.2608154248256855,-16.100228199160433,-5.197110282446085,-24.655138065556276,3.8012629625236256,-6.452340960500947,179
-79.33612975701446,72.0799337403879,16.946042553135594,129.06074665307858,46.66096482182161,61.77906796836529,21.040248008622488,-135.58069456283644,90.0,1.284273704627333,-16.04610536365311,-4.607456691802688,-25.633955337828493,3.730219760999052,-6.704496553680177,180
-78.40208511893799,71.1471238255977,17.085341452115777,129.0306726804042,45.477714834072465,61.87612881223619,20.659191828205415,-135.08658762865684,90.0,1.1806585622462018,-15.979675054554285,-4.132266621494788,-26.51611630789122,3.677027052124228,-6.920281785337238,181
-77.55336770059264,70.46885126625614,17.152793699814726,128.8849852145859,44.585750846134935,61.826349405062075,20.387542630621635,-134.57531353202077,90.0,0.9442347743778327,-15.984630029611127,-3.81170006428809,-27.356011811415815,3.6891115776987986,-7.14722530612178,182
-77.00394229594768,70.11257736419769,17.46220447702274,128.89256715187548,44.07647389508552,61.70358978403268,20.213044381478774,-134.38982361032964,90.0,0.9571745974541567,-16.183479625631062,-3.501226368849129,-28.169180336265434,3.7225686697357343,-7.469485910145383,183
-75.95719303238043,71.61816570426647,18.700987001021993,128.77214096185114,44.51627282098752,61.48617015484305,19.743839004685626,-134.3345466908231,90.0,1.0841163375310217,-16.209001467768353,-3.210023640531442,-29.03342128468966,3.747425170382866,-7.716439383411154,184
-75.6755437624485,71.44889340303058,18.552809926127047,128.5562799121755,45.21359604740844,61.18617495848646,19.093077349948658,-134.2139570801233,90.0,1.1580164722474324,-16.22988616027623,-2.919098955912521,-29.88493081792241,3.7645492693990046,-7.960450459254195,185
-75.35094475986409,71.3877722037203,18.200381534251324,128.35408442883895,46.16953770184896,60.81487346338818,18.25591684211538,-134.07113249981887,90.0,1.2324540752696418,-16.320934288219657,-2.5925295306122598,-30.69563399324192,3.761375897216931,-8.241942210670773,186
-75.59408069154046,71.94733157458936,18.34889958173844,128.29537607636192,46.82153235063057,60.43035008123896,17.80106811484259,-133.83171960114296,90.0,1.5561174325507239,-16.581613974141106,-2.445123197667457,-31.30046619586858,3.8419792911879016,-8.551982904297498,187
-76.68285023617001,70.63594747328115,17.038944661302512,128.35659674790935,47.80304889509406,60.14578631854436,17.296175381397443,-133.60119618110045,82.15594583660949,1.7598124535569823,-16.83427419064054,-2.2129107331674405,-31.876818292107373,3.8698023307774267,-8.869245102599375,188
-77.11407623553538,71.21918477435263,16.757978436401892,128.31207878872436,49.350738732408615,59.91685652571498,16.579941429968176,-133.54446437557436,76.73006155353444,1.7327816478988336,-16.99462403494099,-1.9045286671042712,-32.52592359187665,3.8516745197057576,-9.16747027785683,189
-77.92212704144747,71.9235058859173,16.794867830645348,128.43351214090433,51.05115073232699,59.883446993674674,16.132113634163673,-133.34373748581066,70.45730905656407,1.6353270883339985,-17.118094823957165,-1.6521163701393355,-32.93882324869672,3.810307071469593,-9.382092670058858,190
-79.07339232841731,72.78989403436641,17.11288002994344,128.71152473966282,52.73433631608024,59.928168181929685,15.914054563240766,-133.05952245417217,62.53063039801586,1.6560902927802703,-17.287610050122066,-1.4452425677043315,-33.20139732561648,3.7733515579720236,-9.583138973059617,191
-80.84014855283473,71.84058816734047,16.02747564057642,129.083613479492,55.27622740677904,61.81713131073953,13.80517428644921,-132.81790001688174,57.584356742536166,1.6998070314095004,-17.44618238775348,-1.1999161016693822,-33.527521801266936,3.7235080261823272,-9.802279349835729,192
-81.80404448330731,72.73057504808567,15.849838427269331,129.22840360865658,57.70119108030374,61.70592331543761,13.010343711419742,-132.9090360673632,55.5961540092082,1.7026282911109598,-17.553716940814805,-0.9714270944700661,-34.02315111173041,3.705620117003912,-10.03343667333598,193
-83.01278256671608,73.67338159979634,15.950804287076407,129.37926839982543,60.06962914476268,61.62226141937882,12.357249029259023,-133.08388071917426,53.54975735134372,1.77273378993,-17.69474675907826,-0.8306208283819886,-34.336078610545115,3.7103574205317544,-10.226680173583201,194
-84.73910227950932,72.62444744904879,14.9034189049394,129.6425483181051,62.25352154349802,61.63149707248965,11.759368283430272,-133.18769782864334,49.54062701803943,1.9145810604044637,-17.866921799426283,-0.6446517643077266,-34.4990467012728,3.6646098967509877,-10.410203744173286,195
-85.68073451270244,73.37747577613308,15.086902789168201,129.84199134120433,64.06883358777401,61.55602309855456,11.028870936315284,-133.17889264159845,45.102851578245875,2.128874120894431,-18.14781165275741,-0.45333950401440326,-34.65734403139646,3.6364930261591493,-10.664683448665192,196
-86.52833689938363,74.20716843600852,15.201854492148954,129.92168482408385,65.55072324131864,61.194033533155775,10.55190079490047,-133.3313549282141,43.280276338861846,2.343023357608262,-18.511998264723857,-0.3129618415212177,-34.80511857688942,3.654606467120607,-10.963882009062939,197
-87.28775840167059,74.83625751221608,15.236858169983968,130.0007410678541,67.13517672065039,61.77467388309032,9.53627565592286,-133.63068327600539,42.76244004154254,2.427842436041597,-18.75448808338477,-0.15884261236923192,-34.989532186495815,3.646967676913223,-11.199677672747018,198
-87.8795063918644,75.28729126507953,15.144835789133817,130.03528294913937,68.50009129954468,62.23458649024756,8.449543581948896,-133.9620001313195,40.573722003140055,2.446257803522571,-18.98397392066748,0.06846074826038628,-35.29302412183885,3.6153203310218998,-11.476403552365888,199
-88.88807189653346,73.79160902069958,13.647058911873868,130.00797454450534,69.52113918208808,60.556769383911906,8.738187756866367,-134.3584227939869,38.3190139245047,2.3979698530399944,-19.21549866259484,0.32186290968175624,-35.664740001210326,3.581168453470071,-11.782892430926347,200
-89.3148607739553,74.05323097869369,13.485892516636724,129.938492228769,70.82573167011077,60.63827379763239,7.379120987148736,-134.85563005967026,32.240480334624756,2.378278081015587,-19.400754357470294,0.5510866267037822,-36.01275319802001,3.546923179266778,-12.051343117209553,201
-89.81670736328844,74.26264527548113,13.553592051403312,129.91973536906917,71.78017381926774,60.608567683178414,6.298806160842102,-135.37015498268323,32.15420427871403,2.3363394052034647,-19.605794647026382,0.73941903712333,-36.22459425977782,3.5150227781208665,-12.288259901140615,202
-90.28825630106705,74.45175572250248,13.767265578245562,129.93602571836337,72.25627609396628,60.399601403034424,5.544815803369836,-135.76082704403834,33.10571116365749,2.2537976194515354,-19.84769049829067,0.8784189480107337,-36.31101057637351,3.497245833349659,-12.505258947904771,203
-90.63769334651555,74.66715009237268,13.959582609541954,129.8216535102879,72.3163693294934,59.871677765178795,4.968341629275543,-136.22477499019988,36.68462150550628,2.199500830678008,-20.12225256718971,0.9393968801381251,-36.357929607314205,3.5288815899855774,-12.719384614916894,204
-91.18966290983084,74.8278381999383,14.48986299275567,129.76645429008062,71.86653684102792,59.237024474492415,4.760880654407882,-136.726787842801,39.10835465757857,2.2477627825875075,-20.44013271618462,1.0005565751158096,-36.269362262421566,3.5420139676443525,-12.921655317229558,205
-91.73827966266931,74.78355490793903,15.185555713401751,129.8353410478672,70.99855380683162,58.548266734614685,4.675778372781478,-137.16217188158905,38.022703453760684,2.237820427468197,-20.756726871909258,1.1916247823871766,-36.17071625759335,3.468725742568208,-13.14334618613519,206
-92.35968123919221,74.61797328705808,15.892107960576205,129.90168253882612,69.74809785036716,57.675998165376406,4.680513518706772,-137.4796379383452,40.74432286878276,1.9906755321280196,-20.983818810308236,1.4090565583417398,-36.15647114848723,3.3759640842674874,-13.335293504539173,207
-92.81303396867857,74.2353920688038,16.272029915132006,129.85655292715984,68.66655564389464,56.84601791782806,4.422019078793814,-137.8964086450805,32.747897038671525,1.5362283745737741,-21.035825291732326,1.6933618469768559,-36.43114472167464,3.26073282209725,-13.514956852842408,208
-92.49600039804776,73.50718365867307,16.189885428536172,129.73020281945352,68.37643956015431,56.16868937693705,3.343258031002167,-138.6108204717399,12.70104694803904,1.3038355917842523,-21.028498889850198,2.1721014747944545,-36.927941851632106,3.0482222625206488,-13.765980322582076,209
-92.16346678729896,73.00699764617589,16.43044791533446,129.63935862635526,67.48030790069848,57.1054961122083,1.283843529876951,-139.22086152009015,3.6446802670741882,1.5766447072690186,-21.258697211227112,2.564016199627739,-37.08219319991647,2.8735662387933263,-14.055534347844407,210
-92.16607262894327,72.80735137404625,16.95278910897163,129.5006355956214,65.32675656793211,55.56395061299558,1.5155039697416688,-139.69718996683022,3.77263997711736,2.0127427429607088,-21.609397489189956,2.788279605617044,-37.01514097982707,2.791564901619423,-14.323800232660158,211
-92.2303954826918,72.51091297027138,17.54697181116173,129.33892511908465,62.99733252413555,55.70489482953788,0.2633822577362974,-140.0768552773586,2.1480779278794997,2.2083301177126615,-21.90763284005338,3.003149403742436,-36.98860621490929,2.711523557162853,-14.567426889421034,212
-92.22768264107042,72.14416910304159,18.127467008484142,129.26992415556063,61.08017712536457,54.45077989469413,0.499779862250548,-140.44480294356921,0.7021415518412238,2.3610083345834334,-22.165782237430705,3.261295049122936,-36.96417431895906,2.5937957299269794,-14.79143151119481,213
-91.89303050288534,71.83050656732651,18.353354615333807,129.02657599768614,59.45012107354151,53.19273294303855,0.5208436685400939,-140.87334261562464,0.2549565832666192,2.6289685992842657,-22.425267307243992,3.486003835129752,-37.025054686552366,2.5150246177123328,-15.042424785849006,214
-91.62606799552393,71.69036842772562,18.618985320339533,128.73593872343122,57.61079752300024,51.8907358080525,0.82832186452578,-141.21498225547745,1.5860378711445198,2.958360307102577,-22.758755620010128,3.6165147637807022,-36.996147822649775,2.4972073166678523,-15.29674331749873,215
-91.77116844559444,71.72252070639362,19.218103741731564,128.58511535378992,55.63916633085698,52.47702062040512,0.46756230811908434,-141.3899645432872,3.3884924740808953,3.2316563182714773,-23.15270841761251,3.6845752446915965,-36.80107091091542,2.5004690120388515,-15.51951973597825,216
-92.1458304024534,71.7548034318612,19.749441137862053,128.47424432193776,54.159160530599294,52.10957796575187,0.9642545999048177,-141.4257100059946,3.3429224877620523,3.350231118466978,-23.42540691915391,3.7357738193594847,-36.741559377818945,2.514897609826752,-15.703685505777079,217
-92.37727568636963,71.72862244360552,19.906191680525815,128.2405038476648,53.22353849157629,51.80574989397356,1.22790631762677,-141.46137455042594,0.8729404461896029,3.4167048937961293,-23.591167887492226,3.8137138547041665,-36.92263553152812,2.5373302346877074,-15.911139582920717,218
-92.53345150333902,71.74784741440207,19.771052315245846,127.94270657345842,53.16901077189732,51.69686514927151,1.3179642842399477,-141.51923227303246,-1.7606054775983175,3.4462414722356405,-23.630654501084987,3.836926759729146,-37.186393868189306,2.5857451642164517,-16.050026233510238,219
-93.55779410218814,70.17455216615349,18.356592432910197,127.57640141326519,53.63172618974373,49.764112537301315,3.0095224544095207,-141.61089857864266,-2.4455758134399734,3.4020788061395373,-23.679827227642075,3.727799608062435,-37.40624919717369,2.7174802029105787,-16.154250677819483,220
-94.21464205830614,70.44445890219987,18.371943328370136,127.22213581226836,54.91284254807978,49.9326726134132,3.0162644538199905,-141.76311955135466,-3.317284925694329,3.3791072977979804,-23.743528970981163,3.6250637984051743,-37.618109796331716,2.8480470299888276,-16.26717488254693,221
-94.97368957922531,70.53453571114208,18.322554028368515,126.91933788110946,57.496001565022816,50.33961330937891,2.287254389312251,-142.05550546301936,-6.682536813069614,3.315402775721444,-23.634692925102964,3.5903707695739246,-37.985982815321016,2.9264250675221657,-16.324868799767895,222
-95.64565024705914,70.4996892208682,18.113562518562375,126.63444711273083,60.97715136576575,51.60322292892371,0.6927264450133367,-142.4233530403874,-10.480982152960685,3.2044272622412655,-23.38000806692638,3.57393456598626,-38.45112446893372,2.9781580896331574,-16.311361874004355,223
-96.4179300439046,70.54903182658647,18.00053666619787,126.33248974420452,64.36387391587729,53.491326056668406,-0.7191988782459945,-142.66608175555595,-12.309310180852005,3.1721926294347456,-23.118672481961895,3.5009686087868896,-38.787867277809866,3.038287261779939,-16.227960671726237,224
-97.49926494744581,70.66416940579705,18.189467566695907,126.12435334960645,67.55652093430453,53.583145064395715,-0.32820164468717816,-142.68880958214848,-12.69897827780176,3.2399442709520736,-22.86040804169286,3.391530384571362,-38.96377537673261,3.088616170627099,-16.075751641887265,225
-98.88403256999581,70.80971273422418,18.467867219019393,126.08781923668457,70.61685706354021,55.74801819496138,-1.133541952533266,-142.46521182357247,-15.416304664652266,3.264518359303169,-22.566696292018033,3.276439483393642,-39.171508764618416,3.1403616393641456,-15.905786162358723,226
-100.13838280973287,70.88775649553627,18.25535433464108,125.959333844657,73.91127914187831,56.01899413531094,-0.7767740663969486,-142.35598678427033,-19.21757926990436,3.2789545724084572,-22.18681949573536,3.165880064102757,-39.71931872009183,3.24025738977059,-15.791871325836635,227
-100.89908060115351,70.7569322317948,17.46092110491048,125.73388965137063,77.94699230971163,58.59417723567185,-2.4177027579723616,-142.4955445207179,-22.321329850866746,3.25703546402146,-21.665681828960533,3.1101263524739293,-40.57702316587247,3.329045925921818,-15.681236557519526,228
-101.90830725323606,70.895758281809,17.018752467036858,125.64212621903572,81.51845215905257,61.341313012485614,-3.3941079351556422,-142.4647748025619,-20.610348591537925,3.226513944933031,-21.35990992537675,3.0529048524420324,-41.09153592105979,3.3988011343945255,-15.607397946361637,229
-102.63190690528455,73.02896331094175,18.073261064243123,125.48796780299571,84.88928874247708,62.02753344885962,-2.547103083776283,-142.2096451486597,-16.15549049031771,3.0894649118683644,-21.111853268837997,2.8607927755756912,-41.44429244513928,3.545846612533301,-15.487503125452427,230
-103.9028246473938,73.35983069239079,17.621656608368923,125.19588627447435,88.28574602848981,64.74638002779095,-3.1272874563357,-141.96052434989733,-10.515573574041708,3.0306995685321696,-20.860741642777917,2.686129783067521,-41.87010516830671,3.695482146289609,-15.388827719062528,231
-105.02155423863795,73.60221417009912,16.9710462370844,124.83035381910383,91.70224319645232,67.72556711903937,-3.648028447027969,-141.63217864560303,-6.078871857043732,3.0390383867599295,-20.607526712795107,2.617636790219452,-42.40385362099997,3.790365317785056,-15.34374254504392,232
-105.81458916669605,73.67755367156025,16.01653395932809,124.31970058106906,95.27269696184091,70.83804260207678,-4.373093543569593,-141.2912158497279,-4.633515836547811,3.2721939322757354,-20.36158382020969,2.639991316860474,-43.15259232012253,3.8665994221776945,-15.38913097466913,233
-106.54300550495167,73.75564312484246,14.933534078389723,123.54077170470423,98.49463548067877,73.43500264444968,-5.252638902311204,-140.97496473860863,2.696482060090263,3.487696501391022,-20.18955748572082,2.64688972734889,-43.96716884067855,3.9902599703666612,-15.503757271271924,234
-107.23796608995097,73.81456402662981,13.588680609510854,122.82618437579004,101.63610356886126,76.13198842005883,-6.09928442962291,-140.43521190159325,8.520060833868577,3.8603656187471507,-19.957391632584002,2.7783780982204687,-44.87312807646153,4.018863895611133,-15.62468823032784,235
-107.64277983019649,73.88829122031892,11.761287107539319,122.03996923319465,104.68068374393772,78.58529101117222,-7.234098240222414,-139.74188309103192,13.496720635829197,4.160493771255133,-19.750340976995016,2.951014197161627,-45.97302708454054,4.062999152535716,-15.830076602713156,236
-107.59536047443062,75.91528855961764,11.192065935046806,120.9619823198947,107.00115417830128,81.52780912109077,-9.211911055193449,-139.14589670788612,19.197471902197467,4.476997456563393,-19.680406019529624,3.02637302269145,-47.0927714184662,4.232951347206886,-16.1223149052951,237
-107.93763578268411,76.16444082014968,9.17417266769608,119.82741861889741,108.68019331063367,84.3571729037615,-11.290289561629198,-138.38638174424872,24.205176032647813,4.905407093780213,-19.671198040840945,3.1547616761397475,-48.157933260989395,4.371822581807048,-16.46372064932143,238
-108.07650258446421,76.45522035932778,6.969827218229843,118.52562391897708,110.06148576050265,86.96750441703584,-13.686732224195714,-137.36784329729895,28.89702452521476,5.291050728531118,-19.69988225426447,3.2466407432325504,-49.26662262063361,4.567815205461626,-16.837933165316777,239
-108.08926652450853,76.83435600387602,4.619759681730402,116.85541318157472,111.47128124489333,87.34327531587361,-15.099057850100374,-136.31329599073834,34.01397917355901,5.707371959797245,-19.87657228159577,3.263847784153692,-50.404220489624244,4.89844059913512,-17.32675003732288,240
-108.01074499617933,77.20705484507351,2.245336164553572,114.93723007559804,111.784824068117,89.24552727717663,-18.293089513080194,-135.14278414632872,37.60266554498337,6.000000000000009,-20.110288137875763,3.308324201689569,-51.54521801354463,5.2436590457473375,-17.880644637046437,241
-107.90278584079878,79.30649629069414,1.5838260866534666,112.97800724878617,111.54050782488834,90.80439100424584,-21.722813974988505,-133.56907901327057,39.20188700711804,6.000000000000009,-20.30328431863366,3.434798556908235,-52.64960245657036,5.503816342540842,-18.42122332873712,242
-107.926667539572,79.58503607328294,-0.5445421995928464,110.90942907084869,110.95321693348411,91.09500191367457,-24.561939829571642,-131.5829637703188,40.83599335438747,6.000000000000009,-20.55781195654069,3.593868904337349,-53.68128528649921,5.753811828556915,-19.018117176274735,243
-107.76731613893634,79.81599519509898,-2.6524664210097875,108.52157154114013,109.2794806263528,91.8041174873875,-28.24205870570737,-129.1753963872211,42.14608836046634,6.000000000000009,-20.8083312351512,3.777254730107142,-54.719423590137104,5.992053383664723,-19.63100077120078,244
-107.65112123174245,81.69000859241957,-2.9004431082263564,105.98134928321872,107.91877937035761,90.40778478102155,-30.246688962363468,-126.2154310198037,42.853460994997015,6.000000000000009,-20.957378606739617,3.962731508126299,-55.72424507854175,6.1780702675729655,-20.14288665535233,245
-107.44591065461687,81.71651283767017,-4.700389533056892,103.30717390836878,105.11546572964676,90.29245672659886,-33.63206268963357,-122.95527962779576,42.706539902790084,6.000000000000009,-21.120963637826552,4.231533068632245,-56.7080717088052,6.294010364228262,-20.704567625021795,246
-107.31911386069869,81.60886767708273,-6.502228620787949,100.39506547762589,103.26457461189302,88.23641821542023,-35.43370729126353,-119.17070941360161,43.575341036505804,6.000000000000009,-21.003417477061056,4.245417673951558,-57.87990163729146,6.559199297037815,-20.92581802707741,247
-106.67764154468527,81.44550209414666,-8.337959535120627,97.42668974701964,100.79867055983108,85.86877754982699,-37.1597329302675,-114.84691081584215,41.35359701564787,6.000000000000009,-20.946186725736627,4.655899585596485,-59.081119059895656,6.49005613695038,-21.39393757229569,248
-106.14430514777501,82.84188171146486,-8.259893410618927,94.2087219241209,98.19642594442728,83.17886312529495,-38.65445713111786,-110.25668435450085,39.55433611980715,5.7000053955800345,-20.84707701644682,4.971705731585738,-60.31442862301022,6.49261170637959,-21.787356921818965,249
-105.5294940618006,82.58451980702935,-9.773665849233002,90.99726508388586,95.40109151559075,80.23929986529957,-39.65136090009999,-105.45409713935662,40.09179903474297,5.080244987030656,-20.68400340826759,5.21426078843338,-61.454588603193535,6.497324196274479,-22.052177611166442,250
-104.96265451437206,82.2773716540095,-11.0495244369201,87.89058279579065,92.45225670232186,77.21192776662858,-40.14900983669012,-100.73668012954214,39.38752710734378,4.863558103167729,-20.528308404431925,5.460828453121293,-62.467172741443676,6.460049216643885,-22.29066545978729,251
-104.29668563765532,81.94987069756611,-12.097533231869715,84.79680556770055,88.09180979715751,75.22223822593311,-41.63374216412684,-96.13724171456869,39.143641686588985,4.889090006862915,-20.447711253380422,5.768200859347,-63.31900145221124,6.3569167153531385,-22.598251673093916,252
-103.9465212449265,83.02760610809827,-10.907317626798614,81.81300894621067,84.50250128154548,71.7601831010198,-40.912152898951604,-92.53777224128629,39.18282924713566,4.82953535223872,-20.437901322706427,6.103637242599512,-63.956182694484504,6.2037294486908054,-22.94185679798502,253
-103.29149939732096,82.14949390725992,-12.39619402310101,78.62194158655058,81.33987263146533,68.93684263675313,-39.69519851298252,-90.55408485055861,40.83617517553107,4.680280627151595,-20.51879212390795,6.255661654001872,-64.41864613509765,6.2385860235258255,-23.239745821555456,254
-102.78789664568836,81.72056521443811,-12.833064267942312,75.54687942912963,77.54939256770453,67.93019717214494,-39.68328687463578,-91.46030564469345,40.509240960866634,4.589076327194428,-20.54297887622975,6.535841603670747,-64.79439006843556,6.083172014612462,-23.524162909524527,255
-102.44763879476707,81.18674648251655,-13.014650810755723,72.65517247777932,73.88360910012898,67.67367996848769,-39.1369304990113,-93.59420948426249,38.631422304521635,4.441856089809362,-20.503938584714618,6.864788264366669,-65.02364236048216,5.793800120189786,-23.727446158743547,256
-102.32208846702858,80.63056484723525,-12.922452862251872,69.95228804691152,71.0987950568646,66.756501361293,-36.42530300299619,-96.43432312235383,36.07262751883699,4.283460466813273,-20.46035935403634,7.219696168961092,-65.0386090257027,5.411970373907609,-23.879928790668274,257
-102.73085217024357,81.30780550906455,-10.32331946700017,67.59391952797633,66.88416498513772,67.49792224462348,-34.26464998721689,-99.13612794553715,32.20838004347692,3.930903242687714,-20.34128236304883,7.589066379946551,-64.7795121274556,4.890638954175391,-23.87718943194601,258
-103.14645182482352,80.96715663212939,-9.505579387370103,65.34693448933947,63.32461783552779,67.09602638722842,-29.73661175297163,-102.01571884508829,27.690591855689668,3.3723067129977187,-20.280233317359755,7.853374073659538,-64.16652466831286,4.417148172772921,-23.771265933986,259
-103.51343482351395,79.73672193806716,-10.542304602202362,63.28528149736535,59.084200976725654,67.02346852184716,-25.035827203784073,-104.04119400194081,24.426718928823778,3.0198116398685517,-20.285081996149497,8.074033944191395,-63.20954389110365,3.9408903060729616,-23.600816105134662,260
-104.280667727132,80.05131138144492,-8.987844398156414,61.1823079321735,55.312830757893934,65.74032680222433,-18.324127464179476,-105.32479147722846,25.033537072570475,2.9260094163545474,-20.348347500088853,8.210646971178283,-61.74268701641461,3.4569697439700473,-23.27744756027169,261
-104.90409990188779,80.55621508096125,-7.201033469165044,58.76581155953947,51.545186486648326,66.85979173436527,-13.452911983492735,-106.51615919265299,12.804465758319719,2.12419945343225,-20.339915701881704,8.28409700117898,-60.047309307250515,2.9519105119695004,-22.758884812003217,262
-105.35174121532171,81.0431899525055,-5.308453179020946,56.56205588322182,49.319839889856794,66.89663677346152,-8.055598880471203,-108.0453320180254,-4.39290746269366,1.5848386527064078,-20.138954779827102,8.396510009671383,-58.353578586846396,2.3349977814996334,-22.050170234528338,263
-105.38814337005381,80.6270397583138,-5.429382282610621,54.51660563576546,47.47681584213269,67.21142512027204,-3.138062029349272,-109.69712966141293,-21.377844787665452,1.2162658118789884,-19.92953593538571,8.589776247445455,-56.43720626975024,1.6258865519941377,-21.285446210557993,264
-105.25955824150815,80.42399402607388,-5.520272752689634,52.602637456739615,45.40565337651278,69.22001441355096,-0.33778084440755357,-110.23827877276159,-40.2963074188641,0.9266771183345811,-19.806040696863885,8.844789967959594,-54.36507825646632,0.9132162707254948,-20.560710282027063,265
-104.90131343149226,81.30200454927169,-3.6980379438095237,50.52392675869411,43.740861608882916,69.38410160019568,3.6496693727202376,-111.15508493429421,-66.26244029182584,0.7586275041267916,-19.681476513190393,9.08532181564352,-52.482788244427994,0.29529834340773536,-19.876523707421367,266
-104.11910874262989,81.15227010023354,-4.221118823963285,48.69803239901456,43.011705999287685,71.32363165263692,5.267515218090404,-112.57477165328322,-90.0,0.9878466407170373,-19.40555225363446,9.415753776039134,-50.732860734637356,-0.39010478374178137,-19.12082216712227,267
-103.21798151481109,81.11536273249128,-4.5009575738424115,47.14579401609598,42.50225088164476,71.58648142255046,8.36397636130255,-113.76066855280166,-90.0,1.2089722439053978,-19.1293898774709,9.766423389223744,-48.69602561508605,-1.0820679225562344,-18.259676681564446,268
-101.95898493510224,81.30039275730172,-4.790356341754153,45.57129422643088,42.49756623081852,73.46515714798191,9.53674435784626,-115.21049008355428,-90.0,1.1934675706974314,-18.994930514467356,10.140590506535899,-46.49278189702648,-1.7066565189587457,-17.45108597379208,269
-100.71938394099087,81.53065437682098,-4.848288664022469,44.605574852334485,43.1060211193075,75.36896613298889,10.410831415017926,-116.99235836283955,-90.0,1.554362990110974,-18.79730486080125,10.566894099289932,-44.0657445919715,-2.3457071367345175,-16.50329569777896,270
-99.75407095032217,81.97839935113919,-4.465927493010991,43.64872776155317,43.79729892401589,77.4118043657115,11.530366938864315,-117.69163011390113,-90.0,2.2856011514803494,-18.499414890188113,10.698883684050273,-41.212347759875044,-2.7475216637757836,-15.235830785750125,271
-98.2311379811526,81.5719673013182,-6.851004586993841,42.243685778275456,44.302509325187636,77.28271163299901,13.9896188934209,-118.39480862102396,-90.0,2.9449006701045586,-18.086962404937122,10.705253126419343,-38.785956477258075,-2.9833410438499994,-14.03429654152972,272
-96.67942554700699,81.64943157002071,-7.207442591814432,42.256980028661744,45.89934323216539,78.72891068832638,13.996390416686321,-119.68039254970985,-90.0,3.5580308850050435,-17.552648492946044,11.090961439428469,-36.66004960130737,-3.4123442924445966,-12.961065276064687,273
-95.1699549677597,81.98427098295579,-7.2115015675513225,42.730953209422395,47.65384077116281,80.18198288201478,14.230131916224055,-120.9149805842131,-90.0,3.9996161808232498,-17.141501973306458,11.359678213900729,-34.096937840243356,-3.6735147843053726,-11.80615076658016,274
-92.95494304372257,82.56326807320355,-6.966125824386486,42.701075684753086,48.28885156687541,79.85070668793541,16.295322192916245,-121.209191544115,-90.0,4.4939976377488495,-16.986292417242165,11.542271116798636,-31.12059793160387,-3.7613397205871784,-10.656923097071363,275
-90.59499241013818,82.97328124406926,-7.061100150006299,42.757250374608454,49.83395023484249,81.03431292043742,16.22651655986398,-121.44622719467144,-90.0,5.085167630027592,-16.56088607133061,11.654234639217206,-28.552876003625098,-3.7781172970876016,-9.517179776569787,276
-88.17688697765756,83.30147664837723,-6.873707547556311,43.752724739074864,51.719228425873055,82.0986153875354,15.713052834976692,-122.03767696453727,-90.0,5.540396529135625,-16.148747394190206,12.034953441177139,-26.22972488245823,-3.868405644845469,-8.532695803881454,277
-85.40198038527596,83.21104735942309,-7.770592867688268,44.997791109031546,52.977396919398814,81.43967743632314,16.882659840077668,-122.53762210411466,-90.0,5.9715582419646545,-15.828856346725383,12.476196680727588,-23.7883593302693,-3.89139134115939,-7.5787272104209595,278
-82.60490932342567,83.20619812897525,-7.8982510116074955,46.3254129824541,54.4280444045449,82.65130965090175,16.5446396634571,-122.53542422096452,-90.0,6.000000000000009,-15.571861296068755,12.859219037373228,-21.111780844676268,-3.7786428834577817,-6.587332924249682,279
-79.67790716941663,82.96369013193686,-8.236739810992644,48.02164253874377,55.322854857910514,81.7630572947153,17.590248503985364,-122.46191576839321,-90.0,6.000000000000009,-15.286489048223393,13.321938027679009,-18.593384586704467,-3.6308776078189715,-5.667731439194158,280
-76.68973021205198,83.47258055404878,-6.648130984299365,50.35580977729908,56.65570117303094,81.86361706491398,17.291909727006797,-122.23336378547631,-90.0,6.000000000000009,-14.969784388984683,13.889917234927196,-16.28155666270976,-3.465125586535884,-4.836773311120096,281
-73.10423017679945,83.10034016195348,-7.636052899660344,52.679433051432625,57.801625265179794,81.85749209078317,17.015419677435567,-122.04541560499705,-90.0,6.000000000000009,-14.741053235046415,14.454844206748406,-14.12187702888519,-3.2429591208187105,-4.104005666187084,282
-69.39422359867906,83.69958100659828,-6.626859311383089,55.0574751666201,58.89166042097333,81.76005769281468,16.803567071491294,-122.0742263247788,-90.0,6.000000000000009,-14.611172676096524,14.974268745787267,-12.042648374615858,-2.9530278787810547,-3.438404003934132,283
-65.48849223632783,83.3418723920349,-8.043885075091499,57.48775508735827,60.10236358292497,81.5432984734657,16.615140684502038,-122.10376480219448,-90.0,6.000000000000009,-14.505192761808045,15.410576962420677,-10.04640352587674,-2.6014084431686535,-2.817401174130871,284
-61.41345935832781,84.04765391434802,-7.451898554224445,59.57219537682628,61.024862779997456,81.198573705733,16.540162018725038,-122.09645605645723,-90.0,6.000000000000009,-14.480714606686062,15.725488325530367,-8.128191119779638,-2.1952133430536036,-2.247284270344131,285
-57.33629128188494,84.69811725043976,-7.087030396298872,61.55179834436423,61.49377004779401,80.8755687633181,16.5512391853853,-122.11645034108008,-90.0,6.000000000000009,-14.508220365690608,16.01774786348456,-6.310469823720469,-1.770028576615939,-1.7251706342091224,286
-53.439816339783206,85.27233620688466,-7.066880751392962,63.48341341225322,61.85644344232389,80.58815904168587,16.425915756989802,-122.25630749764517,-90.0,6.000000000000009,-14.578515920261198,16.394577536219437,-4.663661252378707,-1.362385209331089,-1.2651118485825779,287
-49.74861656658211,85.80686780375528,-7.281951302740725,65.30623321913518,62.3322675858099,80.26046848407505,16.20259865431033,-122.63550456996987,-90.0,6.000000000000009,-14.669870033562686,16.78492981370059,-3.1208907453522183,-0.9482109220059463,-0.8411925926078737,288
-46.33733663566262,87.43532308394406,-5.465940894867576,67.23985253685444,62.84314696454502,79.95211449996964,16.09127861162815,-123.0843438463916,-90.0,6.000000000000009,-14.726634890560373,17.10469047793943,-1.6146899453538437,-0.5071145470572697,-0.43107916288589,289
-42.99289970093154,87.895702155798,-5.7954837040517795,69.42552231822489,62.935600930583796,79.82574634322775,16.35483839985429,-123.2359623932947,-90.0,6.000000000000009,-14.703568087192528,17.2677360572837,-0.1565510652138042,-0.05024914671663567,-0.041144761479844284,290
-41.41721351046711,88.04847368262512,-6.012250250891083,69.98185530875028,64.27532282000689,81.42652079907977,14.837614636284796,-123.8847988081094,-90.0,6.000000000000009,-14.567083342357682,17.483662127192705,1.0438833234282612,0.34244307521306516,0.2683667365598865,291
-39.91186810257169,88.08743718392347,-5.664760942423132,70.81153163405064,63.77669708933659,81.30840140573699,15.62546734393822,-123.5330094835801,-90.0,6.000000000000009,-14.168196742017734,17.230401586899134,2.4549974882025367,0.799655293073418,0.6037784190515044,292
-37.959352975283466,88.24250770209841,-5.9608385038341005,70.46509519194511,63.980113896877086,81.2066815111144,15.791414916466403,-123.64195853520316,-90.0,6.000000000000009,-13.75966822074886,17.35261171420295,3.4370036412013723,1.1328707399030518,0.8098537450127514,293
-36.51754350235726,87.03775547098314,-7.95853888164628,70.19501108519694,64.0770758720483,81.18161493302814,16.450691698369358,-123.77294425029243,-90.0,6.000000000000009,-13.271320106391098,17.24889209246813,4.578040747090749,1.506310966204165,1.023290106196552,294
-35.86472812062414,87.007056763206,-7.727321567360621,70.2464801401598,63.94492698566354,81.2442989919813,17.27746498436411,-123.74495376381222,-90.0,6.000000000000009,-12.817009014402108,17.059802299643223,5.683399196116547,1.8559824276913524,1.2063385942518845,295
-35.49103854205172,87.07404373694354,-7.6713145093869874,70.40174662811347,63.89103615967287,81.27888958539721,17.829692813795056,-123.74523942712963,-90.0,6.000000000000009,-12.544193694805806,16.955620221954266,6.500363176792468,2.115662311726386,1.3331714528001637,296
-34.932532568841395,86.13498104849936,-9.926489577705752,70.4232643547425,64.22217208043436,81.12201026105703,18.0391629575801,-124.14400128117697,-90.0,6.000000000000009,-12.555603470406888,16.90667071853003,6.996763584078763,2.277275317670951,1.4272161431696635,297
-35.24529540261318,86.4445261090521,-9.82211270363773,70.73233461053525,64.34081810986683,80.9013339850182,18.331390883946607,-124.33026069629325,-90.0,6.000000000000009,-12.522372043510318,16.681865369453995,7.3709156405383744,2.3711374330757473,1.4934021890298814,298
-35.61989787941362,87.01367756157012,-10.027738230023107,70.7577765893266,65.52469083891478,82.32742270112499,16.582031862991556,-124.73020345885993,-90.0,6.000000000000009,-12.485941447810921,16.58900987621275,7.28041432568263,2.3269088270833937,1.4728138309729504,299
-35.948201319277324,86.48156302016116,-12.346933051398226,70.58594482754407,66.37888313887699,81.89876439619727,16.300551210310584,-125.26417728433798,-90.0,6.000000000000009,-12.364106259931997,16.48630302390457,6.902170246303461,2.185272569487474,1.3887786240305207,300
-36.75686765262143,87.10706103238199,-12.4744511994446,70.34302323252412,67.14989029480599,81.54631974532069,16.075242325390878,-125.56761500749063,-90.0,6.000000000000009,-12.213519194192914,16.35875362953386,6.445819141203181,2.0170571595956726,1.287962849055666,301
-37.62719265777468,87.72928679968047,-12.66623798835969,69.99910216160478,67.69188423209661,81.29940594869514,15.739932704156917,-125.72982210282053,-90.0,6.000000000000009,-12.169726652103826,16.283189016140927,5.850833663174483,1.8152561633576227,1.1740552494702738,302
-38.438644732719425,88.40192005796136,-13.125556025866086,69.71994915694034,68.24709996816179,79.21416530520823,16.757278249201754,-126.30946260665019,-90.0,6.000000000000009,-12.2109937604843,16.355700264950226,5.044481179524119,1.565011291159957,1.0264380644555424,303
-39.87766780572027,88.85959068640352,-13.214926690779256,69.94936385317695,69.1125572077866,79.06151330125219,16.578049910115347,-126.5316476539672,-90.0,6.000000000000009,-12.045622848419862,16.250043287636235,4.347611751484364,1.332753150296464,0.8797526257798665,304
-40.97110836568588,88.07721762352081,-15.511617640652931,70.22946566075098,69.97812442391673,78.96941451032076,16.24865433893912,-126.7651443498022,-90.0,6.000000000000009,-12.006759286448032,16.215305433503744,3.5087308846690726,1.0674011711143128,0.7151829176244655,305
-42.362535995271344,88.50488514136588,-15.745155413239027,70.50417157685158,70.81864787685393,78.80658545616176,15.784120820336923,-127.02441388975812,-90.0,6.000000000000009,-11.980227145799349,16.140243935243383,2.565041169652214,0.7718258936907708,0.5278529822959402,306
-43.78373905215644,88.9222212072325,-15.963597420050487,70.81231857069255,71.50403257285453,78.74274626558838,15.417808479536165,-127.2299963978171,-90.0,6.000000000000009,-11.986989161425791,16.000953060849508,1.5355783374406198,0.4548521812985349,0.3202257529950278,307
-45.244686575215034,89.27964231705383,-16.215562902601334,70.9877171028669,72.39263537599702,78.76253125079691,15.09747582465991,-127.43298294733981,-90.0,6.000000000000009,-11.971173458055826,15.883435498365793,0.46133500608418054,0.13461451042517797,0.0973000078203016,308
-46.91614848436198,89.5405576970001,-16.370049153526864,71.47701768470026,73.34736903824499,78.6784975405728,14.75774950695925,-127.60026311739753,-90.0,6.000000000000009,-11.916277309126235,15.677452914502616,-0.5932276946067826,-0.16945938961577334,-0.1260277277504082,309
-48.480835830250655,89.89444260781958,-16.645866122076022,72.2287262975965,74.27157151070817,78.45626822188343,14.192644029524075,-127.99372224070609,-90.0,6.000000000000009,-11.995414836549163,15.407440425041274,-1.7769261570388686,-0.4942273931240563,-0.3848892493831657,310
-50.1463293162567,90.2752494282708,-16.7990464285332,72.85295818432463,74.48781789805327,76.37208829075541,15.355767699244836,-128.33989211722576,-90.0,6.000000000000009,-11.980901242218469,14.95907426514609,-3.0055002713081422,-0.802556812778618,-0.6580074338608554,311
-51.77207092493568,90.52650600749791,-17.023626159806433,73.20279145754395,75.47135887895983,76.21104945437439,14.845897908921312,-128.78147131037332,-90.0,6.000000000000009,-11.901106984399403,14.581714298176104,-4.3038167012024,-1.1066712199582809,-0.9471057188212811,312
-53.52163958156923,90.59331763712055,-17.237807115082596,73.67167475687248,76.56873028708306,76.13097977133879,14.364103825282632,-129.27075373593792,-90.0,6.000000000000009,-11.81425520490895,14.249803301814909,-5.537572890028157,-1.3748985394315338,-1.2225809031216046,313
-54.93150387514459,89.36174790604552,-19.430808675095072,74.2062347832933,77.43786842997348,76.10110628239855,14.004519847110435,-129.4781125794047,-90.0,6.000000000000009,-11.637000148587635,13.844796984636359,-6.743360364580817,-1.6061940101059358,-1.4806351928647408,314
-56.577138176495005,89.33727109252652,-19.764684223435534,75.27946979657186,78.40935491973754,76.0926288436401,13.497874475129239,-129.90998952390515,-90.0,6.000000000000009,-11.762207245423564,13.501230014703681,-7.988647433593397,-1.8303945946479725,-1.787846714014804,315
-58.18666562063116,89.31289487162483,-20.153290065281112,76.24487548156036,79.30946575888889,76.05832235917362,12.88969688223977,-130.34131432186345,-90.0,6.000000000000009,-11.820026953911507,13.099385614309924,-9.359694897555727,-2.04710023454551,-2.1225397248637643,316
-59.5240055753456,89.23249396412297,-20.650214076997482,76.94309741284069,80.22486323695021,76.08487589550407,12.14833149777701,-130.79847469653015,-90.0,6.000000000000009,-11.890850248664442,12.76999502128791,-10.793623246030043,-2.261170448063778,-2.4824567996624265,317
-60.89452484013785,89.05171603873949,-21.08181046944406,77.64070300290969,80.80439980095636,74.26319619051418,13.044395804691915,-131.13320495482063,-90.0,6.000000000000009,-11.841312650407579,12.428182053754583,-12.137808099927652,-2.4318534260476405,-2.7999896905760893,318
-62.38221047326865,88.82810767652744,-21.498795549614943,78.53168871550304,81.83696929172287,74.3068338735667,12.381379942411025,-131.35914342653228,-90.0,6.000000000000009,-11.708377985209614,12.026307889018995,-13.475370199934337,-2.564285127198311,-3.093505290879845,319
-63.651041529869495,88.6063265669775,-21.941781276703324,79.39291061652834,82.88232970729705,74.34202565945513,11.647814684678332,-131.65034517321624,-90.0,6.000000000000009,-11.603165554424024,11.583470074526476,-14.877968573551636,-2.6691734091552552,-3.4034355168169426,320
-65.20330543456924,89.67818037197468,-20.44483555895827,80.16046837177704,83.88328052587318,74.38097762014397,10.832690632914748,-132.01787401365894,-90.0,6.000000000000009,-11.542654444376954,11.158344001326963,-16.295788667683325,-2.750931323101837,-3.7250207620303173,321
-66.31942128121705,89.35127052505459,-21.01596260533607,81.12287210484762,85.03129704545198,74.46500093420018,9.872504292755199,-132.39723390610087,-90.0,6.000000000000009,-11.472776580366304,10.787676207639114,-17.758272114443585,-2.8270368107033503,-4.053047134600046,322
-67.40657520448667,88.91628353985814,-21.654980741437956,82.08704480619855,86.33746899451339,74.66017914769,8.807319178145434,-132.66986544564983,-90.0,6.000000000000009,-11.310865328171968,10.436245461036641,-19.33696092966614,-2.899960742111666,-4.374731308904516,323
-68.28450179850908,88.46467769674268,-22.364245657066466,82.96637964657428,87.72577648948378,74.9544231086406,7.651355942049429,-132.97664512210957,-90.0,6.000000000000009,-11.165641217647375,10.086316825027993,-21.026780229637428,-2.9566743363606776,-4.719626696702573,324
-69.12166782892587,87.95373743113235,-23.084464312153205,83.88806624015825,89.44150994066037,75.38610408648265,6.465057597596863,-133.6215457565082,-90.0,6.000000000000009,-11.033753340565736,9.7518898175502,-22.708886129469295,-2.9890592744515763,-5.05826244097929,325
-70.83133798488963,88.47560865499202,-21.682890128865342,85.10983964071684,91.38306747512088,75.97643279142332,5.434546024355496,-134.207095215116,-90.0,6.000000000000009,-10.69952606004394,9.459057847546001,-24.20364061986984,-3.01348792438724,-5.25879589483753,326
-72.27551905378712,87.46518449598413,-22.045853188316894,86.76097396432586,92.7995988372353,76.52955762048269,4.673941641847792,-134.26791779442465,-90.0,6.000000000000009,-10.289107382756908,9.150897051907721,-25.48746679345847,-3.0071410786396306,-5.355507904905686,327
-73.18832661810497,86.77638885976536,-22.691815741055745,88.20414565435667,93.86584931657009,75.06667279985855,5.045462179653592,-134.19254037191362,-90.0,6.000000000000009,-10.045484030369149,8.812233464060089,-27.046794978457157,-2.9754662979990973,-5.567990327697842,328
-74.20066167760649,87.75043871015195,-21.692664150198283,89.15178993837816,95.50414938618616,75.53621129162627,3.45747827297046,-134.5539967782876,-90.0,6.000000000000009,-9.960943658486906,8.402744895535395,-28.935906015494673,-2.886164905177741,-5.906144124219727,329
-74.67683627000086,87.14359606460536,-22.500925804603995,90.06033850471633,97.25210191214063,76.21790881551968,2.0203015317079527,-135.07491801718555,-90.0,6.000000000000009,-9.799054644208425,8.029645940464707,-30.74266313376771,-2.7883138643138525,-6.175532711638667,330
-74.88186377128548,86.40816300242935,-23.060142266608537,90.96739092078442,98.81498006338562,77.06127841152637,0.8920169830773693,-135.47111517344615,-90.0,6.000000000000009,-9.567642318182262,7.7883198213005835,-32.290062430226804,-2.7388026980690863,-6.352342060854251,331
-75.20501937159464,87.28187662597759,-21.572592312279887,91.81371689591938,100.21417763875952,77.8135263372682,-0.21000543298532715,-135.48406931331309,-90.0,6.000000000000009,-9.338439766409447,7.626998174278311,-33.64985391991982,-2.7170815687228385,-6.487806450118363,332
-75.32140775061512,86.82915572118486,-21.814325797020537,92.62000395736423,101.39829710112404,78.23016442275771,-1.204490253816935,-135.77586574360132,-90.0,6.000000000000009,-9.193544315881654,7.108383816466054,-34.95299459296177,-2.4639230154299803,-6.585013880578799,333
-75.87877329068615,85.95705140381749,-22.00189445355327,93.768181042324,102.28508837867722,78.65063437560393,-2.0914023111446256,-136.35478019970347,-90.0,6.000000000000009,-9.014165910363735,6.646418033950821,-36.200767306023955,-2.2298177062146136,-6.6427485706671,334
-76.65278998153654,86.43707901484163,-20.502474876537164,95.19283878373086,103.15342920361996,79.2853977165695,-3.231442083677752,-136.41208345043165,-90.0,6.000000000000009,-8.668569960080516,6.606288845941289,-37.49240231493144,-2.27305100358824,-6.6729643864969415,335
-76.92381550189968,85.6725988208311,-20.78545097845236,96.3939422319509,104.0080285396418,79.63327952570843,-4.387087880520396,-136.79699863230147,-90.0,6.000000000000009,-8.4741989870459,6.3015672336248985,-38.73268017463464,-2.1182738148032114,-6.719512330904368,336
-77.31083178212943,84.85950559796862,-20.864978066906467,97.889731208608,104.72353624651623,79.82607304540132,-5.386983772757845,-137.13384211214543,-90.0,6.000000000000009,-8.347782978399456,6.002744531749857,-39.72410846101151,-1.9450380673489616,-6.752288916230098,337
-78.12177714565355,85.71227461599253,-19.09932296302977,99.17407210814885,105.29750509368107,79.83250586518581,-6.4615245332691265,-137.49785326845395,-90.0,6.000000000000009,-8.245722347135407,5.681896103778439,-40.674129275557846,-1.7440243974428016,-6.7786338065564795,338
-78.50203646443923,84.92422382027405,-19.14380782543195,100.27162026205492,105.50911997641512,79.69219173371103,-7.4164568703487666,-138.19506902474683,-90.0,6.000000000000009,-8.17770850988838,5.363001558064608,-41.54388609661579,-1.5292763620655347,-6.805165632757538,339
-78.93662523282751,83.90856126097424,-19.19071996662298,101.86136329608796,105.52207264945609,79.63693371967295,-8.315143495695526,-138.57209313132736,-90.0,6.000000000000009,-7.968315235583906,5.322134931881724,-42.317695776099754,-1.5353561368795108,-6.781952522131123,340
-79.7661954109875,84.66049938190929,-17.540952726515254,103.37083245657658,105.88520428073488,79.5420290319866,-9.52636578279066,-138.9060222009571,-90.0,6.000000000000009,-7.782891512960909,5.248509279854194,-43.18334295420736,-1.5113111336773657,-6.7764937447149824,341
-80.13443195113962,83.94932167011326,-17.630266374669297,104.6687698765772,106.70050733279662,77.35319179732154,-9.405198566933713,-139.4915668378675,-90.0,6.000000000000009,-7.7382747977068,5.002842679621138,-43.98661373846239,-1.3290962655811318,-6.807187988007054,342
-80.66888309393616,83.05037452819535,-17.620668326586294,106.105502937604,106.7347978917663,76.93449639453169,-10.435930074785654,-140.11714332121056,-90.0,6.000000000000009,-7.713644049425041,4.798893011233547,-44.66323370426771,-1.1694685114162078,-6.838515760884516,343
-81.42317304692278,83.78425831783524,-15.95282344038201,107.4967299078731,107.03610974076764,76.72898928244426,-11.682288715039073,-140.57711675451426,-90.0,5.822587789074136,-7.576333653116386,4.784788813982117,-45.43014873084327,-1.1722494000137473,-6.853635380140433,344
-81.63912290134999,83.00670857870898,-15.877214233356082,108.80506183616649,107.43648161453073,76.35434754573463,-12.908502195630566,-141.05165047164525,-90.0,5.6315061159628526,-7.577786907736067,4.712052268348852,-46.00093840696341,-1.0981892023706765,-6.920001531061929,345
-82.19331638120475,82.16223748155592,-15.576708342787725,110.19096623803146,107.44225527373668,75.68967148117713,-13.753489965560464,-141.70850667059193,-90.0,5.554714112339506,-7.745184672899971,4.544199547168847,-46.256526174116615,-0.9144529486720243,-7.030944361292832,346
-83.35146519927393,82.82327474695842,-13.581601836359539,111.71271303807892,107.35634784394483,75.19956675932295,-14.415118930908513,-142.24046813761993,-90.0,5.38732187102883,-7.791868704506201,4.462146374826425,-46.503243120050755,-0.8291036964904485,-7.077625390846982,347
-83.92580157666222,81.76991087979329,-13.493040643738809,113.08846833032527,107.61379524110696,75.10401065742838,-15.176995231494203,-142.67656387293098,-90.0,5.139986832894838,-7.709415027926141,4.465231749777243,-46.93578263385279,-0.8376412941015496,-7.082335554959734,348
-84.89290287181554,82.1270829395761,-12.014418194530794,114.42145721686609,107.84543606841966,75.10897217659465,-15.77763994832725,-143.06944517753038,-90.0,4.884651241844056,-7.617418299739624,4.471345933332017,-47.330938101118534,-0.8536208178704372,-7.074344365675846,349
-85.65591507853973,81.13749768630574,-11.716954995804597,115.86644944047838,107.98157279082554,75.16557648822081,-16.25974852758512,-143.33658891832852,-90.0,4.545577954499919,-7.517586922727728,4.531645428899263,-47.678292955422066,-0.9154186433468692,-7.070020385305697,350
-86.37689493747979,80.10563270352785,-11.353085964273358,117.24657317764924,108.54153346498784,73.53696232028389,-15.287119679165722,-143.59150605880265,-90.0,4.117747965289792,-7.483110123375319,4.686790972475451,-48.03312362219184,-1.0279084739153797,-7.147060772638298,351
-87.17712845380574,80.84958597732835,-9.468929599118475,118.37163852072248,108.79059262692799,74.21107160077192,-15.493160547790831,-143.77565244942875,-90.0,3.6945078714476667,-7.423564654201567,4.955436899403655,-48.45386572161349,-1.2333689040804892,-7.2537185501430885,352
-87.76465973725064,79.91250313711485,-9.117562543429187,119.47691441296094,109.21655226178075,75.06163388114712,-15.464068288276529,-143.8491236839842,-90.0,3.3357045927246656,-7.316456872822456,5.2127295321134985,-48.74483144669813,-1.453734744734479,-7.302384057579302,353
-88.45568688141117,79.06060042661802,-8.698192037465962,120.5777465638513,110.14755253193928,74.11661797740328,-13.94288918578986,-143.82796255149168,-90.0,2.9716437139176866,-7.215196052468512,5.433447114189022,-48.988943871899984,-1.6479423752384867,-7.337053206766361,354
-89.01873379307796,78.20703656402837,-8.36169588995136,121.53859771296845,110.83154076667435,75.28297632969381,-13.79359008441849,-143.83738337349988,-90.0,2.6971955498632116,-7.160100310086551,5.697558570261968,-49.33115740713594,-1.858446292704309,-7.438453845292008,355
-89.53510429269586,77.36682520613374,-8.028545897404324,122.41184657599203,112.28846652675536,74.66993427707382,-12.364198487276324,-143.8477427336885,-90.0,2.5997847650058175,-7.094944429848783,5.941876486101322,-49.676084911046885,-2.059346481640284,-7.527468858075363,356
-90.6640617867066,78.53290786416686,-5.795493974117501,123.32559054211082,113.24668008206022,73.8523868994827,-10.527181183010647,-143.84000549766444,-90.0,2.6889172599723343,-7.078320556006952,6.136635864661374,-49.80678948058688,-2.212292703226563,-7.603717297787041,357
-91.3827816225369,77.79407258370635,-5.325696407811233,124.25939173808442,113.9366656394949,75.1562631328128,-10.039263883469161,-143.68290954536215,-90.0,2.7255208849019423,-6.97098192311242,6.454204731775724,-50.02831621061733,-2.490948295022202,-7.66832853780878,358
-91.9393468208929,77.13596442058659,-4.942301140886474,125.03619197006458,114.75276283219102,76.51661116031866,-9.573327840546423,-143.5377326978946,-90.0,2.897689798067625,-6.927153332190531,6.78283421696769,-50.275264886433185,-2.7574252138510085,-7.792072222506184,359
-92.74457667948008,76.60838755244126,-4.376462223606976,125.69319083146499,115.64552275344712,75.87423927169102,-7.50848562110338,-143.40894498603737,-90.0,3.1248269959659494,-6.93459768230601,7.0678019648162245,-50.410158636187504,-2.975070421917794,-7.922799141972419,360
-93.4514157630936,76.00159196638565,-3.8886921583622405,126.33967711512788,116.30756063570888,77.19584434879371,-6.894423233642363,-143.17476657850128,-90.0,3.336374601217538,-6.8645027087910595,7.4647355892508465,-50.59046061247257,-3.3084281642899396,-8.04224475020064,361
