JMW9912/AVATAR/Dynamixel/dynamixel_control/data/csv/poppy/.data/waist_test/2DoF (2P)/0409_2042_13_18_one_waist__poppy_motor_degree.csv
theta1,theta2,theta3,theta4,theta5,theta6,theta7,theta8,theta9,theta10,theta11,theta12,theta13,theta14,theta15,frame
-94.5194329072257,21.299828405713292,94.57194978447329,28.298822862089594,0.0,5.938163909622634,-76.02552246165554,-28.298822862089697,11.949525018099951,4.227855492074081,2.8051766135533356,0.736096783755453,0.06106657397293583,-1.5574253403185632,-2.1207448039576726,0
-122.88438626637463,92.03138023468996,51.528597129243465,28.298822862089594,41.75539620616944,102.3657344065258,-76.02552246165554,-82.50835120662283,90.0,6.000000000000009,1.710294439704166,-0.6507424253260541,0.14296101948450518,-0.464323372604364,-0.7334739441429222,1
-107.04796499098052,65.20671673115554,-1.910651054991116,28.298822862089594,44.74752225957572,56.72474468413157,6.786976857259801,-82.4538298617624,90.0,5.758163456354852,1.5676611299321137,-0.5610153349652652,-59.268731278319095,-2.859862956728699,-2.1564854632193553,2
-107.23889700382915,66.16937855617982,0.6615417813013709,28.298822862089594,44.341674608049885,55.350079794109185,8.868151936684116,-82.49407850048723,90.0,5.369641274067865,1.4589474168923193,-0.44632427025609905,-59.47765954277219,-2.950577456457164,-2.2550443331884793,3
-107.3946239519733,67.120391209854,3.2999416236770736,28.298822862089594,44.31985002772007,55.32710170877504,8.817283631615496,-82.64218612472816,90.0,4.985252643564808,1.395978443000698,-0.31449160719175895,-59.72119466950342,-3.0895848254845157,-2.4345387440074693,4
-108.05012165393767,66.31360102729583,4.585839059244884,28.298822862089594,44.461109399195074,55.46957044936127,8.852298531447163,-82.89611137334808,90.0,4.639048549335143,1.2828737943240243,-0.1821071586461434,-59.92159406319666,-3.164574332915454,-2.6192800050891853,5
-108.72278639331716,67.41747745439405,7.188920207619296,28.298822862089594,44.94586397790014,55.80565113230422,8.697574076937254,-83.2610949009286,90.0,4.318567866548605,1.168026577531999,-0.02882702800584361,-60.169826804302936,-3.2493287283507786,-2.671011276454871,6
-109.52882110515601,66.69959698732845,8.22921167174028,28.298822862089594,45.406258426683436,56.00261775248567,8.399852464964995,-83.52875487175064,90.0,3.9325093738680272,1.1537600669623418,0.11154764131094298,-60.47103475947307,-3.475519012847918,-2.709320897184699,7
-109.92984490377016,68.01098921581037,10.506926977184833,28.298822862089594,45.93186768429771,56.065153921604924,8.089995357759845,-83.87147167794481,90.0,3.536214689675498,1.1377648620558296,0.2895639982148828,-60.75409226068733,-3.667045307054892,-2.88896313467501,8
-110.99273389397645,67.44683797311103,11.725445398875284,28.298822862089594,46.57546431127939,56.19016934858426,7.7688091191039845,-84.5345651400072,90.0,3.079851040550859,1.1038419956007928,0.46789241100563356,-60.962551951022604,-3.8836468721205892,-3.0686812125135323,9
-112.18543595261355,68.7381393276819,14.52565445118372,28.298822862089594,47.18609116444374,56.46815300067835,7.479714087465465,-85.1008568943943,90.0,2.6492791424404665,1.062144674077792,0.6413005476805611,-61.12121936796832,-4.076317469511413,-3.1315050170392293,10
-113.36024260949684,69.92773142217563,17.119181124279027,28.298822862089594,47.90772226454663,56.812274430260004,6.989957599307294,-85.4201310855954,90.0,2.284825318352512,1.0258756135006395,0.8201777161546201,-61.41393812911067,-4.280063280776576,-3.053494614261989,11
-115.0694496205762,69.40015944826708,18.238790804563173,28.298822862089594,48.752697062722774,57.1020239162006,6.442493569263735,-85.79246478671234,90.0,1.8970398696491235,1.0394174964335916,1.0010854284112545,-61.769182580893805,-4.546435902226264,-3.0336461664672085,12
-116.20765255765724,70.83427805110799,20.693937811129132,28.298822862089594,49.79850431936885,57.49422349594091,5.960375481589812,-86.46482297357969,90.0,1.4831357449366058,1.0494843304552104,1.1895984384710043,-61.96789544751695,-4.791024019113185,-3.049419002389112,13
-117.67761178884433,72.4806513763752,23.155620436174086,28.298822862089594,50.80499206231708,58.03726633468451,5.671123199678598,-87.22722699958656,90.0,1.0529464110490663,0.9730310754223159,1.3534017237951956,-62.043816237614365,-4.9651711050768865,-3.0346666559092705,14
-119.89701317936078,72.33113767414052,24.14867135061833,28.298822862089594,51.73294303368482,58.54513788795301,5.271239500182646,-87.76046418618117,90.0,0.6515508195530731,0.8706234271909016,1.5126314005160595,-62.23695296709531,-5.13040372753125,-2.946220399594875,15
-121.08701216958198,74.04558368530041,25.92391032518259,28.298822862089594,52.57644015021048,58.91395863753519,4.77445641228909,-88.03274150983825,90.0,0.31397512887503115,0.8131683341710415,1.694699994789774,-62.49878703206546,-5.338317781975078,-2.910109061023059,16
-123.26759075209986,74.28595349892329,26.281829344530813,28.298822862089594,53.445742274644246,59.243330415398425,4.410163912253044,-88.42225494368846,24.737704121125745,0.016620630020064853,0.7537505042446025,1.8864978558326362,-62.699004886743126,-5.546396797106553,-3.012606695767293,17
-125.45509251921644,74.55788637780357,26.55637236987587,28.298822862089594,54.375326651365455,59.626101036050066,4.07220051291594,-88.98171620063313,14.171694863070144,0.3548542104453811,0.7285335293153462,2.0272611994555203,-62.891390758372175,-5.797414244572161,-3.052854294173091,18
-127.6737921799984,74.85616110971395,26.715610993900476,28.298822862089594,55.03662795132961,59.935284841846936,3.7605792662992377,-89.18804762969638,8.043613758747165,0.5306488973476119,0.7809433049140684,2.112553765049518,-63.03604381216212,-6.032279344809643,-2.995279932199561,19
-129.1311343038777,76.42672581416942,27.553663627150673,28.298822862089594,55.41143874639731,60.00431807042467,3.43360780464268,-88.98217208019412,9.277308703444348,0.5341436859451015,0.8986162707135918,2.1643159793883116,-63.213803734268765,-6.217242469682845,-2.9729408530539403,20
-130.84243634947677,77.28317091565934,27.613728276349157,28.298822862089594,55.651171685301776,59.996862627327,3.1892749731950367,-88.7724977027687,15.238334496616842,0.42981519284578834,0.9620138424492042,2.17102664510392,-63.37340633170901,-6.287361386364662,-2.9476583523294266,21
-133.18515543496412,76.39821942226158,26.377560510995632,28.298822862089594,55.882256420130766,60.06277537550497,2.8509254056504063,-88.60913793394471,-7.912989598962112,0.21290885830207887,1.0220778192921147,2.172095780064018,-63.47937356371516,-6.349938721567272,-2.7864616175291745,22
-134.37662353479487,77.04755297773409,26.3979433249536,28.298822862089594,56.067467442895655,60.059852850022324,2.3801323885846166,-88.23457158713296,-90.0,0.27763879524358454,1.1987696403104078,2.2207609981326537,-63.56508093123458,-6.512502422148787,-2.640443971873631,23
-135.49231087604724,77.79125671448925,26.371760589399376,28.298822862089594,55.98838901876389,59.8437892444706,2.0173920388702147,-87.56918624326478,-90.0,0.520746502655591,1.3645897737189778,2.3133142115258765,-63.56216620392997,-6.63065582419491,-2.6859555647088538,24
-136.53359957089938,78.46891012091056,26.352835152561543,28.298822862089594,55.66681637758087,59.42981470941025,1.5984503823842278,-86.71788592674076,-90.0,0.7787560492122335,1.4270683940795257,2.439782137156387,-63.557578739165955,-6.674519381656662,-2.8162907904849486,25
-138.41891026988813,77.29309140329154,25.186015654465184,28.298822862089594,55.196187229071526,58.9344156448178,1.1954413286643384,-86.00994954158783,-90.0,1.0322459434075384,1.48531857335304,2.56023705385622,-63.54787223944452,-6.791723902382678,-2.968994518140306,26
-139.24997834627897,77.76868828657275,25.260881002403433,28.298822862089594,54.762655450622454,58.583304578676284,0.8175309803218654,-85.46483369424347,-90.0,1.3580284869967936,1.5470650769276466,2.7166533458874143,-63.53953797177232,-6.912168729427062,-3.041831397194541,27
-139.71577572015207,78.28933065735944,25.167517826243365,28.298822862089594,54.33173864995895,58.32824735853151,0.37177261206300305,-84.9336219660351,-90.0,1.7191585171648565,1.6253895937342302,2.903959335239245,-63.511342368434875,-7.090624811137436,-3.0250305181600474,28
-140.11327434775706,78.73291292852792,25.134449073033142,28.298822862089594,54.00408309135274,58.001064929954076,-0.11774214849072992,-84.61306995177965,-90.0,2.063973008972125,1.6612683053016726,3.115061331727397,-63.454705807291695,-7.244589146334762,-3.1003806661660707,29
-140.58959409820417,79.16389495069507,25.358917866080173,28.298822862089594,53.55528145454281,57.75120369756625,-0.35531786647946334,-84.43976547897998,-90.0,2.315730602168891,1.6421822689568146,3.3451932611088533,-63.239519576803836,-7.377874413628734,-3.243362701390995,30
-141.80549398827108,77.82175596832846,24.390354063354675,28.298822862089594,52.96822873009407,57.58363853437025,-0.5552362596142851,-84.32416053012194,-90.0,2.5721335240158787,1.5939045984218414,3.589831747403505,-62.96292741570669,-7.534354805793279,-3.3039436971569676,31
-141.94183582809137,78.23035711589364,24.525718517180803,28.298822862089594,52.25307345468301,57.29263853690022,-0.8487569137142171,-84.17902022252082,-90.0,2.842702358503827,1.567443833062302,3.8278392660239047,-62.73513942298905,-7.754898447561299,-3.348020388297029,32
-142.38975062575835,78.42913852865028,25.088185018702568,28.298822862089594,51.55823550202767,56.98804899576845,-1.0932652176770277,-84.09446746598722,-90.0,3.1145171060304144,1.5000622324291595,4.077596307954318,-62.45909081707045,-7.939067531866873,-3.4515934873944616,33
-142.10877827377706,78.97889775680908,25.00225900634467,28.298822862089594,50.955334792864356,56.75381160080216,-1.2929051766348847,-84.15979229375552,-90.0,3.358883483239031,1.3883764504565714,4.348986802747341,-62.129133176437136,-8.123121955410998,-3.607325304878188,34
-142.44811653775312,79.35297166538905,25.564592449151448,28.298822862089594,50.41034476590139,56.506636374163435,-1.5520176403814963,-84.3331951324504,-90.0,3.460689299826402,1.2429675259857325,4.667274521165639,-61.708786217246505,-8.314914779925779,-3.8195534751272935,35
-142.69519923509213,79.78716795633513,26.16614682861788,28.298822862089594,49.73564583305904,56.18852596932173,-1.7074493279470033,-84.53345956611511,-90.0,3.451153442073914,1.1063612105609077,4.982496995565234,-61.191487501553794,-8.563018253272253,-4.11783316433293,36
-142.45845607459285,80.16290847119424,26.478581428686145,28.298822862089594,49.02035624114636,54.524124505948635,0.22373632890080408,-84.68368145706374,-90.0,3.5561916936268503,1.0263026135948947,5.252113628895187,-60.733362855591345,-8.87355385128023,-4.379707712426966,37
-142.8565550344222,78.69685282561292,25.247746422477938,28.298822862089594,48.73000795225657,54.46704097950445,0.028139341054077668,-84.98539486081268,-90.0,3.8351941879493516,0.9559141456727809,5.500958779252625,-60.43317480973028,-9.140194935336142,-4.535163925604342,38
-142.86615642898295,79.23151523307804,25.4485519702499,28.298822862089594,48.60818912121485,54.557782716244525,0.005672736428211392,-85.40991024729009,-90.0,4.019214867330392,0.90924902925968,5.755427218054154,-60.01374314641441,-9.415128790656375,-4.7840443055598,39
-143.01455914756704,79.69622206867983,25.763799854221503,28.298822862089594,48.601566654385785,54.78100359188461,0.06866066570369733,-85.8017145089582,-90.0,4.196793852840125,0.8514765628075041,6.00951322744685,-59.612407010448614,-9.663393147328373,-5.040649403624285,40
-143.04690112434375,79.96292496945298,25.996462748835967,28.298822862089594,49.16634350500235,54.985260340747196,-0.3412569517529066,-86.48898138874928,-90.0,4.367627657910167,0.6876845625865476,6.3089601884883715,-59.37495184389844,-9.822898600367896,-5.299114604534017,41
-143.93664596290785,78.6723329749969,25.012292073526257,28.298822862089594,50.26125233429481,53.85622584544092,1.1243562744297124,-87.7867270110671,-90.0,4.398681841563148,0.5113010374391215,6.666075318239832,-58.95561520739194,-10.023656447363175,-5.745267042342761,42
-143.91142763143594,79.37117210323515,25.32492450044044,28.298822862089594,51.39462181598381,54.52273928266219,1.1161589067943636,-89.2264668732293,-90.0,4.434247492942495,0.3541446435230819,6.948941110719955,-58.29675289209106,-10.226802375318684,-6.1432662405856675,43
-143.70476885183803,79.94860427070519,25.530179806211056,28.298822862089594,52.576605847654946,55.180631003828424,0.9930361969266732,-90.5636403052205,-90.0,4.517298437326983,0.23255218636712088,7.094844703046127,-57.7225721506347,-10.422537247366108,-6.309254810213753,44
-143.71208999175005,80.62362939336072,25.779996907480477,28.298822862089594,53.7919798893593,54.19926705963587,2.7748245132528484,-91.90329959338769,-90.0,4.516258780699829,0.11491029855377582,7.197561497209737,-57.082898219533305,-10.518866370436305,-6.495994231643146,45
-143.88689898944713,81.22847142983413,26.107058115589602,28.298822862089594,55.185680622170636,54.78061753081226,2.69324859784902,-93.32506322834817,-90.0,4.583559819967426,0.010877204584810037,7.255381699342054,-56.49080238412896,-10.57593526644579,-6.635727476565885,46
-144.701573532308,79.85368375328166,25.077892728052277,28.298822862089594,56.519776844427575,55.457789325738666,2.7008314798355406,-94.60518898711275,-90.0,4.743078011149949,-0.0625406541742621,7.141019146856715,-56.019803912311765,-10.621117202740836,-6.5041746691573,47
-144.75187374147674,80.14295996274568,25.30824215810247,28.298822862089594,57.87769467801116,56.11897488082814,2.8042473097728746,-95.77711368860284,-90.0,4.87558721193721,-0.17751865333078665,6.932009977896249,-55.62501776898068,-10.508114093556353,-6.284560328552577,48
-145.15835294585327,80.35783282726315,25.70603270402648,28.298822862089594,59.571112663282776,55.171023490102236,4.50841496377294,-97.1953294924125,-90.0,4.993923920638229,-0.3604936673417373,6.822186175922994,-55.29434743663582,-10.27977421495875,-6.155483096317527,49
-145.5175084696355,80.80785280948278,26.026750319773154,28.298822862089594,61.56538891037721,55.85587386531451,4.374575225295895,-98.69900054330327,-90.0,5.0333121993420376,-0.5015890612757956,6.795395298095828,-54.832467272467184,-10.129263740951094,-6.160929143605283,50
-146.41260345323022,79.74258615515873,24.725969610188425,28.298822862089594,63.296004926946004,56.40187949109126,4.582566523799331,-100.09664938803706,-90.0,4.9398437756341735,-0.6531744947744815,6.691261397918525,-54.26149916695201,-9.970864680922379,-6.256260979511571,51
-146.60106793724572,80.39266282863981,24.78963624475658,28.298822862089594,64.77279418277574,56.786412890199536,4.942067039613735,-101.2913849025516,-90.0,4.754453487254574,-0.819987384639591,6.493019590701655,-53.698723777676946,-9.765215336089303,-6.343473025243177,52
-147.13184474809935,80.88198612665302,25.000694346796607,28.298822862089594,66.17727993980506,56.5915121566464,5.795831508925872,-102.22952525059195,-90.0,4.558825586979337,-0.9941863500942406,6.323599843162319,-53.271466942393225,-9.501883345622694,-6.487825781690703,53
-147.55101189215762,81.02928183083277,25.197322121511316,28.298822862089594,67.82235999184803,57.21697962874746,5.271602367681614,-103.069880060236,-86.18988219635887,4.418365039469058,-1.2034838293706067,6.177886112178504,-53.076944328263096,-9.222825857361043,-6.66289083240548,54
-147.93771967506473,81.30596449895768,25.26157629653205,28.298822862089594,69.44903935006717,57.66096687867681,4.706807230992804,-103.7997419837022,-82.7941561817317,4.305811755557214,-1.3626775808858376,6.082759895478908,-52.87056676689638,-9.021208982749252,-6.928513626114885,55
-149.02903082724688,79.93441227854596,23.893208300862206,28.298822862089594,70.98950628321953,57.9298143437667,4.370910433527458,-105.21986558720323,-76.65783051695945,4.017623807672798,-1.883768508111191,6.042807970157659,-52.52264524329416,-8.465115089124184,-7.392233651653313,56
-149.0433773903019,80.27603107938333,24.330313357502696,28.298822862089594,72.07494415207016,58.77892394338504,4.109567049841039,-105.61691256677544,-72.35332918941921,4.512183644637322,-2.0109186633692504,6.0029425614774015,-52.007997101324854,-8.49265042698934,-7.171266617286129,57
-149.3405020234971,80.82196819993497,24.34715658643112,28.298822862089594,73.06516884922551,58.927052662365675,3.9965909944012945,-105.81912543643263,-68.70285979630131,4.444354946684461,-2.130762797734339,6.030996920748572,-51.59151245448475,-8.428080951305153,-7.625361636987865,58
-149.8301112479892,81.10508216327766,24.55476284151248,128.09683526748998,74.05705355966928,58.90008569220361,3.6793235955649912,-106.28761929807682,-64.82683453066109,4.468229223520474,-2.437948185047932,6.1522083352644845,-51.31758710832589,-8.237514257312409,-8.176855605624462,59
-150.1626878430703,81.17732335458962,25.051171555471605,127.59467884600035,74.86554805378931,60.71484571099177,1.531487465682805,-106.36686295681467,-62.01060297754409,4.8509204253575895,-2.733967300719862,6.300893385954595,-51.060487934776724,-8.18154024819276,-8.430692665573812,60
-150.3082989323277,81.2768041751292,25.329756037276105,127.13500667557096,75.11031109447046,60.47020382749582,1.2885690012778825,-105.84984919289218,-57.86684408646554,5.154778050598704,-2.9791790334002295,6.397377748038288,-50.84871399536173,-8.202195486213482,-8.773618604363474,61
-151.0860806372196,79.64001711005312,23.900548957658188,126.91520329217724,75.1566367394927,59.91297630551477,0.9609963560807914,-104.86761373392336,-54.208671545313074,5.437571708802749,-3.05671918147005,6.40510914855504,-50.826586905302044,-8.381448402419974,-9.169010009932816,62
-151.06544086357633,79.941687365261,23.508431242371618,127.0899561790426,74.96723196077203,58.90186073199334,0.7718425472863736,-103.2236048460951,-51.95838047723478,5.4831888848581745,-2.895683140545914,6.320731201435829,-50.806980846882695,-8.68763576568679,-9.718499525521498,63
-151.2481788081332,80.16909473558523,23.079613554021847,125.71469923552658,75.08172388227496,57.36359980776089,0.735993626013757,-103.48842652190552,-44.44358153193914,5.185640017073161,-3.7343385834829594,6.3247446053694185,-50.54429958123305,-7.84727060704292,-10.812685192013388,64
-151.33236610153253,80.4222069653872,23.85096122091708,125.53858987996384,73.91461747724034,57.14263215079146,1.037647184052359,-101.28703470915931,-50.574941915234916,6.000000000000009,-3.4840680297876414,6.124006466543011,-50.14681453477221,-8.443236778441783,-10.118111112836123,65
-151.57748491042986,80.79218004587803,23.2384925595746,124.38817363628067,73.3659662563064,55.28472872367099,1.4531168263534653,-100.24617489340217,-47.2352757756648,5.59829152677435,-3.7569754049904023,5.93684069249381,-49.90948631428219,-7.984304552242262,-11.121199139562616,66
-151.56674534952208,81.16126484027639,23.18129620117649,123.5875682884274,72.2132773803836,55.71751355576072,0.3227791366014157,-98.895388020855,-48.49033081779269,5.699236803437408,-4.006890980444323,5.692484978968041,-49.47077324212215,-7.71924005392427,-11.209795327725518,67
-151.40283896254473,81.4845714046579,22.931771159212133,122.8555482757211,70.53633485828556,54.22736183141924,1.2462147428257622,-97.27349740894122,-49.270594166077466,5.75837154462599,-4.257511904974033,5.409934110507597,-49.10294968730579,-7.41282196247659,-11.367197552759505,68
-151.3460684259649,81.65618495265896,22.806044099160776,122.11420091728358,68.61497425704391,52.77096519599982,2.3062906318288876,-95.57461826480403,-49.28617733881188,5.885149284108486,-4.4618542497953,5.1246154993451425,-48.82347486264802,-7.1083200828083,-11.441896796684667,69
-151.42557017307533,81.81622537018777,22.83750475029273,121.2894161499193,66.29492657873219,51.36873383303191,3.700886336405402,-93.62699369889962,-48.953974410247326,5.981103636509645,-4.544955887349487,4.829381186292161,-48.51291122781519,-6.876194029830034,-11.41250916474772,70
-151.78184482718515,82.01976371800914,23.00885327946492,120.29947914406543,63.42174524365896,49.96529128709877,5.609716509846863,-91.32283272309454,-50.06930323026453,6.000000000000009,-4.6033786200250315,4.498925261322361,-48.129448286367946,-6.601777117440557,-11.35350990338385,71
-152.1666869778854,82.16443632499397,23.162103315594436,119.49079845256891,60.56533976276303,50.14067400281599,5.6963155394780625,-88.81781976926031,-52.131141719784225,6.000000000000009,-4.711490871774035,4.259312067368058,-47.772445837074876,-6.230377778483717,-11.387227784336545,72
-152.24253807421485,82.309954690389,23.221176960473112,118.78690188245525,56.982177699902536,48.82858849961319,8.201176670333977,-86.05780185715169,-53.4810831122084,6.000000000000009,-4.803214206944361,4.0266754521092185,-47.38081137739066,-5.952897013483024,-11.478862535333333,73
-152.267480388317,82.41956606218415,23.371550953296325,118.13322665513006,52.91958342292545,49.16883289038708,9.231275738153247,-82.6319951640643,-55.26008588731667,6.000000000000009,-4.884825278975607,3.7116554994049995,-46.934412567706694,-5.671276303198879,-11.441892229032991,74
-152.29109381120105,82.34568594679452,23.576855813926503,117.5634501887354,48.20398288171983,48.36095201272636,12.691968265604148,-78.63001446662636,-57.28048198044516,6.000000000000009,-4.979226542904414,3.389797932469377,-46.57703769562216,-5.3423800796904715,-11.379642288455967,75
-152.13140926633184,82.14354171077154,23.78737675945613,116.94229001911336,43.5142626009051,49.11478246498672,14.180319411502987,-74.13521560805592,-58.17823276033747,6.000000000000009,-5.157735319567082,3.0348536028551516,-46.23140461806206,-4.96176289687509,-11.305145609192296,76
-151.92104222947933,81.94852564453954,24.097579139606577,116.28794583632643,37.94846574757789,49.104464253042146,18.10071454513358,-69.05142273750548,-58.76364905107621,6.000000000000009,-5.517259592970492,2.6308016486859853,-45.74306728326757,-4.445614783041814,-11.195656983581767,77
-151.7999886182987,81.82203395708002,24.54800620327495,115.78679363129251,32.30241999963884,50.9466869025421,19.669523931137096,-62.773476294052834,-58.51871277054481,6.000000000000009,-5.929438967140858,2.1660750639752737,-45.15729727815919,-3.9673656346391746,-11.001577942431561,78
-151.48075750986698,81.6405197798374,24.94083384907733,115.3361654862503,25.629265274042346,52.22664854312173,23.894195763984335,-54.92207516527588,-56.80863638306354,6.000000000000009,-6.21367875960191,1.6572708039377564,-44.62743564704719,-3.6337025158145315,-10.753275247183668,79
-151.0475153940696,81.4352177344993,25.278341584148063,114.92817952723468,18.75167640485099,55.11538269319964,25.958400112416957,-45.34581810265854,-55.86633828626219,6.000000000000009,-6.383156161380399,1.1311571563413876,-44.09356655725813,-3.3404928459182432,-10.498686741614467,80
-151.8056906593477,79.69853727459314,24.217425324958153,114.71383093437763,10.498438732654577,58.32874284473293,30.88200144699107,-33.0093797237103,-56.48332242882529,6.000000000000009,-6.454265747827283,0.507047228173422,-43.53475877980718,-3.0815840892489246,-10.184753398111779,81
-151.55720512258085,79.5226195262596,24.596032759234895,114.29856612015737,6.7728302769081035,60.6785271732643,30.902051718038518,-28.298822862089697,-58.69857054864386,6.000000000000009,-6.547033849741286,-0.15603987198184038,-42.89112205408975,-2.6327346471227906,-9.796586213215162,82
-151.77835758105263,79.54088816497887,25.135173893726996,114.49356169697751,5.13210191379,61.61820848150796,32.24561392285072,-28.298822862089697,-60.927899812395076,6.000000000000009,-6.807480548686387,-0.7335352592357541,-42.06387025446014,-1.9976868153538312,-9.519610725902018,83
-151.7253848031269,79.64651255220305,25.54115653920308,114.86173199332151,3.8368879134154548,63.06871204475523,31.14616627212368,-28.298822862089594,-60.04018607954013,6.000000000000009,-7.00272141981624,-1.2881660605642964,-41.197012607918445,-1.6233508494089741,-9.463953502494794,84
-151.553614811403,79.75897598392868,25.946022147980965,115.23833799330033,2.5867383486828808,64.14112068200907,32.40054379920505,-28.29882286208985,-58.52822804393673,6.000000000000009,-7.11594864493934,-1.8190921429925337,-40.271347420221495,-1.3093755727025247,-9.436903341337043,85
-151.3813761462583,79.79525232513673,26.44966428975734,115.87467065936706,1.939956846739644,65.72375974060994,30.973252898409314,-28.298822862089697,-58.01753197928382,6.000000000000009,-7.245158244594141,-2.3058716314087717,-39.34306595324043,-0.9577456927477155,-9.378920174383586,86
-151.01858484548652,79.89725271060628,26.878103801773168,116.80871570901581,1.2364940772165434,66.89012243271806,32.0165361195419,-28.298822862089697,-55.33326093534723,6.000000000000009,-7.393806185479195,-2.763206387374422,-38.37381904789525,-0.6935981516427007,-9.472529305647408,87
-151.37520282959574,78.51179320862153,25.77407742128934,117.94857927449402,0.9260330935814671,68.69826624471403,30.713369499069422,-28.29882286208962,-50.8820289783561,6.000000000000009,-7.494203557808398,-3.205793846106662,-37.32994720409613,-0.5413853107451516,-9.73744820786738,88
-151.06115867345443,78.76487260146911,26.161820588308927,119.2422233942481,0.5713747607370308,70.11786284139855,31.81503007723137,-28.298822862089697,-47.38168403983932,6.000000000000009,-7.669297721582593,-3.5884053741346102,-36.253943871339295,-0.2892492615172052,-10.062117644528119,89
-150.4285600955886,79.05690120773893,26.707459848971666,120.70928821020078,0.37133513856805406,71.75876872001756,32.76352210853106,-28.29882286208985,-45.55673942986023,6.000000000000009,-7.8167618222864235,-3.968765295144416,-35.06957009793555,-0.158780381451506,-10.266155714237176,90
-149.30422486485597,79.45673083788964,27.320630991015577,122.19018993051141,0.22388079258596746,73.71759639514738,33.716721098172705,-28.298822862089697,-44.99971776928094,6.000000000000009,-7.9919957298544135,-4.374290305449174,-33.715053621253794,-0.07062132650163035,-10.426157441475654,91
-148.84154918994676,78.34366501833071,26.72178120121068,123.87893489261197,0.2046337644566855,75.90311573896854,34.62845574707495,-28.298822862089697,-45.15503419972072,6.000000000000009,-8.219784897090113,-4.7705754479333855,-32.18862156349383,0.01611375867877415,-10.550489079504533,92
-147.27634466415535,79.1881924370203,27.536680747253225,125.81722716899814,0.3602676145036882,78.13714874896607,35.60231029075521,-28.298822862089825,-45.1068676362607,6.000000000000009,-8.398596431239406,-5.176673660448167,-30.501850084444488,-0.07305808722457569,-10.75019218710024,93
-146.2005211844109,78.39666490925742,26.8933475701896,127.77998217903864,3.2160164425356363,78.82017664478185,36.25003154976099,-35.50498268840173,-45.836690520177825,6.000000000000009,-8.571619721061914,-5.635474567313551,-28.554209412536142,-0.22791392033319355,-10.962855562321097,94
-143.49651155193777,79.69560167369971,27.927988754037457,129.55502258885363,7.535364257254717,78.77303532708575,36.87149929191235,-46.35746661790111,-47.24381426093045,6.000000000000009,-8.83697847617913,-6.189055692777632,-26.274923190463618,-0.32496226961817243,-11.02874892932687,95
-140.98717978794983,79.01289297206469,27.62846662978466,131.09115836164716,11.064350305845215,79.28642105251052,37.87465673875459,-54.79208600248771,-48.63750762916009,6.000000000000009,-9.130062001763257,-6.807684795260052,-23.83700376888716,-0.4968868944352534,-10.971381347233795,96
-137.91003824323312,77.86522076083226,27.239926473527316,132.46248016773396,14.259013733744265,79.88443617307362,39.1610917133751,-62.11152769376361,-50.387064373549244,6.000000000000009,-9.391461707396303,-7.438642914230158,-21.44859402453083,-0.7754783679867006,-10.875145377540415,97
-133.4390179268584,77.97315812523615,27.896497971354947,133.73995520682143,17.578615563278902,80.3288277175337,40.649809712228326,-69.11899164528312,-53.59533827823234,6.000000000000009,-9.545473013750076,-8.045808014049397,-19.067122164304863,-1.1530731155108183,-10.73777186326812,98
-129.47556493773322,76.04467706436648,27.183552361928612,134.8368343233412,21.00078737684975,80.74651834627053,42.46113890926957,-75.61146373537076,-58.59813408258127,5.446658258980185,-9.584340608655804,-8.580924941002104,-16.45853632331013,-1.632683466850186,-10.63247248843593,99
-125.03007878997583,73.64649579379547,26.257739821886105,135.53000627071302,24.32330314841244,81.05143215841046,44.52977408263931,-81.28684281594856,-65.63543786474095,4.771625778005273,-9.59744094553656,-9.047308001503449,-13.762553554735913,-2.141077670895903,-10.560400703298331,100
-118.76638191628211,72.22449238011255,25.83982364377758,135.55551209665333,27.4259973155541,80.95209334264666,46.60805316625511,-86.31416583597992,-73.5834251508223,4.222287320495744,-9.567685860092412,-9.451137905967123,-11.348471391300224,-2.6942511054993807,-10.52398570482775,101
-112.81245407562156,68.60958591648672,23.657033918113243,135.09039640813674,31.62341494529083,81.51695851458011,46.692327340786214,-91.09428618031782,-82.84976801345881,3.68844524905347,-9.502748133789112,-9.752601501939576,-9.06309903781192,-3.269591450533368,-10.567459165080516,102
-107.26211221974,66.96033803155285,23.180441668942883,133.64071447298736,33.42478470962085,81.56538831924372,48.85189163586368,-93.9302043662389,-90.0,3.4664437669118016,-9.512493382716759,-10.09819526106089,-6.653117073396417,-3.8291048977738824,-10.625184994510636,103
-100.36920712178497,62.1949045073057,19.767725473843264,131.87685258106347,36.07410256044331,80.39683109208596,49.13947302218493,-96.32181408498504,-90.0,4.3839172349107045,-9.56336317857716,-10.287738502094024,-6.030116169918088,-3.97460080313156,-9.901308041330216,104
-93.12253845836698,57.48864871815096,15.400196549855332,129.66642677020343,38.90152634466961,79.04478438062833,50.41051421932206,-99.42583621079253,-90.0,4.496184329506177,-9.645564634869503,-10.37915478566085,-4.651472685711569,-4.349024783920363,-9.72291112562134,105
-84.79460893054575,55.83840398689997,12.33721231595797,126.72363354728526,42.94004986507496,78.57295172072233,50.45645355246948,-102.54037199163734,-90.0,4.081894269731478,-9.657033580494417,-10.356150668555353,-2.630988106444771,-5.0227141022330395,-10.001438580684555,106
-76.6698536262798,53.246609547556915,8.127311490110353,122.72849268866779,45.56973317647041,76.88762718965506,52.94908949285356,-105.10202596359532,-90.0,3.6101947426618164,-9.597128840423363,-10.280104174229463,-0.19836792816419305,-5.802489072128227,-10.479234732823725,107
-68.9473843806783,51.452641134858716,4.35863471171425,118.06156262243191,49.260926171286904,76.23142281681628,53.47437635642694,-106.97623347918373,-90.0,3.7129789648907185,-9.601249488458816,-10.248781037194691,2.3805295118887853,-6.48365952541633,-10.91267120764209,108
-61.28604232799598,48.35663772736762,-1.1421930023307358,112.86727857337918,51.24750464054659,74.51272520934926,55.56507697802211,-108.39723875898834,-90.0,4.437866580813063,-9.65814551473629,-10.193475958659386,4.640468449885958,-7.0627110464552585,-11.185673227456611,109
-53.24659351544052,47.62273341125026,-5.6772217627069175,106.74757652061325,53.30566555440236,72.93778706252428,56.787574595280354,-109.5057811677375,-90.0,5.115573234567626,-9.869718187821857,-10.124572326731125,6.6121148737382,-7.381865249655191,-11.269224853355183,110
-44.46356157069417,45.779248269551275,-12.563841179055895,99.76084645859969,55.33480076643502,71.7786183255519,57.138956950061605,-110.41547457209248,-90.0,5.5278791254241275,-10.015916907351027,-10.027897415548239,8.366766988839565,-7.909235902365901,-11.212078777316712,111
-36.09864476741861,46.201080933282704,-17.66724628119688,92.06116812171184,58.558176032437316,71.73272499952066,55.3191123655889,-111.02412828282442,-90.0,6.000000000000009,-10.034950784113818,-9.916226182608552,10.039742773142446,-8.48098487648042,-11.034185326737171,112
-27.49317694117947,45.909268987824156,-25.101439213211748,83.90234340299679,60.329575640214145,70.67174386534407,55.48478552772641,-111.52256570262175,-90.0,6.000000000000009,-10.122243369689555,-9.771953002152284,11.61792980987537,-8.830985356084685,-10.813598680965605,113
-20.20793953551244,47.55739831468096,-29.714836909829494,75.23786300674499,61.99819960162038,69.5112146226134,55.63326465522661,-112.06479720330869,-90.0,6.000000000000009,-10.274945057872593,-9.538352056202578,13.167615934385955,-9.131782593977762,-10.676022374516005,114
-12.48374157005132,48.698799963571844,-36.63204820575641,65.65439286566973,63.42444010628612,68.40342913274365,55.96897754822786,-112.65379625982563,-90.0,6.000000000000009,-10.405424509715731,-9.268960578463325,14.763159259846072,-9.441077801558258,-10.58047476300659,115
-5.826584646953674,51.5310122965206,-40.69864888894413,54.689762958240195,64.61721145316751,67.44816694135804,56.52083981286808,-113.14659943620313,-90.0,6.000000000000009,-10.563037556559033,-8.981079312468626,16.4450960156515,-9.668432636475165,-10.46614504384258,116
1.8672791422451072,55.13845420406508,-47.559385181805474,41.56432432278084,66.05522762524254,66.40881117225751,56.758862275527036,-113.71978338763924,-90.0,6.000000000000009,-10.780956342559383,-8.667736042283261,17.85461913937939,-9.779254327313481,-10.331016265588215,117
7.709547766930656,59.73230519580495,-50.63613324586691,28.29882286208985,69.05589892899035,66.24412537856911,54.903218696766906,-114.36345617439451,-90.0,6.000000000000009,-10.982465053856695,-8.41601520667204,19.27680236743391,-9.913470360001106,-10.329413017452353,118
8.93364740648023,59.24095400800028,-53.5417993345777,28.2988228620898,69.94760684924884,65.20981711978821,55.56587695517083,-115.12795011591966,-90.0,6.000000000000009,-11.064433270580164,-8.296927729049216,20.66917717141466,-10.07971482458152,-10.303096865950895,119
9.619303695553727,59.0417828867725,-54.11318150260965,28.298822862089647,71.5509745272081,64.44678014027798,56.112377289833034,-116.42403194448879,-90.0,6.000000000000009,-11.001176046838728,-8.189175055478232,21.879086090583634,-10.3173330658709,-9.992424786034098,120
9.235555043444206,57.38354857344594,-54.19206901459834,28.29882286208985,70.947140686026,64.23028069191213,58.244180118105625,-117.20253960894983,-90.0,6.000000000000009,-10.996661260417513,-8.450063694657572,24.1754723638563,-10.390219778566546,-9.321536856895804,121
10.321967734234926,57.88683546968787,-55.376311941237894,28.298822862089594,72.041166218179,64.18251646137217,57.772325187802316,-118.29348144677594,-90.0,6.000000000000009,-11.00516280478133,-8.516717838255541,24.23377927805147,-10.57813238798398,-8.433146420927107,122
10.269253579997907,56.89595617892581,-55.528609674568095,28.29882286208972,74.03525340387957,64.73291213563982,56.654523918780505,-119.40004764945176,-90.0,6.000000000000009,-11.0339623461378,-8.719535259367603,25.641235118964378,-10.683369355575337,-7.9190235084304135,123
10.606369503617803,56.30159925720153,-55.97393594524054,28.29882286208962,73.88721834790279,64.68113853861672,57.35030033258069,-120.5622171312411,-90.0,6.000000000000009,-11.030877607568952,-8.956819753903943,26.42540774256081,-10.942350168178862,-7.218940498267824,124
11.201405175906478,56.7378678590053,-54.15128066871769,28.29882286208985,76.70993283714174,62.54879939273737,59.823685375609145,-122.30432689699808,-90.0,6.000000000000009,-11.046772716160392,-8.394920310256165,27.292846758352823,-11.16698383455663,-7.277201710299467,125
6.622405680380684,51.195280437072164,-48.40521996735216,28.298822862089594,73.23561174862796,62.63388451681297,64.24502913739913,-122.83389510813156,-90.0,6.000000000000009,-10.755628668467617,-9.167085262772787,33.1514027235072,-11.220880495173263,-7.390208488331559,126
8.723926109712032,54.6539502078463,-48.28636375419164,28.29882286208972,75.48901482787952,64.81254271770521,58.15654687583019,-123.84795332508969,-90.0,6.000000000000009,-10.644505755906987,-9.379573611777142,29.76621452950752,-11.653427992475322,-5.992959059388925,127
8.157974762446772,54.73480023490625,-45.727589893532475,28.298822862089697,75.55141278738867,64.67813821967802,58.48083654491026,-124.86619976071897,-90.0,6.000000000000009,-10.637805280012037,-9.587603449606112,30.111414034217404,-11.760791805395607,-5.597406315487748,128
7.992110949955232,54.34273868368691,-45.640285273852776,28.29882286208962,75.81487814873847,64.40390165655569,58.9671756057288,-125.91033495301545,-90.0,6.000000000000009,-10.590540997068144,-9.762237817550888,30.56874377594626,-11.958865108811722,-5.33159065449434,129
7.088642160227176,54.13215821926955,-42.74511418093896,28.298822862089594,77.3667882736228,65.13828910186191,57.351966658574945,-126.7314040946845,-90.0,6.000000000000009,-10.499518999209126,-9.980046408181721,31.199299653918295,-12.141703145097107,-5.075454850064233,130
6.80918285239805,54.13461615658412,-42.59510549454557,28.298822862089825,77.42015427286901,64.89420929280564,57.27756600488471,-127.49817411180015,-90.0,6.000000000000009,-10.385933470709514,-10.155675168863054,31.185104603941276,-12.32066546054356,-4.907272859604826,131
5.779388098163107,54.405356914001985,-39.55892337614952,28.29882286208962,77.57498957580142,64.55850522704598,57.376832276171264,-128.186137494415,-90.0,6.000000000000009,-10.201251316071653,-10.30580220626804,31.279448587530197,-12.505951941063822,-4.910097787308325,132
5.019366705521764,54.28452968250775,-39.11916983627882,28.2988228620898,79.43734660531369,65.33892125108814,55.18056876503793,-128.7023506638317,-90.0,6.000000000000009,-10.031521446127266,-10.449317070358356,31.3595442292691,-12.594750016287298,-4.88292451192306,133
4.401044958797329,54.30047508048651,-38.72478443923564,28.298822862089697,78.42675859224077,65.13450813430651,54.663846272852304,-128.70659640639334,-90.0,6.000000000000009,-10.180383290590733,-10.59496196709999,31.14629954803109,-12.396607022253843,-4.879351979632068,134
4.277593695345523,55.504104565571936,-38.38675287694283,28.298822862089825,78.07827177065572,64.91366341808711,53.01211999163936,-129.14424703781927,-90.0,6.000000000000009,-9.92102325164492,-10.695114026697844,29.55251855115906,-12.769946515771682,-5.279919662406071,135
3.4328036481366437,55.730777820527166,-37.96428277248138,28.29882286208985,80.47776163513718,65.90843962887824,50.451354815415016,-129.6027073114382,-90.0,6.000000000000009,-9.514042697380043,-10.687198588685824,29.160345732395495,-12.919474938994057,-5.488885772286266,136
2.076043478289396,55.34392321340202,-37.2226099869803,28.298822862089697,81.15894778852213,65.47277978588974,50.61277057533025,-129.66990088022706,-90.0,6.000000000000009,-9.209420531918875,-10.569043743775268,29.505776806649465,-12.817234751877118,-5.823289841221469,137
0.3590340426952064,55.19262810052485,-36.109499121074734,28.298822862089697,80.71761267098364,65.37208707413032,50.6719961148819,-129.8559507105937,-90.0,6.000000000000009,-8.866491034730945,-10.739415126391854,29.36011881715736,-12.76755934198638,-6.1344305384942786,138
-0.2545052983113087,55.838447209207295,-36.134037579173715,28.29882286208962,80.37493637568983,65.72688453448487,49.47826816066859,-129.36901854940976,-90.0,6.000000000000009,-8.766136605853635,-10.748860867100364,28.344498016547835,-12.557967502487166,-6.07603772472883,139
-1.1597952889987426,57.05984015904676,-35.49346745511018,28.298822862089697,82.06194451181246,67.12943785852828,46.127226613812965,-129.77380886001708,-90.0,6.000000000000009,-8.189157325520815,-10.815410461758661,26.674615319865357,-12.900370454853668,-6.663937936981753,140
-3.0942879390056324,57.12505743946323,-32.79571100444469,28.29882286208962,80.15740143188613,67.8160015549497,46.029690110088445,-128.58773785971897,-90.0,6.000000000000009,-8.198859048216411,-10.861748041772339,26.571445773370307,-12.320441044097612,-6.511229652530386,141
-3.0156423768106793,59.69794443019451,-33.14648164761724,28.298822862089697,81.06463741083284,68.00792611769889,42.873304854566,-128.56162465068977,-90.0,6.000000000000009,-7.804128338093151,-10.667571275711024,23.384238787263858,-12.40598066115475,-7.218949845979481,142
-4.858889929019908,59.745646664882265,-32.099510749214396,28.298822862089825,81.55132207944716,67.65409195893442,42.6633810944349,-128.2989777586203,-90.0,6.000000000000009,-7.565965007813057,-10.545871017720335,23.190548265788507,-11.986804096263585,-7.909367444809638,143
-6.290988700301505,60.1583805250318,-31.28217079214668,28.298822862089697,81.1534917057614,67.71672113471843,42.20492271596308,-128.11710997785067,-90.0,6.000000000000009,-7.082415674637758,-10.517054259766422,22.337181641103143,-12.03771211772935,-8.512865851034512,144
-7.61197317937046,60.656366987084155,-31.086911123412925,28.29882286208962,81.00465456109934,68.22971736784439,41.34807345051688,-127.84542229863185,-90.0,6.000000000000009,-6.630124117091919,-10.461090090258413,21.207262305963244,-11.870711489209347,-8.686664133239857,145
-12.42813651931051,59.51168877188563,-29.253513258601675,36.479557664201444,81.27144004996477,68.61934783120986,40.126165589863454,-127.40490387304916,-90.0,6.000000000000009,-6.567721302425453,-10.327964707366185,19.929623758060952,-11.264486787496576,-8.941444678152921,146
-17.844953928362667,59.50355701306318,-24.71237134711452,44.9939713359765,81.89234855966477,70.59314424334836,37.10918891322964,-127.19136505323537,-90.0,6.000000000000009,-6.231119212930494,-10.344301979338029,18.28756462238419,-11.0507584852889,-9.316638516045908,147
-22.199400115581955,58.898041890539446,-23.544901756586253,52.84034295142914,80.82015272993573,69.77543549352512,37.585440786186616,-126.85621876081835,-90.0,6.000000000000009,-6.080246638785283,-10.157939753849572,16.75007925780455,-10.582071352349455,-9.325314346978873,148
-27.543279431969026,59.31049788563673,-19.27203457062614,60.24354612753688,81.34874360530436,71.74497392290182,34.86233797276168,-126.54928235565306,-90.0,6.000000000000009,-5.92603177981442,-10.141463611941992,15.396834310478429,-10.236169351488584,-9.634897696258214,149
-31.853554282603948,58.93539534162728,-18.34046298298073,67.12868810600006,80.4705903753234,72.7178160107017,33.68323167644749,-126.07247002017466,-90.0,6.000000000000009,-5.814916857871517,-10.132243876622212,13.66610351182603,-9.84024557048495,-9.46331410316167,150
-35.94005152555442,60.03226416198013,-15.689998428811373,73.18430499961292,79.26754867975957,71.95533901489061,33.975167839526335,-125.81666090919305,-90.0,6.000000000000009,-5.6691750651643735,-10.058125823446016,11.76873728845893,-9.486917465405623,-9.320684890914956,151
-39.92498693183505,59.831961837299175,-14.800408350243577,78.81906013726051,79.73016138593795,72.32184975673502,32.96414062869622,-125.5797574527353,-90.0,6.000000000000009,-5.526735077852831,-9.861001205884822,10.56175786962999,-9.142644051829238,-9.548608977334387,152
-44.87116506721304,61.01057659761601,-11.336037099119707,84.35225734620805,80.01821855715933,72.5277302168807,32.48082292577286,-125.26230896585068,-90.0,6.000000000000009,-5.499964966477135,-9.790627537155395,9.79704254673105,-8.725694869272248,-9.827650363808251,153
-49.4193978875796,62.388889183697025,-8.295028767518609,89.5501336772688,80.14546589401327,72.7696131467293,31.936524316670294,-124.99633020340589,-90.0,6.000000000000009,-5.43242514803883,-9.689173310515894,8.964970143422773,-8.50477372359008,-10.065393220571835,154
-53.81071733353828,62.19138158301775,-7.344476905788428,94.86389061181808,80.29355646532987,73.028047864138,31.332235476680513,-124.782431306693,-90.0,6.000000000000009,-5.593763743637605,-9.5684318896476,8.193414582501097,-8.024561299458641,-10.234774989129297,155
-58.05403359240268,63.67229722956934,-4.982114081676602,99.64967861500463,79.27840888858542,73.4306934563366,30.616821765015768,-124.12160766034341,-90.0,6.000000000000009,-5.577114198126442,-9.520637034439014,6.991285179357932,-7.83730146286906,-10.332338548914429,156
-61.582468116425936,65.13758955380197,-3.8436073768829093,104.05000904570768,78.82143339229376,74.09948862480381,29.093565935027502,-123.57766915502776,-90.0,6.000000000000009,-5.637390879912198,-9.387113180443997,5.171821519773303,-7.440669683747879,-10.192947627416904,157
-64.93572111540779,66.56307417042417,-2.663250168940799,108.02919028606576,77.64616450715833,72.93278022221064,29.56578760684261,-123.23096912725448,-90.0,6.000000000000009,-5.72686334430554,-9.191982972495522,3.666721765270908,-7.0864101947113385,-10.18119627786814,158
-68.3751647321644,67.9970937969942,-1.3935561027645664,111.70626254585488,77.29542475625885,73.24042371801718,28.549549701490573,-122.93853448948802,-90.0,6.000000000000009,-5.84865515673134,-8.986228579368362,2.454880260559954,-6.742012052900975,-10.2850503550104,159
-71.50337870043195,69.35845953945149,-0.4019832492328493,115.34342471687057,77.09255867936778,73.53452274788593,27.37242951215013,-122.59609932878664,-90.0,6.000000000000009,-6.056394133011658,-8.71863389045135,1.228639822994566,-6.342828505798165,-10.37458175033683,160
-74.25243611063138,70.69596980748074,0.5517969443981513,118.4841930609882,76.23446689803109,73.71298619072876,26.37452968875172,-122.21825776422796,-90.0,6.000000000000009,-6.159230849640459,-8.538057463894669,-0.016276392595157594,-6.121128569519086,-10.476870171043844,161
-76.97708741677674,71.67487078174048,1.4789059264388433,121.7363065463762,74.69262990016107,72.29769992482426,26.97654709505028,-122.07787537518091,-90.0,6.000000000000009,-6.586572817060559,-8.237194469810031,-1.2370517350339654,-5.557289682949263,-10.487070515283751,162
-79.16008607775203,72.64096556759445,2.344331507967719,124.64308767956027,73.7699426967794,72.40589380891687,25.751815924954055,-121.83491296004391,-90.0,6.000000000000009,-6.842941426303619,-7.795449625751532,-2.4671458395146675,-5.3528775669461615,-10.66118459015856,163
-81.1735975357096,73.54971512145258,3.2558195046948524,127.21472677144124,72.76743658828978,72.41662933639607,24.581617358755988,-121.58212663626014,-90.0,6.000000000000009,-6.99260315244537,-7.339245743650649,-3.6636295543583404,-5.125104586531855,-10.890238701328906,164
-82.85441753265664,74.33602943623598,4.18211653910467,129.5937932237747,70.73150435559754,70.63901734337395,25.135074793801845,-121.30908673382281,-90.0,6.000000000000009,-7.106748515383652,-6.8980867303970985,-4.954588395538637,-4.895559440823248,-11.092877511319557,165
-84.41535754289487,74.83164695409228,5.167248574472644,132.17305292229972,69.53271940024821,70.50248137704968,23.637782577005403,-120.98780663916509,-90.0,6.000000000000009,-7.227333431137568,-6.387655398192138,-6.425830306507924,-4.656338693522023,-11.28812981865721,166
-86.01893560931424,75.00087801165826,6.384204657125591,134.71768580867194,68.1001618678922,70.31004976899311,22.12652376491395,-120.53500643544095,-90.0,6.000000000000009,-7.369149762216233,-5.827096702479761,-7.961166887181728,-4.328005306564313,-11.498726974480885,167
-87.13848282755531,73.09828202129859,6.209001480559003,136.53426814631274,65.42445647827005,68.50764856723903,22.536126004480916,-119.6897518331441,-90.0,5.269235995802289,-7.6064157197684885,-5.352953532971522,-9.581488569048885,-3.951262780660059,-11.492569726379788,168
-86.87238185753192,73.28403860218313,7.326888633067794,138.41528175040082,64.49518764073173,68.27628827003342,20.573159260474977,-119.6958040781156,-90.0,4.750458624899267,-7.5791077426586195,-4.7089032894794824,-11.389660335549774,-4.181933122519881,-11.620888149109737,169
-87.91658641290732,73.31411403474387,9.628130086790133,140.27110383881546,62.28189712328465,66.12497299285515,21.8767402207167,-119.39886381012963,-90.0,4.840937067131758,-7.681295332852515,-4.15752669813021,-12.164195210738953,-3.9257825593379168,-12.08861988883941,170
-88.7430599367396,72.89895827816017,12.163897411185006,141.84870828010557,59.89177961842352,65.88892435090357,21.166973684909394,-118.52190662570509,-90.0,4.1921086237821985,-7.888285678346239,-3.6898613138199203,-13.43132588228526,-3.6876530513989154,-12.1766772366238,171
-88.59985157408812,71.72214731709991,13.953014862685059,143.16063963091096,57.817887248823425,65.64482122572274,19.546714235532225,-117.89539504294423,-90.0,3.367130240762157,-8.05916254696139,-3.2254024003820545,-15.388832521147188,-3.6278112198845935,-11.909971509838956,172
-88.86753950148137,70.7334797482995,16.569752219719028,144.25515601868875,55.340289386397515,65.35282700937084,18.641662069813396,-117.08132023890451,-90.0,2.767090401332517,-8.16750172583519,-2.8471112032379553,-16.92510596912641,-3.5983349085318648,-11.705814141666762,173
-88.74065570058644,69.28580564375545,19.11631704771384,145.18329814695332,52.4566996020078,63.4257333334592,19.593269950812576,-116.17842307071732,-90.0,2.154467744737639,-8.31673870269195,-2.5062133304368426,-18.472307072139415,-3.514366202614765,-11.379223753107855,174
-88.57418805657584,68.23975341760209,22.187925658166208,145.92228289645047,49.99631133800018,63.19890852881347,19.158202403565742,-115.12904057832536,-90.0,1.6341611268263132,-8.4689097894371,-2.179001573526002,-19.789692191400608,-3.5831334774039574,-11.228533858743571,175
-88.70747912338905,66.67005666260343,24.980259380160764,146.4048511217143,47.42091879183506,62.31987526860047,19.380804008319835,-114.1361534816532,-90.0,1.1874691051103548,-8.621395055266431,-1.8625684430784295,-21.182827663680047,-3.586499417197484,-11.014632895600482,176
-87.64195766014036,67.01157792932638,28.769906091390542,146.69339853160608,45.35571417165388,62.48087401099314,18.660942923365244,-113.03170358631724,-90.0,0.8545157381266308,-8.668410964839602,-1.6109854575261529,-22.505268678418282,-3.6584709053702658,-10.732057809030529,177
-87.36105859871114,65.98258796476466,31.34583918746807,146.7970373060587,43.366857388630436,62.614950800055354,18.21925131580916,-111.79349216692893,-90.0,0.7886642099392916,-8.679222456609892,-1.4569205470552475,-23.753509929898982,-3.6742005788006917,-10.462604733599214,178
-87.01648524348275,65.2792522731949,33.87107933654184,146.8188122134235,40.929625026336126,61.107433485726595,19.959599642836814,-110.60929790848184,-90.0,0.8009779203012034,-8.757905777621474,-1.3169841489892444,-24.8940174555048,-3.5804664654694363,-10.248921194241188,179
-86.58334922436735,64.83520682001051,36.36502808346937,146.7371214299479,39.26909803941954,61.26487324115766,19.798992173133875,-109.40205189271312,-90.0,0.7498114486951944,-8.845811423673124,-1.2534195674335562,-25.962725582866415,-3.4958153208262175,-9.98555518788419,180
-87.23330976446861,63.175110858192724,37.70097829010312,146.4944490470718,37.690638352931245,61.41159238225365,19.76619544122462,-107.92079328443124,-90.0,0.7168459389665072,-8.900074142829036,-1.30850381873722,-26.935440040694907,-3.414203548808064,-9.68208117599138,181
-86.43022714346256,63.3994303192616,39.71548736029185,146.24813769264517,36.449887434874505,61.42848662702683,19.80210355319941,-106.50697128057284,-90.0,0.8633565577182635,-9.153316783814418,-1.3779465295865378,-27.82160691225793,-3.145387305394633,-9.524683170068519,182
-87.17789601429229,62.562901808796454,41.170393768312714,146.09182177039017,35.55064676781886,61.35706041678439,19.83104907806612,-105.38566866702169,-90.0,1.1485483792359958,-9.358783329598465,-1.4577161414664541,-28.72642414149438,-3.0932974801399897,-9.462925319608607,183
-86.554328412505,63.46263794889329,43.07067408247101,145.93055452831453,35.359163692278855,61.20908167829691,19.598802512282703,-104.43380572405954,-90.0,1.3186527479255064,-9.534493953776593,-1.5188453771829415,-29.651374110278507,-2.9084119892035973,-9.363394324412317,184
-87.4667468884717,63.235937488274,44.07166549542241,145.723595481297,34.65123129103888,59.42805991473694,21.336238510381502,-103.42984411399749,-90.0,1.4329222610215218,-9.772852122975952,-1.5609243237118882,-30.550071113637284,-2.6649978749666494,-9.279522194554506,185
-88.11669714497657,63.19306948108937,44.712086647891226,145.59531069260598,34.77946011601903,59.17969307788376,20.901079723010344,-102.3801255467059,-90.0,1.569659440678654,-9.960837912118294,-1.555984008171382,-31.429044837386478,-2.560480815566491,-9.245205146415366,186
-89.02782894483059,63.712455921320405,45.537092968620364,145.64726456170155,34.90237375309386,58.89591447286861,20.71847911942222,-101.40275654429517,-90.0,1.9329777849954464,-10.161091832347337,-1.4587513016410667,-32.08217725148401,-2.5346834286188398,-9.504193560868131,187
-90.08121586499631,64.43712872155871,46.315054696953325,145.81423302928798,35.239398763594956,58.69836311515,20.453125273933352,-100.45777469475563,-90.0,2.1682315959136815,-10.305521985851898,-1.2849328553469341,-32.71832469789806,-2.6080077829001738,-9.763504192784046,188
-91.1197081685055,65.26051162745135,46.729209019898896,145.98321742790785,35.97490056838804,58.51273795185272,19.960979639128656,-99.66078019199249,-90.0,2.1886022507832608,-10.318075697736107,-1.0408623349924921,-33.43579413624902,-2.7656184302441726,-9.999509614197226,189
-93.95337376591426,64.91027273958927,46.509832210169606,146.22147103538526,37.54057064087609,60.05229488155423,17.487885309387124,-99.00718743694047,-90.0,2.1517659846337525,-10.293891694172407,-0.741919845933182,-33.889698449673745,-2.950636855383048,-10.26079606064724,190
-95.48011648536823,66.13644419798881,47.22880310982592,146.52581824727923,38.562471368975125,60.11932317266587,17.219019641430666,-98.42653660181148,-90.0,2.2248187591217965,-10.268028783807027,-0.4117601625080369,-34.1872766393004,-3.180819910551318,-10.583664880535864,191
-97.15364123192681,67.40195589468678,47.95581241092428,146.8997413958335,39.73500038956879,60.158970675885804,16.825904367526334,-97.83274199493218,-90.0,2.306044812129438,-10.180958070467351,-0.079806818536603,-34.56830104426382,-3.471515032825104,-10.889890901229284,192
-98.68682028434252,68.613789574395,48.247089758779175,147.2350749546738,41.25298642157474,59.99835173638263,16.104784951975386,-97.482011236672,-90.0,2.3427483389256145,-10.046019765723267,0.2632917811112227,-35.11811904928226,-3.7273253248726994,-11.235303599422135,193
-101.89105046182907,68.62399695590429,47.78670581234428,147.50032641663103,42.90421322275414,59.85097912606734,15.41820335338441,-97.45098430838837,-90.0,2.4391292556203577,-9.958914495611,0.6279704297268041,-35.46042225188115,-3.9507787820456053,-11.648606878737791,194
-103.46237922530754,69.81175544189433,48.33831723192789,147.72319826238223,44.451769123729385,59.80391774282851,14.763567956397582,-97.50817549902483,-90.0,2.5894945941889875,-9.973303055780795,1.0004177380230164,-35.64448049840689,-4.154821327968494,-12.015674409543955,195
-104.69464298842043,70.86901384733713,48.725587909063776,147.92295305493434,45.651762037244275,59.68112688204474,14.131578098752525,-97.3278512737923,-90.0,2.8064186258124146,-10.023978463763413,1.3525699714845225,-35.85135197240661,-4.410295783809129,-12.428794588650907,196
-105.75679129244737,71.98268818640422,48.8638093613083,148.0,46.66050966606492,59.47479677379135,13.566101899960897,-97.25797072880043,-90.0,3.0337465915654795,-10.046059984269846,1.6414849472309276,-36.080250553433174,-4.727607426966809,-12.87511162396994,197
-106.84791899899858,72.89319310261673,49.04972663390329,148.0,47.69955907418157,59.35887447748563,13.031100808799563,-97.43344219745181,-90.0,3.12830698857034,-10.111511761934649,1.920674100619113,-36.31000862700194,-4.909073142150158,-13.233903498297074,198
-109.45803195219672,72.36098649612008,48.2685771077577,148.0,48.68582543169135,59.98158865720438,11.4558529969205,-97.49118767912131,-90.0,3.1555168647325265,-10.18945032769595,2.1759392128454573,-36.67754599075525,-5.084525583525726,-13.539790531287316,199
-110.53925844458695,73.0608004561072,48.40935331608383,148.0,49.03501242002578,58.305926692516685,12.488760033842368,-97.50767608055034,-90.0,3.12266289476456,-10.255362481017833,2.3889307504807533,-37.13446383534062,-5.272084434829533,-13.80986793010112,200
-111.48814041041456,73.61118315515328,48.533896476153124,147.96803379726785,49.80266323774644,58.11075386045006,11.49366808263684,-97.67360601531016,-90.0,3.094679393940082,-10.329769766974016,2.6094732771008324,-37.54619449487387,-5.40797094656766,-14.07208252978996,201
-112.3261364473446,74.0863726411851,48.85785091188552,147.85820130325806,50.44683032283424,57.90234504787111,10.657781990091866,-97.94031110526325,-90.0,3.0718099309707365,-10.379295851429351,2.869145309097833,-37.814162702577875,-5.588990680549376,-14.381050690045816,202
-112.93192976805305,74.48681986476963,49.24368020653259,147.77429249028498,50.791243348298316,57.66076890044303,10.082615631747972,-98.09531677750088,-90.0,3.0263054984518325,-10.38583493654657,3.1153481665037033,-37.96729707795873,-5.835399766337138,-14.706089560868255,203
-113.29731950156652,74.84205072282974,49.49545739802586,147.65067028546804,50.912047595693835,57.25073050927376,9.672297918961641,-98.30540163894874,-90.0,3.011936788487456,-10.45695099062603,3.3282897643944103,-38.064587307627235,-6.003769513281986,-15.068952774612116,204
-113.76766594534278,75.26788126806157,50.08741886719641,147.39168675696197,50.78068593053395,56.85356505942752,9.498074863964792,-98.67512897040592,-90.0,3.0744029256428735,-10.657141943260553,3.525072759782545,-38.003776784752404,-6.10790262180951,-15.401672534747298,205
-114.23364269474096,75.57345117729614,50.975583919903585,147.05652622569008,50.258165624961975,56.47898108003188,9.458241938799071,-98.90597001803913,-90.0,3.0804655703839527,-10.787726208424758,3.7237890923026153,-37.97838681146831,-6.357301439062573,-15.635185242088772,206
-114.8552115325905,75.82241591119164,51.98489889850207,146.6549388570255,49.40221603990053,56.029500865145614,9.547668153751633,-98.87986861640523,-90.0,2.8904528239494875,-10.804265492902832,3.9360845541865355,-38.04656434287112,-6.648694045846138,-15.829546494332387,207
-115.40788520571762,76.08506392927579,53.09062347920186,146.14161565240917,48.592598516780235,55.551412644609115,9.477052354330755,-98.83855198368242,-90.0,2.4540953299848476,-10.903958518388034,4.136774643711713,-38.35302874074052,-6.708279942941646,-15.931343313898376,208
-115.46435003301391,75.71542250902782,53.92038854713969,145.66621992650013,48.19922593232441,55.052888903326334,8.862300647044659,-99.04286554104488,-90.0,2.1188645590898934,-11.120638194402702,4.3542911579272925,-38.880573172870044,-6.683023473331838,-15.93288746699702,209
-115.2331768993916,75.26461066727484,54.56356514546752,145.29676774536344,47.45754064753828,54.47055838486395,8.599574548352125,-99.25512853574581,-90.0,2.282658922257489,-11.302629191435981,4.566215243329854,-39.12412038685373,-6.886317643618949,-16.056492985708058,210
-115.01290488040836,75.15089839446374,55.1674774420652,144.9168647857083,46.104071658242304,53.71463905987561,8.906448212368822,-99.37721034770593,-90.0,2.672455042237842,-11.433102047452046,4.758530993757413,-39.16004177954158,-7.171345916084796,-16.302475254357983,211
-114.89883512903182,75.0115914605162,55.918857036475735,144.42379428930434,44.587453845128316,52.83087208894501,9.259126805643318,-99.42370858590975,-90.0,2.832507623354232,-11.627072376501534,4.922136067407503,-39.20650520120148,-7.341830412997581,-16.50220980725719,212
-114.78367330152022,74.79785006493357,56.67236826403966,143.94975128920169,43.66886479723498,53.8695572364109,7.5854804256779085,-99.59534702379165,-90.0,2.9545122767695515,-11.854111683334283,5.03054351389642,-39.252599452590026,-7.474003597764256,-16.587985917222106,213
-116.19014967990722,73.36935324127705,55.96926653326195,143.50446461989344,42.60660762104721,53.19088784495147,7.804361174606183,-99.79628374154022,-90.0,3.1856116416591,-12.103326560859808,5.066570894319907,-39.39171927125627,-7.543180038300283,-16.66216196227499,214
-115.86059381023368,73.16375405901462,56.09774612138504,143.08671643531503,41.538029586528715,52.78662288665819,7.858736356410219,-99.98535289173698,-90.0,3.4925175561157777,-12.386501669967101,5.07689191787962,-39.43861170116495,-7.593543001246066,-16.803730084969832,215
-115.65688761149134,73.30756619485581,56.49127368782474,142.69893379063907,40.436264597493725,52.532393075244705,8.210987391357236,-100.11850424176545,-90.0,3.7704247877544574,-12.582407661136566,5.097815429000238,-39.34178940078675,-7.769830539404583,-16.987626388930735,216
-115.69771697514378,73.66061543860879,57.072766831365556,142.311929360027,39.59501279405321,52.36559510401886,8.556507858880021,-100.05043565648641,-90.0,3.8845357549684234,-12.728299066270967,5.1518484564517735,-39.346128551409386,-7.87040319448986,-17.17796147640646,217
-115.76461653202101,73.98406182442143,57.43966204157705,141.90501530044133,38.60002328747635,50.564981571140535,10.787798541473975,-99.76324602628554,-90.0,3.9273931449166883,-12.751869441975813,5.196814116797886,-39.610817278345685,-7.973173136242968,-17.359199557969774,218
-117.55915595318237,73.23963544778417,56.54833923008455,141.5895706251068,38.48108891768076,50.45965586621124,10.881177498608542,-99.47990030975865,-90.0,3.930854509628523,-12.659782359976354,5.219685905549751,-39.93893242225984,-8.044004707914008,-17.501723208692322,219
-117.71818538168017,73.84037150589124,56.49822201867407,141.27868548860334,38.83563712975757,50.40350167309982,10.971634794020924,-99.31751257287884,-90.0,3.8867329338176138,-12.581384868763456,5.22085792822632,-40.19200597594482,-8.036627261790773,-17.70972692448481,220
-117.98240454226354,74.75865732760994,56.61704329658543,140.80838392005572,39.55537747385288,50.40006853057747,10.930956336509398,-99.22793030550028,-90.0,3.865228756754082,-12.488738270310161,5.159856342691739,-40.46230140837062,-8.05280167590534,-17.862708863740668,221
-120.11663958876123,74.57314379456722,55.939667917338596,140.28064572725617,41.01020021058007,50.44882907044913,10.381663604741814,-99.24525354478675,8.815562493969347,3.770543398953008,-12.271198605138673,5.139029374413715,-40.874325692986865,-8.075154701142292,-17.935765168531944,222
-120.6321872783469,75.29550668621773,56.202972306830006,139.81889748700576,43.17473099682333,51.21245115541261,8.68549871619461,-99.40080578369368,6.617608899133218,3.616666665533613,-11.979801992892172,5.174696712775182,-41.344011014096736,-8.06044761528247,-17.972990052155975,223
-121.11967853796816,76.10473067228772,56.37100647116336,139.31868996184267,45.28632971153974,51.882434195767296,7.517585847307384,-99.66782757689012,5.517106724647828,3.5539686991511314,-11.745214070084197,5.1497446040522075,-41.65342234902872,-7.9800395409923155,-17.932940555701833,224
-123.33811938237176,76.02795696155177,55.672322770986064,138.73079657395544,46.98852731400474,51.06765939911896,8.523097460126683,-99.93834124600961,4.969399027651347,3.601214197769812,-11.530288561433258,5.05552785179968,-41.7903690294899,-7.89487150247089,-17.792273297918225,225
-124.036526734517,77.3305412874223,56.20702669090025,138.10204518788618,48.8115506404635,51.96032560150076,7.737525995070334,-99.98160565328742,2.7470614673335443,3.581942424710536,-11.258994811239278,4.879662934303066,-41.977725397616375,-7.82414341669871,-17.562392112922204,226
-126.4224378261181,77.60891185313056,55.455870294132474,137.38361677281887,50.65992305986387,52.76787359190157,6.822886900270297,-99.9709159028781,-0.4279752870501812,3.5316481056073785,-10.970625735934687,4.606274124179789,-42.515261018533565,-7.630380262703166,-17.286625243209567,227
-127.1181394092735,78.60613275971505,55.51618838104887,136.75244086687425,53.12327265667835,53.62790443630414,5.339785582882179,-100.28662349821407,-3.2747958803335715,3.430991120717002,-10.85521442137746,4.408124616130429,-43.26889426927172,-7.1478889608588085,-17.02296730105974,228
-129.2578900396224,78.7781404638266,54.50793101582024,136.19912891705928,55.389494453949524,54.699166984586725,4.161073232201625,-100.7007766691937,-1.947879294233079,3.4290788175533202,-10.661592843713255,4.213490723040204,-43.76763300961663,-6.96509267169962,-16.811475041969025,229
-131.4359765008273,79.15343858929116,53.53008366579974,135.67062980567223,57.619097588991444,55.82111933025736,3.194915882017353,-101.02049190161428,2.4929935704706745,3.375583518319484,-10.371549625657886,4.116193939586954,-44.09830380223013,-6.8675338546401274,-16.778403993717667,230
-131.9579138557516,80.68244731995973,53.58074527611957,135.06563315995677,59.980572089027596,56.99206984176945,2.100806432403282,-101.42100218176401,7.409941520586974,3.397203193832265,-10.11158588833115,4.071400719542499,-44.49115136551627,-6.736151994457834,-16.79954766580382,231
-134.37629189480705,80.63183572011043,51.967080497287135,134.35532112250712,62.2793490629105,58.329592601467574,0.9733841034671713,-101.80919245108008,10.899284356677963,3.4605520504866063,-9.850791662795455,4.02060888734546,-45.02129064809474,-6.6498859293416634,-16.769028851065162,232
-135.12570794756945,81.4729180609628,51.38802122955706,133.57962902464098,64.59293052542513,59.708083959819525,-0.3675849902797112,-102.1384085483298,11.253321609809264,3.675648737744358,-9.568207767052032,4.01859801337999,-45.798211422355095,-6.603918268157749,-16.790382252760395,233
-135.82030900329127,82.26391254231467,50.677964143518885,132.61115758104808,66.65721454404758,60.8091759350729,-1.7429592749065257,-102.3320407574559,16.41987593855643,3.950385098349574,-9.36355478288011,4.062062414870777,-46.64084278743267,-6.506901509870688,-16.937232538904546,234
-137.9355376363518,81.92361690226295,48.61052192896723,131.63144139009242,68.59542440948692,62.06630160735034,-3.1579466163360053,-102.41205605131883,19.975682628553432,4.332257626648078,-9.220944070517405,4.116464793343908,-47.55971881283543,-6.3818550134449845,-16.98097401543289,235
-138.42603893029874,82.83252862536729,47.4918217730146,130.69839732852316,70.16439250605563,64.82796126401138,-6.405165590186067,-102.18809010302064,23.252111287373985,4.639527248395523,-9.098174838816057,4.131158356373617,-48.700217786466126,-6.238877750112302,-17.02997908806493,236
-140.24986680696995,82.43863870886184,44.82430481710056,129.68812591761966,71.52861425258952,65.53718353874945,-7.9069837818505375,-101.73426823919736,27.45860464658005,4.964617274831281,-9.04739414339299,4.185506531470163,-49.87038602884079,-6.0354439382959475,-17.293940959438366,237
-141.87752524255282,81.99636428767111,42.05244630598189,128.61229145084226,72.15204870609865,67.72890856249317,-10.892978268069799,-100.94581163921465,31.102732792744515,5.394300656361121,-8.930682782429331,4.232157828901654,-51.041010533834786,-5.978627128689594,-17.55293368411179,238
-143.31843208799975,81.40542446969383,39.0720545421223,127.5843746377323,72.91400130738724,68.06047306809725,-12.327819567199562,-99.6777481767401,34.8213519524116,5.792410994278755,-8.70971405480328,4.316199250108052,-52.29400519481293,-6.001241068923846,-17.917617261643112,239
-143.42544690718546,82.19748481121411,37.143035328019046,126.34526604827481,72.97775550171671,69.54362894539067,-15.433341604185532,-97.99478361730752,39.04385214535848,6.000000000000009,-8.546834802759232,4.389426550749812,-53.61638267649385,-5.970840545336225,-18.453441524413076,240
-144.5264864732558,81.34202309466767,33.759402064156916,124.82711294337476,73.05813769861862,69.07867544550534,-16.856736437945575,-95.8709594847247,41.99659161694714,6.000000000000009,-8.523641030266717,4.432012938977293,-54.940093041445635,-5.839042494107588,-18.99275252527113,241
-145.46868156986395,80.32703140530204,30.42863711291424,123.15567173510887,72.30079890808915,69.91514959634836,-19.878309547598356,-93.15799235060875,43.33317209780432,6.000000000000009,-8.57608469976222,4.506490486823881,-56.19807778816345,-5.678106633144109,-19.469946093200406,242
-145.38945784677196,80.81765273334241,28.521435923531794,121.31445112468411,71.58625152866094,68.93085091080927,-21.066551271624448,-89.60196089988149,44.782508515001226,6.000000000000009,-8.570316403974111,4.625207070199953,-57.43511891289163,-5.6352749560918305,-20.01789998687191,243
-145.89454499897607,79.49201794852243,25.133857140690104,119.16127199345534,69.6739521639924,68.92279567465933,-23.68821795611593,-85.10312979352618,45.98723732885509,6.000000000000009,-8.499010640220757,4.695752448815561,-58.71831351919783,-5.653895513215486,-20.51290812327692,244
-145.42365548411755,79.6779534038845,23.26834862757762,116.78886742662284,67.80318616591558,67.27014877102927,-24.24685791381647,-79.57547813784777,46.73372938049264,6.000000000000009,-8.463718615245304,4.761057261298231,-59.90617872895888,-5.598977836033844,-20.898401952007557,245
-145.38692596085397,78.03546662890595,19.984526074076072,113.98519081376959,65.16470463149841,65.28623172739346,-24.328338014903398,-73.16678381621422,46.62292751265572,6.000000000000009,-8.308972709609126,4.647247122109403,-61.17066720061237,-5.7191053614026615,-21.086649503863313,246
-145.00488068806797,77.81121035593455,18.341289961893562,111.00052952277667,62.238976521217715,63.00566598573535,-24.089504256568883,-65.42233852557105,47.782223274809155,6.000000000000009,-8.408489299448833,4.718740603601537,-62.300424738114316,-5.238035047145816,-21.335153758767365,247
-143.9365649422604,77.42907868950068,16.67744683878968,107.80236331622913,57.70013183434815,60.2783700978941,-23.07233465359809,-55.68570739172736,45.92296418115199,6.000000000000009,-8.44055180704224,4.664611201731468,-63.628780584508775,-5.162575367128235,-21.349432354242865,248
-143.18828420618655,75.27806284367452,13.401675335181267,104.42795643920114,51.58514895098966,57.04916992793554,-20.82782955646264,-43.37845852064948,44.6081940672724,6.000000000000009,-8.425975754333882,4.596145446677753,-64.96279268299966,-5.029554088387294,-21.362158158080465,249
-142.0681066557959,74.77176861123726,11.944492264650185,100.95170351366423,43.41651140266417,53.69058561508988,-16.805972741124783,-28.298822862089697,45.48753579960383,5.778179189279972,-8.367709578109388,4.600433048777446,-66.14852055117062,-4.893662924488041,-21.388471832709854,250
-140.98006902723773,74.2421787766578,10.740153010414142,97.47540186998557,42.61461794557772,52.602149308914356,-16.750904612029878,-28.298822862089697,45.13408018433316,5.566084282184481,-8.346093600080632,4.681471853623324,-67.17983142735345,-4.778475279480743,-21.462107469958326,251
-139.69000304747513,73.67496110666806,9.716092697945701,93.86628324102482,41.158022171212366,52.125352548704974,-18.498621747137904,-28.29882286208962,44.70459729364924,5.555189731399128,-8.607317903444853,4.744915252867588,-67.9982051836168,-4.525482040438713,-21.527208948594748,252
-138.25977298433776,73.19460374293237,8.835702861998216,90.19127602727893,39.03229401221677,51.12135552475047,-17.12609005756663,-28.298822862089697,44.41776560384915,5.484521990709455,-8.88299811256393,4.714750637643572,-68.64703753325982,-4.36436013261839,-21.515669142163322,253
-136.91898089075448,72.78079936559064,8.037416672662808,86.33980735277562,36.768257426264,50.368119812302915,-15.347050115541768,-28.298822862089825,45.69067698337538,5.339285458142079,-9.20846677639434,4.738209604515817,-69.09379469589996,-4.069823807541448,-21.677005759422098,254
-135.4564583150031,72.29804175645926,7.493204814319999,82.23441263581229,33.58519389457764,50.28337235169416,-15.135331727621638,-28.298822862089825,45.08854092069058,5.213693679066824,-9.731829785484324,4.783076500081394,-69.37177623902039,-3.723555155967286,-21.730003356352434,255
-134.15068984018757,70.47397660504113,5.270483115625329,77.95740788301332,30.41705184854663,50.159224843799905,-12.453334407022343,-28.298822862089697,43.15223592993744,5.021325732755058,-10.315192244690037,4.857207150201061,-69.44545655931975,-3.402001315413843,-21.691716288897684,256
-132.69361970680887,70.1545118126839,5.182987988266468,73.5275562033034,26.914323011935377,51.07396225741025,-11.75893328586824,-28.298822862089697,40.54196737469551,4.818312365079279,-10.92127677715985,4.932896461349456,-69.2920827071174,-3.149029175235902,-21.586411474862654,257
-131.27485197935277,70.01907858680882,5.373311944144868,69.0507048911639,23.378123991364955,52.482610945472835,-10.595507096732522,-28.298822862089825,36.737343789720974,4.433526062389458,-11.589336461536638,4.942085027254985,-68.80760412553916,-2.9126993793496245,-21.255119265999088,258
-130.00929254588775,70.15912555329528,5.774727748635792,64.65206738060436,19.835072624845402,54.00346302249429,-7.584664181380781,-28.298822862089697,32.755677186527016,3.872967909087477,-12.18879995690564,4.972388137050227,-67.98671333123991,-2.7598232994886303,-20.942826837629735,259
-128.8784596922744,70.57444165452056,6.391717467939418,60.62112289249551,16.47301021952579,55.292292127621536,-2.457583675702491,-28.298822862089594,29.8233466882328,3.5266908958517997,-12.576605499343005,5.023451864927164,-66.90868638906139,-2.875176747214157,-20.633654014559163,260
-127.94660480701101,70.44239616138786,5.122494718613279,56.781805008734636,13.378305549218561,57.60037640058984,0.09456063144306245,-28.298822862089697,29.664020783821115,3.4442895569931395,-12.815780815236261,5.0416502876893405,-65.37155328727451,-3.2035438300237002,-20.225567769979865,261
-126.75344175693647,71.53397552859408,6.110340143934906,52.82417226001638,10.97425617483373,59.67595745057409,4.4416809794701395,-28.298822862089697,21.430440341256443,2.679940110865183,-12.960211056294142,5.0330901566585995,-63.582957955600534,-3.590198823269328,-19.65738093194773,262
-125.71317286530773,71.62648086590677,5.074728455933616,49.380161951536046,9.35354620535239,62.26741624925906,5.646388291570783,-28.298822862089697,10.999291707610288,2.1062312711825943,-12.99894150181305,5.091596765033081,-61.73360208755545,-4.022461879775918,-18.926121908144793,263
-124.66781674358427,71.86007363671571,4.230489073987861,46.81146130645613,8.010215851662542,64.39304509439384,8.820563065914984,-28.29882286208972,2.4286895036363387,1.6860301457677203,-12.931284029368808,5.218471215212274,-59.69392098566805,-4.639586933000356,-18.131491997007213,264
-123.58824577779748,73.11201391546177,5.698274410032755,44.906625117709495,6.792526499147395,66.38869945803988,11.729462651391968,-28.298822862089594,-4.319024360957379,1.3368390018676093,-12.788744252571908,5.355751421009301,-57.56975053545102,-5.404521844791336,-17.331296777280137,265
-122.58836950338083,73.5675370792315,4.68645266815017,43.34926061939168,7.996050886501774,67.61904762080793,13.618324993094975,-33.224414765636446,-11.976706205716567,1.0181415659547859,-12.625327656455392,5.544446773013189,-55.63017733232243,-6.095624192897742,-16.628435850529407,266
-121.57715519967168,73.8744689165642,3.665352657761678,42.592632554915724,11.201022672109076,68.87362300569914,12.288884133016127,-41.575860674980824,-37.79666901970725,0.8212601503307438,-12.393118115033621,5.789353186514324,-53.78940920610077,-6.778988236954152,-15.817969449715719,267
-120.63806853577029,74.3125133972041,2.901829741817285,42.66944036134741,14.019014003368856,70.43085796977734,11.220932993728216,-48.6549193240564,-63.093214689447905,0.7499601605924385,-12.231897548773563,6.0532224952995595,-51.63183401009228,-7.404390558216457,-14.895696933141329,268
-119.52900793266538,74.92887961821529,2.122098158744559,43.29746479279076,16.459868505024914,70.99745659005505,12.623998636342797,-55.43961882549083,-78.93930627672701,0.5661916832366984,-12.18378025286396,6.285329780286415,-49.342712998300925,-7.980319142302776,-13.9720265088978,269
-118.48729505344612,75.62191487235228,1.5932939290427917,44.80938295587715,19.27511702796283,72.52829732510172,11.667481402941648,-62.27296857820011,-90.0,0.6596810798438767,-11.902869069723884,6.510939436093129,-46.8624813349522,-8.74010236478457,-12.855446958356236,270
-117.61090690532441,76.641781112967,1.4064528402001126,46.505916969994516,21.702975952016434,74.48403417715025,11.248895815975954,-67.57854921971794,-90.0,1.196668396484646,-11.38963414649969,6.6911347595659185,-43.88282045857774,-9.419444117265742,-11.639616519416789,271
-116.5111046620211,77.41361483038278,0.8262709858253999,48.00690330109981,24.056465301012373,76.10958586278491,10.942722260468962,-72.2166907967464,-90.0,1.7911749086841178,-11.049390312664205,6.940781292894746,-41.22851445800194,-9.653089598256978,-10.65319637714197,272
-115.16738694224361,76.85014836772895,-2.1127674515796273,50.36121236138768,26.26716116309675,76.20992162072378,12.270184333046837,-76.91793059882248,-90.0,2.3506745464745595,-10.707816185588353,7.214295273565101,-38.93293239076064,-9.939603635560447,-9.459592464673173,273
-113.83281162808947,77.50356567231871,-2.507055410800728,53.47492470919292,29.08039838502909,77.69407291163422,11.757493619788805,-81.95361707674634,-90.0,2.7748001091407373,-10.548658596784692,7.63273956999845,-36.146182041308286,-10.004470551716704,-8.425848955198614,274
-111.42256357934544,78.45938434086774,-2.824757877506674,56.04781402093149,31.04604965192977,79.34682677859202,11.729365129830793,-85.6401824199168,-90.0,3.1871783607485287,-9.996782958800205,7.862767607479017,-33.074121249278505,-10.52807367393223,-7.315647346864847,275
-108.90311968812257,79.13613680812017,-3.36966141119005,58.47670645108787,32.97345903863534,79.22732074173476,13.453907838388444,-88.99048856997429,-90.0,3.735662792849886,-9.594824075535023,8.22386284752882,-30.29797220725298,-10.56723358159977,-6.387841053363267,276
-106.03910468081689,79.45753964973414,-4.064762911939938,61.07009826791242,35.343538389270364,80.38535271029352,12.909002309462076,-92.40815581607485,-90.0,4.158124165091914,-9.32448506319979,8.685834043788564,-27.805291448480098,-10.549473807836495,-5.458205416071683,277
-102.53342931698461,79.77241034984334,-4.728554895011846,63.43821459242751,37.616330427309066,81.63200858882242,12.508199660831265,-95.72305901216218,-90.0,4.552133100795654,-9.066062934019088,9.174519500415926,-25.219845303476042,-10.5389787460729,-4.529099003510236,278
-98.55763260901811,80.35324410724998,-4.655623327611316,65.2064491064408,39.25739128485807,81.41220796642322,14.19477764399046,-98.59292725921401,-90.0,4.942652478861362,-8.771361228725826,9.623574959327321,-22.40320730843904,-10.489543133834722,-3.5794789481985423,279
-94.1537101774114,80.07760182863848,-5.767921330015672,66.63980494364193,41.19224707749922,82.60382764746912,13.786360762604437,-101.15797997935667,-90.0,5.404973496742302,-8.453972528905826,10.04753799620908,-19.765966721888276,-10.394524694367137,-2.601027250211622,280
-89.55875389507369,81.06366362443362,-4.513027728713075,68.1426039627384,42.69979194655504,82.05853588230258,14.932341805920656,-103.38584767767458,-90.0,5.874176665165623,-8.228784202912339,10.488045821335259,-17.35150446828577,-10.154105219385352,-1.6256495277695617,281
-84.32715335176043,80.8147980828016,-5.688959604716859,69.4182584794568,44.58893360230391,83.34537349336311,13.910776106098917,-105.48452104078973,-90.0,6.000000000000009,-8.084904425567307,10.965821832839714,-15.101862835896396,-9.860664864067628,-0.7901656547940414,282
-78.85681381205345,81.78204855355051,-5.002714930622349,70.36160280605792,45.811227127839764,82.11753982799247,15.471710828841506,-107.70492168705378,-90.0,6.000000000000009,-7.972672571934053,11.399051777607673,-12.948097436171642,-9.564276662418045,-0.02533949211609694,283
-73.15731162562115,81.53302373343269,-6.61930078804382,71.06416050045699,47.6480459403308,82.39626924863973,15.289983084004149,-109.92558470206765,-90.0,6.000000000000009,-7.958204173900681,11.810719341500121,-10.876270371626843,-9.130769503012157,0.6343665945803455,284
-67.29264003715814,82.55810408290235,-6.340532015847996,71.25889463359127,49.30710424133528,82.49925597286932,15.207685130486482,-111.97602310726388,-90.0,6.000000000000009,-7.9844430228894065,12.20968536457658,-8.879253849669336,-8.681603546294538,1.1354608081417628,285
-61.472082210370594,83.47367837539566,-6.244016984485915,71.05574174474472,50.49746301497749,82.5633343150971,15.215257735685675,-113.87027791545867,-90.0,6.000000000000009,-8.04073763478309,12.542849047679596,-6.997834999187749,-8.234072600749851,1.6281121763034798,286
-56.00354329675162,84.24420278994614,-6.431644556841278,70.69681068045483,51.46070158604326,82.60660360030077,15.099406468010473,-115.67451574464312,-90.0,6.000000000000009,-8.117374242289848,12.887576194900848,-5.307105216281564,-7.825616068159556,2.1272211243213928,287
-50.88238536901717,84.94432866770822,-6.813690916453392,70.2463945382933,52.5190057036937,82.560797340842,14.873534816975006,-117.61435128017696,-90.0,6.000000000000009,-8.206385210156656,13.307120469827439,-3.7168547489389767,-7.418277121980153,2.52946978427772,288
-46.10729447047423,86.7714236140269,-5.153907639211432,69.87023853677,53.673720281457584,82.48966839496313,14.730883926858422,-119.60338447143839,-90.0,6.000000000000009,-8.285028695581307,13.752102534686559,-2.14991625104728,-6.958612163063102,2.824467181489836,289
-41.47058928936969,87.34918187357498,-5.566368504352921,69.73349005910956,54.50343326446865,82.53577521689725,14.931133151703694,-121.18832541136237,-90.0,6.000000000000009,-8.268635163165195,14.130256813284198,-0.6151100567638579,-6.4968753153039955,3.0121557980988385,290
-38.93979711726062,87.5846522654134,-5.851889877813557,68.51489305699202,55.958119750968955,82.47004767049056,14.962896599859647,-123.14797288565453,-90.0,6.000000000000009,-8.248816597060667,14.58773502779335,0.6560422866438095,-5.987941513506899,3.0922945326748437,291
-36.2032783666478,87.73970253853969,-5.615245387132901,67.20996336297031,56.53542758296107,82.36727750152123,15.647798815625146,-124.14319960471906,-90.0,6.000000000000009,-7.98332091965559,14.897538585350887,2.1950689140259265,-5.394748920941024,2.886103546427878,292
-33.48018850334744,87.95092216540864,-5.9432047294408115,65.19634183752791,57.26479765086913,82.3252261589615,15.773918975345167,-125.25345209077929,-90.0,6.000000000000009,-7.660483150010107,15.172810972395705,3.2318760946638574,-4.975237629104955,2.9478416711704014,293
-31.129021786911487,86.91110061238753,-8.062488552742616,63.02185640329164,58.05694540148509,82.3324414604295,16.39253320708023,-126.59889229840373,-90.0,6.000000000000009,-7.405664026761876,15.317393241420726,4.43339342036489,-4.366984579765747,2.922312522188611,294
-29.582197338543764,86.94357337056051,-7.912913445631393,61.25745196184231,58.65208636535334,82.39352350368208,17.19827432612939,-127.76848485634537,-90.0,6.000000000000009,-7.281247706666249,15.391440329819707,5.588257409401952,-3.686037547602286,2.8495062529511492,295
-28.573706038866252,87.04565557615653,-7.900359438842896,60.07750779111048,59.13748216271591,82.4201034644026,17.74993255281557,-128.7137143220442,-90.0,6.000000000000009,-7.362333187849731,15.446458056130526,6.427398898781115,-3.0718062867751237,2.8205333934936436,296
-27.6382374418001,86.30429821905449,-10.24288727713808,59.23517473479875,59.731801769644385,82.2676501345656,17.950678820023622,-129.6326589781545,-90.0,6.000000000000009,-7.444203166910114,15.494589489818734,6.941016167786394,-2.839319161941739,2.8189579613192692,297
-27.58010127649458,86.63089373808863,-10.15924291276605,59.00946265399171,60.22506240223649,81.97258964108413,18.20641126463296,-130.15449030865503,-90.0,6.000000000000009,-7.446611894647289,15.541571079495704,7.3553214745650655,-2.70820139907816,2.61748411317667,298
-27.963678551036853,87.19162495425925,-10.318659797534197,59.27735943819875,60.93411258150178,81.55152647247668,18.015592999474727,-130.45130210939007,-90.0,6.000000000000009,-7.351912663939242,15.610126579323186,7.287016966099119,-2.809700215305194,2.4380623232462066,299
-28.77517872209136,87.85143350655476,-10.488114048796662,59.85472961873253,61.726983748035906,81.07588703073229,17.692051172506783,-130.660069441957,-90.0,6.000000000000009,-7.212602124135719,15.608484117166476,6.916720699829899,-2.968223948134383,2.2547934849928173,300
-29.684825011836047,87.36461919164203,-12.728083213381785,60.519418314562195,62.40144636806193,80.6863396293577,17.441075800495142,-130.62370500813185,-90.0,6.000000000000009,-7.125454484970701,15.5294170775872,6.457224340735923,-3.0727704450221665,2.106429190456523,301
-30.991009048825102,87.92397132055251,-12.859606927193502,61.2929172389502,62.72817800444137,80.41163570647652,17.087520930140133,-130.26442886971583,-90.0,6.000000000000009,-7.0629623879105,15.458692875579223,5.853995808457447,-3.2932343420523593,1.9878150103719312,302
-32.42779476977942,88.52430185507158,-13.244814101240815,62.44384366188568,63.36990553423429,80.1501003200617,16.49607271867239,-130.1057875907734,-90.0,6.000000000000009,-6.944712031619631,15.454853367307155,5.029770811512725,-3.7032227663538273,1.9153921278353023,303
-34.412435667639734,88.9025511549551,-13.308123679191493,64.03345621642404,63.97620734906896,79.97758511951645,16.31815762023505,-129.80984486405185,-90.0,6.000000000000009,-6.868092629631427,15.343265289115903,4.318527843510722,-3.846679426908642,1.7744827385714155,304
-36.50458576990378,89.22885606471208,-13.48598518030631,65.80022951976339,64.33900917015143,79.90167755369407,16.010479916139495,-129.3593893433824,-90.0,6.000000000000009,-6.774329102423457,15.15899185174863,3.449222870254178,-4.167310572877941,1.7568177750185086,305
-38.67515135716733,89.55808521458226,-13.685368102118316,67.63932732760163,64.55524804652744,79.75082924983336,15.579165512291462,-128.86776426836482,-90.0,6.000000000000009,-6.705551957119237,14.870291945102634,2.4650018381693903,-4.505612129902837,1.7790258257253557,306
-40.60165277487585,88.68690766266057,-15.9626988155357,69.55037501204914,64.53470003203557,79.67762887106413,15.255955405339332,-128.20136373582773,-90.0,6.000000000000009,-6.592588347866732,14.51025374824523,1.3940454741443744,-4.942613576138015,1.787459762710721,307
-42.89743548842474,88.91840421423943,-16.18656319987474,71.3364603764454,64.71269016194204,79.66439373345959,14.973390743881671,-127.5155296227338,-90.0,6.000000000000009,-6.4534614681082125,14.193826273967913,0.2800167313232783,-5.3861658709600375,1.7587382927271995,308
-45.367292029014855,89.0633993220191,-16.33037549087219,73.37556959069443,65.06842148838177,79.50993788211287,14.665428858183516,-126.90502433694299,-90.0,6.000000000000009,-6.445156300823159,13.861331416890415,-0.8101312373928706,-5.643291049205385,1.6578677012552476,309
-47.76189678717863,89.30387759569578,-16.607193782402003,75.72877723910845,65.25884862828721,79.17320424297027,14.13898202152684,-126.31073451374783,-90.0,6.000000000000009,-6.410316997572234,13.49926165613266,-2.0288264087578805,-6.0812426520337635,1.4865077247025276,310
-50.24189522112045,89.58826445135382,-16.790444826230907,77.97006261052297,65.30187767570632,78.75324718678688,13.739982892641185,-125.58513231632017,-90.0,6.000000000000009,-6.27046142412499,13.081900948016415,-3.2777455113763643,-6.513545231626107,1.180322302675251,311
-52.7780206706179,89.71566686944597,-17.039593262225644,79.94472576758727,65.0288291856075,76.58874035806488,14.908538832658945,-124.9836377899082,-90.0,6.000000000000009,-6.1196906058139104,12.651402062532096,-4.607179680759394,-6.887269860266858,0.9406468085552955,312
-55.40043786548451,89.6543850078105,-17.27375052918294,81.8912319389024,65.36989718283368,76.31465976051634,14.483957992594032,-124.5214157042873,-90.0,6.000000000000009,-5.970946170973323,12.275550376968283,-5.870023703062102,-7.215926009804003,0.7055513172436354,313
-58.09907769683652,89.52318009679989,-17.44780502671272,83.82369973434669,65.63149476925007,76.07391436963648,14.194944126653112,-123.93018913363689,-90.0,6.000000000000009,-6.0270072603158855,11.84339233759362,-7.101040335337642,-7.212432247822314,0.47188310786959253,314
-60.107122871426405,87.98046116555493,-19.73984095834181,86.14393119842721,65.81103090687871,75.81574281193045,13.763238638439244,-123.37536709263189,-90.0,6.000000000000009,-6.03520649326582,11.447089145678378,-8.386416660152433,-7.55159073715402,0.21153998918885697,315
-62.61905399410101,87.77100110513209,-20.141867623687485,88.42558854214066,65.87900402912844,75.47638847299444,13.262116373615749,-122.73445267051939,-90.0,6.000000000000009,-6.042549532099988,10.997936138498638,-9.798552508643796,-7.816295311165347,-0.08169927774859954,316
-64.9229146796594,87.4468472642568,-20.632933897918075,90.37843752740953,65.79849371838155,75.16200204752627,12.671994742570307,-122.06514647557698,-90.0,6.000000000000009,-5.983509253560477,10.493180296011209,-11.29133439507254,-8.157165082961397,-0.2755342751081408,317
-67.18760100249752,87.02600184800546,-21.056880505224132,92.21877487713459,65.93269613305476,74.86117947990238,12.121749806313796,-121.38866381013001,-90.0,6.000000000000009,-5.848119349001206,10.07087943307982,-12.675906357068706,-8.410820701534764,-0.5184309596871033,318
-69.54031742961948,86.56430472758636,-21.47687135971204,94.21530663504772,66.1885935046718,74.5303483447504,11.587542213886316,-120.63832979965443,-90.0,6.000000000000009,-5.7064817383205595,9.698265756254473,-14.036245625196804,-8.549346823010087,-0.8435148004985414,319
-71.68552706082814,86.07591465567441,-21.929366442278365,96.20621853110502,66.43602850598056,74.14032571882312,11.001199837037325,-119.88714648116911,-90.0,6.000000000000009,-5.579642304428184,9.323591887519134,-15.461116252471404,-8.673043304713746,-1.2235246731174696,320
-73.6074391362934,85.55241138049817,-22.427099242724804,98.0654894290957,66.59793463714581,73.71989297872526,10.364684461865128,-119.1899667655702,-90.0,5.985327128973965,-5.486093550416703,8.93968275178923,-16.907601561525194,-8.78467640297071,-1.5893097563882865,321
-76.2288592064461,86.38536585233429,-21.159568502214704,100.0292683761445,66.80053563641908,73.30453079729342,9.618609650215815,-118.50069596425905,-90.0,5.877479254502843,-5.348683581873885,8.546997392490688,-18.406740091090487,-8.924747066051262,-1.899773517378593,322
-78.31286759253717,85.51775422979186,-21.762605029399385,102.01589713349252,67.09046623451701,72.94026033720938,8.79363879903907,-117.69793438124317,-90.0,5.7131665365924755,-5.204607479538519,8.145040093803928,-20.017705053038863,-8.976303415184075,-2.174578708988235,323
-80.24159398242512,84.54988440824016,-22.42825522344951,103.9641371085173,67.38428456879974,72.58737284137905,7.901499671209366,-116.87108925267687,-90.0,5.6110114641351485,-5.0894739776574385,7.73233799174436,-21.74302869818975,-8.998876099478293,-2.4607030863835146,324
-82.09740128410732,83.48376559504,-23.091693238313407,105.88638584683669,67.91908359229954,72.26752803147892,6.93468375552221,-116.44156011720695,-90.0,5.549656146103028,-4.875184217533393,7.361520708583595,-23.463030433055867,-9.109452382460086,-2.7670528728809716,325
-84.86488996548145,83.70656571536819,-21.71914198720256,107.8383527263157,68.786737829265,72.12933576974255,6.026983853862306,-116.27368134353466,-90.0,5.4665514119980525,-4.562939673010398,7.0649329708752875,-24.964596847684188,-9.110246322641242,-2.962937095464175,326
-87.18050676731312,82.16910201544349,-21.85131341327923,109.89947797287853,69.38993424867449,72.08077564928269,5.386510265537271,-115.74535834059049,-90.0,5.443177493864607,-4.328994863406684,6.740019959228282,-26.233293437195474,-8.927588393030744,-3.038620121579428,327
-89.06449494689709,80.82877420119618,-22.364530289812024,111.98946615074556,69.66054845454897,71.8281971998952,4.540863592897274,-114.72781463763076,-90.0,5.44583163886603,-4.171825931806326,6.358198441216836,-27.802628171209573,-8.807416228284158,-3.2072950164935117,328
-91.27125719193444,81.26557294635876,-21.518901259954102,113.98717882525126,70.08490651944821,71.3342866135099,3.3063452508714395,-113.8243686261227,-90.0,5.537916030266988,-3.9988799172449996,6.035050389078527,-29.722113954577832,-8.80248030221017,-3.6329728467896816,329
-92.82642443221818,79.80813364853479,-22.218861303176467,115.87224789820897,70.6959186160557,71.0017858067979,2.119019529322092,-113.26400473139792,-90.0,5.606214980221507,-3.8534671269722045,5.796120551895647,-31.539783652442605,-8.685659535280818,-4.03463756335139,330
-94.65895354792467,79.90482189567724,-20.840883652250934,117.48437100173727,71.21578664075804,70.91412397410173,1.163078154675119,-112.9330922768088,-90.0,5.549810484169272,-3.795988584467513,5.498499962039964,-33.08722800839807,-8.46076823489113,-4.153069451785574,331
-95.10578432061261,78.57093775831311,-21.061770116266768,118.96302607901204,71.61529122483779,70.84363280931935,0.2493945642744249,-112.29674524240815,-90.0,5.466439341877982,-3.508072510385208,5.19450382721276,-34.46466654887063,-8.495923641021042,-4.147152567744997,332
-96.54954183923579,79.12293345946311,-19.50182702347741,120.51653447781801,72.07813264468433,70.4225872831012,-0.5264129317643365,-111.77996584855863,-90.0,5.742308335766415,-3.250077079347181,4.8953256106278875,-35.76690353497124,-8.35572023920836,-4.45886340082117,333
-98.55649820569631,79.14921977725557,-17.706597785904396,122.09215096449154,72.32025578679864,70.00456055915875,-1.1664369565652373,-111.64141960396304,-90.0,5.89808451403417,-3.283945374806462,4.546418146537575,-36.989769977896614,-7.909423634271049,-4.622023475148842,334
-99.64898783608972,77.1263858756576,-17.62854361280672,123.67377449296765,72.30793706685475,69.85151182998561,-1.9971327859811774,-111.09102408943197,-90.0,5.654447077395064,-3.177538853910961,4.192134557029634,-38.26974781185384,-7.7137268252390365,-4.336674030546112,335
-101.27956906650874,77.22006637780596,-15.953641124563035,125.31786269663459,72.51388387469424,69.39453346011109,-2.84882170606657,-110.6502516124059,-90.0,5.648865985337337,-3.011674841779667,4.005429282186009,-39.49755394382523,-7.531183811680772,-4.496703151918651,336
-102.84115017135144,77.40854024928225,-14.072822438226495,127.09009178547971,72.73789566751482,68.93243514092872,-3.578468655823688,-110.26231147558745,-90.0,5.698100220338977,-2.8064250855468598,3.8861677001065935,-40.484157982388965,-7.437321299005739,-4.705497231093702,337
-103.73263802966761,75.88785255829042,-13.829514757083121,128.682226764714,72.86982870732129,68.33454913222306,-4.289495420902648,-109.85828057094014,-90.0,5.781308135630101,-2.651403115758566,3.735810085135758,-41.429078989736794,-7.289798277064805,-4.898553707125958,338
-105.25937545048717,76.0806497318038,-11.894605684855954,129.98510976593394,72.7737251980107,67.62472330753499,-4.833004813449327,-109.71989857283847,-90.0,5.784610315402866,-2.651011065942863,3.6031562671214457,-42.28425836388895,-7.008336414542512,-5.106305662214342,339
-106.82250946948122,75.7432077049356,-10.014194906583048,131.38042230611782,72.42373701930059,67.12618152454021,-5.306947778356501,-109.42257818160193,-90.0,5.544235661982167,-2.6109519541886788,3.44652471057249,-43.03959002688714,-6.846252116976853,-4.965097891379735,340
-108.30594380479495,76.03224958299467,-7.918953887411013,132.83215500972,72.31954832389663,66.53719522738764,-6.030390663016899,-109.04954928050391,-90.0,5.385338636334933,-2.4959677746674798,3.307380933434576,-43.89534923806307,-6.752479855438647,-4.892465147883684,341
-109.51264910069007,74.66606728760594,-7.32657505376137,134.1914435816597,72.4161221152605,65.77792555124823,-6.758934038047623,-108.88654439708287,-90.0,5.3998321597213925,-2.4279093558043807,3.201373557867422,-44.695756702126815,-6.593922102420663,-5.059918690129271,342
-111.1921503830518,75.19162546454922,-4.8876235121699025,135.46125237764176,72.1961529466356,64.98704601465015,-7.232756163358138,-108.71052062456164,-90.0,5.284894420236349,-2.4250380137889254,3.099062942176824,-45.36801656205047,-6.41271064164893,-5.1901778094133,343
-112.48610058315356,73.62722371741364,-3.9396797084502224,136.68049428395642,72.07769856707235,64.37060564131274,-7.92179821551286,-108.49870804680506,-90.0,4.983465089672464,-2.4544796767817587,3.033393005271219,-46.1192477827996,-6.249470560221282,-5.151844130980025,344
-113.63223080706707,74.26290305248344,-1.4673791038155466,137.8687594467844,72.14215291836385,63.71055558751927,-8.607108448538094,-108.39838879836242,-90.0,4.854304162722673,-2.4918367967202513,3.025764111838616,-46.689772477113365,-6.139113571293195,-5.28208194054115,345
-114.85738337556933,75.24017095204766,1.260865239414252,138.94796979521826,72.07307316794129,62.96320992083892,-8.959207921733725,-108.48073638542772,-90.0,4.858968030265312,-2.482876994867069,3.0563161358533484,-46.96790729296809,-6.1299129778028965,-5.591168881598279,346
-116.44989879046149,74.18130783403367,2.8319205305675736,139.92584973847954,71.925107860546,62.401820913515614,-9.21324190587434,-108.54882025637639,-90.0,4.749656963852388,-2.4820703312476864,3.076211550961652,-47.220261255507396,-6.091553138965188,-5.739097162883193,347
-117.98423095465674,74.96899725791519,5.710952292464953,140.7410808694876,72.23773573317933,60.32621236478387,-8.107533749618923,-108.63495989529967,-90.0,4.541129432202913,-2.4992509931010334,3.0582351922715594,-47.6421480218766,-6.001028561468587,-5.721641704295108,348
-119.49470982741472,75.83735322270275,8.632024495029532,141.4737880621245,72.29698193530452,60.08166881222869,-8.483676940043583,-108.72866561671388,-90.0,4.330605468700976,-2.5131092117197036,3.089408558806854,-48.02265207083194,-5.912138036168042,-5.737293648659657,349
-121.43410705136768,74.79663225563898,10.40087281803681,142.24072169797765,72.34589308557106,59.96110504115811,-8.822410530759514,-108.72725751425006,-90.0,4.054287560789811,-2.5618498003488277,3.224088957132396,-48.34905353077841,-5.826757967309596,-5.805778760742363,350
-122.94509193194203,75.66769822463156,13.61784608491254,142.86415944267495,72.27332530849974,59.989215834553434,-9.083904307438763,-108.68582461146512,-90.0,3.722384967325717,-2.6034241691627553,3.4153388848566264,-48.7003871882007,-5.862941344839446,-5.919518717219524,351
-124.04908463481236,76.49918833589565,16.66642835421166,143.21710348639127,72.57932771849323,58.53879392625387,-7.888993130048383,-108.71188774688999,-90.0,3.400472566911787,-2.596572083955752,3.5733678262313022,-49.12854605717502,-6.014366891161239,-5.918388741372615,352
-125.69260550090405,75.65047569750423,18.381367191138015,143.49252390860642,72.79731623935697,59.01187245604159,-8.185438534364613,-108.87390904252644,-90.0,3.1310953849215544,-2.559431263868112,3.7518100689147857,-49.41749485712638,-6.164490670981588,-5.89035636222416,353
-126.7151143442806,76.77535069881182,21.342956310144288,143.80068024612095,73.37312510338617,57.8885108217262,-6.886724228086535,-108.98387716253102,-90.0,2.872166355165279,-2.482870100945155,4.012201907099264,-49.657857893206945,-6.334186572739199,-5.9662824409331865,354
-127.51071581018827,77.83931803768769,24.18901992245692,143.99711718759647,73.8017530367996,58.557689566617206,-7.278854598065653,-109.13564874343683,-90.0,2.7057595827490233,-2.336407885842643,4.2749142112036695,-50.01710544555782,-6.634494339497805,-6.0702717420096235,355
-128.99829704074529,77.12989355396509,25.75916937317257,144.15748460202445,74.7294807048125,57.57737663174425,-6.259194818681758,-109.42607809867701,-90.0,2.6955144341960504,-2.173274610349142,4.563091775220337,-50.377092272383564,-6.932092777778316,-6.206921212021992,356
-129.76337273660167,78.45717543422272,28.60904835998971,144.17093447611379,75.19813461316906,58.333214748481836,-6.4430625158315715,-109.72353927777597,-90.0,2.8474503682905676,-2.038989037925059,4.857522085501987,-50.52358408464806,-7.201484895590943,-6.3862913630012095,357
-130.3726014387132,79.64639900675577,31.366609844992272,144.20332863415345,75.9042522955528,57.512603371312075,-5.181008114658156,-109.94554663353051,-90.0,2.9334998919919184,-1.8868022820680623,5.1869912355519485,-50.753521989595754,-7.524211132895457,-6.467017629973093,358
-131.3132667487288,79.79775559255594,33.14335651623857,144.2050219177602,76.45003661359868,58.44863056106318,-5.529383030465277,-110.1919679037801,-90.0,3.135654136045732,-1.7101306331009871,5.517069624143044,-51.02626940591395,-7.92118011195522,-6.598547831402492,359
-131.80467142434196,80.8381647459378,35.344862425283424,143.99594030248838,77.05675531696839,57.65164457895287,-4.098726740896447,-110.49256108079777,-90.0,3.3695261160617,-1.5886556338625413,5.831834546158712,-51.18805743023498,-8.265186897762389,-6.765170371777171,360
-133.31537946764203,80.27910690966823,36.32962517918649,143.71450018894575,77.47131161842836,58.67026644811028,-4.327599078731433,-110.74380718075741,-90.0,3.5755260332271783,-1.4710934205340152,6.159212105143145,-51.38620258875248,-8.643990688229794,-6.8216703238842,361
