JMW9912/AVATAR/Dynamixel/dynamixel_control/data/csv/poppy/.data/waist_test/2DoF (2P)/0422_1756_WMCA_Dance_one_waist_poppy_smpl_motor_degree.csv
theta1,theta2,theta3,theta4,theta5,theta6,theta7,theta8,theta9,theta10,theta11,theta12,theta13,theta14,theta15,frame
60.13394649773839,40.806399967808076,-74.5595994734354,63.02173958217838,-53.785115442556844,31.312246865175617,72.69218408799098,-84.59562097872154,-10.455021489073225,1.5834420755185565,-6.960736768844729,-1.1823844231307301,1.1562913723494652,1.961819866963327,0.06859205493716197,0
69.90683376046894,35.67483522226177,-87.69044994918414,57.47910804589415,-64.80579467966398,27.63878304605874,87.29686745326,-75.57851054932063,-14.872152140018501,1.4272224672127911,-7.404619301658937,-1.2761731369240281,0.26798536687652996,1.2068962213312047,-0.27668104506582764,1
70.58991261387335,36.995832679815955,-87.98617259312836,54.382257557155135,-64.20955569253216,28.962945846962473,85.96656521705798,-71.46643998686554,-23.85639108984812,1.2329246160092804,-7.6439610067800485,-1.0561382660419814,0.572303287118047,0.7493030869893628,-0.19157802595489748,2
74.46926386878388,46.326906055407754,-89.56135951459856,40.42795384398461,-70.82556101286568,37.97606855105034,88.86227756163211,-55.159762244779614,-39.69520292302606,0.7459012776104965,-6.486428837149219,-0.41366136349582155,0.8572203085498816,0.41190624213186683,0.2666677299516857,3
77.74860884878612,55.55193764076514,-90.57319436454706,28.926063057918853,-75.44909940736123,46.51532594359136,90.23981464436538,-42.528400484043765,-39.411043438566146,0.6446796319927679,-5.764445795882351,0.3666783867380927,1.1041154587508608,0.7424157274778522,0.7132197320259185,4
79.05392026559723,59.61455420711339,-90.13048202575844,28.298822862089825,-77.39239243346088,53.62967553924639,89.56388022284452,-33.16077118678257,-23.958049077822455,0.6161513033577015,-5.51279609935946,0.9662003353997483,1.3644144804083984,1.1558187857339048,0.9675783571785872,5
78.87182550845695,61.55104233465459,-87.80287709520493,28.298822862089747,-77.0943791287418,55.64462512544438,87.55216670567167,-31.431109951260154,-11.949215188439565,0.8285837568117085,-6.309001027817903,1.3907130690360106,1.1034861691478273,1.8033970094552672,0.8963010436822719,6
78.0208937555213,60.748982723710064,-84.83932228589818,28.298822862089875,-77.74830737847986,54.128497811355,87.1670915665666,-31.06186078845157,-13.914702103333745,0.8401162335610554,-6.795187709597638,1.3243098244165257,1.1756856063520273,2.0446943505308766,0.8792440155395634,7
77.5731018992152,59.057644378301724,-84.31357323002479,28.298822862089875,-78.40104430121467,50.9980689715205,89.36511094564155,-33.2509693253449,-23.247266276187926,0.77512213310049,-6.8605777991974115,0.9203968325690737,1.2054589273227831,2.2953323341959684,0.7151201573969467,8
76.90318037200811,57.50774728317578,-83.60479723416384,28.298822862089594,-78.54231529103858,50.209247957728095,88.97966932315927,-32.322461047373736,-49.4921974349959,0.7232010870520531,-7.001409238707088,0.10525561628494537,1.2155321421984193,2.243806988770991,0.5663310751242805,9
75.30765565458162,56.48378545209236,-82.72828157363863,28.298822862089747,-78.36354988369841,49.556019756256546,91.08946530329229,-32.50407313938782,-64.94198843187755,0.8503142957517322,-7.118541381835103,-0.7712757181995323,1.247890040429915,2.2614989503248863,0.3995862088581124,10
73.10349083125435,55.101057752376,-81.48171192576328,28.298822862089697,-76.55360545320792,48.15659513351796,90.11616824094295,-33.7282200683145,-79.92451327800188,0.9778897454514487,-6.674157592217441,-1.5629537405464358,1.215867053783428,2.122932016061456,0.18137712256146712,11
71.85883404370513,54.82143536670874,-81.03433594218967,28.298822862089953,-75.1915607918989,48.415781006199815,89.58710227534297,-33.83598365727407,-80.23972899769984,1.0914924256009169,-6.452533672874812,-2.1230166637897643,1.2613247165268764,2.160775391959248,0.07552854852835486,12
71.01729301045748,54.82882875001148,-80.87389759047473,28.298822862089747,-74.17606130262763,49.15828756615572,89.31455434115803,-33.768302791064016,-82.65556539591992,1.1286672740111747,-6.142567701107502,-2.424407917005438,1.3521131256919856,2.070233832345108,0.050710163006969546,13
70.40766200708995,54.5903801407091,-80.72532467773249,28.298822862089697,-72.37313636500555,49.79902619487429,86.26555912947387,-33.38243990294432,-81.28377455861668,1.1441285849431826,-5.664197834810807,-2.495537132471918,1.403398558836908,1.9869836721673657,0.09355065860092956,14
70.58376246855372,53.08217747125107,-80.07883724555619,28.298822862089672,-72.1407326495035,49.180553249975205,86.25916293900312,-33.70073240980728,-82.6248102691605,1.1500838327397243,-5.402304216920441,-2.616915345131866,1.2020212730228628,1.890729904018463,0.11372248730052092,15
71.4133448651627,51.16319986500831,-82.16894829246257,28.29882286208962,-72.13150641773848,47.86309557733792,86.16200394280662,-34.42336103978287,-84.62684693619947,1.1282199163366955,-5.129563263565711,-2.7013719246725216,1.0477196643175448,1.8155712051767758,0.21429918699156625,16
71.75301616354939,50.009323838080114,-81.82781742385824,28.29882286208972,-72.8420912499289,46.93024200772541,88.90268708480806,-34.80034247270455,-84.716657000037,1.1011763603811717,-5.021869851619906,-2.6816919521832454,0.9211536860658203,1.7633613341397874,0.29587982726153156,17
72.87231130048268,45.6936211728822,-83.50821746862887,30.3050008094804,-75.63480181003115,43.07076004344508,90.61917144274055,-37.05893917002379,-70.39559539049579,1.2417372108594753,-6.678540096556317,-2.95630312780622,1.5046663775715448,1.9197183904617747,0.6155430198892775,18
75.27726627170682,41.55204357686361,-85.69548316672741,31.657888930690028,-79.00538214283105,40.29686420519308,93.33930457937049,-37.50056483114733,-60.086760717140976,1.4423936251974696,-8.213977336857354,-3.3251321627170345,1.7223288285658562,2.1097305995834335,0.8549281125057536,19
76.40023342285517,39.48051334439365,-85.86795301528589,31.586883645980514,-80.59494814452944,38.8751643663549,93.31644116049887,-37.277466090117734,-53.75006406365192,1.5439414905210371,-8.780739471311854,-3.4009376764987214,2.152804150863491,2.242056714061752,1.0348717927006714,20
79.14476780881573,39.37363552760956,-89.82297933984228,31.070025714786357,-83.19962090214585,39.18817433251441,96.32925051868979,-36.92568039326664,-50.30610343289727,1.6927221909862493,-10.047617291908919,-3.5588342490356784,2.615707401767705,2.4736191659398514,1.2789652447259487,21
80.37901080964178,39.80511799626723,-90.54544048871477,30.19018535854828,-83.72866708443098,39.59956801781879,95.88733661257935,-36.47376419454035,-47.922861331705555,1.7617977844720556,-10.869221621343911,-3.6401354336392444,2.9847029487682244,2.5827866143094966,1.4670220817313404,22
78.54163428664502,44.39215707465888,-86.58719482325367,29.363856838634394,-82.23316064978498,43.52040348710481,92.45813138035211,-36.973677272282096,-45.814856282501154,1.5897274519609343,-11.296149854433088,-3.852966328759854,3.836782602389335,2.8716384988345203,1.8485633780869408,23
77.17086858037455,50.266289641047806,-86.32268567096298,31.28394500911938,-80.69456039303435,47.84451627961698,92.30786082444567,-42.41453481347362,-48.242015239838864,1.35979826008979,-11.822595004597055,-3.9457310075153695,4.506326301089933,2.853001997664316,2.016534513614963,24
75.26200478826514,56.44837808432862,-84.47591859887069,39.02986040022932,-76.62572144466762,52.83365232364989,85.28816408772438,-51.59753975263212,-53.14377481814071,1.1023807430513664,-12.08571899880124,-3.8542331085323673,4.525834808378341,2.683518671210447,2.0043806320101263,25
71.61722299817498,58.738061537823604,-81.15983325987054,50.496840664140315,-72.45197786002532,55.29548740967047,80.07323425075546,-61.106134764098286,-58.725466676009745,0.9782223493013978,-11.252219191007685,-3.4622872969997367,4.214151532175263,2.5430362246005322,1.9202749210586594,26
69.71231661187383,59.75890996966332,-78.14021540471646,54.9129737916243,-70.86963076411898,56.10213207586936,77.51374312947084,-64.73429618709125,-60.8629483892409,0.9772951736132045,-10.741192395362106,-3.091157749685446,3.9405006028360767,2.515345979293129,1.8302168022903917,27
68.22936975146945,63.06827436253116,-77.9890464235237,63.44123712965336,-68.65702304721894,58.91806069626073,75.51696615797331,-73.26179648375592,-77.11089257407089,0.8260296962064709,-8.69056883848645,-2.581098867794786,3.6125737862436518,2.277412164512951,1.3751800608078701,28
67.25755781307208,63.66530142369505,-77.4649820075533,72.85070864442648,-67.40244479298585,59.47720057387861,73.49425765113509,-82.41941810234658,-90.0,0.8541356886141969,-6.564268659072002,-2.0837505604162705,3.0145544718887796,1.9906447838672734,0.9600064389793324,29
66.70815690871945,63.171589540594645,-76.29448545529348,80.72942935090644,-68.50283858317937,59.33795379136241,74.79302580669956,-88.88828054307353,-90.0,0.8588269600378219,-6.237967004713985,-1.7482813026852364,1.876966103707098,2.04883233279183,0.6802023488692348,30
66.82180077894508,60.66014096263028,-75.18878966360582,86.12360703278422,-67.02116893904055,56.34965995853222,72.1357548451413,-93.83795895548113,-90.0,0.7256903696386824,-6.665779746313002,-1.4167028762257423,1.1482443694575397,2.124891381492722,0.4615575233787412,31
67.41386408198812,59.04509772535493,-74.48481354834342,87.15372769313012,-69.53923859943994,53.79881838833786,75.00625169868876,-95.42164971872874,-90.0,0.6935876196738736,-6.643397613572677,-1.2068736555061907,0.738667896045331,2.0402817611155055,0.37495657168002916,32
70.91087767992784,53.750646233004815,-75.62632687190994,85.84472512636489,-70.44103532754384,46.568910804899126,74.19218334499814,-95.84298617738129,-52.33587670249484,0.7138679229366192,-9.13810548403796,-0.9178766826289833,0.14589982320819384,2.3577601191909086,-0.13540287177024599,33
75.5748910583583,49.828877571623046,-77.48434373680655,83.63154352017382,-71.07669306152748,38.20588727425703,72.39702093770248,-98.64000185522922,-32.47513178531755,0.8638299204918343,-10.54066297201937,-0.6764704528286175,-0.12832008476703943,2.590865349684102,-0.9674231771440251,34
78.12913773112719,51.26134240336754,-77.93164684457582,75.5278347396721,-66.05656317333019,29.686565261214266,68.89272725165878,-100.13480282391899,-24.892171094451268,0.8840470687814985,-10.912587302168632,-0.4680947846346382,0.33559249012706854,2.493756067112874,-2.3789625496974254,35
82.76844270181176,55.76958606256017,-81.83330418362532,64.83385613403689,-47.96071065806865,19.926848926754488,55.1260323862365,-103.76376644782621,-22.76580550813044,0.7041641673074142,-11.205066285730801,-0.3732871024890971,1.0613554315960025,2.232549157435209,-4.599756026809426,36
83.72368161156882,59.99756248438149,-82.20747839600575,57.54992479706495,-26.641768994421987,17.061697065328136,37.39228857560702,-107.678647457988,-4.03606061223657,0.7585773321569538,-11.525116786446592,-0.36760479451018674,1.4282516895588018,2.1388233947784334,-6.019343023192254,37
81.60670910995182,69.10000206964004,-79.95416057532888,35.8374944719792,25.45462312904806,19.166888775188998,-7.180827685559808,-110.17271467864701,25.412473784235708,0.7245030760961192,-10.039137685119451,-0.6516018013756923,4.3885126673549255,1.6950277806911929,-7.963472496605881,38
77.70760422459315,72.84873304816169,-78.31318745019013,28.298822862089697,60.35718424046395,26.620416569748322,-33.90522203310122,-115.39681511109589,61.02624073888027,1.0625669814340162,-7.913357133617782,-1.118080839029839,8.358832063286654,1.0653765328040732,-9.159993611736706,39
72.86159824408045,73.86064682511781,-74.29480356650747,28.298822862089697,73.21832090737118,37.78927269139171,-41.05072788817584,-118.21215140498957,69.71371674720234,1.46847714301567,-6.448770531317514,-1.3388292737631846,10.312278669789112,0.5774266673708421,-10.152092104279836,40
70.40692140944768,75.52187995703406,-75.19422409370368,28.298822862089697,84.32995649357031,45.31147921339461,-47.30433215422549,-121.4400357881607,79.99738553306923,1.6870949095009409,-4.741322885096432,-1.5445550091159803,11.726637016391885,-0.04994145903688023,-10.950572455819874,41
69.77033959366562,75.77820174663756,-75.44025858753714,28.29882286208962,85.93143328291796,48.28447011855781,-50.60385003943271,-122.67381882961119,85.80431035023311,1.842271384696394,-3.947112124387869,-1.3269243080820055,12.075056693011623,-0.26535711674281504,-11.48054628152407,42
68.94792809753294,76.70097806081898,-74.24035595830058,34.92246683743093,90.55816934637556,55.707045386370055,-50.454477252941125,-122.97879672371995,85.42705118819835,1.7287548689403667,-3.324446479768297,-1.299111819559088,11.545924811148524,-0.37388902550195297,-12.388666972545849,43
69.76889282224354,74.82156939707998,-76.51712754004005,42.40570553015434,93.65698133291983,60.26874118179389,-50.327221511446176,-124.35289091830204,83.91908767708081,1.6857365500389756,-3.4050367117591134,-0.7518724925379517,11.12441912572795,-0.338929387292651,-12.743527075035187,44
72.82201773816645,73.7268828831934,-80.40296382211743,45.67779435544784,91.24609970808307,58.6297219094098,-52.36495241607781,-126.78320636342013,74.51424637561607,1.644540863230364,-4.2763774778997785,-0.3546710106508636,10.091490318029868,-0.14880737911187014,-12.498271724077695,45
73.83734742179774,72.82217485324078,-79.9532715213667,46.98903111957895,83.8282838977728,49.272575660757,-55.664401146895464,-129.85477033374696,61.830353015265864,1.5859720739134235,-6.1242648424177855,-0.06491746205268813,9.775816533757453,0.22273150945923503,-11.063044833387842,46
75.71820341565292,72.2693032828114,-82.32084191929853,48.97822281114607,80.96190683986185,45.26195040026928,-55.83824876313771,-129.52178338949003,54.80768888448948,1.5738486428162868,-6.776430777407095,0.07808775037794902,9.601467980582475,0.37914220184804404,-10.454369411092834,47
74.38560426766044,70.30289178700083,-81.35881182193312,49.887931771472836,60.18485201438697,26.032979558031304,-45.92364116660782,-128.70398403068015,49.156637444581605,1.3045948827706544,-7.680506313141635,-0.14787966782915868,8.85351891497467,0.8705472609747625,-7.978561941190934,48
73.81249637861566,69.38680935387929,-81.23079307957039,52.113110132541856,6.855673837354296,17.34793639018688,1.3748298453173673,-121.8586766418164,56.81364104779025,1.117723545647448,-8.286899920124364,-0.5059987449135352,8.161153395269825,1.1633819423344245,-5.5329255036275775,49
71.77349153106613,70.00282262056783,-77.49953697911361,52.92876277754202,-37.911810082071554,27.59523072409081,45.175014455546794,-110.42874843068475,73.0216718533865,0.8830513641828482,-7.667268351315437,-1.0563007890129332,6.443693619041081,1.4538568285219164,-3.756886270343405,50
69.57323535321703,72.9743990318909,-75.02229001357772,52.38548544047215,-50.746069322766814,43.02470425889631,55.685506890125744,-98.5695002954299,84.96988656650957,0.753608743243642,-7.097126273190488,-1.5917034492465998,5.787368096207882,1.8237177252943553,-2.098258888699118,51
68.33030050823069,73.28142472427683,-72.25258322193656,54.617580963692866,-53.07609145106005,48.065799399641904,59.180390684810874,-94.1545205063161,78.18398311877979,0.7332777423780124,-6.874486922914613,-1.843104924454346,5.329478574678061,2.0467560875567745,-1.640369236626992,52
64.25230108225824,79.12305072974124,-67.01736324189933,55.001829809917936,-57.512760628683765,63.81556178164099,60.42287920329079,-81.1304072748157,79.26900388205652,0.5346225624129031,-6.1518711795186665,-2.048440522220071,3.7947341354339312,2.3994890631000096,-0.43602275000608426,53
59.115287891668046,83.22584373214744,-61.74709646905252,58.72107329646358,-55.34027442252792,75.68958485384678,57.41164440005931,-71.09548214170971,61.36296081576266,0.3698067837766336,-4.783619242825444,-1.8420296036054336,2.024815324676831,2.9640891830841314,0.3066157954252058,54
55.29423342934754,87.26702782417377,-58.26481461748672,59.53293060437836,-52.54680901599551,83.7334735638815,52.606296241377834,-64.8923365424087,20.599578541098534,0.3576998604688296,-3.6264284996247866,-1.4390088831304542,1.2300635834519882,3.4129769414257165,0.6154511825933691,55
52.90208082495863,86.46070263616177,-55.82553551922206,61.320573921290105,-49.24355511085605,86.2974264776626,49.9180693248657,-61.84154536989968,-4.534855013738835,0.5760232504186209,-3.8328482998601308,-0.8302118602352296,-0.5740383177489161,3.8954112537840495,0.4919066897925924,56
50.94998917807317,86.92948884988705,-53.26365026068862,61.07167454911022,-47.70651285284654,86.6812687252014,47.85734023197303,-61.46981410272975,-19.273963896147688,0.520875938058465,-4.022493838586894,-0.4313737005970211,-0.9647898662972165,3.8910656892942375,0.3328869449081576,57
48.912754474831274,85.4919738749902,-52.800958571603935,65.44466020632782,-45.60764823415633,85.0753786038285,47.95356763774086,-64.33044329622726,-28.522968560193373,0.6763399217940174,-4.768343441082881,-0.06426146598792633,-1.4916831816930765,3.910562281871895,0.19013070101098756,58
49.46114333999259,82.60358650746797,-56.27883428946292,68.46550127309827,-44.09576400482899,83.97361874602254,48.379008704703026,-65.84044572984273,-34.98304355535773,0.931350551167621,-6.303086263091212,0.4675330766587082,-2.367860374278837,3.824210015427672,-0.08630897307966323,59
49.408105093151725,81.67665649855222,-57.506857924047516,69.14075708610662,-42.05864958620692,83.67111431848585,48.98119025528468,-63.84251155332693,-35.86923629294994,1.2834122976309406,-8.119049616298838,1.0165723702999923,-3.477574404764653,3.7683093816440945,-0.5279052123604492,60
48.52370031247905,78.7377301036376,-58.482754097702646,75.17133024575273,-36.36440974152509,86.13683968341446,47.74897694371704,-61.60216720902105,-46.829571858483156,1.4660890505226187,-10.723549226875258,1.718444564982818,-6.975808976833264,3.662784099924776,-1.7621305880006117,61
47.078299765744966,77.83923209013713,-59.117671294655,78.58391826429882,-33.08647029546657,87.38279825894904,49.244868050391894,-59.0480846349354,-58.06804459784607,1.7452182065270183,-12.506451782951952,2.3942567883542045,-8.792570052606168,3.461607963906822,-2.8595666230926096,62
43.17560915295552,74.19939223711204,-61.9955645078968,83.35078810243962,-25.872831657978285,90.22213698097221,48.118998077939914,-55.11122503604244,-63.55236342653943,2.887118372031366,-12.983644095018906,2.640076992388284,-10.074288725540875,3.437094037724941,-4.101731437625214,63
35.59231341312177,68.76433126364024,-62.99940905554055,93.59343745067183,-16.79515160621287,91.35151506592926,48.73064107817639,-56.259427941478165,-65.96196578279627,3.4926381316293016,-12.21183549330806,2.745979142974595,-11.221232207907898,3.148557114151814,-4.589511952380963,64
26.40588262698062,63.93393833686867,-61.733679426476144,103.38935388019276,-8.836919520379574,94.13104805433122,49.31667210220711,-53.91701985991733,-70.71420438047929,4.09667827311313,-10.914051809414369,2.600109421172857,-12.425987040853588,2.8079005360763034,-4.6655941670058345,65
7.732563523122937,61.913373190525654,-54.82351357025999,114.28988522145,1.7566613378516431,98.17540388350238,48.34256510535497,-55.48054617054633,-71.64270976167121,4.64223385920974,-9.145232660737353,2.0211063787626373,-12.922411708348028,2.5026348237246614,-4.081837532369118,66
2.094759090806501,60.5804409397442,-55.24578410768584,120.10218862797652,4.28341788674474,100.64134293828766,49.636885924620515,-54.513645789047814,-77.62678171102912,5.019204871462849,-8.05944815526225,1.6644464757215645,-13.31698424354135,2.109280149010614,-3.756477882408316,67
-4.588123013316857,61.43657114611305,-53.56417929352091,122.89149738601225,5.556264831571691,104.20642182822937,50.592720348862706,-52.456209147825504,-80.25329239524487,5.353839732799506,-7.004642037099956,1.126755770180679,-13.863058989060889,1.9669003340476647,-3.3959144466098174,68
-13.642187671798986,65.5522704673611,-49.195994966514064,125.63068089454175,7.361694797256977,105.62510163623585,52.948020905962906,-57.630977016244415,-82.147317966528,5.6402615512108065,-5.519555233765664,0.618162973536386,-13.367285138164425,1.8297282559557044,-2.3613846570978976,69
-18.751822293419178,65.42782818102421,-47.56168944522313,129.0016668986962,7.895895896621819,105.55306550907554,54.27256651331171,-61.69961633036972,-84.95589460434397,5.914163523916857,-3.9097938223999495,0.25814412201068165,-13.331431494890843,1.6425530998669164,-1.4312383853025945,70
-25.357992695075723,66.41944102283104,-44.234562142441746,129.35284511028104,8.024667972121009,104.66446267804021,56.22676841156755,-62.66743392591394,-81.07325965747874,6.000000000000009,-4.250986885348433,-0.09595323329632859,-12.830504766433553,2.021683840655858,-0.45829283492215406,71
-28.33254664512123,67.66666491153094,-43.40953620191362,129.4006130188105,8.836142760777658,104.30884037024518,56.59621061624185,-63.83444565177211,-79.70641441942672,6.000000000000009,-4.659323607035817,-0.26529868256898453,-12.274697550254176,2.0164428048090617,0.0910920422477779,72
-27.328804922553914,68.39296765522472,-45.95258931922843,127.97258959622857,9.299283654341313,102.94722912980538,57.18238921269205,-65.6836875476057,-74.66158744638301,6.000000000000009,-5.764482017897068,-0.6128422860215104,-11.12879683591462,2.385984188904391,0.31534280040771406,73
-27.944998151028344,70.22854522718156,-44.182896311661025,126.44527281447446,10.015306296277041,99.61279458158063,58.671196354925996,-70.5802731090517,-69.78698857035404,5.898576590451002,-8.328415786426376,-1.3368943729113358,-9.361514136297949,2.839624530951917,0.5052504099667459,74
-27.987802342771634,71.05425478771102,-45.21011821034509,123.09945087260466,11.403383048556353,95.48901994996638,57.7180999854471,-75.97649502358098,-66.43654305843003,5.684871775497169,-10.889729403932309,-2.429059939111893,-6.961444826445872,2.943314429263634,0.9755565510840744,75
-27.606028029526723,75.07323674635659,-45.401108444736025,120.23400757059497,14.624623499333387,85.9361583592254,57.03503786332738,-92.35765030650214,-68.50035069997833,4.3554043016864545,-11.758248197560535,-3.7202568668184925,-2.475097410474856,2.375154713613958,2.1597022932092145,76
-26.24362885489085,78.29410568775077,-47.75995749902281,117.23969117225961,17.390313913328367,82.9861908368464,54.96506888126624,-100.21124143625923,-70.6080310175869,3.587861886706301,-12.209566565140566,-4.398215201412769,-0.17864698592467934,1.802514860308497,2.6261510210844428,77
-23.175306803914047,83.47172097920193,-50.08220973604742,109.4100646685466,17.99683226720353,81.41815474387231,54.952443026577946,-109.70717427675305,-66.76012916803121,2.7482605149229706,-12.45266230722795,-5.177673144148812,3.357158717797686,1.4511429206950592,3.3198542614471975,78
-23.592981165565263,88.66979177068275,-50.74934006932203,99.5708857601062,21.213298988235223,77.09161508776111,53.481324204119886,-116.30638063440425,-69.07400175517131,1.703785097298181,-11.772110583179359,-5.530642147465304,6.701615324391072,1.1487421687596384,4.136116927560691,79
-19.76951801776222,93.83464144907292,-51.8390719962945,82.08109288775324,20.596882856826525,71.10337763220745,52.11506248402071,-122.02557787653218,-54.07450876235367,0.579593556649417,-11.946290722274892,-6.055628479873917,10.545913622011286,0.7320593589625457,5.13367570828799,80
-16.748110154652316,99.32243441037342,-52.867912917224956,68.8535868082928,24.741194738768886,63.149341024862984,45.48156208819041,-132.68467993260163,-54.07450876235367,1.0968163723575242,-10.815669846207934,-5.856410184585115,15.207073025824577,0.3353795615914072,5.966771073636422,81
-14.455469977726008,102.81027627467046,-55.27859132912245,59.75008492970293,26.411967787336238,59.719435484785215,41.63240680910999,-139.74829662039002,-54.07450876235367,2.1070844557162283,-9.787660777831476,-5.391998747049786,17.61277597677733,0.3078014122980138,6.029150559745569,82
-15.956176339587639,104.3188724129138,-56.572333621550136,61.241175920844825,30.89716764897771,59.820228256143736,38.19269552275227,-142.9480787434253,-54.07450876235367,2.5509880580429676,-8.777894025985928,-4.5262570411015774,17.675377093319494,0.16070652535036675,5.443309260929981,83
-18.152749288213844,104.99999999999999,-57.793781946318305,63.367589828716305,34.91002404356165,61.94744615183219,37.060898328136524,-144.406966232133,-54.07450876235367,2.7369579604130756,-7.414234668413816,-3.8597088626006064,17.714360441273445,0.007468975748770902,4.831226697884654,84
-19.871255834754095,104.99999999999999,-60.66192118968954,67.15494971250496,37.23991711032833,65.14616928506138,37.40593165673694,-144.40475717129706,-54.07450876235367,2.8148989517541514,-5.919486689235198,-3.2530825941459853,16.83045887711075,0.035068039496242064,3.9099839860169574,85
-21.276222892850296,104.9011395600147,-61.01574668459785,69.59049189646501,39.1964253237944,69.53146556167681,37.23615811660783,-144.02712017774624,-54.07450876235367,2.73645755726363,-5.373287005730486,-2.449752820863365,15.690661858390117,0.5697908170745737,3.402122116120994,86
-22.84532324677151,104.57721315354813,-59.07841837483503,71.53707373605712,39.21771532938618,71.0739478478158,38.288972521654216,-143.29800650216262,-54.07450876235367,2.604451748646755,-5.102162587408235,-1.8949217974270691,14.829606743918191,0.7907745363244515,3.0674401767539496,87
-22.70898351517705,100.60974630417194,-61.71707681388976,78.12114864485937,38.214036615511596,73.84599976204046,42.675828607497046,-139.77564570193553,-54.07450876235367,2.266508692571909,-7.00581148295486,-1.142236392959711,11.715245069359995,1.3613260925154589,2.4960464402983686,88
-19.960556664773296,98.22965541995183,-60.45644239443553,77.14218100050083,36.537431542263214,76.18401714135915,45.3562953554086,-131.9942040428037,-54.07450876235367,2.075674978237292,-9.672799140262953,-0.24446360276190326,9.112980834757893,1.7949225068491608,1.8485279532098609,89
-21.624834463294285,94.15732751911999,-59.90720679351805,86.79564468901081,36.343230813047285,78.41053389148912,47.815466725583796,-125.08513670012141,-54.07450876235367,1.4461209535978616,-9.83327140832244,0.7655354317949092,5.82631046496176,2.03444085977805,0.699586856981756,90
-21.087154881948837,90.17520742326353,-61.28348124180251,96.72029580532022,33.66904688512998,82.48422006528025,50.36977526893221,-114.22735740714492,10.362084722546442,0.7711494585891334,-10.455479812832856,1.6134005601004735,1.746245678485853,2.026301784180342,-0.33045789245911983,91
-20.51571459095553,88.56300877215845,-60.5752688167233,100.89791901875557,32.58728662562194,84.01082932508751,51.01936780060596,-105.45629532504138,-33.94245583302543,0.9652918049635784,-11.140874670754368,2.212037967546874,-0.0072288513679055685,2.04894564954186,-0.928603793620366,92
-21.774398165598257,81.09305945663473,-56.551142024659406,106.0516993849703,29.440517194543244,87.09114065889801,48.71489417396276,-86.91916460534401,-61.04068839573697,1.8454049906695102,-12.072213113367955,2.508937300759731,-4.693714017374472,1.9115743675162467,-2.25109861092718,93
-26.975280761475542,75.62604457674134,-51.92323335830018,113.89398948845489,26.365242724532497,91.67074898302513,47.368785489082704,-72.32162796377261,-68.5488123295275,2.970850216191279,-12.681795022497335,2.867419017486331,-8.52107920050491,1.6906289875354472,-3.226942567205743,94
-30.151743466285453,72.45955489208593,-50.62768297449224,121.05035205634887,23.731381712439227,95.46522473707361,48.853666882154656,-65.21692216223755,-72.97064408746698,3.6323258413040507,-12.720596894957314,2.7483299324360817,-10.498637674656042,1.3056996463361508,-3.644507991488165,95
-34.826607169527115,72.07247453656889,-49.668916468519626,124.43499565866689,23.044841431988814,99.84074012468861,48.399169085375156,-59.38611889266533,-77.89230239656803,4.085890758465102,-12.294530809250917,2.310893309487235,-11.528178570482854,0.8838570205546328,-3.7607688520658957,96
-37.05866807391585,71.98544076309587,-49.928209963233186,126.02636176275837,22.382071213465117,101.50788074065014,49.052712778971596,-57.820915905795964,-83.17036754530571,4.203621148843634,-11.884910469286645,1.858950399420629,-11.796082586782042,0.6811183270716555,-3.6164370962112313,97
-45.85269937686113,72.39758315982013,-47.94803202372152,120.91344922446048,24.877059742204676,101.5326137659812,48.957747661260605,-53.7090357501746,-90.0,4.053757796584167,-9.207549129007333,0.6955256848959349,-10.870759908622524,0.3206802778693096,-2.506637796917014,98
-52.52431516705024,75.20906765053545,-44.44197011071901,117.24212821304246,28.11589039142747,101.74124242726407,49.67045443980087,-52.68621824611976,-90.0,3.7411962452697645,-7.430593620448383,-0.3581580063988149,-10.345203153776568,0.40520630212633485,-1.2759160750589336,99
-60.386966689213985,77.93836132319763,-38.6523185140878,115.38333271174004,30.992396690930153,100.9620235524327,47.928484214563255,-56.65490505966115,-90.0,3.411308190924675,-7.505291293506748,-1.1831125685985924,-9.902582222467817,0.5271757764321924,-0.07679286905591352,100
-69.87017274404833,76.81593250362134,-29.496529601822814,119.27002700123838,36.56731492567533,96.2668052666041,46.59318890476973,-73.32740831452263,-84.15544744649222,3.264205150216872,-8.288183659453876,-1.8701963645888378,-9.316143880778332,0.48475534025774336,0.8810873143404216,101
-73.80480715820666,78.33447685282127,-24.76161441072025,120.19444844435259,37.98787044913552,94.6714075454031,46.98613126165677,-79.00116145567611,-76.49886920146001,3.088353651633252,-8.977478027790571,-2.222616185063045,-8.91399322126421,0.2908306479628604,1.5300062426506282,102
-71.83321919033122,74.23191101421725,-17.571643435672975,123.84648148366755,45.83179605985423,79.68718542441772,42.45043388602069,-98.52853765347365,-70.90833983340383,2.6792699188578672,-10.596960213389028,-3.021601603625906,-5.324084809889769,-0.1251583816422432,2.9616629567199073,103
-59.64856106197511,63.673222439737565,-12.159616148100024,122.58771958755422,50.12481792186482,60.55342803796347,35.33624398040681,-114.5527927026901,-68.69069002623432,2.2026576717649164,-12.969279082506343,-4.186441300652025,-0.8977698118756678,-0.3116060043013519,4.121766716679485,104
-41.781559522472165,53.522341463118885,-13.988051875251447,114.2802043428899,47.48628771474926,43.04956451978449,27.576562567710393,-122.79924305808095,-78.52423865017714,1.6505020120528258,-15.158883792216335,-5.242171189792872,3.0752004437103686,-0.6297952969871077,4.399301606102164,105
-14.398772387300875,39.20676667077554,-28.842566383568233,97.14527938932136,35.70481957823445,22.200848924525634,23.34341286894917,-118.03099054562169,-90.0,1.6637735494459929,-15.307302641487125,-5.281788707918522,6.060043999196618,-0.5948739449914663,3.686075794799599,106
-0.5785430162152608,37.50887782327296,-39.2017681923645,91.46791358751163,25.699427808492295,18.470089532588986,21.74810843337421,-115.15802533358779,-90.0,1.6015019213341324,-15.803705276830902,-5.333178086620214,7.386631676960108,0.024296473826913162,2.9765485071318434,107
20.90799808299031,32.80213934248816,-55.682636331251295,83.60054587193424,-5.958079883631979,12.445146700904465,42.58244256198878,-106.80094968485062,-90.0,2.355843727157221,-15.265560010774415,-5.003496842843226,7.272743749760513,-0.06861461443556931,2.115184327649482,108
42.54755190174345,32.939727986735846,-71.73441411410839,71.9095397568893,-46.10419141172753,14.2695933450556,74.0414891280967,-96.87348197927302,-90.0,2.665219800116048,-14.31956973810275,-4.5951793204269045,7.064826738810428,0.1427771490110274,1.404400261365575,109
56.469646112447236,36.6769015979445,-79.00179827889508,55.56552016965506,-63.667289526562556,20.082632742006712,86.22964837291607,-81.9129322606329,-90.0,2.6661704831854474,-12.76096715109678,-3.9452712951262,6.601209998359543,0.4691963797400848,0.8541284510119768,110
70.4853154157725,45.476977763363784,-92.0572205035773,36.76007968610237,-73.98399890989823,31.344238479019243,93.12962163792662,-57.7036746549187,-90.0,3.0814359970396064,-9.882076940952713,-2.8155067386962354,4.695492107184616,0.5282475294390327,0.15293761809413817,111
76.43488749951358,50.234682633902274,-96.79635941867647,28.585901815161794,-78.45316991906849,37.240169109136694,96.19087485007842,-48.32806094874634,-90.0,3.1060267891069353,-8.644530427166071,-2.3712450783871026,3.332942751275158,0.8781417705218887,-0.21868832829943888,112
78.89459838794477,51.54576390299185,-97.98473952647863,28.298822862089924,-79.44831988992712,42.1968577700137,96.00590129665204,-39.70674602935235,-90.0,3.318430500144893,-7.511174267126088,-2.08707402219931,2.4119569618392016,0.9003500766340704,-0.2510832601726218,113
81.34071447706829,51.33302189425852,-100.26365382685611,28.298822862089697,-79.15783506661046,45.34082265030547,95.0772677029841,-33.66575278145357,-90.0,3.1910544342864977,-7.3284918363317795,-1.64648940163361,0.9225359165840972,1.224051678322381,-0.2453056345877762,114
81.7687845066404,52.685494985394435,-99.66831521001768,28.298822862089978,-77.78220978991595,48.51550742142144,93.35625792083513,-29.684656594965194,-90.0,2.8843253174027943,-7.6579571236142625,-1.0121525526114767,-0.2098006207101411,1.6141479446269158,-0.3275989556496861,115
84.64958901292125,52.952669162623856,-98.61530330718286,28.29882286208962,-79.17761436567712,50.40107021962786,92.83324247993585,-28.298822862089647,-90.0,2.4586602291298503,-9.738598435101263,-0.3065749814804699,-1.9191133687253292,2.093048376378407,-0.6335532599081244,116
86.06591551825922,52.621691346355206,-97.91567170584806,28.298822862089672,-80.38737334587582,50.56286804795946,93.78852848861777,-28.298822862089544,-90.0,2.3639597867717876,-10.785845269804264,0.11656005939709121,-2.723168232895675,2.101949753204068,-0.7707011874942341,117
87.36653590763063,52.13109871312492,-97.51469079060026,28.29882286208962,-81.32105118199412,49.85060006081723,94.21824348610402,-28.29882286208962,-90.0,2.1994754985231695,-11.778368741614658,0.5800662517910754,-3.242703970797426,2.3207525553748503,-0.9397143751148038,118
88.64761951189176,50.55157262724408,-99.58936872367727,28.298822862089594,-81.59502295119624,48.20421561828813,93.79454454165393,-28.298822862089647,-90.0,2.0966785239826855,-12.648739050107352,0.7824356775467824,-3.585088360462234,2.417519731973555,-1.1087398100916876,119
90.52487281861863,48.394009373504666,-101.95567056931318,28.29882286208985,-81.19526646733127,45.41228423874261,95.71167329569955,-28.29882286208985,-90.0,2.1136772893268216,-12.790289130231567,0.9647983737949498,-4.299879641900505,2.4516586025135325,-1.3998431177497621,120
89.60873008373733,47.133318068595976,-101.20940694025502,28.29882286208985,-79.90260990477023,44.351866585191566,97.30621728546468,-28.298822862089697,-90.0,2.121923888215431,-12.463107321105706,0.684443390751187,-4.581104256328163,2.300553811326353,-1.4165119578042809,121
90.47142004623181,46.185433057429634,-103.97684973865952,28.29882286208985,-78.23045115284448,43.31970586853008,96.57201379799541,-28.574970120602092,-90.0,2.0980303356231915,-11.890332013183132,0.38290214623750324,-4.998284935905545,2.2378125295124454,-1.444564041916701,122
90.12651159070943,45.14159852115574,-104.14963631678556,28.29882286208962,-77.2327741656691,42.170633373612056,98.47214433633049,-28.96388607639237,-90.0,2.1503482133226477,-10.865227345361719,0.061823900281959554,-5.047982245891254,2.0013080474385676,-1.1924532233357326,123
88.81912240120276,44.50919314588181,-101.95037682609278,28.29882286208972,-74.8100446454089,42.19787357723549,95.19474986502686,-28.86453201136704,-90.0,2.2675254421083175,-9.255352199538613,-0.24008797823124278,-4.837753168822951,1.8253672404545285,-0.8552688821514598,124
87.78346030918821,44.46425089012733,-102.3682391795346,28.29882286208985,-73.64390831599893,42.806868575245645,94.98335946204897,-28.722619817725157,-90.0,2.3708456003402434,-8.017253690050307,-0.4858555275106341,-4.428588899961019,1.6872502238413452,-0.5047447656175756,125
84.24208811268696,44.49470469530155,-97.035429260584,28.298822862089875,-72.30973064573304,43.46989169738022,91.759714244385,-29.073959336884254,-90.0,2.676745869239224,-6.613775875573409,-1.0080059279769924,-3.360401744948782,1.4114353540942963,-0.13586296632361983,126
82.94407815508784,44.27924624910505,-97.03197623806182,28.298822862089647,-71.33985915621504,43.507140022230914,91.16060072779769,-29.720220594010407,-90.0,2.797163619312526,-6.010362485769744,-1.3015718141199142,-2.848215051931503,1.363503373065834,0.06307000279886074,127
81.12354112418949,43.86978451854039,-94.15156975120566,28.29882286208985,-70.43123292780956,43.15562277083987,87.77026665529199,-31.079380101568333,-90.0,2.766071565109192,-5.94932584769043,-1.5772226290456888,-2.1873990419696696,1.4936366979656865,0.27811454064180996,128
78.63445856960132,42.08051802385303,-90.45580124384823,29.586974750831953,-70.60821830677092,41.606891637738315,86.65204305973592,-33.01207277533359,-90.0,2.4861951385923806,-6.684034640444748,-1.9388085128478532,-1.4071103360878,1.8555898252749856,0.6135575391263908,129
78.8908123909559,38.71306748831244,-92.32486076551494,31.467899094548542,-74.6266065701296,39.242760950037,91.54315835650046,-34.61991367388572,-90.0,2.242125583793197,-8.48866020728428,-2.3351343113779093,-0.43531618720722065,1.956810625805977,1.0688038631346897,130
80.56351661699497,35.58689741591828,-95.31209628035808,32.25826778554573,-78.96573187174339,36.298737191178155,94.27540666349799,-35.79018348245195,-90.0,2.1268706746019173,-10.024357862172081,-2.776060911932046,0.6633056025074086,2.1237830493655085,1.5544831533498298,131
81.82094917979667,34.45280705412533,-98.56395323426624,32.04376286850746,-83.38692624929382,35.18020435218101,100.48852847552278,-35.94651769091988,-90.0,2.0061852573839256,-10.957660767052198,-2.9744808881605547,1.6684506913201254,2.1569864978282136,1.9477170335747866,132
83.10573347899175,34.66183517965738,-102.21723947994809,31.28602528532646,-85.46182407102343,34.98284560291861,100.30303555912369,-35.72926826495272,-90.0,1.89473366087921,-11.92648197334894,-3.096323305579145,2.824402887411553,2.2652871667493084,2.2923986977943094,133
81.87906070894721,36.0981477884655,-99.42118714775944,30.110727226724652,-86.70153367765319,36.132087701538815,102.38821425820414,-35.355275274201986,-90.0,1.7503550994901649,-12.74714464198995,-3.2527277528637253,3.776030653142955,2.288673204927774,2.5614420816481673,134
79.58280263438368,39.01452516000006,-96.85650262985206,28.759419195306272,-84.56664661585675,38.12090284592671,98.0837241948091,-35.12654703140639,-90.0,1.6911839801301554,-12.782704131316553,-3.3567349104925097,4.617833046491236,2.287436316764467,2.779665926252537,135
76.3321854827624,46.25237622349221,-88.3669456891052,28.298822862089697,-80.15719182894416,44.80616318969302,89.98551657564883,-35.683886433906245,-90.0,1.8097530200174237,-11.883604608754604,-3.188540559612014,4.719236293631753,2.2702956691859137,2.5807479073469546,136
74.96728203619894,52.03256237554445,-85.27525938720886,28.29882286208962,-77.38633443125924,48.901917218993795,85.44188422603948,-37.998505690446024,-90.0,1.8720877939358036,-11.243056774028194,-2.965561217462333,4.665471451415153,2.234510469160247,2.2876495585929835,137
72.77187072065142,58.7801415304708,-81.75411288083338,30.10658600515224,-73.85305077511892,52.8929237716562,81.96129132990589,-43.5084974064867,-90.0,1.9131915612941939,-10.418061322150985,-2.6103881277219645,4.17497603562168,2.0775553814763894,1.8138869573654177,138
68.69790430216939,62.674971466635064,-78.28464881191456,39.53335621860662,-67.6123559484017,55.20403936415411,75.01512298295447,-52.92154776326071,-90.0,2.037586892766455,-8.968652566634812,-2.1655414722247337,3.739296860356999,1.8453937841443468,1.2780011638877802,139
64.64427798001927,65.72724889236221,-74.83378274028222,48.90381801940339,-63.82275765346057,57.81042317663221,73.4686219384355,-59.84944905845959,-90.0,2.056963320820643,-7.410544956693608,-1.7823413118461713,2.960235677887224,1.6256191080747957,0.9226377878335605,140
64.46689351949797,65.8981487105077,-76.79682751883193,65.55548763145983,-63.203138294428044,58.314703907576195,74.29670166336007,-74.79803876059897,-90.0,2.426536540742914,-5.747899431204985,-1.2257257444495768,2.149261957938616,1.3498473533418884,0.5944757673938004,141
63.00206939720106,66.52767793596634,-76.7099104912999,72.41356747982067,-61.656965138988525,59.4085610022037,71.91831363625874,-80.94025687094526,-90.0,2.390729040179984,-5.467624726145274,-0.9474678144602616,1.8240894680190278,1.4452209280904527,0.5799234891395049,142
63.478511595361276,64.94250527837607,-75.94892027660822,80.13086042913056,-62.92187365665234,58.096855411913545,72.40031006780843,-86.82334411659049,-90.0,2.231327102537489,-5.881126081239702,-0.5229745949648352,1.0457192432527957,1.7143366401822657,0.5089573303842058,143
64.87145016527482,63.57397784817209,-75.1435349249111,82.31706616028298,-64.48826336660792,56.32276470379283,72.69498968430766,-88.46160279681487,-90.0,1.9246271914853539,-6.750974566340936,-0.22342988159371177,0.400673096817423,1.8711774354727262,0.39134309858431376,144
66.65752666174531,61.59467548132217,-74.36585245369905,80.32539796003978,-65.591764975332,53.21185906535103,72.41559981409935,-87.09889554775485,-90.0,1.6497624261196728,-7.686313636455333,0.08807983045352064,0.013084870360091887,1.9893506848306253,0.20749709978492942,145
70.43461398372978,58.458456085900096,-75.86399627077562,74.00013143921639,-65.77740566286981,47.19781909212634,71.81582221001618,-83.85152929102034,-90.0,1.2589078408894245,-9.198443806997396,0.3799335757590374,-0.468964125720224,2.3074714527435205,-0.4767891790277195,146
73.67720628706311,58.120155923625674,-77.64435601379229,69.68312799487086,-66.08726435980815,43.54320428267901,72.16929744545554,-82.1696666975255,-90.0,1.0195192384533538,-10.325755002909853,0.592986582670228,-1.1605300970133432,2.433691112226677,-1.1847028391203167,147
76.83768641948036,60.844864431868565,-80.055649837456,61.200738071163286,-61.55917818724673,40.656227239209706,69.01719098107107,-79.11254197354721,-90.0,0.8865274099241649,-11.410558725457369,0.6839787939857704,-1.4352353515565053,2.4239211955860576,-2.251012229966718,148
78.6385250705398,64.09317195506162,-80.34034942970365,51.566408632060686,-54.83178385323539,35.3091619922178,63.87320724994562,-78.66641639244837,-90.0,0.7531816818893338,-11.915587928055784,0.5666881000654391,-1.0020357699272986,2.316513786878629,-3.4980687636020003,149
78.75637761639214,70.37781627938818,-78.47788419170836,37.54906980156373,-32.51800937842988,30.938073362057118,45.75471610759216,-80.27386122042067,-90.0,0.597771115371139,-11.015572915591516,0.3305495981725042,-0.12336750039185726,2.3301841426969063,-5.326236211078657,150
73.4942408795066,76.9075127416461,-73.42075127843457,28.298822862089825,13.25989444467605,30.79315455532884,10.134169304821564,-90.06928951422225,-90.0,0.6539656726138204,-8.669333134715629,-0.3753411752467328,3.2436474731900966,2.0809116796249567,-7.652465466115564,151
70.67640444279816,77.07603277672943,-73.72117115298659,28.298822862089924,29.75392779876869,35.395983838310606,-0.9788800366708428,-95.22390026978174,-90.0,0.9072746916564781,-7.829641346255947,-0.9581138356055906,4.624404228095364,1.8167169014832698,-9.010741869663523,152
68.02889568875266,77.81872327598616,-73.1748939724309,28.29882286208972,43.16536500142897,41.93591793206491,-11.020245436355719,-99.35146081495101,-90.0,1.1044503597316204,-6.577977515889571,-1.128738230011662,4.82066297327434,1.646552983120397,-10.051082565582176,153
66.18401948247731,79.11663863053393,-73.57296858238367,28.29882286208972,56.4446802705686,46.80010357724224,-20.038200584745496,-104.98521282710682,-90.0,1.2394085744072587,-5.566895116482545,-1.2748928048573285,5.894109864121063,1.3253607116611121,-11.017903526272445,154
64.80074085833829,81.44761384006527,-71.3893309954708,31.197028973457737,64.93424534076377,54.8322294144489,-25.194973560689355,-106.91009075510209,-90.0,1.35594924779506,-4.947251165896758,-1.2195336843511075,6.500591878671256,1.1051360527701204,-12.20861805514266,155
65.96631189486408,79.38693195992951,-73.55984480607692,38.04664211866632,71.75900900175459,59.50048695857511,-26.19647710806755,-112.08978111014387,-90.0,1.3465257428015411,-5.929428917148428,-1.2107734723372336,6.441720694521455,0.9099703342123581,-12.869126887824683,156
68.14554787175325,79.99211105353814,-76.13249857477096,38.077167403907715,74.21471256730767,61.061024221633716,-27.385066806272604,-114.3722037293588,-90.0,1.303027845556065,-6.289586057153405,-0.9562500086335498,6.5051706999586,0.7119309703950494,-13.176616993220382,157
69.27169034449003,78.77494018050042,-76.64119368461509,37.716733279321865,74.22590923088394,61.157743662953614,-29.287268293347108,-116.81544933219263,-90.0,1.1829951701504526,-7.1346449152954525,-0.8343382484683943,6.68626550354237,0.8643703983163326,-12.987054882680244,158
69.95590031380888,78.05468382101444,-77.46065978808308,36.97314774939659,69.80199887903885,58.66842656642809,-31.637074190104602,-120.5074723210317,-90.0,1.033023230814259,-8.344673316708079,-0.5593348228976646,7.277637430797099,1.0448728882116378,-12.015148307702626,159
69.97026661186169,76.67974560995567,-78.37839750383687,38.55861190558259,65.51328110779919,49.13122060099121,-33.881055503204436,-122.18236990949104,-90.0,0.9594663919301779,-9.051058541095053,-0.24345279043856996,7.709241062034816,1.2291004421150933,-10.466157521816971,160
69.29294938949734,76.99814896122021,-80.25517827732067,40.22670443981877,36.43271909446691,28.862000052455546,-18.169710404697582,-121.55384636996779,-90.0,0.8774093678735703,-9.832238694041502,-0.44315445651949253,8.389893572822194,1.7087242285059978,-6.952420187007686,161
68.90804607804536,76.56297160594715,-76.38265956270646,43.66243247095285,14.807904446616341,24.89417455864603,0.9834663985405293,-117.65423111194842,-90.0,0.8352888627513779,-10.842744903485611,-0.8390996938118961,8.760169427851062,1.939150931898353,-5.279503742551503,162
69.1039258699157,77.39415832404063,-74.77667125105702,44.05958532545514,-20.126475815745458,27.012274698554776,32.33342648618095,-110.81019858052682,-90.0,1.0196754094565692,-10.893000948682126,-1.2146263010435185,8.721306860525802,2.116916022659991,-3.5485502908277065,163
68.49642620809497,79.2367454212501,-72.34902625102637,44.559258614840985,-38.237303005673205,39.220332819458505,46.857386493301114,-101.4088188180037,-90.0,1.0793684726090562,-10.586561270272536,-1.58310104496195,7.842471744383272,2.487649712642348,-2.073120466846721,164
66.27044810994322,82.41683289661725,-67.07557581947489,46.622690385292344,-46.495227894224136,52.171472143326305,53.561424683142135,-90.27074736201745,-90.0,1.0071016764641356,-9.659762421195346,-1.7189600081758623,6.346751964316307,2.8999660059773977,-1.0157431411088447,165
63.10309658367216,86.17015260428144,-64.70182717941532,52.69665334594181,-51.5295593412201,68.38802112135629,56.00647484749567,-77.72399299055138,-90.0,0.7674388647452365,-8.223169798238143,-1.6514083920937117,4.128732705273977,3.3290791905257526,0.05740018462463001,166
61.13916184664913,87.7828197987294,-62.391673374882984,55.464316261367784,-52.30983308560036,75.54998592158826,56.11871063769338,-71.33927038211496,-90.0,0.48895557612074925,-7.307289927759553,-1.483883310572381,3.2402922636001597,3.6950926608703143,0.41722352032066595,167
59.343361810182955,90.3101334883234,-60.09427278861011,55.57720312144626,-51.94468088390577,81.0050969555259,55.622914555251434,-66.09236791590702,-90.0,0.36046172716283176,-6.085273272646372,-1.1184985705159871,2.367803702159551,3.987344647034348,0.5300174529765403,168
56.57553867106412,90.98180763513288,-56.90127712699488,55.21846623888715,-49.438299734797184,84.50861589388042,52.39927161771897,-62.63450104786189,-90.0,0.2626799234577336,-4.7964272267874675,-0.7543968827132409,1.3716566650629656,4.303152932424522,0.4551709000454067,169
54.59991277744636,90.89987170886347,-56.19151980752425,54.78007223718438,-48.04236129778654,86.84546549524804,51.30177103911291,-58.23483507286809,-90.0,0.10618277434103407,-4.234398358660569,-0.6266017203977285,0.3220821042730287,4.374151800914516,0.41095441043921427,170
51.1642836122645,87.62247013371423,-55.75107544356916,60.9064081109051,-43.94015175826543,86.51205040422323,50.19813939107457,-60.67509944985809,-2.173353423497032,0.3298297768248996,-5.402108864068959,-0.11682608098492382,-1.1154784547782917,4.520928082054371,0.18227620944322145,171
49.872202932385974,86.05170585534803,-57.422936723901365,63.15184196864751,-41.92583720828225,85.81957350383112,50.49302064286552,-61.89227479924121,-16.17835643220209,0.31613061522428026,-5.860108413329937,0.29958249255803354,-1.720661547551992,4.237928358240266,-0.003994105632700597,172
50.05156088208226,84.26778334210587,-58.652227500192694,67.4868665292273,-40.50417789443256,84.44084365758059,51.08549185057511,-63.83225574657016,-25.297151417455293,0.42150142600668034,-7.742968939424083,0.9357577178316846,-2.9312248032869475,4.041601808706813,-0.3514214503806891,173
50.41359685680605,82.7737245311758,-59.445089345909096,70.69895835620017,-38.52238485684154,84.09395118420719,49.81362410360378,-64.41930610196391,-32.719667476366105,0.7183850682550921,-10.257616905352535,1.596712867991391,-4.382943128972628,3.8824324034526856,-1.1110024298955767,174
49.961819890892386,80.95980272589472,-59.87953689119065,74.82986462269871,-33.69572905155748,83.13799770160834,48.514651071952066,-65.68549668099797,-43.45229233458407,0.9082573529653615,-11.770542808493678,2.0983659402273003,-5.895986949514648,3.7674796719428114,-2.2259254899400043,175
47.71132081670859,77.96265979893798,-61.6220326090622,78.36314629102725,-27.915253214925425,87.9379092777515,46.71732357160208,-59.57088718236609,-62.48965904694685,1.4986949638255807,-12.761587567536484,2.353638114180554,-8.316334110602517,3.579067432880445,-3.4465208641473124,176
44.130626756199305,75.72995248564285,-62.040163595114926,82.82569681067602,-23.719066175907443,91.21012368623167,45.92142335582788,-53.40452730246716,-70.77815092006112,2.2764818581608672,-13.101748879919985,2.3829912065500296,-9.965101063292208,3.4449877357845726,-4.385911521737347,177
39.326766138021505,71.16838660847465,-62.43221599239134,91.47335483085298,-18.359395750685255,92.316668803968,46.95535559572335,-53.501467316657504,-77.60841316837625,2.9769074420097517,-12.30565260480118,2.258657818468517,-11.266114447732244,3.3214089632538517,-5.031341067469618,178
33.40890684795772,67.04986806696918,-60.582402201947595,99.55337513358427,-12.016952837742556,94.5212394350609,46.56123875801599,-54.095683293064546,-82.4247235869137,3.45515397315066,-10.891084431379925,2.0130287449139113,-12.442385854521286,3.1314676716811993,-5.1965841742725765,179
25.21700630256996,65.29449295963025,-57.74601550469343,105.40130758871757,-6.186241777766169,96.96048722798143,46.44570786403654,-54.73985227665078,-85.40149799759932,3.8497604028057317,-10.008291054589996,1.505711450128149,-12.716069266819558,2.8366444778577957,-5.040788363620582,180
7.419430263117449,65.48951974028463,-52.256895916956424,113.44897901425496,3.6338108348970337,100.27494149203602,47.35532868959693,-61.00344057513556,-85.25892044908026,4.3906208818012695,-7.944033570599914,0.6333897976478253,-12.062751934005428,2.6707699358012196,-4.148636131171212,181
-0.8348765819320114,65.94126842626308,-51.080818974734576,119.06815831367187,7.620417027056525,102.30614041594256,49.07880494924825,-63.493996140249834,-89.59275075117273,4.798423637723406,-6.604534873037081,0.17656042064665098,-12.079642626210934,2.3340996090515223,-3.66319469240824,182
-11.289205284376546,68.28962631997746,-48.45756012829051,123.83212656383081,12.546763798038707,102.03772960541188,50.55378760049956,-67.29487472523125,-90.0,4.970513141861939,-4.756797739248148,-0.3168100963484539,-11.902164638077211,2.3738896862115566,-3.0771951065565606,183
-20.840552513190254,70.8351021795903,-46.665504267601825,126.80261842752535,15.555568586187709,103.5269960980191,54.604518498705644,-69.31573494490543,-90.0,5.179345702411699,-4.2014130268666365,-0.8578646371375677,-11.920953473383046,2.43810725635362,-2.1014020996811467,184
-27.587226309047743,70.84589732548041,-43.557834053513794,128.47706405041993,18.028408552046702,101.82870694437045,57.72550809331683,-72.78834275382815,-89.62641558884735,5.251261690737577,-3.6124115103971675,-1.415838752165045,-11.46793133113326,2.488093747924699,-1.1285411645234658,185
-36.34694450744435,76.39587619079411,-38.870882557693164,128.49860911907845,21.02315646722369,100.53000860255973,54.48250094567436,-75.08993665375846,-81.08032922895973,5.111949598558493,-5.678822606012687,-2.147908541320475,-10.318300119324732,3.129395988825019,-0.1155243756702785,186
-38.92508310435237,78.33897535256307,-39.332430028111865,127.2396654155844,21.110503202229783,99.5901131595686,54.73042265264091,-76.63894010336718,-78.01675926296345,5.139694129920363,-6.719790664510159,-2.58653411487469,-9.30508199383242,3.081848592827649,0.5499050875271064,187
-40.228590025704136,79.2659685754441,-38.53157387690822,125.73011358112183,19.845099995870928,96.57665855840771,53.16554071178979,-77.55802014065513,-73.76243865966374,5.111931412151455,-8.038115646110585,-2.9182582825173027,-8.007773292691063,3.047799113243586,1.3014979530888695,188
-40.281110747287684,81.46606964305128,-39.07377745485332,123.13156000734814,19.90875287142627,92.47190690765525,54.7855013318378,-82.4648370220663,-73.53983691446409,4.640753306599152,-9.503463886462063,-3.1575044671903387,-5.7526976099339295,2.851379149885709,2.2076570274756033,189
-38.47235278267055,82.16629261540224,-41.160937540096555,120.5767180100117,20.91067411549275,87.05866347411721,56.03623258255267,-93.18655233074003,-73.50034513831201,4.000250352955442,-10.55635741221228,-3.4315980092414944,-2.571514298163007,2.2982252760297697,3.375603806295126,190
-30.80500858027477,85.76694631746506,-44.05387767627762,109.23368577269837,20.38504981760582,80.75999246127522,56.541434550605736,-104.80368909210496,-78.56031635044249,2.7247160898129663,-11.50981997253634,-4.467021805541862,2.7561153707895873,1.787757449233453,4.369858104901519,191
-25.972722100864537,89.31410828826965,-47.35071394656921,102.02666795766525,19.974152855068677,79.12759535807437,55.814112264138465,-111.13871131093057,-81.91632024888115,1.9883186980756413,-11.961584150067525,-4.871970610561546,5.474689193114585,1.607034207034827,4.705839609901585,192
-23.02397277077814,91.60485757131622,-49.957935404453735,92.88597750087753,21.590265560103884,76.11384061447137,54.64446723107044,-116.11490419647536,-90.0,1.2434527802901465,-11.472659307394839,-4.887465703462213,7.839993369129471,1.3395361282288867,4.790355601834008,193
-18.15114631156728,95.76738048957772,-49.35959453636788,78.19605827277623,21.13765696270439,73.2570912033302,52.297265690374616,-120.43136951997826,-90.0,0.7499472540905424,-11.777354834077846,-5.014742523944722,10.702160814502713,1.1515795501940163,5.100811023787256,194
-13.976991646280652,99.29561639487233,-48.43367757374545,64.43765773252228,21.556485175661656,70.27998957421362,46.744629325156374,-124.97760648211745,-90.0,0.9184072722283366,-12.000800822199338,-5.15571394854151,13.172869538468738,0.9741838819846232,5.16676987991079,195
-9.249080457563666,104.36975468149473,-49.67436800431648,47.74960563063232,30.768119354500158,67.36940910515526,39.77567659665735,-130.55348067264848,-90.0,1.9525960983168902,-10.899244138297053,-4.547502262407178,16.27421004242332,0.8004783151095194,4.6939993270203315,196
-6.663683229322472,104.99999999999999,-48.92557475141099,36.08142090270766,37.68329806646963,67.78264000237138,34.153990654873475,-134.19186380769676,-90.0,2.7586086715939406,-10.186803672140853,-4.139285543695945,17.77726444139561,0.6852359724392469,4.317804194155006,197
-9.989975667771569,104.99999999999999,-50.55134924519489,38.884925601446916,43.66734093428531,68.95345226487059,33.419326229487694,-138.57213968323128,-90.0,3.245792254489644,-8.738493871024401,-3.3364005434601673,18.26033826202142,0.7968104400597729,3.6909371294188458,198
-14.362610718568533,104.99999999999999,-55.038641799401056,48.64461853669185,48.19656752067832,72.5761332827725,31.761185649121632,-141.04352061525654,-90.0,3.2155808976619746,-7.817432667182177,-2.7382854797244316,17.489108514364204,0.7097005348309215,2.539198053728555,199
-18.523102889308934,104.99999999999999,-54.77258135283517,54.00097063659379,54.61982693763763,77.67259989244458,28.5791695924794,-139.51002954219422,-90.0,2.9471225467242093,-7.846449123922527,-2.2529595366566024,15.809652292045534,0.9711231068875308,1.5161064598186722,200
-23.856675520458918,104.99999999999999,-55.301492416283025,64.2930193872493,54.84688960937106,80.23108108989476,32.90195921988553,-134.07415190703054,-90.0,2.2442860390156496,-8.92906432774399,-0.9070982797373619,12.177521365472932,1.810409392213819,0.900825909412845,201
-25.052415050189893,103.12044925466653,-55.92157448354471,69.10563380433331,54.69203008745421,82.22791830919722,33.72988502339516,-130.03463460129458,-90.0,1.753546175404862,-9.617973715596877,-0.16683627979013607,10.340323683722591,1.8866567171916648,0.4699671802290501,202
-26.78853892876388,100.8701278506565,-57.37780393105459,76.53278646043567,53.310581291423006,83.0679070570239,36.50815417346205,-127.65388186975085,-90.0,1.4005710900598818,-10.270523676209644,0.45374760757225613,8.690052411189814,1.8479895905356734,0.19473945025982803,203
-26.706829793771387,98.75159458532542,-59.81400909831959,80.07837064859818,50.98380175189099,82.6297156599617,39.672644740170334,-126.27429083824028,-90.0,1.1691415910486507,-10.237202071765811,0.7192490899480338,7.767703986326724,1.6406794366614692,0.10518219406416532,204
-26.3811538871959,96.01576188509273,-61.389234685875955,84.21516568615775,48.69138665571797,82.31376312902168,41.99407409722491,-123.42543479966352,-90.0,0.8012177487887565,-10.05013617015338,0.8802730620019689,6.515359196268031,1.5209006700257288,-0.04792808366212187,205
-25.429867733901215,94.39126392329707,-63.12744287338693,87.00506022017565,46.801404059439825,81.4281295119558,43.849738083775506,-121.93997489908134,-90.0,0.585759618045577,-9.91847467872293,0.835115834243713,6.004334612055837,1.3609788546979067,-0.018175542894663388,206
-24.757609468922812,90.01548439829608,-63.05599951205773,91.22175440170241,41.52192362450973,80.77770113735987,47.08883025528313,-112.10580736257162,-90.0,0.2985095344066845,-9.524423900433657,1.1798704340851287,3.431006992637909,1.2173747175558312,-0.5900018002283394,207
-22.58792123120423,84.47623366083853,-61.88447174214891,98.4528026170717,37.473444687962214,81.28052412797985,49.52720395709672,-106.73643263788888,-90.0,1.0770546647211594,-9.784459356928055,1.3368121846095795,1.3877662437814362,0.710889046493995,-1.0953785075861482,208
-22.665557597126295,81.21453067570613,-59.435788633787965,105.16573551991009,35.97137662161974,83.66996161638052,50.652164857414704,-102.0972610043943,-90.0,1.898412047894461,-8.927202792920154,1.2173173369862844,0.06652174669811523,0.2912615365332715,-1.2413354990299308,209
-24.96350626714163,77.63322165280807,-58.01332454827757,107.99113256292434,33.93962699948549,85.32366654475062,52.891005964753475,-94.20220520390454,-90.0,2.4991105866253878,-7.737768711074987,1.2397446479284828,-1.3262258230103068,0.21052921069247837,-1.1568872030873325,210
-26.616021543743752,75.5160263574975,-57.39747704209392,111.58399034416944,32.40604718903246,85.49131251027691,54.85790975852723,-90.6620227798794,-90.0,2.8657268120658066,-7.104889840265739,1.1605025189766587,-2.1445528478152243,0.08281718549077748,-1.0462093481956594,211
-35.26208125988987,73.42324582876705,-52.623296491639344,108.36407032067751,34.351560548917185,87.83861132456543,53.076558599094604,-83.75748540739052,-90.0,2.943847998734948,-6.110583489655086,0.6933430414344295,-2.5272019199587463,0.015863482352568924,-0.3912360056460219,212
-47.496292069423056,72.52099452008987,-43.529618288267216,110.39952091383253,37.002836773850795,89.86786343445189,52.612142617417064,-80.95033399795753,-90.0,2.831580540931148,-6.036730008889271,0.21819554574812014,-3.5319286642075993,-0.050628202417356376,0.3266744035038518,213
-61.42960435370145,71.7168951718424,-32.62572799185102,115.42981110374265,43.443005123501216,89.80981731924777,49.91347970351456,-81.77909668143666,-90.0,2.4942393069231614,-6.102293905439834,-0.055477852103269575,-4.89069562171338,-0.2213534153336927,0.9348332600350966,214
-75.26045604974334,73.64705781569639,-18.42980383778699,120.46429791849229,54.81018164217407,87.17624512428982,41.339260159862334,-89.45197535228428,-81.8215543933003,2.0332888417351955,-7.156878086064623,-0.5178154420456313,-5.083852213314998,-0.6585307231606558,1.461334987949537,215
-80.76923280645822,76.76319878259098,-11.151219868572772,123.39055934961308,59.215537442701624,87.58828412325441,36.88245616487513,-93.99977270524312,-62.497665275998344,1.9591868717293714,-7.873703335149225,-0.9587981145608536,-5.527216118721604,-0.8336639299526175,1.5619435403049229,216
-75.22638725619426,79.89443033575311,1.6234792700280407,131.18091199912422,70.66970115177851,82.00091067450087,19.408799665070443,-109.05900315605416,-35.460280942489156,1.9821908969889745,-10.57496880287582,-1.8612486467844551,-2.0172942776451612,-0.8594875993161724,1.960561893832615,217
-64.65869187487219,76.53862571152591,3.150667133630393,133.33234369201514,76.9017142255021,76.65383051294937,0.49949563621600407,-121.85373594016248,-23.02219102039375,1.9971324421600358,-12.857771091237014,-2.893816660975519,1.3944313856953874,-0.9148717857670189,1.706140814483745,218
-52.56936340547414,74.04412369071954,-6.724618191722187,130.95525581665066,75.65209773847076,73.89450600536439,-6.9162521956583,-131.05598659646782,-11.720782592833277,1.7798049970450445,-14.232324473721315,-3.7420866470941045,4.103896069079546,-0.8597942897007949,1.031905325813872,219
-45.15470410633079,74.66290545027505,-19.488332720301877,126.30679807235548,72.02935019758631,71.29758933193384,-2.571188712298893,-136.80775313770005,9.416925050885748,1.066800100052976,-14.706082181364572,-4.743362146803841,5.522030389868117,-1.0220848954582085,0.007614858069944527,220
-43.80487915816466,73.75261980179997,-24.131360475725955,124.10441923626382,68.91728715230295,72.26511230446127,-0.2777439104453951,-139.15440617950276,40.79655380733278,0.7788945330528789,-14.973407304959746,-5.023895547794541,5.307828207003844,-1.218225392589889,-0.61908953025037,221
-46.32248693250039,79.98936115637001,-31.99119738374356,116.75857317894645,72.70840028604712,74.94669911702637,7.75679305640176,-139.98803218148558,90.0,1.3665803210783232,-14.438129483696567,-6.4067214283849605,6.548971920017579,-2.052029084966032,-0.8790284104410604,222
-43.33102396409986,83.936365804156,-37.44395846284535,99.34259073996643,79.7647188919917,76.2525334432785,11.296136091359141,-137.12191421895776,90.0,3.0048056148864677,-14.679241190363124,-8.167487803763432,9.066274064966692,-2.8975825216571027,-0.605075376109323,223
-41.140176508190066,88.50010035958489,-36.80160243842417,80.88061907670061,83.55469562992896,75.21255305265294,11.214548821730864,-133.1763111210456,90.0,4.399219380224495,-15.405451251917295,-10.149133327133393,11.068994730780748,-3.663098894826426,-0.143182454257586,224
-40.54802292665994,90.38364096590537,-39.0757292858084,72.25041132584742,93.03264529366608,74.69487772677573,6.345319875380759,-134.73301497980808,90.0,6.000000000000009,-16.069877700726135,-11.792032049701458,12.940541526548065,-4.966522468124098,1.2756725930423918,225
-42.463417463302804,90.90804618744123,-38.230291298359305,69.81604945148788,96.98029197654421,71.4882330551104,6.698772443699764,-135.00308994135776,89.4323733985763,6.000000000000009,-15.949197267966852,-12.705627776529179,12.85506323101171,-5.433699194878197,1.6687289386516906,226
-43.94870274621886,93.3805383728583,-37.154040803036395,49.64598501195318,99.24707631434676,73.11643941447204,8.312010131851855,-128.09376749043102,83.11373351915145,6.000000000000009,-16.88938673001079,-13.326781359342151,12.711360503200982,-5.385301554510895,3.1085101284318886,227
-42.61000932320584,97.04415591641198,-36.05858042572175,28.298822862089825,103.7443035199384,71.04189209071431,5.828565391083542,-122.28642333194024,76.78845521921582,6.000000000000009,-17.696933776370628,-13.772003814201149,13.177863281795839,-5.25003913700105,4.7648362321587845,228
-48.87504455009511,97.4278837468834,-34.865381421080556,28.29882286208972,102.6116609154803,70.79576050793041,4.491426116510374,-113.28980882136234,69.95422110019805,6.000000000000009,-18.133954120876652,-13.356250988468753,12.587318567498878,-4.056858583282122,5.510921485735701,229
-50.89433935157027,98.17494271957796,-35.623495387030985,28.298822862089825,99.88723390791765,72.43007081562871,2.7681745004355593,-108.14737435110526,63.966657275112865,6.000000000000009,-18.434618894086302,-11.612932805404846,11.047643357183713,-2.320406782774567,6.143749506366711,230
-52.61119243979745,98.73828946398781,-35.300173956029944,31.04640487302629,98.66198534215289,73.40328562631274,1.8191703458979567,-105.34701076750726,60.941309577542356,6.000000000000009,-18.501439328234245,-10.388157243980253,10.313028485106376,-1.377565322729439,6.433337021171752,231
-57.078918282491124,94.1865036221032,-33.393691197005055,42.778695146126196,101.40419506991758,72.52984400046448,-7.4436894303662,-100.1187695652057,60.10311461229324,6.000000000000009,-16.080762499295943,-8.317192368415641,9.782671637039815,-0.7580636051925896,6.654245843419322,232
-58.301762463656814,90.72941185096228,-31.369969417054875,54.84607018812928,98.62378856542873,71.46540289487773,-15.487277144297618,-97.97811574976134,57.25191933659208,6.000000000000009,-15.280543441526179,-6.226683321813009,9.134833015509955,0.37688085233125784,6.557469403966236,233
-60.20268865782065,87.30527480804486,-28.11430853201476,67.06881603621527,97.25103796441675,69.55814244861203,-18.22865471287513,-100.85813587102187,57.48556258460839,6.000000000000009,-13.92585619038518,-4.538639672708597,8.58420545333096,0.7965306689596748,5.8131546256641355,234
-60.77152246884684,85.37229503778944,-24.767645937420262,77.01613655943294,92.90129057645984,70.75056487382918,-20.693833819187073,-103.6153145673343,56.189943491942216,6.000000000000009,-13.37083739186422,-3.2652063913580687,7.472763754583293,1.2207934220893062,5.036402614690806,235
-59.87535615284939,85.03084055813429,-25.38001228648767,78.31275212038182,89.61069821272847,70.9370980470373,-16.986558634472633,-103.01864124365949,55.06052926791641,6.000000000000009,-13.324809478997228,-3.0527798385978815,6.737074650372463,1.1961731683562593,4.717149718614663,236
-59.708762684077584,82.90761575842218,-21.0939150546862,88.90278457055007,86.13921764329774,70.10503274098662,-19.961036760038635,-107.47613691598843,56.24225736618098,6.000000000000009,-12.865742869156561,-1.931470716653871,5.643481873140938,1.2832529561965456,3.9615699567044653,237
-58.82805928630561,82.21643815276778,-19.735852618328714,95.93860860706737,80.27261056967835,69.09971570399924,-16.387090212198384,-111.13146202649358,58.2944116811395,4.982306812968279,-12.214723105724389,-1.1320041506063798,4.402717101300678,1.2306844423826708,3.403013444648946,238
-60.29518266872063,80.23130309359873,-19.789314229772355,104.48041034226357,75.88715916813821,71.19125579132877,-13.016823223395837,-113.9319699299242,63.29867864277977,4.137970271237968,-11.009823361252987,-0.6108267529512553,2.8669952477517753,1.0831085068981121,2.826705580131547,239
-60.5300847730603,80.49425025930242,-14.493712351632746,111.25163454249387,71.67540468546063,74.33941966947656,-10.749577242612991,-116.50668229311235,68.75942096474004,3.4908590588150705,-10.326273868856463,-0.3102768259193695,1.652477532409635,0.9670389934618608,2.3661208928877326,240
-60.444571230852105,81.26003804699194,-11.911387160590467,113.65842893552998,70.12642541127295,74.30251389424882,-7.155007369752346,-116.66003416584886,74.2191109476422,3.040205371838684,-9.808290972163364,-0.3638242374909077,1.1010493930753213,0.7469152161891657,2.150490325781211,241
-60.15361300827161,78.64161288173216,-5.830365668724789,120.45228358858702,68.81840734475384,78.11632462802993,-7.156137422967673,-119.49777628939165,84.24782166147477,2.7210479525541444,-9.264921790324024,-0.12731260058548838,0.23917750973216906,0.3763715017704675,1.8588662088800338,242
-58.905103509028365,76.69603045409846,1.8320178395164655,125.76996041198153,71.51084893871626,78.88052575785193,-9.32033364153345,-124.3880728268371,90.0,2.313577198687908,-7.815649708063397,-0.3009484545120164,0.6209147320046222,-0.08079452544201432,1.3829549569413155,243
-58.92233576251315,75.5927389011935,6.489476069213162,130.18652991102823,76.43590138799966,79.86304411341166,-10.576334073917247,-128.88167450390557,90.0,2.0490171629103577,-7.052138061034081,-0.705506621214259,1.368885616076047,-0.2490484801320934,1.0681482352149594,244
-59.06855981706045,75.06305223979273,8.849359784486428,133.02756273182425,79.6796880870687,82.17805353575166,-10.395068520029117,-131.0706862271536,90.0,1.8728983080074795,-7.7414897673282175,-0.9767670813013949,1.8894515812884294,-0.3062406518228751,0.9777304188241387,245
-59.78515035564258,75.22911190003619,10.416759595942487,134.38456195726735,80.38374730315441,82.79140941339118,-9.268416394441761,-130.88385040738467,90.0,1.8703667248643987,-8.37200120262361,-1.2166758930797126,1.548850812034375,-0.5558906078691614,0.8410391683000791,246
-57.504753094913326,76.71003272981663,-1.0520418310322122,131.78609738861087,74.83524062149559,84.73749300582847,3.260056468413741,-132.5604802213707,90.0,1.7991219069708915,-11.54670970489268,-2.1168816092833933,2.040726833029657,-0.8139320753611579,0.6970819764781147,247
-56.05154474414697,77.99125754885529,-11.554118172450075,124.3657633561572,70.99511962331347,85.58360924363865,15.112311120115942,-129.67818733470637,90.0,2.1444381186956143,-14.066437600920235,-3.626888033848952,2.557461217019785,-1.1192272575631028,0.6179419835196805,248
-57.21777254794917,79.51640210001833,-16.78285915155756,119.71963620247591,73.85573372632871,84.33865663934881,17.51793218118574,-129.9067252640731,90.0,3.108835323241003,-15.882454564189626,-5.381582887599219,3.740385268116528,-1.9767784336915173,0.727072707639988,249
-57.180628511789514,81.48349810493205,-22.52275524953813,115.02612643478011,74.61682295229852,84.40809551457443,20.510718451143983,-129.07292324485286,90.0,4.089863439755034,-17.308743145365224,-6.983997112238443,4.442468195764862,-2.528373439089008,1.025783006349333,250
-57.858478233221525,83.60720504195295,-23.368870817415054,114.25503623407135,74.3133023954554,82.79594122374021,23.309756164052555,-129.19122909697563,90.0,5.027939523093015,-17.759550761207436,-7.820500005235335,4.162132069223275,-2.8354061626208233,0.9926181998758882,251
-57.245172291365066,80.50686103066305,-25.847493765808466,102.08026993906185,86.63326118858475,76.26278158514468,11.748899810257582,-131.60843148221218,90.0,6.000000000000009,-18.814698209915516,-9.490109785512118,6.318970497021476,-4.373264478290784,2.0104509014181775,252
-54.63893107050031,82.02125741379102,-28.173894120432905,81.66915309335386,92.43179723022209,70.9550239141393,4.9684749851605465,-130.7272344527951,89.15920683866705,6.000000000000009,-20.4332916648525,-11.278568611519368,8.047232327555637,-4.99271410293289,3.0861858289340383,253
-53.65503778213604,86.62929882284143,-30.497749821866286,60.009464673609266,91.7233788267506,69.69889534043911,4.809280966567269,-129.4931400451441,81.91040033259931,6.000000000000009,-21.70335921595498,-12.576274760386333,8.123643340156539,-4.836337428833474,3.8263513101613973,254
-52.154633671916415,90.44484161435116,-32.80495801764491,43.237741733790635,94.26473006958123,67.59588772959951,2.7530531767797255,-126.22672895801617,77.1146229992661,6.000000000000009,-21.371233292963446,-13.52661150390671,8.162437821922929,-4.696577695820547,4.583346276271574,255
-53.857996730078746,92.10613885203408,-33.239024559766506,44.28422580839027,96.65595934419883,67.13970143947883,-1.7212328095117304,-125.35774119126214,73.76796558779593,6.000000000000009,-20.49725444126441,-13.808550842193041,8.239476451995838,-4.287341697846503,4.7584153296494565,256
-52.63885336052323,94.78935920711893,-32.16618363771544,30.65294121934006,98.23455265936393,66.13863828795878,-5.828498016896133,-112.1482365219947,68.4152131664341,6.000000000000009,-19.202609514890085,-12.756142553315405,7.9972191935620005,-3.0558815773796644,5.6232511829746,257
-55.41398801760873,94.7525972677213,-32.280891516273556,32.326635989910265,96.86589976529186,66.62557817167881,-11.040843186570244,-103.25432089083036,63.520451749138786,6.000000000000009,-18.010359258619978,-11.12782568247006,7.186269792623122,-1.6397200428371221,6.102210007901707,258
-58.670081907081226,93.06641958582787,-32.32542756114779,40.29535833868165,95.80424373562245,66.46361057159373,-16.05937839348393,-97.41318130531482,59.70272507490945,6.000000000000009,-16.67375007500567,-9.310554535884187,6.585775796318512,-0.42037369651658896,6.289936960737015,259
-63.21791165544278,89.55805907608473,-29.909932275891144,53.912501648338356,94.54038169812512,66.62689437150284,-15.073626472145191,-101.26421703937872,58.18717027590518,6.000000000000009,-14.886098725681775,-6.868292253601675,6.241473234305221,0.19213435504585735,6.299880016616514,260
-64.28592566994081,88.02969122047239,-30.588148638163982,58.132861303855115,92.70906202128985,68.65637248385886,-13.06223645725658,-102.37027734928814,56.474982193783056,6.000000000000009,-14.097158241752762,-5.6960004777611815,6.305146293972239,0.4126330158240778,6.139916250618725,261
-67.08984985095472,83.72450415705913,-23.701215268743432,76.77934613381842,88.29957407270199,68.49004098850013,-11.364861072544421,-108.60516620903297,56.91652377837256,6.000000000000009,-12.074961959813146,-3.0920863209778537,4.751169579213257,0.7404094872319387,6.10323247523083,262
-68.48159243061228,80.8642707155448,-14.937850710972526,95.30515823040687,84.89340422896704,65.99813256856787,-10.159289326967297,-112.89743302962474,59.10868129285442,6.000000000000009,-10.514220351651465,-1.619246312146147,3.1563980178060307,0.8824536073441178,6.378118347444861,263
-66.7608604371548,78.83331822773664,-11.062752388648429,109.31690644126161,81.29140040444597,66.67489304544974,-6.221605945539219,-112.12376559775896,60.74014139650424,6.000000000000009,-9.487117580027803,-0.08948832006606766,1.7716748485111973,0.8783234390454538,6.729149893295659,264
-62.79034501573212,77.01646946779914,-6.784920755675467,117.75377798323566,76.78983516842472,65.31705043034584,-6.216437694733702,-113.06324749901005,63.80679943665305,5.675185376292769,-8.887363971889283,0.5862688851813086,0.7330831878062912,0.7935423903077851,5.943310406568672,265
-59.768866259400944,77.53804238129213,-6.768669752958958,118.12221507484217,74.40045125869871,66.79008170947311,-7.401172318026208,-113.0817075693696,64.85447746360595,4.942512578286729,-8.597191234244226,0.48601820179433763,1.0313375490570746,0.6311468744029414,5.544608919292246,266
-54.719662074609644,76.64665848417765,-4.411881025218148,117.58945486746703,62.52379520551507,69.34577972229077,-4.0507841828555575,-114.21923344525716,65.72353155314988,4.073818261597247,-8.535915662474894,0.5849411125754888,-0.07388416333490211,0.7656379168164413,4.020175769207847,267
-52.339562268529576,77.9875544672137,-4.275529766312712,118.0713468540332,57.22478042051688,73.02341774506344,-1.1590319595375365,-117.51974665096569,67.82486500670734,3.060727058027426,-8.469401434389681,0.4546509059937868,-0.27198471592893175,0.5765040165416911,2.9635477495512195,268
-52.600961254589144,79.5283896997711,-8.243609288820616,118.10775160674604,56.46376237314849,78.47539049283921,3.2713181097605557,-118.80465445193704,67.91544510389913,2.1236099147446668,-8.271157939887765,0.21080325330752395,-0.38317288906983893,0.3030106146363912,2.167739121903876,269
-53.6471326614566,82.39577807884928,-13.874206473791803,117.29498355407497,55.53679064058894,81.41469679833024,11.599536868745599,-117.5274234182257,53.14826576241294,1.217671368454362,-8.427795847572117,-0.11320460774050621,-0.7748139759554443,0.0803612004854731,1.5700208521062538,270
-53.06305207432505,83.29005194017611,-17.214394039777307,115.36708134825906,56.958849201966316,82.07548649199349,13.467740755057292,-117.87252555184504,26.700536335938683,0.7928567953143104,-8.475654333455584,-0.46683681908308633,0.2968212190178618,-0.13233580602707123,1.4826906070208046,271
-55.13408126589456,89.48678188553349,-32.626352699653005,114.06264338603224,57.61578302784987,89.17712601565447,30.53280388136142,-116.18603300607451,-28.667058827073696,1.0688554808982256,-7.829992239638527,-0.7668874527611027,0.1122457624156887,-0.09369760467640206,1.0253464199091,272
-58.3714897699449,90.63988841311719,-39.78188352512852,108.07380302600171,58.409896755796254,92.3304107925181,39.57579198988093,-108.90916430154284,-37.26725270787768,2.026762851800401,-8.829235291996358,-0.6513117824286175,-0.36816599361019176,-0.13275080437283904,0.8496960249796358,273
-60.81120609524089,89.93775332957172,-42.44297015062018,113.80138930959704,58.75171913875703,92.71928418631674,41.59453264928817,-114.14274434429667,-38.962014932820246,2.5909570091301353,-8.583543682413518,-0.6682907696105114,-1.1192274520032854,-0.27648346547124597,0.7596666612472731,274
-61.92306280491774,87.44800530495996,-37.811614235402836,117.7589109586305,60.735953355662694,89.69741692850099,37.15886680317339,-119.41868917409643,-33.78859460092848,2.9255089757932806,-8.715774323390683,-0.45704404690171935,-1.5466017628959121,-0.013583432556244921,0.7583995288691296,275
-61.27268220251271,86.28128770726865,-37.12190913862254,120.13300268553098,61.88884632295081,88.52318614575888,35.79182852032146,-123.44471321696336,-31.049663303221838,3.3210037631771936,-9.113538949200375,-0.22685623995976892,-1.0820226898055585,0.12020444461323518,0.7839600774956516,276
-63.75418715703085,80.80353845878749,-28.130244834118304,119.9644462396984,60.21849955096694,83.88782529843684,26.931808529222522,-123.37895205619398,-31.720328581209206,3.128779345493747,-10.136778976510044,0.8157122117986743,-2.9367256372593427,0.3815434439485105,0.7772974148496719,277
-66.41644032145584,77.02510881045121,-20.761100233423203,120.96528129160659,55.43987643722238,80.25656052461365,20.350948383734064,-123.03199538242242,-42.09680045977599,3.3874946928263148,-12.032009334986496,2.1651228568347816,-4.537726941795892,0.13018191369999882,0.9588352548969449,278
-68.25217034810754,75.72592945633849,-18.060347671278883,120.72376163571472,53.40066889049397,75.33138894626661,16.41396098310806,-119.65342238898597,-56.714749307089434,4.0787414251768395,-13.05951334515383,3.3500702855009057,-4.914074775281045,-0.25763826190367384,1.0975008089298561,279
-70.93992977855955,73.84397792802928,-19.217556337524464,124.13484615558646,53.721713870755465,73.0298313722684,14.242503795822392,-119.16149802663166,-69.01499492058065,4.818065456476173,-13.880300085167663,4.853096515697865,-5.03321875599021,-1.2145203966228386,1.6393365944641123,280
-70.14088481924477,73.47909104782761,-23.06167843801058,125.46889059392937,54.80171892181296,70.17274659058776,13.518337661192957,-120.51972636744343,-73.50284250769693,5.478386317656978,-14.086471878105886,5.467871087766536,-3.87951189298995,-1.5736366778241957,2.185312694882425,281
-82.69993704875527,72.40477059129367,-15.476323552705896,128.4212521731075,56.108074357354695,71.63454583541599,14.893874685788951,-114.77868828658082,-76.51427076370453,6.000000000000009,-14.983334034238379,7.040232112454868,-7.024277002844751,-2.678682659878627,1.5795298685906787,282
-91.81060442576793,71.17616966838283,-10.01535106018836,130.11268467933007,58.957155652123646,73.7879087900846,16.94763221031503,-106.65945336816893,-76.6883238213965,6.000000000000009,-15.163704519366732,8.581883546184127,-9.176175144929662,-3.6692448666735573,0.7912365950416586,283
-101.92932786099817,68.15390461759253,-2.988134203010549,127.61861230402643,60.93167740895548,74.5447105470584,16.85546749638488,-97.75323891517593,-76.02950188244998,6.000000000000009,-14.903901343213523,9.201882957860885,-10.37176912456341,-4.462093775632337,-0.6685677780147847,284
-108.26054645886721,69.42709134733899,3.2188382861707523,119.69581404950742,60.99597259464726,78.00715210983007,19.595225201088535,-89.32849112056822,-73.1192660140128,6.000000000000009,-14.424709229089336,9.174989696839502,-11.23836169075075,-4.406756702914979,-1.8308408211685605,285
-111.5809344838987,69.37336464593614,7.375460456433526,115.83738385837123,62.307444866597045,80.14881400918401,20.849259415603562,-87.13522471395709,-71.21827675378408,6.000000000000009,-14.028830115780762,9.135341943028704,-11.543583958280072,-4.287178785423602,-2.0930969272225517,286
-106.80282684730578,71.70887395424565,6.696194369030477,107.04108129282933,62.313863871811286,84.14623035147247,24.39059867383143,-70.07790104196782,-64.99533711111421,6.000000000000009,-14.043086873764812,7.33528765311855,-11.633616002051571,-2.408624562376373,-2.94403090853883,287
-104.46413888246757,73.8821255589398,7.0955792891673966,100.65027938218147,62.767921875684934,87.26105041146515,24.15188224221767,-60.09426492258995,-60.750879794815404,6.000000000000009,-13.794010160881678,5.410047871228507,-11.890471508635656,-0.7873335213908383,-3.3179213701313213,288
-101.03252566195037,77.78584872561903,9.396302889381849,101.49715057589145,63.7637840387817,88.64293092444854,26.610535037606727,-61.87629479325936,-58.04436468047332,6.000000000000009,-13.382483002272446,3.5461203643565424,-11.54552444399783,0.4254090995360063,-3.0486876484451657,289
-98.61853800892015,76.46980977302675,7.367348068466398,104.90132912773008,64.29077553723614,89.0654450889658,29.00654584592305,-66.54058341615118,-57.236279305382176,6.000000000000009,-12.458578925018747,2.0828971212052676,-10.834855757047812,1.0991380577017593,-2.535218884302968,290
-96.86972530020175,77.61535833741937,7.630533050732676,104.58647312090254,63.33127827370041,89.00156124471046,32.56341865352769,-67.1168746960153,-56.663765032454215,6.000000000000009,-11.944914668791071,1.381899482507186,-10.276174773205573,1.3100949017846384,-2.1635325418500733,291
-95.80341700845554,75.83623380135414,8.387310224554247,108.58742725556631,61.59719866269009,90.16559492507616,32.585131216248094,-71.5465903600824,-58.49554417731192,6.000000000000009,-10.96721568455601,0.4187872141772667,-9.73762753572857,1.4060069384603138,-1.635829428255119,292
-93.55918295872956,75.9256709691206,7.515549791663111,110.70852956928825,60.588627530612435,91.09884607376999,37.48640680089366,-75.88800573710546,-61.468659316739696,6.000000000000009,-9.674165988619054,-0.2050137416428734,-8.484670143368005,1.2877584684414174,-0.9533341699149706,293
-90.64245337140657,74.58035973401458,7.71710656614999,113.59666672183494,57.97148825396937,91.71285211044543,41.36323802153129,-76.18321381377433,-64.61671435649971,6.000000000000009,-9.16229346654615,-0.6816818408203554,-8.030357661777092,1.14764906859881,-0.9520775632491469,294
-85.4301358896264,71.56234083163272,8.091726036028266,118.29119924310191,58.428427001557395,92.00485163586957,43.522819547445664,-80.41951148531506,-68.26402601903062,6.000000000000009,-8.718914982382936,-1.348829202275434,-7.088324770904096,1.0383280759329094,-0.9017572970842858,295
-82.39674720986696,70.89086336256766,6.582172735157924,119.86839089421495,56.450017752780795,91.34970839035974,46.668503614252444,-80.42479423202279,-70.02733215174187,6.000000000000009,-8.606994758967542,-1.4956449651504735,-7.077491876517864,0.9383870085116489,-1.1179349717037848,296
-77.28500840597782,70.63277113434717,6.351419702743582,122.97062282054057,57.99643958246607,90.46129646148944,43.78363788703022,-86.1031379611832,-72.8821258851007,6.000000000000009,-8.705670928364393,-2.046140698842089,-5.947348333974433,0.7861139846604696,-0.8908313795500415,297
-69.46246319169549,73.68629782688268,1.5869181540328174,125.25136059190868,59.871685753605526,88.90654907968397,39.957030732718195,-93.39815363866893,-74.91548678820713,6.000000000000009,-8.527431670893124,-2.6547146097371677,-3.867601832199403,0.5838816508863094,-0.46836230844681676,298
-64.46253323507423,76.9107886065386,-4.289569835197872,127.60276163361749,61.524517574619125,86.39301144330295,36.061456382388116,-102.60677699237083,-79.49993645931382,5.612390373251671,-8.06513591838568,-3.122374370441552,-2.197017486889134,0.1889106361978329,-0.5093197798695379,299
-65.28405969570088,74.96054928683705,-4.8200097210909965,131.83582274769245,62.72087822366681,82.98277886948672,29.00821892266505,-110.70675751652759,-85.78087693814223,5.264080499297014,-7.15846720801439,-3.157915372840504,-2.49011632365795,-0.28288365571048946,-1.040162981525959,300
-64.45521356803326,75.31509215318826,-4.853228258571762,134.08387247411494,64.08864606034838,82.97277830276317,23.111228535455115,-114.31791242937832,-89.72016361241522,5.125110339165944,-6.9236912580707575,-2.998949015514195,-2.8399925374391333,-0.5661386202970775,-1.488222063918871,301
-54.71414327954086,77.37595334940569,-13.981299013770343,133.0794488339491,61.5566097644915,78.44500327911653,17.11484204687666,-123.05194283351051,-86.78121775943626,4.588516833131393,-8.531398305640476,-2.933577715726446,-1.2608161014917727,-0.05324472139743342,-1.8607429139684364,302
-45.65326316210428,79.39902137441446,-24.658407012621183,127.72570073328298,55.20174979525953,75.37518541129937,11.667981234876196,-132.48612144608546,-84.22250680473442,4.201909444487386,-11.104516817775306,-2.770963347610146,0.5981688505401378,0.1908584104093837,-2.5074673207321783,303
-38.90812239976402,78.49168521433201,-35.443035580669694,118.53180516640754,48.66761237888009,70.79994121705735,9.608568773091854,-134.27918318888592,-83.37131329481379,3.924406408199006,-13.37007788609669,-2.0948650232243313,1.9781533666479862,0.21111186307763719,-2.9120919870291377,304
-31.841911424292665,74.6229869347501,-45.94998276645375,113.4591791107117,42.943867706403765,66.5957319566929,10.31011096435471,-132.11786968777741,-85.33384997902868,4.050705485612245,-15.02638354296,-0.9073506500982772,2.1928703666438514,0.06379536437306124,-3.350728361186816,305
-28.72272192965475,74.05891606288243,-52.392313173424206,110.78680633621411,41.29309016739519,64.63364443907635,11.712607271965148,-130.10618363391592,-85.1475372390054,4.241543520498191,-15.704968946619957,-0.31889447263285176,2.4885466186778062,0.017840281503319854,-3.8252104418559454,306
-28.68082874030353,78.00669969240144,-58.418991908501816,105.27515570713895,37.10477014569364,69.24396106392892,19.01878498703562,-120.27462141957888,-75.83970710720358,4.591997212011198,-19.44846113657501,0.9215801057801415,1.9872373107813557,0.32567942353626705,-3.110719513173952,307
-33.88174109653178,74.02190976195466,-62.51157861029003,100.19661578623678,36.96281475513212,71.2740933526445,28.194160134578926,-102.21783505971368,-78.86354797858694,5.046969060553783,-20.410600638773197,2.56464834818555,0.09714682264233253,-0.2735115352730516,-3.2578501509424567,308
-39.55822225297366,69.04434750280946,-63.685932804753975,95.1667136640195,36.92029568989166,75.28167385794762,38.61283898217774,-85.50542744469274,-78.45627327514913,5.747022342376691,-21.253632702167327,4.389246368178137,-1.7054682247069912,-0.8919546070627133,-3.4251804816252784,309
-45.87803312119608,66.66864247644317,-60.36718362850279,88.29825021642347,37.14849164522739,81.2311731716713,42.15901556057589,-64.50895477272763,-75.72597331172973,6.000000000000009,-21.6752956097823,6.019026644112192,-3.3330214962056464,-1.1470664846202328,-3.4575001369325746,310
-50.40541983746475,64.81314331872208,-58.52251430459845,88.09724948118007,37.164105732977404,83.99985858532686,46.26597063554967,-59.06583206286178,-75.29120491599825,6.000000000000009,-20.43154680877163,6.808320068263845,-4.259936086132083,-1.3636914088002872,-3.464280638724402,311
-69.20816544799338,56.361154679390744,-37.27495300966246,82.32822553552373,36.25732855034031,90.17951948674221,45.95897481549489,-39.21898501142433,-75.03587755492545,6.000000000000009,-19.156178970579777,7.916519542087015,-7.106056555738007,-1.9077598680137804,-3.919194067543027,312
-83.08054396990323,57.56778896942349,-14.757082546573907,78.86757430273177,38.839126868618116,94.07208774481128,43.14384145283003,-28.298822862089697,-72.94726260802985,6.000000000000009,-17.488123724139417,8.567095305400082,-9.844736813592094,-2.1408442446208857,-4.178982086963963,313
-92.09547465486179,61.85527456044301,-0.04287820799751664,83.40010817853,44.150857249391215,95.0834648761907,39.46407043174007,-28.29882286208962,-68.9115918439551,6.000000000000009,-15.969962333747894,8.115897028591291,-12.404184711444508,-2.0618892762165055,-5.004675762254159,314
-97.5981356754863,66.97695933457518,11.465145029504823,94.30581924882158,47.29862285017479,96.80417642641774,37.09113897388936,-28.298822862089697,-66.64843827377274,6.000000000000009,-14.395444753503627,6.8409517769288515,-13.978700250055814,-1.6403993003185324,-5.265963966294311,315
-99.40776883952046,69.94346466761083,20.343771373786733,99.43239970830079,48.36644649589828,97.96114475716438,36.80162894842166,-28.29882286208972,-64.54259494636136,6.000000000000009,-13.457798254307736,6.229966383742331,-14.942229957723812,-1.1909810748580065,-5.048963376601605,316
-99.46454020622768,72.53688593333376,23.93302283319668,113.03025199549366,50.64357965610888,97.49398358141679,37.69459675960473,-38.450708486602245,-63.77943011564277,6.000000000000009,-12.040256829948934,3.9930476163131727,-14.388802872657964,-0.41608479671440457,-4.400321757373684,317
-96.42471506991414,72.19718628933786,23.953125436273787,124.38555511801884,53.51457856743687,94.0485437909914,39.43183193081345,-57.89557267566224,-63.11354334019038,6.000000000000009,-10.90784780583711,2.108902762325275,-13.567221431122151,0.25955646862914455,-3.86084480168338,318
-95.5277683288042,73.55020926706283,21.86430746116727,127.79859975034513,53.58168752361085,92.90344679871022,41.73474063344809,-69.83679700949371,-63.37491839296138,6.000000000000009,-9.539478353559659,0.4332991130792174,-13.183855084395939,0.8106329752708664,-3.525536688003281,319
-92.69325526031675,75.21484753494762,14.481189564042452,127.476884309366,54.41595307153106,93.5683696858762,44.65317832614097,-75.3556011767799,-63.77262656598506,6.000000000000009,-8.412696184855527,-0.9512880271028252,-12.049882810674337,1.2178063686748375,-3.1664842272870652,320
-91.60873092109358,77.74483984017067,11.950100313577815,126.91739244697868,54.48460723127375,94.61224214373311,45.92619253604216,-75.42739339687141,-64.20021639585939,6.000000000000009,-7.70342227234456,-1.5079174100999475,-12.087562445247443,1.2786147438313233,-2.9072409915208994,321
-78.21157126343091,73.06140024551925,9.24536632802056,131.44715614813575,55.25089141993556,92.67097308384807,44.50901449096798,-83.75370677541943,-67.36353034194204,6.000000000000009,-7.305529868835846,-1.9601847324707207,-9.83484578169113,1.0979038027338208,-2.3956146676729433,322
-87.65455995617106,71.62716576093945,3.0442524600971144,120.24020085933563,75.02548747713125,74.72660925863578,33.8402480880906,-98.00797909497845,-79.10608866064479,5.63326506315026,-7.9249679083120546,-2.9136929541311285,-1.8704913902993945,-1.7792409242490268,0.2245697961695638,323
-95.42613244210158,72.77691322096258,5.436760285284132,110.82557680519288,93.70355201628635,66.69459000762951,15.763266847986003,-99.24635763603638,-89.4312912647098,3.747903030941224,-8.559257291915191,-2.975420352109489,1.1800563800040684,-3.4716640944223505,2.4892303829532683,324
-99.14051957772978,76.83078877947617,8.664634711175562,112.14009150920978,98.6373006169543,70.56585754408967,9.724099538447863,-97.72492654466927,-90.0,2.2552391699142036,-8.18388956631988,-2.5653866426787237,-0.7294428280685433,-4.051439395433293,2.617520815078845,325
-101.65703194992474,82.69039140221105,12.379115933251361,116.04387829231158,100.64882213381176,76.95431554238843,4.620370877100425,-101.74152729832974,-80.10801856179476,2.2209486956458027,-7.991653444063252,-2.3400645057992655,-1.4673824568760843,-4.260161897509265,2.0116703481639373,326
-85.8326334938368,75.33505461843522,21.396193507616506,125.93756674234227,94.25784173214448,76.23439793962261,-3.275283644878656,-114.82501947713578,-45.268141062759966,2.3323135358537392,-12.442338528859272,-3.24303364748031,0.4273525115298424,-2.568348533697915,0.9693106696512442,327
-68.64562184213221,57.104554741685355,28.932665004749417,136.8865778382512,78.28680563047578,68.60840662993614,-12.22047894849597,-131.9891225114825,-37.808859511676985,2.8879720463828886,-15.93582940871201,-3.6612367682747164,1.0536700073685754,-1.055246416839264,-0.2745147820757202,328
-55.229879749603384,38.23878620034181,22.458420034211436,135.29562852356435,67.0046631446153,58.09420427863764,-15.693761480743158,-138.8069449373786,-45.128158657889124,2.865460214270979,-17.20524985032042,-3.834380949710251,2.5515222948361282,-0.21793691976579782,-1.1522378220128768,329
-48.94422551211215,36.474713712905235,16.592006049380025,133.50582974419356,65.93478712408366,57.04552730774031,-17.05514771201419,-141.6115439999463,-46.567435499717114,2.88640958291748,-18.545601935757915,-4.239239932319057,3.7649186094722147,0.08106415106093179,-1.3105762374961478,330
-36.354504080279185,28.45688730232459,9.451772677853713,126.68945010368876,54.91391269829021,43.92613009951427,-17.98779005601462,-140.81926366976148,-51.29878782079692,2.3755228136585904,-18.8887080279355,-4.2599535983467165,4.432301867250998,0.34335863121433224,-0.8161286065513521,331
13.68223554827564,16.326179933756666,-36.88435110757254,109.36830992662348,23.088569944792017,20.346264291115805,-0.7184922675948969,-124.99378837556068,-83.97814103942444,1.5443017731419695,-15.94845935432579,-3.611702501856585,4.311904255048969,0.19457504184326235,-0.2397936826348242,332
54.7553211174901,22.294622668156773,-72.44943745739776,87.42625851631499,-28.917950389819794,14.397908115041774,46.61427548372169,-102.73331324352337,-90.0,1.4793596399679,-11.880816718880821,-2.591926442670541,3.2868325282557738,0.28355760255784174,-0.7265280129347733,333
73.16837544183949,32.12637145194172,-88.85617548003891,58.540728398182495,-63.18823267061148,23.58255754790814,77.5536685488552,-75.11708912123012,-90.0,2.0969926886376045,-9.058051670756337,-2.03790009200204,2.1086527403223796,0.4155405308872183,-0.9201778197463486,334
78.64070915327828,35.15093798728121,-89.18044931435678,51.17390453575069,-71.47743452261064,27.19162780044743,82.71573345593724,-68.77474203222465,-90.0,2.2440870863444933,-8.544768096024205,-1.7275294559685883,1.2581034469144485,0.5962438989940527,-0.9902005524837637,335
84.62829208256846,40.00110349380355,-97.28922699139889,36.26550003600347,-76.44125773691619,33.6066899655526,88.17565642659694,-51.07446776535085,-90.0,2.9004110102813283,-6.278135990949032,-1.124769357462753,0.11684019460902295,0.22460721883848161,-0.8354905474164644,336
87.05730910489989,45.939682730638914,-100.7196523800174,28.29882286208962,-79.98235128072957,40.378941653856494,92.18119027229542,-36.49419544643725,-90.0,2.92874303500647,-5.391365677603051,-0.2562248381503948,-1.1220067436001988,0.24489146797392727,-0.4242166278191318,337
87.65701640568784,51.09971093745394,-100.87447637606071,28.298822862089825,-81.10421909408015,47.18601091187838,94.07327877970508,-28.313093235620183,-90.0,2.677548842812931,-5.9239366229334705,0.6611942560467616,-1.747754784210582,0.5889695211605845,-0.19232924264623305,338
85.93772648052412,55.179595409795674,-94.74848394200895,28.298822862089647,-80.64030213180249,50.61212173322266,89.4172297584231,-28.298822862089672,-90.0,2.2493577381454353,-8.018018308544221,1.261781261775316,-2.0563019856480476,1.1726629046762818,-0.14399979961758072,339
84.46696481392577,55.28789341168139,-91.42271609501977,28.29882286208972,-81.06111050157206,50.34007856397023,89.17607598581061,-28.29882286208952,-90.0,2.3027655010027304,-8.739100556106164,1.4856774862384052,-2.005252979181372,1.1374608079049209,0.08755159575082232,340
85.57660103648482,54.86404463978248,-90.91343166054935,28.29882286208985,-82.30079833978402,49.6472084783928,89.46944995308218,-28.298822862089697,-90.0,2.170525010399556,-10.116257248088496,1.63116005123686,-2.4014501098002654,1.40427643125309,-0.07245961973026423,341
87.27225786228503,53.45032026070134,-92.73172794046897,28.298822862089953,-83.61594801391189,47.27110775681066,92.01204422005038,-28.29882286208972,-90.0,2.2609883292738955,-11.610886027324382,1.691920500134927,-3.0274506914070507,1.8350252347461917,-0.5376761075705458,342
88.2906584718068,51.133834739819534,-93.90495091028146,28.298822862089825,-83.99925207660766,44.589641822187666,94.06369134218113,-28.298822862089697,-90.0,2.303273920257951,-12.909349932944147,1.5131926077870623,-3.901353029691896,2.0166293363830765,-1.0654360026052343,343
89.39951530176138,48.79570436591134,-95.64559547067246,28.298822862089594,-83.1293138658061,41.787051617286444,95.59828768561658,-29.633003077155045,-90.0,2.333015122223038,-13.427535676657872,1.3691368563193211,-4.603287298119027,2.024821208952856,-1.4473530073033198,344
89.79881593188871,47.91333206518551,-95.5176740723235,28.29882286208962,-82.01151803018578,41.634606533438024,95.1670090218705,-29.50830457403789,-90.0,2.279268468592207,-13.403433226564974,1.181848721476039,-4.941783858809813,2.134203381759712,-1.5691589317310088,345
89.52523129292484,47.02100217719381,-95.26819258304423,28.298822862089953,-80.51838370812168,41.91844819226202,94.70576742004522,-29.10191029110634,-90.0,2.3058156164158734,-12.951742015657134,1.0132606212028654,-5.209744109900263,2.080411323079594,-1.5170233921459721,346
86.99958161677091,45.32625672952819,-92.43809811807576,28.29882286208962,-78.57376299622486,42.194984351192915,93.9717150164683,-28.52700645364142,-90.0,2.685549275783371,-10.819507737137895,0.31023347242947696,-4.881205956161027,1.425175393220161,-1.0101688184955606,347
85.52569676401555,43.793225508917935,-93.52559783355694,28.29882286208972,-77.62143917525943,41.83565105961237,93.5610608543808,-29.04856172383487,-90.0,3.262884973338157,-8.164857958890924,-0.39016846731266935,-3.827654160992021,0.7524269305380933,-0.37298275135788966,348
83.45116432816869,41.920253417066895,-91.49767520220944,28.298822862089825,-75.58160721114501,40.313934963503996,89.72623732095845,-30.97131099899861,-90.0,3.61749202565126,-6.1664279259685655,-1.0266782661407055,-2.7754755809348017,0.44347703032122626,-0.014182138328629454,349
81.18160053317588,41.36978580663685,-88.53550859391646,28.71009009122838,-73.13178256266745,40.18860029715129,85.73607064328576,-32.07597536438765,-90.0,3.715924071443693,-5.350964057075657,-1.3761057540558617,-2.1704030733758626,0.34438093297255723,0.05071583762070281,350
79.86974663506118,38.8154190433283,-87.94665903143937,31.16022073947451,-72.03777983585027,38.37476403782724,84.57039764288089,-34.39161244568954,-90.0,3.6323259146720686,-5.148254160015566,-1.657217429567254,-1.7772009250956902,0.4251760963568458,0.14455679586957834,351
79.84002154553502,32.20770270302368,-89.59689454962576,34.969547553484354,-75.29790888161584,32.35082340497147,88.41502204484969,-39.34310145483201,-90.0,3.1978915898330884,-6.887349090412666,-2.292166256351842,-0.4582619015872718,0.760408474352748,0.38974698427759535,352
81.69927007865616,27.35077737530675,-94.65706538384113,36.31861925332547,-79.85940930024815,30.240647893776643,91.55671068544467,-39.58613811684597,-90.0,2.9735544008621257,-8.64075054676479,-2.876508262198982,0.564632519093328,0.7903655234738005,0.9015160011581388,353
82.97327541219259,26.93261151026099,-97.79052733725237,35.54275581997881,-85.48939277559587,29.975215043395796,98.2678853233101,-38.978511939138926,-90.0,2.71188042540625,-10.364488905301332,-3.2497731638330634,1.9292116132051584,0.9179781132945519,1.3658620165596371,354
