JMW9912/AVATAR/Dynamixel/dynamixel_control/data/csv/poppy/.data/waist_test/2DoF (2P)/0422_1752_gymnast_2_one_waist_poppy_smpl_motor_degree.csv
theta1,theta2,theta3,theta4,theta5,theta6,theta7,theta8,theta9,theta10,theta11,theta12,theta13,theta14,theta15,frame
-98.06292262003343,84.44374772742779,-4.5998772860393595,28.29882286208985,96.18214095622693,86.86904512344589,5.679003585620017,-28.298822862089825,-29.4370268784348,0.6691964426448285,-5.394260697766086,-0.9407846655431922,-0.4842099347013817,-1.1274062683576,2.010044993930206,0
-102.71929732766621,84.98768839137527,-2.9708110422102294,28.298822862089825,100.81984553811205,87.1991688105587,5.141392273966868,-28.298822862089924,-26.432527440886126,0.8401245173077846,-4.020756019123267,-0.8047609780248834,-0.5179197766218969,-1.2472175636260563,2.0428798970250526,1
-103.72136619218422,85.87538242740428,-0.8215546571663478,28.29882286208972,101.88914729453228,87.77997486290325,5.142185133611921,-28.29882286208962,-22.48375372973352,1.0050335927271952,-3.7221333760196615,-0.707577401539882,-0.6535739816617054,-1.1721718953051132,1.9984517651289004,2
-103.91084839529687,85.5955271433326,-0.6905180337998515,28.298822862089953,102.17413214188434,88.041744064697,2.7934317789744134,-28.298822862089747,-21.2549299219869,1.057525146272178,-3.3344578240063125,-0.6967825822656778,-0.5770117790159068,-1.1155049823344296,1.9929192873651445,3
-104.74911146610764,85.6574924713113,-0.7637781246771134,28.298822862089672,102.96454937620197,88.15861574305936,2.758745359472021,-28.298822862089672,-19.881981865999958,1.1411078309322826,-2.980662532835211,-0.6745033936388342,-0.6414804672862394,-0.906925555753508,1.9769875347936532,4
-104.66243820480949,85.61321293144452,-0.8339620409515411,28.298822862089697,102.78154033538766,88.21010356542745,2.6873336986267735,-28.298822862089647,-19.363979162398206,1.1578351644176479,-2.635578092853734,-0.6598041457471353,-0.7059671608074591,-0.7173667019269666,1.978409360483124,5
-104.52723683876104,86.11851565387526,1.4721710233088547,28.29882286208985,102.61805716495863,88.20868329492126,2.6301200882139617,-28.29882286208972,-17.180223971556906,1.233867222253317,-2.52351935169494,-0.6743307378597617,-0.7537714553643436,-0.49687672595420973,1.9845783971203061,6
-103.89696124387285,86.06679716154787,1.506062600030962,28.29882286208985,102.14147302561614,88.05738640491633,3.1473167494771315,-28.298822862089825,-14.697680683878989,1.317265351711939,-2.3579233379181206,-0.6972478293374569,-0.7114923280967367,-0.23637450515711725,2.00349306083233,7
-102.84237934348613,85.6548609740497,-0.11374520644198517,28.298822862089647,101.30578476242799,87.95068797227222,3.195675381476825,-28.298822862089747,-12.259254776163738,1.4307034537032437,-2.295288523898935,-0.7179918815417982,-0.6693375879289,0.004056103870816674,2.011275360427434,8
-101.53019404800665,85.70607697359961,-0.21024851680471773,28.298822862089647,100.08642245448821,87.85303224242911,3.2739945439359595,-28.29882286208962,-11.100210833600265,1.5527693401130602,-1.9925034498042995,-0.7507954779912049,-0.6166289622170622,0.2745155357255051,1.999188483746386,9
-98.77098432204725,85.36087028107454,-2.8665749506141727,28.298822862089697,97.70685901253943,87.43915089520036,4.917695702232017,-28.298822862089594,-9.014350150705214,1.653442961697674,-1.7245376917587565,-0.8269521751846037,-0.6466290112141667,0.4889816186720428,1.9466214205157177,10
-90.6175218462057,84.80605937693117,-8.157147244850949,28.298822862089672,89.39890216778136,86.90380901709628,9.78867117319605,-28.298822862089647,-8.606075144129608,1.7098229165888166,-1.5020805447095695,-0.9040108899418949,-0.48323257681715487,0.760179334365148,1.9005219598487915,11
-77.56800980489528,84.1966650773621,-15.759732920186169,31.23510093483777,80.10080111869789,85.04912517770377,16.438228804666302,-41.624002096125885,-12.472251348250033,1.325178285123125,-0.7417142413019547,-0.9150377694217615,-0.6203304730606851,0.7584702186345954,1.8865835155439297,12
-64.52731201979019,81.64958861723652,-22.636558235092043,32.941931575139336,64.68937145968845,82.46180621802257,23.25915797140677,-40.35840937437396,-17.654401343176094,1.1118700795344485,-0.574832131743727,-1.0316382144467882,-0.6166528937757932,1.216718568699029,1.8470278184731146,13
-50.86947807479396,84.99815912618469,-28.426936860748587,28.298822862089825,48.511368972988315,86.6987573999949,29.197065255193344,-30.76772298964635,-13.659954095840583,1.4255587914194119,-0.5054448083820869,-1.093990327920693,-0.7727390982732047,2.058204266471753,1.8176134949668663,14
-35.606534078659855,83.62016327789625,-35.47821483169555,31.34610584735323,32.41004879318335,86.57658822938384,36.66864415384507,-29.877424703846387,-17.835222028921063,1.0890313634173217,0.6192438761249268,-1.0894408723970486,-0.6598409311316449,2.529750785019391,1.8070710330431494,15
-27.837554150507763,83.04878830963123,-42.684211960390805,33.86381627888015,24.446372291589704,86.60113560638963,46.67332937790395,-31.88865827097691,-39.342348623001264,0.5692422997524653,2.642302624018474,-1.0824764488248422,-0.40733721490822683,2.6853788259530083,1.7597225573825261,16
-17.0578958158291,86.21399366793787,-40.14332434816383,28.63742055285834,14.670778806875427,89.63210628448647,45.50837333669133,-28.298822862089672,-37.60136788603744,0.6438058693880253,1.5794286046644677,-1.0911744735760116,-0.35253106394470723,3.0350164726153643,1.7053969242406002,17
-10.462214311041645,88.35786590189923,-35.05638138955024,28.298822862089825,8.408297863070352,91.32776853398882,39.93884386274097,-28.298822862089672,-25.260058917200247,0.8460775045488007,0.21754968016046303,-1.0574791209127212,-0.5038367566146441,3.4971866097958704,1.6807774855062687,18
-8.968113380449855,90.36123864787841,-28.975001597933474,28.29882286208972,7.135878418450186,92.5656929063703,34.91146254092441,-28.298822862089594,-20.565162090556495,0.9643292777297845,0.25168195966211315,-1.0677101013346482,-0.47970853538418046,3.9334898979190727,1.6467697280805138,19
-6.8657288772061245,92.19099411539386,-26.89728804401737,28.29882286208985,5.095261938404647,93.92780155189249,32.0086854771771,-28.29882286208985,-20.813766922350332,0.8387398320069984,0.6485520272887366,-1.0549813238013683,-0.5564433053196336,4.222210430777408,1.6768593510890855,20
-4.233019277573948,93.82347621096713,-24.830483536054587,28.298822862089697,3.1111290153144684,95.4296727599855,28.865043966080638,-28.298822862089825,-16.949204915829498,0.9250848707562509,0.5189777744225411,-0.9876042851790731,-0.2541919831133364,4.471873537215867,1.6176103006349758,21
-2.186153227455888,94.70644423380145,-22.58055255213591,28.29882286208972,0.6390220270822312,95.70488866780238,28.91037553954295,-28.298822862089594,-18.649506557304875,0.9352572630273087,0.46123385689798096,-0.9900283967522362,-0.07409297903619748,4.596637496721757,1.5958433617970031,22
-0.28367142549337837,94.8755657628254,-22.599145426836824,28.298822862089697,-0.8748280980513136,96.18528377215783,26.596894814620722,-28.298822862089697,-19.050716411249454,0.8944917415326277,0.6506547302572133,-1.003788849609313,0.011449815549591154,4.688639491252447,1.5750877028002896,23
0.7669439669159777,94.7872015370533,-22.53915916610992,28.29882286208962,-1.9318553660562605,95.99896755705318,26.60014660160939,-28.29882286208985,-19.626553616776047,0.8641895924740787,0.7390999145766708,-1.0402709352170774,0.037138080995297,4.721104243157019,1.5650127641630711,24
0.9699315829733305,94.89825796030401,-22.50151125946957,28.298822862089672,-2.1767772800119842,95.97968256233656,26.65764497600449,-28.29882286208977,-19.14634560091136,0.8837951647452412,0.7758961237203797,-1.0903217734176247,0.013898978692315897,4.746510841222008,1.5619852625265367,25
0.5441693336635576,94.86631454938569,-22.458264599205695,28.298822862089672,-1.8369318558507162,95.91082001598015,26.679978897566688,-28.298822862089697,-19.054879534866366,0.9056354601667852,0.842945327137977,-1.1298434794215675,0.029344273830847274,4.76048185494791,1.5597277217630898,26
-1.734297497373933,95.01099098324607,-20.00821170676841,28.298822862089672,0.3347358152720395,95.47017293751647,26.62441869820077,-28.298822862089875,-17.806602206511442,0.9085714163038127,0.8686857083820322,-1.1604773293827029,0.06704640314776816,4.721240195073142,1.542499122783216,27
-6.017312107290658,94.41378185499421,-19.850764943048105,28.29882286208972,4.565751313472328,95.31274294220923,24.186254643744363,-28.298822862089594,-16.43629546177107,0.9672003784224854,0.5202982171862892,-1.1999985086213727,0.09822035663758485,4.579743159983576,1.5457866707549974,28
-9.95715725934451,94.56493561164557,-18.183873985706015,28.298822862089594,8.341263834466378,95.10823154059027,23.440715379502507,-28.298822862089697,-17.71447739840232,0.956382355547883,0.08612794331707252,-1.2595739085752793,-0.016607710664325957,4.462375756130825,1.5391516999035582,29
-11.732083038103097,93.7127019002077,-20.73122037262068,28.29882286208972,10.263203260833082,94.69640416031949,23.892430633140837,-28.298822862089825,-21.263767470746174,0.7802397736883031,-0.1144265458686899,-1.31670782072028,0.03589628098539472,4.3069174931098235,1.5045209876515062,30
-18.32650465660139,90.64256118965132,-25.731165315180633,28.298822862089594,16.81549683278799,91.4116895479738,29.0722315104508,-28.298822862089825,-62.584678555644324,0.3293226373844516,1.6518155533358816,-1.3055257387257417,0.33487899901396134,4.1223892931666395,1.4777333127121388,31
-24.107176364808407,90.398667620484,-26.10670534829682,28.298822862089594,22.457504274068505,90.93391334050578,29.8146512217086,-28.298822862089697,-38.96225607842361,0.5485661854789015,1.3416443400273046,-1.3622124740126798,0.02610647285906451,4.0828064037155425,1.4679368352846154,32
-32.57686713270861,88.8760604824727,-25.8884856756602,28.29882286208972,30.83768768250513,89.59343632960218,28.093770233078125,-28.298822862089697,-25.346490613174726,0.7946077616345034,1.069025163285883,-1.3511994021939386,-0.1509667533509081,4.014613367094152,1.503791930024199,33
-45.1022204860102,86.62764136283968,-22.80317839097302,28.298822862089697,43.89960528440854,87.2923653275311,25.3304695328527,-28.298822862089672,-13.576909094554416,1.232875278946853,1.1923024577197772,-1.3394186309486233,0.2346852693693303,3.8847353055852847,1.494819790776914,34
-59.96189052838975,84.40924162938019,-17.45096349208,28.29882286208972,58.63178040418874,85.25348472364695,19.901608009728,-28.298822862089875,-10.719097525165363,1.8380107201730795,0.2645648541217414,-1.3542453173043576,0.017062937176196665,3.469748483977382,1.5137971724933466,35
-76.60379137094161,82.91874955605373,-7.265016266363407,28.298822862089594,75.71191059909451,83.59496749698673,9.539727730913024,-28.29882286208972,-9.476787686652406,2.036669634347621,-1.068554345297089,-1.3580569414393662,-0.13038454299903657,2.492784943998923,1.5503786784926914,36
-90.28853214797297,83.22116306795833,5.0197593397916656,28.298822862089825,89.75964754286625,83.45096291709939,-0.45634659812274875,-28.298822862089697,-8.566592544818825,2.0802749245806176,-1.7525421470736,-1.3497415196594926,-0.21264071128384837,1.6502013120111472,1.5870044936599872,37
-100.87090318577613,83.22483401108853,17.982379555541982,28.298822862089875,100.64846064507482,83.88003770258595,-14.372994664706212,-28.29882286208972,-12.635012422067188,1.5917296412570177,-1.6481853426751476,-1.3160450362597274,-0.1758291813272237,0.49204912546515245,1.5381508670941337,38
-107.00057619998904,82.16752528499133,29.87879174423392,28.298822862089697,107.47764937521931,82.97151416156974,-25.996218158252358,-28.29882286208972,-23.49696404930966,0.8659005604793495,-0.9461838961535329,-1.2443785092385158,-0.057428469039863664,-0.7872108263122413,1.5738304191562262,39
-111.12568886330124,78.33269235567168,35.6350773207268,28.298822862089697,112.35304450869991,79.54602053892425,-33.97302126203225,-28.29882286208985,-90.0,0.3670803260515438,-0.29416726599360044,-1.2506545408784773,0.13806946913025284,-2.43530672111756,1.6113936684463517,40
-116.45287035731522,77.0726922312219,41.69676159317988,28.29882286208962,117.8015590020963,78.24246073385261,-39.90206453100765,-28.298822862089697,-90.0,0.9977733397393573,-0.0947221911586279,-1.2979619218853002,0.25566341372913315,-4.093297835635512,1.560051969078527,41
-120.6690514021524,76.16082177663539,45.581624433565125,28.298822862089825,122.03286269853302,77.9676472372127,-44.69819475413858,-28.298822862089647,-90.0,1.6671617169730466,0.21934934088132435,-1.2456664773620594,0.19727253187341132,-5.364962972547058,1.5259780631915212,42
-125.53671466888314,76.40234658344899,47.78712476818299,28.298822862089875,126.55473583540993,78.41799471216672,-47.04089352949548,-28.29882286208972,-90.0,2.2624439494039463,0.4230897031951701,-1.2058784326386525,0.08083827710361366,-6.407974240418446,1.5177993102187406,43
-127.97637477362562,77.20899097049116,47.595797413271896,28.298822862089594,128.6943210952854,79.89339868304434,-46.85796576868796,-28.298822862089672,-90.0,2.6119700182419505,0.46480377017491015,-1.157932049463778,0.005901762941279239,-7.0357480776128885,1.4645312915372128,44
-128.94938723290124,78.86721718033871,49.599881183130314,28.29882286208972,129.5522297847623,81.4878515143163,-46.660894746031744,-28.2988228620899,-90.0,2.808244674378817,0.4740455557060161,-1.1284200009244398,-0.0696913842097285,-7.437435801694028,1.4294266970309577,45
-128.47214147383627,79.96797269737715,49.29833382285823,28.298822862089697,128.69798312283976,82.91645155070599,-46.563266099353164,-28.29882286208972,-90.0,2.8061706285049057,0.5572812627648609,-1.0877914277243792,-0.21769415415095436,-7.592020896774831,1.3805467217033642,46
-125.4090438038873,81.52214668529157,46.6001911905897,28.29882286208985,125.33420628643677,84.26831904110955,-44.071899402178296,-28.298822862089697,-90.0,2.365956460357321,0.507182377371842,-1.0795025007968067,-0.2889252613923659,-6.800070515230654,1.3327163488369478,47
-120.07576404839365,81.16521386274033,39.4814724264816,28.298822862089697,120.11150767596307,83.74549881132783,-37.05992486228798,-28.298822862089544,-90.0,1.6023122309261921,0.12127133021084122,-1.070382643174331,-0.3388420469703862,-5.538279066956631,1.3502392420962104,48
-113.89005818131305,81.15253686334644,32.132738911812304,28.298822862089647,114.1714222389055,83.3119438945896,-30.09291168740811,-28.298822862089672,-90.0,0.6866682784527414,-0.49111552423039806,-1.0868534646876469,-0.4824967055591289,-3.728100211155184,1.3613878947996265,49
-109.35261633005582,83.03692494495172,27.54624209811888,28.29882286208972,108.41732614105534,84.73800932450376,-26.377797014496082,-28.29882286208985,-30.303142947934152,0.9074869833892673,-1.6691298831320887,-1.082968786859625,-0.49855130333032965,-1.752438978973728,1.424994870025685,50
-102.6879392175807,83.93165021856724,20.766817546334657,28.2988228620899,102.26463459315396,85.03687251647322,-17.190331049231663,-28.29882286208985,-12.539802196423846,1.8407038843679042,-2.3570529132138143,-1.0913806783531497,-0.30892595607749007,-0.16460020840181097,1.504402944467122,51
-95.22888135334877,83.49775690392309,9.525582848111856,28.298822862089747,94.03215751974503,84.81927565809343,-7.692364689928582,-28.298822862089825,-10.624926137108917,2.227188226640947,-1.9983136046209502,-1.0957783019621978,-0.32575884995680243,0.7299766365729687,1.5336555544982144,52
-80.09219259025615,80.3930587708366,-6.905160699242071,28.29882286208962,79.06011244193823,81.4605951777867,8.60308246393489,-33.04385495802536,-14.760909307781823,1.5747948516995973,-0.7546003433674926,-1.2389749667776226,-0.2627570804069107,0.5040333426186246,1.6406658602648614,53
-64.13530830625622,83.41514842244244,-17.26953895534657,52.74231843630496,63.74228319190851,83.76496143621081,19.442093138834437,-58.27935672710064,-26.40245058993463,0.8801458697454092,0.4975533168126733,-1.2367535015142486,-0.04596100116024668,0.7784344003060559,1.605219654976132,54
-33.06354171252497,78.63513402121887,-28.645066190970866,52.997610619314784,31.160569192933675,78.60012158142152,30.318970570543595,-54.847866174366054,-90.0,0.3974887578153615,1.2288700061049702,-1.219044435822845,0.15444460321843415,1.5032411913137984,1.6842086366113727,55
-9.287657443268186,83.6155563857607,-37.372730784135804,33.0130050714559,5.826897545257057,85.14256999443177,39.45273890068199,-29.752079306966102,-61.5809983539157,0.46614640998970525,1.0665679429348964,-1.3066223791367706,-0.15632984523314816,2.8678500810786205,1.633624456594735,56
-0.589729682641114,89.24579135545275,-30.94204223562159,28.298822862089697,-2.0148065018292898,89.63247536228529,35.35536320532048,-28.298822862089594,-29.051576335057437,0.7842315377286088,0.607282215640008,-1.339994276034916,0.16012953406486613,3.8247924818431778,1.57267464777845,57
10.230967021072123,89.43407067611554,-28.530783282616735,28.298822862089647,-12.532295518377412,89.51875010381272,32.89498503350359,-28.29882286208985,-90.0,0.41550092704087044,1.5912798802208457,-1.3159265485411233,0.14328103690640634,3.9272452102884863,1.5523000939591989,58
17.2735501536292,90.37625310817127,-26.26276130805448,28.298822862089697,-19.105925903081328,90.68790714887983,30.679635356923253,-28.29882286208972,-90.0,0.467738106821304,2.0597092128250036,-1.284982218242514,0.15854523058638514,4.08290025006431,1.5138949479852235,59
24.364010909593972,90.4250011363991,-26.19528812828179,28.298822862089697,-25.94194186929509,90.75343746526556,30.77155710585898,-28.298822862089697,-90.0,1.160838504735387,2.538828393440051,-1.2690968983507847,0.057785865247602805,3.973668995198977,1.5030744073400253,60
29.938908611288948,91.80980072589938,-24.01009132561039,28.298822862089825,-31.023587348709974,92.0327391163513,28.596331348733315,-28.298822862089825,-90.0,1.3500973065947788,2.513922669807217,-1.2123072110020316,0.01934804129872984,4.034372241630289,1.482457331986964,61
32.01689215761538,93.34519341426078,-21.858754585868017,28.298822862089697,-32.93842080538489,93.58944908292267,26.488915010715942,-28.298822862089594,-90.0,1.513396192653628,2.475548346053741,-1.2029982286164371,0.0048825208090265415,4.08466228274425,1.4704563414262417,62
33.43238229276037,94.2230127145547,-22.094549650439866,28.29882286208985,-34.4248771683109,94.52311716354703,26.6270169785076,-28.2988228620899,-90.0,1.6846761692896672,2.7058512145955262,-1.1991777077733667,0.0660155220517308,4.122561740513863,1.4839283335049434,63
34.15767853561718,94.98428786351975,-22.24304652170351,28.29882286208972,-35.190404662263816,95.2437723246821,26.785388766615604,-28.298822862090002,-90.0,1.7619188057887387,2.8652174394493453,-1.2118570458252693,0.06811674219411544,4.165467143998453,1.4854505355743484,64
34.67608316479809,95.20612141267115,-22.300053684680925,28.298822862089697,-35.6736967349051,95.35651100063015,26.797376465026705,-28.298822862089825,-90.0,1.8144586715808215,3.0251531128070837,-1.2358619286180716,0.1267563824824268,4.157796996790909,1.4608168477574168,65
35.78702857521659,94.43020841219106,-24.5462320914005,28.29882286208985,-36.714615307886504,94.45909499717936,29.079394295167553,-28.298822862089875,-90.0,1.9200931431296362,3.3006374698362175,-1.2665869272314159,0.15119071130414846,4.154302273485271,1.422945203448332,66
36.32146452646703,94.01179165424986,-24.43430217145909,28.29882286208962,-37.34689290641757,94.01116833976481,29.015618665648724,-28.298822862089747,-90.0,1.959006338239287,3.3111838015360826,-1.3021256692510959,0.16437912116768577,4.137831913797274,1.4056367293710181,67
36.56300229997941,93.74454073475317,-24.360121044789494,28.298822862089697,-37.91638762158152,93.21176727903585,31.3075510426465,-28.298822862089697,-90.0,2.0127246339988543,3.3966113484513945,-1.3592164016897779,0.2056276192182708,4.12708897335096,1.384918091542976,68
36.64198731208344,93.45822698088936,-24.28840406523248,28.298822862089672,-37.957280402129605,92.95600791815447,31.270121461507884,-28.298822862089747,-90.0,2.035406727576542,3.3573131578205286,-1.3912931548542238,0.23458798142602888,4.097786339572809,1.3598839055038032,69
37.15851668023959,92.58061385541156,-26.478056071603017,28.298822862089672,-38.02508213115495,92.51303648826013,31.25914223479448,-28.2988228620898,-90.0,2.1351145236997144,3.297519824837097,-1.4040970686293026,0.17537237960806557,4.031179904059242,1.3331887543644214,70
36.332201667773056,92.39361008259527,-26.45855179762162,28.29882286208962,-37.340994691905934,92.45586850666658,31.228793847708584,-28.29882286208962,-90.0,2.1838419273695076,3.2431159620962178,-1.4340445076151005,0.2481558840205096,4.0006614155546325,1.2999512374683346,71
34.3666620857056,92.04652769663466,-26.36932086471455,28.298822862089747,-35.31098842732541,91.93160221707943,31.1464055266736,-28.29882286208957,-90.0,2.2952769097649774,3.236482959333798,-1.4679303830061028,0.29246985136527853,3.926089098030691,1.2638587711018305,72
31.15367050902287,91.5623152938355,-26.255318240671357,28.298822862089697,-32.38237748921219,91.54103154804422,31.085003309716296,-28.298822862089647,-90.0,2.342937700275464,3.177431623820052,-1.50763267287233,0.3446776900470361,3.823844300901465,1.2475621085088997,73
22.44123745857859,92.19737254850747,-26.432009371805535,28.298822862089875,-23.77315335888384,92.21076913922674,28.725483373656548,-28.298822862089924,-90.0,1.9604877384377741,3.3782067021724043,-1.5034098033637395,0.4592191480290073,3.945046477756526,1.2764107281512016,74
18.413641553050084,92.2531044898515,-21.506089156318733,28.29882286208972,-20.491451677831222,91.74803338534275,26.221003337645236,-28.29882286208972,-90.0,2.0468757980031382,3.0341618904133867,-1.5755207980124912,0.5907409401642937,3.671640997056003,1.2402543932963601,75
-2.4982827515204393,91.1305117100484,-18.54962362776473,28.29882286208972,0.3311018340216456,90.46585776404395,23.77232506889026,-28.298822862089825,-90.0,1.0532719215670099,2.6978944932139104,-1.6156221032991671,0.5086210852644234,3.9306246660654858,1.2547323235977828,76
-21.80668782104609,88.10371317916244,-22.145787998375763,28.298822862089594,19.9834008146695,87.5961561942685,26.57254061094399,-28.298822862089697,-90.0,1.3701851997650265,3.6442980314268065,-1.628548151597332,0.7456298163827128,3.7246374196946346,1.1769727412685616,77
-32.11465781162611,87.31651770574275,-22.32017259701587,28.298822862089825,30.24104371012354,87.35695413086142,25.959342377234147,-28.298822862089594,-90.0,1.054755578444817,2.5424446711053474,-1.6812927576977574,0.689773199969158,3.220054658648004,1.2334385159890766,78
-47.45212309106317,85.64591469757934,-14.524884705172317,28.298822862089594,45.698903576330956,85.32678937991973,20.623268049141718,-28.298822862089672,-90.0,0.7165153020609594,2.034232287492289,-1.6685446997077216,0.6775648242618337,2.8195877339675945,1.327775040622375,79
-67.27311850426445,81.74682467588183,-6.356502144880904,28.298822862089594,65.25993543440997,81.49037379526635,12.200556341231472,-28.29882286208972,-90.0,0.4710735842751872,1.0554865401825813,-1.6577743995559102,0.4216809332382794,1.8436765842145315,1.4183545765300825,80
-87.59296028019165,81.62937835985431,10.821593250556518,28.29882286208972,86.09496284328796,81.16294678982463,-2.946618428497844,-28.298822862089594,-52.576265581520964,0.5675117576771768,-0.3707967240633185,-1.5709995348571995,0.2757942212082069,0.8936024942054147,1.5545351690544438,81
-99.91528688575299,82.87593797498695,28.0987399179758,28.298822862089672,99.73773603758953,82.23753939875529,-19.163334194379352,-28.2988228620898,-55.56149079588688,0.501936056493817,-0.993746994137089,-1.4927444631458784,0.16256401839238563,-0.2774341069134694,1.5767498985058055,82
-106.78525882156612,79.68197807166106,41.11191496509115,28.29882286208957,107.41209114925364,80.02073157992736,-34.470390404636994,-28.298822862089697,-90.0,0.5930672556306238,-0.2250133934758206,-1.4079886725146211,0.1800220037426472,-1.7942202600459014,1.5107808333312422,83
-110.38453488897969,71.5972098284856,48.371217820044265,28.298822862089875,111.89055150475824,73.25521415579443,-44.455112051004306,-28.298822862089747,-90.0,1.6870758061198874,0.9142025551974917,-1.346117962103855,0.10118340705035472,-3.8854446732085317,1.4928586545537894,84
-117.64796555442003,67.73443210853806,52.832312358893795,28.29882286208962,120.79298977697303,72.7978583167617,-51.18859067682926,-35.476364495040464,-90.0,2.45515814512188,1.0199236468593165,-1.2522551040319836,0.1576745406278898,-5.781046445485064,1.3334015873789675,85
-125.02184352670243,67.69707254949256,58.71783731361133,28.29882286208952,127.57818629484908,72.68824224300708,-56.71910623106064,-34.61139148530643,-90.0,3.021876585911889,1.1531952209006593,-1.1991447924977678,0.05900492146068628,-6.924373573912509,1.378496954014906,86
-131.68754494868574,63.96778045162158,67.27861807779176,28.29882286208985,133.474138967807,70.93946604308215,-66.93529222717221,-37.22691545212289,-90.0,3.9090318674453717,1.8136084550456286,-1.1776297090456775,0.04316365728527361,-7.816631850970951,1.2206553301084677,87
-135.61315259385918,63.4060889735182,74.47428207552473,29.712222657332937,137.50569229145765,70.85070800190479,-71.47050532246003,-37.24838065207056,-90.0,4.513170033951673,2.041181296169118,-1.151079861841565,-0.008311616573946837,-8.517827113304651,1.1555999937416968,88
-137.48595415551569,64.79049669085329,71.26172112165561,32.783724140295426,138.55350181352753,71.98929513437884,-70.35561154094981,-38.95858620563383,-90.0,4.721135204096444,1.9518242243601611,-1.1732566470697312,-0.023463725232014607,-8.884439478927646,1.105368488132309,89
-137.17315548453195,67.32194568841388,67.605562179079,32.79601281707697,137.5947563311435,74.37930176045496,-67.14830480145719,-37.04206476750942,-90.0,4.7175388642876666,1.7107643729648578,-1.1400383492176045,-0.09841304993003028,-9.175401799874209,1.021481985022127,90
-133.27990013663452,70.21553562278939,61.90762095959393,28.298822862089697,134.352123650134,76.91087693473031,-59.8264840223418,-33.78021494179793,-90.0,4.394069431320785,1.4039606977935184,-1.14567023027148,-0.1434014815713762,-9.013430101861283,0.9979025067969753,91
-128.18379913379619,72.63394598163826,54.76529000629572,28.29882286208985,128.98472686177698,78.23243052513529,-52.316809352803084,-29.10784103570049,-90.0,3.7921030993829077,1.2897430183952063,-1.1368125645849891,-0.18856424084135548,-8.275854614455213,0.9073192452760097,92
-120.8782629282126,74.59288040462114,45.06192372376167,28.29882286208962,120.90183406016041,78.6742234393563,-43.0144164645923,-28.29882286208957,-90.0,2.6442526105347297,0.6068612790986532,-1.213402767573508,-0.38801099828054025,-6.533963717304566,0.8511513118347303,93
-111.49080165276098,76.31574164211894,33.99061580834022,28.298822862089672,111.58037715387648,80.32448690123634,-34.72301582105924,-28.298822862089647,-90.0,1.2620767453834094,-0.3584125126240522,-1.1709750069272393,-0.6158578473463985,-4.155912102095769,0.9569092996774425,94
-105.82509208272512,80.88306314317364,29.892967136687442,28.298822862089825,105.48790684186525,83.59281000097575,-28.850833772856237,-28.29882286208972,-52.60902962224996,0.8196307093955343,-1.5781606314281218,-1.1685082372442475,-0.632346531174769,-1.9015789611512732,1.0903205869348807,95
-99.1508831118939,84.36283406757983,22.554023892468912,28.298822862089594,98.29509429249143,86.05610803771295,-18.952704992053473,-28.298822862089672,-22.227344329658816,1.7747521536267483,-2.6583545832207474,-1.1458090561946488,-0.34728716722149305,-0.31874870267589145,1.2164930966867769,96
-91.45145626000561,86.07497524737305,9.779389712380947,28.29882286208972,90.65775768143097,87.86563177734358,-6.424357670728332,-28.298822862089978,-21.930585071443662,1.711399981095098,-1.9040688540992972,-1.1567961428724316,0.24055108639236453,0.15019464155077333,1.3861565636360504,97
-72.65893311690634,84.17387610353028,-12.241553419001756,28.298822862089697,71.38617538708124,84.72319930239745,14.970243936155793,-31.105819650331558,-60.851382438874765,0.7048949779666682,0.055630120977658355,-1.247886016581006,0.2848857195555728,-0.27101261418420763,1.5675740177871926,98
-46.169844895748085,86.83206360804031,-25.700685170659572,34.168581112262636,42.957566901674014,87.14772395744055,27.761985976440098,-37.428649408003174,-90.0,0.9978791113206341,1.2730675594817942,-1.3485916758261345,-0.15100176122968753,0.42447429466068753,1.5844689146820687,99
-21.441787598418827,87.75864767026583,-35.41322002757423,28.29882286208962,18.41019426091775,88.83198744037621,39.03433730845186,-28.29882286208985,-90.0,1.4673971093313611,2.1228898629130786,-1.3914967422254634,0.1616248192637113,1.0513899062768253,1.5293415748177255,100
-9.351350659363511,90.20365327120254,-27.44244871876122,28.29882286208962,7.250691884235286,91.0024538939501,30.563941298162973,-28.298822862089672,-90.0,0.8560264025250554,0.9529046184847336,-1.3473351292192592,0.06121963650136294,2.1225190458283136,1.518189476650287,101
11.337833449642815,90.05486603501552,-28.63962719198075,28.29882286208957,-13.309872265881383,90.70854260291337,33.13051838389177,-28.298822862089672,-90.0,2.037844516885528,1.9119777961543754,-1.2988452314192027,0.18826540852692927,2.1748050388080693,1.5056367047808714,102
17.725692542973615,90.77523891450127,-23.882606945923744,28.298822862089697,-20.044279976175766,90.95232622709057,30.738689659232172,-28.298822862089875,-90.0,1.687501109345346,2.120722020776885,-1.3148918976581216,0.1759549950778493,2.581471895863155,1.5284157836364094,103
25.95160239242166,88.27393001294233,-25.789135995780924,28.29882286208972,-28.129924108625698,88.2359835078457,32.71089433400595,-28.298822862089672,-90.0,2.7885756230719276,3.1490365917866625,-1.299693163771547,0.12997956908660926,2.3876768943474738,1.5259951030687724,104
32.09727311999525,88.4279641338482,-23.400789949945082,28.29882286208962,-34.216597131288275,88.06309545377057,30.181919541711093,-28.298822862089672,-90.0,3.2724160086810428,3.206443954258447,-1.3183756587749902,0.23604846509974448,2.266738701232502,1.5097383449615,105
35.6650863064235,88.37625265467422,-20.92982177393455,28.298822862089747,-37.23045988498958,87.9395706678027,27.69590756384711,-28.298822862089875,-90.0,3.611115391682827,3.511940790898301,-1.2757281031772705,0.26450437102130314,2.251050331876827,1.4482667310145405,106
38.208434611903385,86.5308483616729,-20.59639354850625,28.298822862089672,-39.48843122224868,85.96396670229859,27.250237611688735,-28.298822862089594,-90.0,3.926839667760819,4.104103619774681,-1.2624538492774642,0.3787189725960866,2.1895895267853938,1.3809881869439247,107
39.40657890607596,83.28838699341311,-19.91892718997635,28.298822862089594,-40.774026604035626,82.6616620411431,26.583666928997243,-28.298822862089825,-90.0,4.237090856659031,4.921272977489581,-1.2955481839309426,0.4536628838832187,2.103527710647387,1.335138106736061,108
40.63275089608991,77.76386542996269,-21.140297698685867,28.29882286208985,-42.19683110702504,76.84030269374851,30.509463783673,-28.298822862089697,-90.0,4.659027008712211,5.744982337642015,-1.3325354842417576,0.41696298403626253,1.858443793821221,1.2811084368366428,109
42.246400303574816,68.40016784156641,-24.131128222686417,28.29882286208972,-44.24974420464447,67.23774079061863,33.63872917253459,-28.298822862089697,-90.0,5.252963114995515,6.376064780935732,-1.3707877859217015,0.46439951056995127,1.2831013355814378,1.2468322659874889,110
44.48401578327811,53.18979012281937,-30.13601357823608,29.49397844596341,-46.472166662930775,52.26364831399848,37.06022279371566,-29.697600290120388,-90.0,5.82983458215626,6.885733159949155,-1.3810594264453924,0.33362404292365544,0.46975272635834364,1.2532740925291475,111
43.07847996843237,38.48479642368343,-23.778682431799,35.19899567636578,-44.04956653976814,35.77355168197442,32.30276190943473,-38.11959527944096,-90.0,6.000000000000009,7.187816783447156,-1.3641957209888869,0.3950778815373187,-0.39648777162404364,1.1620562223144024,112
36.18214315196145,20.481023806721485,-16.479219291860403,39.17169326629582,-34.86463369163695,17.06454649640916,23.1395274621652,-43.73284865701051,-90.0,6.000000000000009,7.160254211012526,-1.3892893871898906,0.17664385292921891,-1.4977497118240541,1.16282880892176,113
2.8387401610974927,5.452595493493693,17.407634461904113,38.87997084804229,55.48412159546069,4.795295813445488,-65.16691370985905,-45.510552581462,-90.0,6.000000000000009,7.174866982471195,-1.3537108067612371,-0.05365910536120386,-2.4906072789902476,1.1627121257426085,114
2.8387401610974927,12.918067850253435,104.99999999999999,36.25152716523546,112.43462521384994,18.16466694953215,-105.00000000000001,-44.91642877290454,-90.0,6.000000000000009,6.905224028054094,-1.336746475743198,-0.12794013318299363,-3.2148590267578343,1.1565786625733394,115
2.8387401610974927,27.806907636309287,104.99999999999999,34.45242244319203,111.32249576599799,33.8319096946006,-105.00000000000001,-44.06769572505576,-90.0,6.000000000000009,6.704698819798291,-1.2985904778090482,0.03594092334095161,-3.444692084179988,1.14887826551354,116
2.8387401610974927,41.12778157868812,89.49398824573126,30.414330045102442,110.60016747139582,48.00221489650714,-88.78670691387282,-40.79050373868773,-90.0,5.8620975605808425,5.998632952661818,-1.3061636878618315,0.426582235788686,-3.6035954996828714,1.1295724324647967,117
2.8387401610974927,56.549719216223856,78.16387534453447,28.298822862089594,109.79856638467218,59.250684463481505,-76.05068987218593,-31.255217201774524,-90.0,4.912619501430882,4.692062589615144,-1.3896979939628664,0.4801897238518601,-3.806921300651606,1.1739809347839418,118
2.8387401610974927,68.42746489992396,63.01551355583383,28.298822862089697,103.84800405173323,69.4798616251029,-60.010323533793525,-28.29882286208972,-90.0,3.4411995302983582,3.2052744076307973,-1.4401989702505267,0.3977853422563041,-3.0475815201446466,1.2483312955545345,119
2.8387401610974927,78.71088355085095,53.60319894465873,28.298822862089697,101.35832960035594,79.46892608214449,-49.78720429111403,-28.29882286208985,-90.0,2.0210302016048813,1.458486867260169,-1.3803858347255957,0.2511855776822775,-2.2144773964749778,1.3806610480895884,120
-96.15859427992066,85.99436954298093,43.83415808818513,28.298822862089747,96.89326412752051,85.98071753572694,-35.143029468307006,-28.298822862089647,-90.0,0.617190425485288,0.2354018950924545,-1.3353239630602767,0.133169202359411,-0.9653053006961797,1.4563372960729808,121
-87.48435479777822,89.54569668784279,24.172893091279157,28.29882286208972,88.56324274534485,89.60584969999029,-18.002335559354478,-28.29882286208985,-29.041332697375747,0.6262906419261844,-0.8358896913161828,-1.386555293624642,0.625497357768528,0.04051334533548312,1.4875935605054702,122
-77.01470834787654,90.86117333201248,3.9413617990838268,28.29882286208962,77.04956299465307,91.42944827332784,-0.49733104203026735,-28.298822862089825,-90.0,0.2861924601627922,-0.16519387142749536,-1.3241228124407434,0.5505681035563394,-0.22633761637300467,1.5375728201356147,123
-58.17797601440438,90.86214831241651,-6.301591596957566,28.29882286208972,56.9973977856262,91.17797782829419,8.995095608991816,-28.298822862089697,-90.0,0.8731827199024292,0.12668611200116434,-1.3125229184182092,0.365003098039773,-0.2075925809334597,1.5713139876407298,124
-39.609941645654914,93.73502798105866,-12.1176648985135,28.298822862089672,38.078946261056956,93.05339726619958,16.56622571662085,-28.298822862089697,-90.0,0.7538840859464175,-0.43568679689116974,-1.2918764480511595,0.22880289913932947,0.5771978261831996,1.589376074440886,125
-30.058420821172934,94.03237214266845,-14.629318055606738,28.298822862089825,28.662405465612103,93.52013742094697,19.135811653837166,-28.29882286208962,-90.0,1.2123566224757243,0.5284653547204233,-1.2753483577426066,0.5116554268795953,0.788331147759912,1.5687367957335547,126
-19.835605177255584,94.80363765860474,-22.698184661433707,28.29882286208962,17.98197417937936,94.38949517431764,27.949818864628508,-28.29882286208962,-90.0,1.9608906008319316,1.1972906025979644,-1.273666519667282,0.630015754564329,0.8396704838973158,1.5627393545627353,127
-10.789842374042799,96.83686466834995,-19.154617260434087,28.29882286208962,8.837627549962168,96.32169618693997,24.27056512769694,-28.298822862089825,-90.0,2.0284571369966238,0.13336480173090273,-1.2879914701932977,0.4897944726481042,1.1767992439526835,1.5601213014406827,128
-7.744662426866532,97.6208279018434,-13.67857783801154,28.298822862089594,6.015564400337281,97.07057411924119,18.948278186217586,-28.298822862089697,-90.0,2.03123089041962,0.202342563385733,-1.293646907372161,0.36876974044256466,1.4728600057120431,1.488917196784024,129
-4.152094899252812,98.86204341512159,-12.994734735594003,28.298822862089697,2.348488547388048,98.61907850017427,18.13800905855071,-28.298822862089697,-90.0,2.263727276065725,0.4495077437097192,-1.282514082843031,0.3283784133923184,1.7101249006396815,1.4922010813197195,130
-3.6152270271015174,99.55402311315754,-10.52806321480042,28.29882286208985,1.8054653031988899,99.33889415504251,15.378581292773797,-28.298822862089697,-90.0,2.2385302320819984,0.3378395068370713,-1.2775024192475808,0.27981921025634793,1.8447650953278896,1.4918634482005562,131
-3.420541027917833,100.05464897060136,-8.099699801850873,28.298822862089697,1.5607410490520495,99.37196404036817,15.33544825294509,-28.2988228620898,-90.0,2.3050652291701215,0.513067277490123,-1.238739347308073,0.3500666523812139,1.956862426976631,1.4847416002971303,132
-3.5582937382959,99.84882433931611,-8.080418994064381,28.29882286208962,1.6534606177293312,99.17145964662024,15.331147084189174,-28.29882286208972,-90.0,2.387636788840658,0.5484334845395966,-1.2643171957785795,0.3518123931479246,1.9465496822944721,1.4707479286615488,133
-5.153656580499664,100.33332766271332,-5.9716786190075455,28.298822862089697,3.101085622068025,99.71673802334169,13.498562852854276,-28.29882286208985,-90.0,2.2619380512702776,0.6050390388758837,-1.2959543429876095,0.3894550886165472,2.0558363838313207,1.466797892361832,134
-6.83304106028423,100.26258838202597,-6.2407055893188526,28.298822862089825,4.802445559568934,99.56800983423207,13.921271126661303,-28.29882286208985,-90.0,2.13154527990606,0.5613477235523728,-1.3391500172227961,0.3200722596469072,2.122892769940388,1.4507850801703703,135
-10.057089854858548,100.17313745508159,-4.501781065843405,28.298822862089697,8.27425754087758,99.16906423063674,12.354761902774815,-28.298822862089697,-90.0,1.843069734817782,0.074021497805144,-1.350550839536979,0.37910029730131106,2.1669980103023048,1.4278529257831016,136
-17.50283904253222,96.34812635593987,-12.236071135318824,28.298822862089697,15.412095041294615,96.10778477578896,18.014233888892765,-28.29882286208962,-90.0,2.0385453380659637,0.9692918437219346,-1.4004034992500196,0.23539616034298155,2.1341618244144396,1.4137866672849493,137
-25.428146775798805,94.84175894926442,-12.111042737795568,28.29882286208985,23.315203152716307,94.48529372428386,18.889511032237614,-28.298822862089594,-90.0,1.9345151920815824,1.1058083225263575,-1.4260492211442348,0.4248132093656326,2.069265414379679,1.4022400030486168,138
-35.337831551487994,93.22342737093531,-11.683972558079377,28.298822862089672,33.56824277553039,93.18314899958166,16.91256752594875,-28.29882286208985,-90.0,1.2476253643518989,0.9442963387571971,-1.42011477121831,0.4117264173584465,2.2104298624861336,1.3908138304668198,139
-49.591194568640894,90.57800457256683,-6.092027825596555,28.298822862089594,48.26675361982025,89.85957500305703,13.79628688977277,-28.29882286208962,-90.0,0.6161552744921226,1.046525610126019,-1.4040312706208025,0.36967691766576727,2.146741410000503,1.3671551383869405,140
-65.0247714063437,86.82338661926244,2.1704957938547853,28.298822862089672,64.54304114594404,86.55271825468414,3.160432921896456,-28.298822862089672,-69.40999133962879,0.3929529050656572,0.31887578485854245,-1.3804758964004182,0.2586946925963767,1.7033495824530265,1.3463498139541537,141
-81.18881480431365,82.82677001654757,20.244867321194214,28.29882286208985,82.02273305506672,82.65968191969105,-15.04233901703316,-28.298822862089697,-83.56673339091324,0.39830224540631076,-0.08384109519386641,-1.337177517687131,0.16424519169282634,0.7370087236789663,1.3030486042036238,142
-90.75547024180483,74.85387323965662,42.937125074531295,28.298822862089697,92.79753059533773,74.69364428248328,-37.17887521431705,-28.298822862089697,-90.0,0.9948146705435363,0.3753623789104543,-1.3764411511295152,0.29234193824638166,-0.8184432872759694,1.2707239800066619,143
-98.40498947229977,62.2585147426401,60.04998084199409,28.29882286208962,100.76822771319834,62.85560690414782,-57.17694695686994,-28.515629299644587,-90.0,2.2494738333680115,2.1095728207538995,-1.376394235201491,0.39305975544446775,-2.3790552241407195,1.2446182768981897,144
-110.61840768419509,52.002020609714286,75.93717121939201,28.29882286208972,113.66204943756213,55.972696119846965,-76.20353807650496,-35.15953508249623,-90.0,3.2844357436450617,3.4446073221418834,-1.3683483666058704,0.4554567904166598,-3.7731199340974215,1.2911479938191197,145
-116.31767279300279,40.50434180285061,88.00848378625571,28.298822862089697,119.92443596484068,46.81789746317344,-87.07141181653643,-40.81427198675676,-90.0,3.757493737193524,4.304742691859479,-1.3836271380571477,0.4701459890189578,-3.9584348631333053,1.2743729360214493,146
-125.85333670739247,31.427278907638176,104.94828339889915,31.768843391997603,129.02851487527047,37.064408372857756,-102.6267623270963,-42.28272769086033,-90.0,4.172072234655034,4.89026233578825,-1.4092478186233146,0.5480015063111771,-3.9303952092966497,1.2381664169788602,147
-140.71063639491612,24.1142275046681,104.99999999999999,32.18052799596279,140.83248410425207,29.14494199351385,-105.00000000000001,-41.812461831079354,-90.0,4.679815938116634,5.178150056154114,-1.4425999539708985,0.37681401108306195,-3.911891787223346,1.2233606662354493,148
-155.0,16.759940548343955,104.99999999999999,33.00559772360571,155.00000000000003,20.390954656512044,-105.00000000000001,-41.212190502189905,-90.0,5.388744689836654,5.760379110080392,-1.4352658817102053,0.3102648519839422,-3.734603729944708,1.1128514762509993,149
-155.0,13.536774889430045,104.99999999999999,32.289010602473574,155.00000000000003,15.678698013337575,-105.00000000000001,-39.251214567359725,-90.0,5.943883191882352,6.1796397655019,-1.4632493573924492,0.3349628770588503,-3.536936784048896,1.0805732857437653,150
-155.0,20.714029707742103,104.99999999999999,30.646091631169288,155.00000000000003,18.272647575863104,-105.00000000000001,-36.48979905784649,-90.0,6.000000000000009,6.66354641375507,-1.472265384188497,0.24889334416108855,-2.86412488954926,0.9603333438464181,151
-155.0,33.466275937885484,104.99999999999999,28.29882286208962,155.00000000000003,31.51593735717152,-105.00000000000001,-29.83202944455853,-90.0,6.000000000000009,6.907048805774658,-1.5173328681669203,0.42488856076923326,-2.489541929248453,0.926933555194575,152
-155.0,46.23877274500326,104.99999999999999,28.298822862089594,155.00000000000003,44.75972114398768,-105.00000000000001,-28.298822862089647,-90.0,6.000000000000009,7.111409728545783,-1.5684130138066745,0.3271019620434602,-1.9693253899895464,0.8757441070344301,153
-155.0,57.81351143382596,104.99999999999999,28.298822862089647,155.00000000000003,56.74687446454214,-105.00000000000001,-28.298822862089697,-90.0,6.000000000000009,7.060367383708752,-1.6132884536464076,-0.012663599897161025,-1.5720548867525976,0.8763234781542973,154
-155.0,66.31736617069153,104.99999999999999,28.298822862089594,155.00000000000003,65.23465058518072,-105.00000000000001,-28.298822862089594,-90.0,6.000000000000009,6.7649227707437225,-1.6263159806866931,-0.046076241675569514,-1.297078479492606,0.845617430534533,155
-155.0,72.63551328017908,104.99999999999999,28.29882286208972,155.00000000000003,71.5981038105793,-105.00000000000001,-28.298822862089672,-90.0,6.000000000000009,6.360525560115069,-1.6201548892020732,0.14198100587627835,-1.075564903361802,0.8069654918937067,156
-155.0,76.54822931206515,104.99999999999999,28.298822862089647,155.00000000000003,75.43885147543385,-105.00000000000001,-28.298822862089672,-90.0,6.000000000000009,6.215213134117246,-1.6215458420195663,0.11975245489334159,-0.9299060811245793,0.8171355333565725,157
-155.0,80.49871486668373,104.99999999999999,28.29882286208985,155.00000000000003,79.53678180988352,-105.00000000000001,-28.298822862089697,-90.0,6.000000000000009,5.900773357804023,-1.5705900637885901,0.26150226775603325,-0.717430121938163,0.7734251708937055,158
-155.0,86.70096821454217,104.99999999999999,28.29882286208957,155.00000000000003,85.47563308954263,-105.00000000000001,-28.29882286208962,-90.0,6.000000000000009,5.16914745530744,-1.6116461448743382,0.2968045107192121,-0.3639681270450364,0.8042368552702196,159
-155.0,93.39009993286489,104.99999999999999,28.298822862089697,155.00000000000003,92.64799946330731,-105.00000000000001,-28.29882286208962,-90.0,5.604989911313178,4.341325991116315,-1.614478672290024,0.27555634857176386,0.40318975191639744,0.9132697232890692,160
-155.0,97.15046079104629,104.99999999999999,28.298822862089875,155.00000000000003,95.86482738506952,-105.00000000000001,-28.29882286208972,-90.0,5.193392140166547,2.8971760870438703,-1.6840753737950995,0.29951267824449307,0.4685050652465738,1.0540662217278731,161
-155.0,99.40093291467537,104.99999999999999,28.298822862089825,155.00000000000003,98.01713820796455,-105.00000000000001,-28.298822862089647,-90.0,4.159056602301847,1.516998189614843,-1.652445932241643,0.5870072891677228,0.9514213309122243,1.0479304732972166,162
-155.0,96.37018281069633,104.99999999999999,28.298822862089672,155.00000000000003,95.70752782378159,-105.00000000000001,-28.298822862089697,-90.0,4.1243932460752815,0.6695908686682258,-1.643521104655901,0.3866975095687203,0.8386017191831454,1.1052456678326277,163
-155.0,93.87230877833896,104.99999999999999,28.29882286208972,155.00000000000003,93.18115523592532,-105.00000000000001,-28.298822862089825,-90.0,4.32188593732268,1.1606749909662084,-1.654579249629181,0.5622678146302269,0.6299800748178251,1.1201203568040363,164
-155.0,94.49841086211708,104.99999999999999,28.298822862089672,155.00000000000003,93.31496428528378,-105.00000000000001,-28.29882286208962,-90.0,3.277744160993073,0.263565729671236,-1.5630434246311753,0.7552107850535332,0.8295168327948287,1.1629420056089805,165
-56.59373824791591,92.27762184675056,104.99999999999999,28.29882286208962,56.51954744151474,91.44536358674901,-105.00000000000001,-28.2988228620898,-90.0,2.242774176711684,-0.47299786841543345,-1.4469750134531452,0.46418959741185106,0.6995226554867484,1.2575027088362463,166
-77.70083797476299,89.45233514775069,16.644888692754197,28.298822862089672,78.61833534934887,89.11687911971278,-10.876075508506966,-28.298822862089697,-90.0,0.9326093168417725,-1.840386147712936,-1.3760107007911693,0.40015031415273244,0.14566649977552198,1.29110447997281,167
-92.0380124775899,89.74282319824917,36.22081818888957,28.298822862089825,94.06671549642562,89.36736339448731,-26.882941019446836,-28.298822862089672,-90.0,0.3882413689374909,-2.744855810287748,-1.3295787144130418,0.4801837187707094,-0.46835170425405576,1.3653328720911797,168
-99.87118873187238,86.52723605920363,50.70449753572062,28.29882286208985,102.22847633124651,87.22124537174098,-43.63008911411711,-28.298822862089647,-90.0,0.6224363172193393,-2.1841753650881994,-1.2778112049489059,0.502853700297739,-1.620856516193416,1.3145296459989397,169
-106.3086769495196,79.11451006825571,57.6751748779467,28.298822862089594,108.69113840430506,80.088795712963,-53.199197158373615,-28.298822862089697,-90.0,1.5908702943567559,-0.9447122849886899,-1.298778468597277,0.5717434813961989,-3.3075049848241025,1.3236561724339477,170
-111.33995611186921,70.40260048885868,58.62214252024123,28.298822862089672,113.3214046091222,72.45951555901216,-59.16624321871111,-28.29882286208985,-90.0,2.8239294544525038,0.15446063467161333,-1.3037824608214978,0.5113628854398442,-5.0814134484185205,1.2964648917982293,171
-120.42769758575982,68.77673761913537,66.34726438107377,28.298822862089594,122.52520175265215,69.93203730103717,-64.90666787263264,-28.323756493515894,-90.0,3.6456883310724355,0.2980687091958601,-1.291156003930211,0.47691782498170643,-6.743649248174752,1.3185677393594022,172
-126.80416812026574,65.74858767661097,73.54989071449302,28.298822862089594,128.23938692472558,68.9839120398904,-74.00020902951283,-32.01847853594543,-90.0,4.422786674717327,1.006346778709266,-1.2728467581954122,0.4433196062382428,-7.654826699367137,1.2073334695203417,173
-132.5661719319546,64.77390373013606,83.69970150215421,28.298822862089697,134.40358688099164,67.42218993352054,-82.63595360832485,-29.473636383579397,-90.0,5.152263911686893,1.385020837719624,-1.2560421595528273,0.42094453325955,-8.47039012212882,1.2532438496427647,174
-134.67481188218972,65.34406759513759,88.78490148400749,28.298822862089697,136.68139727979226,67.08078480034074,-87.5026014893377,-28.29882286208972,-90.0,5.438445241181208,1.4397587242960355,-1.2746243617886663,0.45446763645810173,-8.817487849369899,1.285097085021492,175
-135.62244536944044,66.34730965924895,87.62032266056426,28.298822862089697,136.9861002887527,68.54210748275688,-88.6316149943353,-28.29882286208985,-90.0,5.610587926436306,1.5784999322504714,-1.274798980679419,0.44409287554392757,-9.063830587560533,1.2783386481569081,176
-133.65238776406423,69.71950845118043,85.41380187822831,28.298822862089697,135.07042424568863,72.0747857021298,-85.92227863355939,-28.298822862089875,-90.0,5.46809209592398,1.4250844948283965,-1.2825086122940677,0.4485491373638418,-9.042531833797122,1.2590485983328672,177
-130.15582025324423,72.02706365843382,75.43508376564527,28.298822862089697,131.6398930013042,73.91377736301017,-74.87146568642144,-28.298822862089672,-90.0,5.0534253762201775,1.3896048893520196,-1.3289469292698102,0.4273513426833249,-8.671182503286303,1.2081026294856907,178
-124.13480785547839,73.54874342443698,66.49614128349518,28.29882286208972,125.89162083884544,75.8450149040033,-65.6914477439035,-28.298822862089697,-90.0,4.310158343070888,1.0863768241323568,-1.3267257488815436,0.44623069053546977,-7.5431258949656,1.1828820528601565,179
-117.60825706922084,76.0475361765318,56.97664534159092,28.29882286208985,118.97683854152083,77.23285622278918,-54.07987845462632,-28.29882286208985,-90.0,3.1662533602956002,0.3377090987982864,-1.3436830460790379,0.4052016956715107,-5.8635763462190855,1.1961803751417797,180
-109.97071771527578,78.70103508124149,48.77065419467217,28.298822862089672,111.00794677461502,79.26584292282486,-44.41170374275568,-28.298822862089672,-90.0,1.848817244548922,-0.5096035740384185,-1.3610440323448902,0.28486173327812103,-3.8175947953863916,1.2772605730622177,181
-102.40017151619483,81.14870884646633,37.28700107979299,28.2988228620898,102.80022196579971,81.49998885072752,-32.877727030927495,-28.298822862089647,-90.0,0.6587413697654539,-1.2934527134817781,-1.3804080300893202,0.2896073195194449,-1.9593735751000803,1.3136585277681208,182
-103.44197584282475,77.30416764967612,16.4107115751919,28.298822862089875,104.93882568921383,80.67088023015623,-19.362955356034494,-28.29882286208972,-90.0,1.4671678006551558,-2.0603167059121037,-1.1930237224805997,-0.02950903989462931,-3.4652513070409663,0.5822659553368882,183
-104.10060352683844,72.5091504376107,14.264216300401946,28.298822862089697,105.71939844087052,79.30960720221661,-15.288531528518021,-28.298822862089697,-90.0,2.1895967327428507,-3.704267056059618,-1.324587186218438,0.11077949971129122,-4.178181690158741,-0.21614230114779057,184
-104.04758103073831,65.86858126267528,24.64902480257005,30.17367882116227,104.34822192977194,78.13646600472691,-18.02825610992386,-28.29882286208985,-90.0,3.2209016134609887,-3.534011782842078,-1.7005247799338448,0.04252585533581464,-4.844671216071543,-1.1447462982815966,185
-106.32163339746704,59.74193328011586,40.433980313525076,40.935988884663715,105.91047258841708,77.69333130209063,-21.4866651615045,-28.29882286208985,-90.0,3.8169281296835367,-2.6848856222426636,-2.1164146698665083,-0.5309727914008507,-4.975799547035152,-2.558952455585881,186
-109.62817187310907,56.65210420876231,56.83348965913317,43.31934256342014,107.33923549474963,77.73387191598002,-27.739235002116605,-28.298822862089594,-90.0,4.195733340131129,-2.49877390693787,-2.951820094935858,-0.835729759848972,-4.717261841125314,-4.178869012593242,187
-111.2881401671618,51.334536827529426,67.83289362627087,48.617414871709435,107.05503083915337,77.04017389015567,-30.712170149525104,-28.29882286208977,-90.0,4.615337308464037,-2.360208105391408,-3.662028511978014,-0.9762182358926798,-4.415662381502931,-5.931147868816722,188
-115.16119777567722,44.89035484037751,83.47444172169541,52.30761636797622,107.54416956270109,76.29114742283639,-36.543867459348824,-28.298822862089672,-90.0,5.279954248564062,-2.0535143319891236,-4.427211734871988,-1.3749454512755477,-4.371397738984359,-7.969765206120324,189
-112.57087611817289,31.317292195357393,88.01634798029261,57.24613507488823,107.13774057724123,74.9685529612489,-37.128220300689094,-28.298822862089697,-90.0,5.8094417051165035,-1.7248756850877218,-5.5457365682015345,-1.4252137737134773,-4.045580155984102,-10.224324768527376,190
-117.35225721355738,20.94084282817236,96.48405473141543,57.39893101114412,105.74582127593436,73.1075988645969,-36.07291055041092,-28.298822862089697,-90.0,6.000000000000009,-2.104825158518353,-7.0608855625509985,-2.4074488582119584,-3.649820609729383,-12.463000862852724,191
-132.95709228147285,10.150706406766453,104.99999999999999,54.78168115592464,105.73748535369859,71.71402444563144,-37.95826762900064,-28.298822862089672,-90.0,6.000000000000009,-2.0118837656665742,-8.892007598819115,-3.662710970105797,-2.9008844988042606,-14.772992230011731,192
-132.95709228147285,5.087002189738297,104.99999999999999,50.77570470632716,104.38909182671259,68.78467072656427,-41.067710921619806,-28.298822862089672,-90.0,6.000000000000009,-2.465339669510263,-11.829920508561651,-3.814859202328817,-2.2186978953745657,-17.246530550455002,193
-132.95709228147285,12.0131383523502,104.99999999999999,45.2736478831806,102.1334664692328,64.55489028985026,-39.76512904137006,-28.298822862089825,-90.0,6.000000000000009,-3.88173025821843,-14.982252319830659,-4.688574558487106,-1.1510460063663697,-19.71369329391098,194
-132.95709228147285,19.499656288182475,104.99999999999999,39.46528542090791,102.23665657115185,61.44597205761867,-43.16631773873981,-28.298822862089647,-90.0,6.000000000000009,-5.121276586797702,-18.186233422155205,-4.3797452967974975,-0.4989368269280965,-21.7398046486891,195
-132.95709228147285,25.47316091047128,104.99999999999999,33.72196649704088,102.49393529906206,58.31332096931183,-46.89448828191602,-28.298822862089594,-90.0,6.000000000000009,-6.39153882327033,-21.184167699529688,-4.23920700371869,0.23589701598447085,-23.39508992130559,196
-132.95709228147285,31.22271724443972,104.99999999999999,28.29882286208952,101.74400776401923,54.67828319576168,-47.39500543128354,-28.298822862089697,-90.0,6.000000000000009,-7.8741083321129635,-23.990129780832824,-3.9271661470661257,1.0615784049847508,-25.07906319725556,197
-132.95709228147285,36.08658046403103,104.99999999999999,28.298822862089924,100.59650689325993,52.0683095538234,-47.07760100356889,-28.298822862089747,-90.0,6.000000000000009,-8.716908911472679,-25.92433985720574,-3.6382097991322713,1.8514375577700015,-26.421281199439214,198
-132.95709228147285,40.020464885630545,104.99999999999999,28.29882286208985,100.33390772921857,49.78685698446884,-45.58843160911977,-28.29882286208985,-90.0,6.000000000000009,-9.557307803612206,-27.30462269999697,-2.7821359634001395,1.9331511011945108,-27.250257413062002,199
-132.95709228147285,42.74892282701289,104.99999999999999,28.298822862089825,99.22532658675685,48.387974635493826,-44.63698664687685,-28.298822862089594,-90.0,6.000000000000009,-10.250130632233105,-28.148011847591743,-2.2066198975250817,2.007717121576558,-27.756840211191555,200
-132.95709228147285,43.587859010950794,104.99999999999999,28.298822862089697,98.75653761291491,47.67921691586862,-44.165601755646065,-28.29882286208972,-90.0,6.000000000000009,-10.67710485765967,-28.493008138964104,-1.8328077964898903,1.9564576366405784,-27.93974380384865,201
-132.95709228147285,43.25933330256697,104.99999999999999,28.298822862089647,98.7307225949359,47.071582839556,-41.65256331208588,-28.2988228620898,-90.0,6.000000000000009,-10.88118996220713,-28.40289074467575,-1.6318596331705237,1.871117630955461,-27.799811217278794,202
-132.95709228147285,41.62868035627902,104.99999999999999,28.298822862089825,98.56605084788553,47.074955128807375,-41.76606093376329,-28.29882286208972,-90.0,6.000000000000009,-10.715371853300315,-28.087290362467467,-1.8853439288291567,2.0112055930762334,-27.489083397359707,203
-132.95709228147285,38.81026820410754,104.99999999999999,28.298822862089697,98.58622344741319,47.7983778845822,-42.666061217911114,-28.29882286208972,-90.0,6.000000000000009,-10.353966466505645,-27.315219522889763,-2.0861496300085323,1.949520384725076,-26.893897677976522,204
-132.95709228147285,35.758051081047576,104.99999999999999,28.298822862089672,98.64406210917572,48.613598680762315,-42.69021462814924,-28.298822862089697,-90.0,6.000000000000009,-9.983047299886769,-26.172370792131527,-2.3736150943078984,1.8398533850798227,-25.98188760022305,205
-132.95709228147285,28.55438347848039,104.99999999999999,32.2608760354865,99.43094917593942,49.73858898770393,-43.218783755115744,-28.298822862089697,-90.0,6.000000000000009,-9.553876918845429,-24.506934375730822,-2.678547526457132,1.542717850706458,-24.677010531610176,206
-132.95709228147285,19.03285426098802,104.99999999999999,40.697217159708046,100.30623005292267,52.13132329605817,-43.29283172895919,-28.29882286208985,-90.0,6.000000000000009,-8.916350898300115,-21.80857796061101,-2.8253239287263763,0.8957490547910899,-22.87358743614846,207
-132.95709228147285,11.939601239113358,104.99999999999999,46.21190605268844,100.82743911198423,55.39711927661212,-45.12792461419007,-28.29882286208972,-90.0,6.000000000000009,-8.157524798958905,-18.70386661221281,-2.7884459783096522,0.09306529109874243,-21.0670980212851,208
-132.95709228147285,3.6665202364584712,104.99999999999999,51.8734220496068,100.72709135165579,58.742456280608735,-44.53195436155112,-28.29882286208985,-90.0,6.000000000000009,-7.291655848876772,-15.536678527706712,-3.2589480372329356,-0.43192347331563874,-19.190584020230258,209
-115.54557279895847,4.492731388351208,103.0568853775479,55.38832247670459,101.26158661171316,61.74202352201025,-43.81609509077311,-28.298822862089697,-90.0,6.000000000000009,-6.287007192385634,-12.65552410005118,-3.0548516911613857,-1.1569961274026481,-17.348617802150258,210
-97.92033317578151,11.372975281687035,82.26253088693737,58.02173349739754,102.60303507748014,65.45464708930965,-45.085736456463266,-28.298822862089697,-90.0,6.000000000000009,-5.570343205690331,-10.258943962272841,-2.530618379939873,-1.9417214336745516,-15.635835193138815,211
-102.6975816437999,23.544516355563477,82.3880059549593,60.17253691799243,102.80024695691412,68.29376714222671,-42.74420544199179,-28.298822862089697,-90.0,6.000000000000009,-4.921413532857423,-8.164504366176853,-2.8083081014056046,-2.4774882329224153,-13.797347861411074,212
-103.61213436361649,35.620738162735286,79.43172828241896,59.46673313853921,102.8753831064012,71.70231758162274,-41.96993118110324,-28.298822862089647,-90.0,6.000000000000009,-4.095249878525275,-6.2436325804917665,-3.0294313035879945,-2.840168925228577,-11.660559498393106,213
-107.3345613978865,47.11071479816037,74.86521383721751,55.51452155749586,103.33351785091499,75.20299804512968,-42.2012061773873,-28.298822862089647,-90.0,5.901340874258296,-3.1867346051274654,-4.525885351328356,-4.131672024952921,-3.0777917884629202,-9.502367301708857,214
-99.67944218057112,54.684353380619825,58.326558403635914,49.564117664627986,103.29237904541843,79.09191916490855,-37.05553080620254,-28.29882286208962,-90.0,4.641028532420106,-3.6304738082973027,-2.709390163670061,-2.4638597378289595,-3.1086841287889,-6.905165930114917,215
-95.53417020219868,61.7553354907043,45.75881403323837,36.926803524527,100.61514078718324,81.9876117985821,-30.44392331795151,-28.298822862089672,-90.0,3.765795318387832,-3.967821183527106,-0.7507630234357451,-2.301075638374968,-2.7938604284129553,-4.377209845081001,216
-93.73289619941863,68.63227737088822,37.85210322850792,28.29882286208972,99.89159193558275,84.31143087622256,-24.75411913070649,-28.29882286208962,-90.0,3.0203211615301817,-3.669739920778709,0.6875692489156173,-2.33218347117545,-2.657462807160381,-2.1952443425697727,217
-94.62982706666604,76.10929720466706,31.788582546032384,28.298822862089594,98.69052936144664,86.36224513482139,-18.932256312088526,-28.29882286208962,-90.0,2.3956577567891766,-3.729239339717479,1.8601833554148968,-2.1080330628726496,-2.453930730770216,-0.2951197304389052,218
-98.42987176576702,81.57879079201166,31.13350022048892,28.298822862089924,98.73315075173892,88.55879118619697,-16.534624074004768,-28.298822862089594,-90.0,2.1923112689810558,-3.803814186772944,2.8288108188652306,-2.5626128671931605,-2.6798589784674296,1.0356307328964969,219
-101.47700148280327,86.11409924342,31.62113022036507,28.298822862089825,98.85992892212741,90.77103747486817,-16.053725714088586,-28.29882286208985,-90.0,2.0991855455654607,-3.6383830032908264,3.303241156770064,-2.55918746661074,-2.8269226793151017,2.1222284495336967,220
-101.77678847333384,87.5507801486961,31.697875311921763,28.29882286208985,98.58295032937161,91.32138124781285,-13.315541829302395,-28.298822862089647,-90.0,1.9162706073845908,-3.8589741131346997,3.9036206019538655,-2.3383259939724708,-2.9569344866536267,2.9750503280256035,221
-100.22644392602889,86.20068197925966,29.246580117676785,28.29882286208962,97.39829698002923,90.43989205300159,-11.1315813003274,-28.29882286208962,-90.0,1.8067993384084264,-3.961352986041069,4.052156282736684,-2.3996115733008256,-3.1254448257502205,3.1335556931821933,222
-99.89869620552844,83.7480577790868,31.793386739914634,28.298822862089825,96.80684274326639,89.21821675435345,-11.723249060201265,-28.298822862089825,-90.0,1.9318635909256048,-3.8870602672056154,3.9603981443697576,-2.7081164329027687,-3.397622779553753,2.7402749736053917,223
-98.73318969371276,79.50378670626496,34.07960421118619,28.298822862089594,95.92667948452907,87.3457219434966,-12.003282754050907,-28.298822862089647,-90.0,2.121102736557791,-3.5372985495050293,3.517306080121118,-2.743109214765414,-3.5126907849006543,2.0258517457516354,224
-95.72203103113932,73.4982207315353,37.29231002802491,28.298822862089825,95.75726967537832,85.06117544329105,-12.169725254405051,-28.298822862089594,-90.0,2.274972027813826,-3.351659821088501,2.7288349998993744,-2.6052260800829257,-3.5381253185641275,1.0220582564752558,225
-92.66573443471195,65.8514773626367,42.47216091900687,28.298822862089697,95.53961976901523,83.02197806899581,-12.293971846389978,-28.298822862089825,-90.0,2.4856179611662914,-3.181248726231194,1.9231927001598355,-2.528154794385921,-3.525908657074799,-0.24757304312906545,226
-90.77184379624886,58.67270760114301,47.60307596654903,31.687429166387435,96.97649623078777,81.06235279484594,-12.276313131789948,-28.298822862089697,-90.0,2.7546467710963043,-2.784025040931695,0.8418826869403833,-2.104602610510321,-3.521165629029608,-1.72134159094452,227
-93.36541114250379,54.30553099267887,55.11146263139996,41.697263362937285,98.76729201366757,79.95151267014424,-14.777290160708791,-28.29882286208962,-90.0,3.2760069918228316,-2.320980108530694,-0.4776828511130643,-1.7840272740169847,-3.6544383581309847,-3.4968144318104577,228
-94.728124872908,48.75666504695686,61.750754078925446,49.845631437545045,99.99715733637751,78.35839957911134,-17.718233339534674,-28.29882286208962,-90.0,3.9086426910075494,-1.8926841658352525,-2.052234880165333,-1.8739633121847816,-3.6944000730234676,-5.601827230753548,229
-96.3834267861027,43.06367986696627,69.18843540095733,54.46094338282821,100.78511592442989,76.32169989399577,-20.859007960390183,-28.298822862089697,-90.0,4.557366134547349,-1.8504221352033963,-4.021753339644529,-2.0498286556690894,-3.6621744016861912,-7.786103425033765,230
-99.36560274878295,37.32521991316862,78.1001406969998,57.688713095028106,101.66408032045562,73.95454920265745,-24.911993809605608,-28.29882286208972,-90.0,5.428332579620075,-1.770061677548784,-6.172911008657553,-2.9569327473958986,-3.5212259598007383,-10.121653421789034,231
-100.05786512808022,28.121226323251953,82.31923692232024,59.30690626968605,101.42710116584468,71.75110858334041,-28.476802843840733,-28.298822862089697,-90.0,6.000000000000009,-1.8338199318246868,-8.077596721932675,-3.417019868915336,-3.281791145815972,-12.38925128113229,232
-104.77598267512302,20.241552028869098,88.24501932728822,59.17619660421888,101.16304078755387,68.94613657387112,-29.886559197306173,-28.298822862089672,-90.0,6.000000000000009,-2.1426007991912517,-10.330944696722218,-4.27551064932723,-2.8408005235330758,-14.586720946146842,233
-105.37262869218155,11.050296287587281,94.43180398438749,56.96723649826084,101.83640558716304,66.3711555765986,-33.860720436385314,-28.298822862089594,-90.0,6.000000000000009,-2.568443509750597,-12.915489956356977,-4.811986209636844,-2.2314768618278773,-16.756681808342023,234
-155.0,3.5521284919964415,104.99999999999999,52.716095742360224,100.56665626358524,62.821255205906326,-35.06956127761327,-28.29882286208972,-90.0,6.000000000000009,-3.1799235215553527,-15.65991538701805,-5.801154101536846,-1.1682092118189833,-19.120775150664215,235
-155.0,8.420086372025226,104.99999999999999,47.306500601078945,100.08337749567232,59.526779093948726,-38.25670844761399,-28.29882286208985,-90.0,6.000000000000009,-4.203473930713285,-18.67788117175428,-5.878579126890514,-0.2642718431736989,-21.297262280440002,236
-155.0,16.09455558129452,104.99999999999999,40.76390703821629,100.77621836892587,56.19495509526503,-39.48999483686204,-28.298822862089594,-90.0,6.000000000000009,-5.341970687384228,-21.44711310781551,-5.620287094564045,0.47222285791692037,-23.25451157427256,237
-155.0,24.228293533347177,104.99999999999999,32.464924727316266,101.70372774033501,53.45987818899829,-42.98956447650208,-28.29882286208972,-90.0,6.000000000000009,-6.059845040835525,-24.020139281807676,-5.125012374939264,1.0602550723904942,-25.019003256264007,238
-155.0,30.249757697970313,104.99999999999999,28.298822862089825,101.31276052216309,50.48923579598762,-44.1893424226263,-28.29882286208972,-90.0,6.000000000000009,-7.485133253275568,-26.567350436759398,-4.03313956667449,1.4427859977206725,-26.49439903470687,239
-155.0,34.59910244283662,104.99999999999999,28.29882286208962,99.45488410900606,47.7522292041358,-42.843849937901034,-28.29882286208972,-90.0,6.000000000000009,-9.226667332728677,-28.56223118626104,-3.0536336229527805,1.6681489213311753,-27.568622446086316,240
-155.0,39.051880068453826,104.99999999999999,28.298822862089697,97.76210091681217,45.51646262693796,-41.498569746494,-28.298822862089697,-90.0,6.000000000000009,-10.44741000628195,-30.134343100160788,-2.2707752744447682,1.9254924465486751,-28.473071842204813,241
-155.0,44.009759096707256,104.99999999999999,28.298822862089953,96.67517438903577,43.667967346884275,-40.14799317590546,-28.29882286208957,-90.0,6.000000000000009,-11.171767877187879,-31.077616200263588,-1.2973989922747795,1.6413534899116067,-29.028958029338863,242
-155.0,47.691980774016486,104.99999999999999,28.298822862089697,95.24920789149205,41.771508391872025,-36.254523587142586,-28.29882286208985,-90.0,6.000000000000009,-12.08809802406761,-31.90317109611094,-0.4746706467691419,1.3785329494237777,-29.478114192190382,243
-155.0,49.57507318491867,104.99999999999999,28.29882286208972,92.84147644798969,40.62732188787124,-34.19257215618335,-28.298822862089697,-90.0,6.000000000000009,-13.241506920686477,-32.67188666490203,0.12689157605419016,1.3012583736634291,-29.80564405380395,244
-155.0,49.97275446388766,104.99999999999999,28.298822862089594,91.8504222872868,39.588702228218274,-31.212023866764536,-28.298822862089697,-90.0,6.000000000000009,-13.907603249118358,-33.078953032212084,0.2251924224348681,1.491342862099827,-30.072492425248704,245
-155.0,49.135407213718494,104.99999999999999,28.298822862089672,91.0559587037976,39.4407617595119,-30.69749944953823,-28.29882286208985,-90.0,6.000000000000009,-14.180700728930567,-33.10092744373835,0.21652143692263937,1.590933709296011,-30.007817133529567,246
-155.0,47.325188172602815,104.99999999999999,28.29882286208972,90.94555908292318,39.48052349300315,-30.734011996179703,-28.29882286208962,-90.0,6.000000000000009,-14.223861083180365,-32.84136634116713,0.1420717477563312,1.5964901404223961,-29.698282821554283,247
-155.0,45.25962766626321,104.99999999999999,28.29882286208972,91.4070013948572,39.67488413360238,-31.181703651819248,-28.29882286208962,-90.0,6.000000000000009,-13.877732311254746,-32.22067475958386,0.007492980747629091,1.5263828871912009,-29.24697830033199,248
-155.0,41.876693753955216,104.99999999999999,28.29882286208985,92.8027138318758,40.03379552567243,-32.46359819927324,-28.29882286208985,-90.0,6.000000000000009,-13.251330169348412,-31.306982114758192,-0.2808759058613686,1.4347576124464576,-28.47787170227776,249
-155.0,37.80038879153159,104.99999999999999,28.298822862089697,94.1504021813852,41.052571770654865,-33.61695687517552,-28.298822862089594,-90.0,6.000000000000009,-12.389751152578333,-29.852466616175175,-0.6519877363367074,1.2670045581735385,-27.467192937285994,250
-155.0,32.87829601796354,104.99999999999999,28.29882286208962,95.5503304691516,42.84333154818231,-35.32961572776299,-28.298822862089697,-90.0,6.000000000000009,-11.43958398250589,-27.618944695651134,-1.0483195336655553,0.8772423775997077,-25.839613362449285,251
-155.0,22.603182877669692,104.99999999999999,38.63501225286388,96.60753221750807,45.723096410114216,-38.25285887095848,-28.298822862089672,-90.0,6.000000000000009,-10.111277712396813,-24.725543761959326,-2.0127758735182577,0.762703114030396,-23.986430101238163,252
-155.0,15.028167785888229,104.99999999999999,44.91344607050986,98.43491880030409,48.797949427877654,-39.216105863802696,-28.298822862089825,-90.0,6.000000000000009,-9.269823954369064,-21.592378803247883,-2.1400337027447756,0.01834521356711652,-22.061206303581667,253
-155.0,9.109632424725637,104.99999999999999,48.93644252581565,99.56593830974943,52.13312229138766,-39.52813263374076,-28.298822862089697,-90.0,6.000000000000009,-8.417273656221676,-18.55472491919513,-2.337064596722312,-0.4936132351861478,-20.329575915036862,254
-155.0,3.66941092643134,104.99999999999999,52.59914741026707,100.61882597629737,55.58821304230162,-39.47143931379017,-28.29882286208962,-90.0,6.000000000000009,-7.354162539786841,-15.667542367249355,-2.457126453919817,-1.0067388422315564,-18.654034303965133,255
-138.37546354495902,3.973975258887024,104.99999999999999,54.97950814457018,101.16756514588877,58.879154254947785,-39.56722228781174,-28.298822862089594,-90.0,6.000000000000009,-6.403523466483961,-12.788996777806549,-3.04483264974222,-1.4344088313407997,-16.996654017897857,256
-110.55315417229777,9.269187411742193,93.12074779739369,57.09340119398788,103.01641062598101,63.101357522623594,-39.45939001099611,-28.29882286208957,-90.0,6.000000000000009,-5.386119468496537,-10.28098316922275,-3.0221343962208116,-2.0330380924868443,-15.298434812073705,257
-108.48123401120155,19.45571419812816,89.13827431665388,58.482401114452216,101.88950413336437,66.44879310742833,-38.5483245317844,-28.2988228620899,-90.0,6.000000000000009,-4.893735519554382,-7.992692354899034,-3.5628154985943303,-2.521980235954933,-13.608707258899106,258
-105.96069882543507,29.480789897834903,80.52816105445542,58.670756864805284,101.76658926789221,69.77860666556299,-35.027300481062326,-28.298822862089825,-90.0,5.7122994380635035,-4.512008560042781,-5.961746040790633,-3.4098914558685394,-2.962830753482654,-11.535662524743067,259
-109.08346785530452,40.47990089253948,77.21914283706347,55.43725773576467,101.33981186346308,72.99618555374616,-32.75673465130624,-28.298822862089594,-90.0,5.241644304866361,-3.794302966191198,-4.0709546550609685,-4.721716782576806,-3.1423154161960136,-9.59899696390805,260
-105.39226429972531,48.656652074770406,67.1297680192364,50.32003431747529,101.07670682606636,77.1063721818669,-31.506473122472574,-28.2988228620898,-90.0,4.422813501382674,-3.7719871508930343,-2.358675587341235,-4.4962017286708695,-3.287574892659641,-7.425786040377778,261
-101.28066482418573,55.537920487037546,53.435079861224224,42.80946223537127,99.84833665130236,80.08687509301869,-27.63495829846745,-28.298822862089647,-90.0,3.7435213043194926,-4.029507307635679,-1.206500718879456,-4.129574223842469,-3.2987049387629663,-5.439458048775803,262
-94.58790482410146,61.69776104230672,39.697467304173934,30.771371539195716,98.83093740539836,82.60047041262015,-21.16901999034401,-28.29882286208972,-90.0,3.046740682895495,-4.482133328600572,-0.2528075717576689,-3.4126042145516267,-3.077975552523944,-3.5707369452360087,263
-96.19029564276269,69.61376918223307,35.38576819351164,28.29882286208972,98.46777170652271,84.75317611874488,-18.462994342613985,-28.29882286208962,-90.0,2.6639631474236287,-4.075007558719596,0.5041816841890022,-3.798522975815169,-2.950571031700118,-2.1023932834882517,264
-97.19088114891423,76.2922112593694,31.468673607441183,28.298822862089672,97.44017792912598,86.32326917988891,-15.37667568421453,-28.298822862089825,-90.0,2.2767143802867302,-3.95637881908088,0.8882601943801447,-3.7016262934415534,-2.832840283397127,-0.9404472612074848,265
-99.80126163431197,80.94980985816106,27.80958246771067,28.298822862089594,97.51088433708345,87.81171958493356,-15.709264512183962,-28.298822862089672,-90.0,2.1142549874456904,-4.0443189373929,1.1109790482790243,-4.294269905165047,-2.9663252573367878,-0.2385234088368672,266
-101.91307001843376,84.5916815134236,27.28409242616469,28.298822862089924,98.92031152153972,88.8337122098277,-15.369782250262494,-28.298822862089924,-90.0,1.8870500990325993,-4.002527884853312,1.310507358306064,-4.029114724802624,-3.079147761157444,0.5910519889063534,267
-102.23739707381942,86.33200321024675,26.04311340286262,28.29882286208972,98.69269726422667,89.08104405082345,-14.488619803341523,-28.298822862089594,-90.0,1.6852839083944278,-4.040566122475682,1.5884140007175498,-3.1753376023906603,-3.1755820040808724,1.3592729983773242,268
-102.93615213307139,85.99043331275504,26.490934384796873,28.298822862089672,98.52828063255284,88.30232384179659,-14.615585307735616,-28.298822862089594,-90.0,1.644642974179303,-4.024077814701492,2.2581156514370258,-2.9408845474422924,-3.4767618893067307,2.1364827607574868,269
-103.23863541573621,84.25661944716644,29.454615145901005,28.298822862089672,96.82647424451268,86.0175283796569,-15.24573087018086,-28.298822862089697,-90.0,1.7091993188046375,-4.039812863149741,3.297605834347855,-2.932645964300157,-3.738598448411163,3.006114935050756,270
-103.05304823335791,81.62078961987642,32.25025902486777,28.298822862089697,94.8046308503276,82.18799058830905,-21.265300324232655,-28.29882286208962,-90.0,1.7800888141952136,-4.146376388025348,4.3996992810581235,-3.2332868818692857,-3.9228724578698206,4.06793430660229,271
-102.74004324329918,78.06539406765954,35.21386177324933,28.29882286208962,93.37661685034297,75.26572108885931,-30.262761646602748,-32.18004960577167,-90.0,1.9522402684209104,-4.585074051621937,5.909742801813114,-3.597090141028975,-4.137836643354703,5.644123935729007,272
-102.34015100450414,74.28578738997744,38.97511317969473,28.29882286208962,97.96710971297529,69.60503948763068,-40.99495988116787,-47.50213352902566,-90.0,2.4539168147913317,-5.033259777390721,8.01240742227905,-3.2778268762369662,-4.339115220328647,8.102795431408847,273
-102.18258927613526,70.78259186902984,40.397367009571006,28.2988228620898,99.73136562118755,62.557420859551776,-50.96464739311306,-58.65409980941663,-90.0,3.1534952123951623,-5.376010966550182,10.370010870627919,-2.8800725131191705,-4.3841124956299655,10.906695686713402,274
-102.21117846432035,67.89539682264224,42.95947929443191,28.29882286208972,105.80829143356647,56.987000931510536,-63.966800155257516,-65.14384064848115,-90.0,4.347662089358118,-5.267879419351568,12.326439198445328,-1.1689043701958486,-4.095123050195389,13.676465068613934,275
-101.31853276054403,64.40050285988653,42.59635008014229,28.298822862089697,107.95170178670479,46.09097556901459,-73.18752652938745,-69.62862073015553,-90.0,5.431741851228624,-5.765076650841656,14.209203756474663,0.28851070973593634,-3.5482714527236046,16.600959076404695,276
-101.81796679948353,62.0046790183364,47.434345983838924,28.298822862089697,110.05439486599883,36.558073782788355,-84.77459943419387,-69.85441073361112,-90.0,6.000000000000009,-6.169576777462242,16.403464228390753,1.5569221306280236,-2.9186998855450135,19.22513495339836,277
-101.87126380302672,59.137848265199715,49.47692933210255,28.298822862089647,120.3841565594532,23.09935513562311,-101.70037108057932,-65.96950277144897,-90.0,6.000000000000009,-6.227408146177352,18.22173003923131,2.7418087827905935,-2.028233072496939,21.96580594427718,278
-102.39539564000629,56.03511175601734,51.31451141428517,28.298822862089697,143.0248377781302,13.291863983728312,-105.00000000000001,-59.86228086656919,-90.0,6.000000000000009,-6.606818504029889,20.4055182530108,3.2909131668935725,-1.2030060292910816,24.26473143667738,279
-102.17683195694529,53.609152655182896,54.922992266523124,28.298822862089747,143.0248377781302,11.057847016490143,-105.00000000000001,-52.23852634828308,-90.0,6.000000000000009,-7.560151608888721,22.525696649859587,3.5008963539275113,-0.46436167206638346,26.41112789093506,280
-102.73888725666171,51.14382648182965,56.07748703612966,28.298822862089672,143.0248377781302,17.255164819716224,-105.00000000000001,-42.749377681144196,-90.0,6.000000000000009,-8.07985396382319,24.407973602952442,3.3412587943360084,0.06941290031552871,28.3104441098475,281
-102.95946104928204,49.003212895246946,56.26944356557445,28.29882286208972,143.0248377781302,27.495587640622617,-105.00000000000001,-29.814531085509167,-90.0,6.000000000000009,-8.470736271669258,26.14510376642193,2.6285951956994085,0.2596736864456199,29.935712504229095,282
-102.81496621719253,46.825430722838234,56.12713612879358,28.29882286208972,143.0248377781302,33.22423899857263,-105.00000000000001,-28.29882286208972,-90.0,6.000000000000009,-9.193207555798645,27.0,1.8116883230662892,0.21186714658071257,31.07903462661792,283
-102.88674809532016,44.43032093231391,53.561771126430386,28.298822862089697,143.0248377781302,37.62964715721602,-105.00000000000001,-28.29882286208985,-90.0,6.000000000000009,-10.144689119665287,27.0,0.8069481847493568,-0.01732935697654895,31.900401608628638,284
-102.4898139747985,42.71952469583192,52.74556615666664,28.29882286208962,143.0248377781302,42.147171842501,-105.00000000000001,-28.298822862089647,-90.0,6.000000000000009,-10.719974356285755,27.0,-0.18771527115881154,-0.4281364751768105,32.305543154984214,285
-101.85275031532082,41.45117323690735,51.4616350182554,28.29882286208962,143.0248377781302,45.90043808346813,-105.00000000000001,-28.298822862089697,-90.0,6.000000000000009,-11.298988742255107,27.0,-1.3269056095739857,-1.0687647040183057,32.35581629635171,286
-100.81534279726453,40.110660386056225,47.55109676851028,28.29882286208972,143.0248377781302,48.550598198816836,-105.00000000000001,-28.298822862089875,-90.0,6.000000000000009,-12.095772562041425,27.0,-2.3420937941666047,-1.632572642386901,32.22089764785674,287
-99.43380403846939,39.41481019538746,46.00933058996413,28.298822862089825,143.0248377781302,50.51424020838708,-105.00000000000001,-28.298822862089697,-90.0,6.000000000000009,-12.747199081436259,27.0,-3.021368836259558,-1.9389740497103602,32.0178490880213,288
-99.06152778047357,38.88811595539601,43.20129936375687,28.29882286208972,143.0248377781302,51.02879668248694,-105.00000000000001,-28.298822862089544,-90.0,6.000000000000009,-13.022961156041633,27.0,-3.2064868501977637,-2.000931360765096,31.8461283343203,289
-99.24543168312286,39.15250520022804,43.29995202353075,28.298822862089697,143.0248377781302,50.172119042956055,-105.00000000000001,-28.29882286208972,-90.0,6.000000000000009,-12.836352580118536,27.0,-3.1305464422935114,-1.9878507727716113,31.526369067331622,290
-99.64663862545858,39.657544395883775,43.44885175065447,28.298822862089647,143.0248377781302,49.23667587553719,-105.00000000000001,-28.298822862089672,-90.0,6.000000000000009,-12.29359126880514,27.0,-2.9745122454391275,-2.008513133687212,31.01728620891416,291
-99.8543926413044,40.42741879445602,43.824270120187165,28.29882286208962,143.0248377781302,47.06181926914023,-105.00000000000001,-28.298822862089647,-90.0,6.000000000000009,-11.974514145993979,27.0,-2.502754985094674,-1.7938055588534798,30.425336771103495,292
-100.6100969471585,41.58334308955981,44.50417078339775,28.298822862089594,143.0248377781302,43.243227710059614,-105.00000000000001,-28.29882286208985,-90.0,6.000000000000009,-11.582405524431266,26.628683237148778,-2.0553366638957327,-1.7340086232720193,29.3422247131758,293
-101.08929829104483,43.378978218816464,45.034689221425985,28.298822862089825,143.0248377781302,38.49348660696066,-105.00000000000001,-28.298822862089825,-90.0,6.000000000000009,-10.880037407692969,24.432591679707738,-1.226657052632824,-1.5634398607235807,27.87724941901463,294
-101.97387305477872,45.942414243878794,45.127841915586735,28.298822862089672,143.0248377781302,33.85533436149513,-105.00000000000001,-28.298822862089825,-90.0,6.000000000000009,-10.435696406516762,21.666714248944697,-1.0577003799845826,-1.8974761192601426,26.01799098814618,295
-102.4781122748521,49.781286180529406,45.091362714779855,28.29882286208972,143.0248377781302,25.280933222897627,-105.00000000000001,-37.76334705704945,-90.0,6.000000000000009,-9.271380965865141,18.540068328470568,-0.13428300104032762,-1.7949457422632735,24.305980255269127,296
-102.20299939808481,53.22730333134158,44.59189145732063,28.29882286208972,143.0248377781302,19.406946806582994,-105.00000000000001,-43.59753996565391,-90.0,6.000000000000009,-8.17293627784731,15.36001747107511,0.7548078648648298,-1.767114014595087,22.739864668860175,297
-102.28724957863572,57.00159237931194,43.244838845938546,28.29882286208962,143.0248377781302,12.354446436011928,-105.00000000000001,-49.5240593714167,-90.0,6.000000000000009,-7.18806216135293,12.592536785926596,0.6006740321041696,-2.1328675761256575,21.011367710094582,298
-102.44258064925342,60.214932433809366,44.52491539354802,28.29882286208972,143.0248377781302,5.577963112599926,-105.00000000000001,-54.02648034084335,-90.0,6.000000000000009,-6.306256356909602,10.009111522018546,0.8908508337131223,-2.4314285826959368,19.441942148177343,299
-104.13398377114778,64.22154528794346,44.30035898293906,28.298822862089825,116.05067455600928,3.90980766093907,-92.72266288817644,-58.85949427318424,-90.0,5.699753079214378,-5.0561469303759505,7.6407200483187125,0.8527635904965988,-2.7682732134459016,17.627659707744638,300
-103.8198553945752,68.04041293928165,44.984379317163146,28.298822862089697,102.323747216184,17.129960866733512,-77.09132255310419,-62.66441419051708,-90.0,5.33895853920628,-4.645400030488334,5.340798114468314,0.42175941757747487,-3.263228056840193,15.546503680809371,301
-103.67551345167728,71.41356495164001,41.6185717771763,28.298822862089672,103.27345642904102,30.43679203588167,-70.42779875415769,-64.59804390489495,-90.0,4.8715005666930455,-4.324630678430352,3.483446525735842,0.577558013479804,-3.4707631836244413,13.368435650955174,302
-104.16330717968087,75.04899039068356,41.010603964316786,28.298822862089672,105.85938839013295,44.24107438430334,-65.55874651057005,-62.09217108960062,-90.0,4.407913569590905,-3.2943687479117774,1.8207116234740337,1.0776598150775314,-3.54832985641561,11.052540258717531,303
-104.04416474887877,78.45052821843541,39.74651914338172,28.298822862089672,104.04296449268044,52.138100012443225,-56.97625218760757,-56.871218100182794,-90.0,3.6953466561240993,-3.2888144203818674,-0.08312887513982098,0.733655242295373,-3.574732508390257,8.904301549625131,304
-103.30019405365483,80.86273992686897,33.43336591413081,28.29882286208972,101.70962711533883,57.76659450755937,-45.97231660350148,-48.55524146188088,-90.0,2.9907333296490632,-3.4528936128851297,-2.07432968731684,0.2731192910624574,-3.3754486900291334,6.683727055913944,305
-101.39131596157603,83.336130551393,28.258028666847064,28.29882286208985,100.27952506422446,63.379395929517,-39.67299917344046,-37.39558112130416,-90.0,2.370069805227897,-3.1753560591262207,-3.8715251136873627,1.273714584160724,-3.187054424297658,4.685472323096339,306
-101.18725483807196,85.53639790524194,22.425884606260986,28.298822862089672,98.52099865262072,67.92549105276586,-32.506731531066315,-28.298822862089697,-90.0,1.8671920796136365,-3.4010536740538932,-5.187727845462503,0.9474504068492883,-3.084444315600056,2.8486531100335717,307
-100.77249458161543,87.20827283680944,17.538477872943066,28.298822862089697,98.39055740835943,74.4618826758293,-27.560165759532037,-28.2988228620898,-90.0,1.46174982619837,-3.5336977683835866,-5.886844136052276,1.523307800665614,-2.932158383750695,1.5923955648340262,308
-100.03791008581071,88.61259129443889,15.544419963126884,28.298822862089825,99.06998308405758,79.06315277275745,-20.576800731791295,-28.298822862089697,-90.0,1.1636651580677841,-3.7249839603997636,-6.201812998402104,2.4087860940870276,-2.9348351808355044,0.9273704135465344,309
-100.552279610608,90.31558319101042,18.28551065224906,28.298822862089697,102.00587693851801,83.34316987275199,-21.77183617751513,-28.29882286208972,-90.0,0.9890520428081863,-3.8601296907969003,-6.1252827333366975,3.0162503072081703,-3.0898180121037706,0.5882103844146729,310
-100.41970411667064,89.72522082331355,16.007797060817207,28.298822862089697,101.72735843120883,83.6565192598057,-19.13344581407357,-28.298822862089647,-90.0,1.0292699183821334,-3.7921381234539417,-5.869116845793311,3.1017463707212745,-3.2630317795236747,0.599781131655995,311
-100.257629179505,88.76221030405432,17.823877361618454,28.298822862089697,97.95578819411094,81.9503661734464,-19.921828772138053,-28.298822862089697,-90.0,1.0812537033826974,-3.909562638865128,-5.104429330040607,2.2292880765558216,-3.302542360909828,0.9966397869792567,312
-100.66645759482591,86.72829031135936,20.44639296648941,28.298822862089697,98.77381818075504,78.40150120516604,-24.357926537923554,-28.29882286208957,-90.0,1.287711673657846,-3.9020064467111237,-3.99263981597121,1.8038792815330669,-3.584211676156502,1.9948616413721214,313
-100.77307270624601,83.85722535337374,22.69014864080942,28.29882286208972,94.86694043553372,70.36027774055317,-31.116887391456185,-28.298822862089825,-90.0,1.3624207493380402,-3.9875679649035796,-2.624950584422465,0.863294371041239,-3.5547997984965236,3.428309607690844,314
-101.29811985066235,80.52844095994236,22.95862360214948,28.298822862089594,93.89177512922257,63.47929069053441,-40.29607413074541,-41.61164905345501,-90.0,1.5973020690431203,-4.295642789285006,-0.8832798959909398,0.21746448434563942,-3.5961394641995184,5.4738055162560055,315
-102.03368000161629,78.30266326261854,26.214702992363534,28.29882286208972,96.37289674506479,57.74077717442769,-48.608282260269526,-51.68265197743933,-90.0,2.155978455044012,-4.379201169361792,1.1503304565259154,-0.3165962952201604,-3.741899338167234,7.801537538944094,316
-102.0750631739972,75.72365997391802,29.685919180487197,28.298822862089647,98.4700355405175,50.996273507048585,-56.90372288192518,-59.49869895535833,-90.0,2.9502140752883865,-4.628166392733332,3.4654240248447734,-0.1064515366727828,-3.9966172418970993,10.502243188327789,317
-101.91125032951346,72.64958128771075,31.332981411509646,28.298822862089697,99.4068442202233,43.55335099473764,-64.9200748410574,-64.4395613179981,-90.0,3.7446202049084008,-5.153704294090676,6.04475862706838,0.6154120671892563,-4.06195590118406,13.17729470423985,318
-101.4712983393199,69.5494087570111,32.9588187280067,28.29882286208962,99.50743478485657,32.40872637205871,-70.75368706181824,-66.56614886756033,-90.0,4.532867138540317,-5.518959843233943,8.456602837544096,1.4703872006616159,-3.846050855197002,15.887900095900182,319
-100.1756837677207,66.30990713573769,35.03574037141414,28.298822862089875,107.72103610587415,23.203242520818705,-82.81705774779356,-66.3097859881852,-90.0,5.704017968755005,-5.605820833420685,10.988479376635707,3.299963686674127,-3.080972021753099,18.82297510654126,320
-100.16262055011248,63.3224767681894,37.05058382086206,28.298822862089697,122.66988659577241,12.054482661422275,-104.09483673837894,-61.84653206409733,-90.0,6.000000000000009,-5.868153084844187,13.24533932233752,4.5569915055760175,-2.1648716877762904,21.29264171568723,321
-100.78257164093093,60.439514780972345,41.05074985290587,28.298822862089647,122.66988659577241,6.408084486000399,-105.00000000000001,-55.62859090368672,-90.0,6.000000000000009,-6.226906509094976,15.837296858571273,4.934531488129041,-1.4441200093931885,23.52351035345906,322
-101.16414287235816,57.73252400064382,44.162334030113996,28.29882286208972,122.66988659577241,10.859489266107978,-105.00000000000001,-48.24594523564238,-90.0,6.000000000000009,-6.925311472914065,18.387090179961376,4.414780798226506,-0.9696630943424847,25.569048374880673,323
-101.9200181447792,54.97143939832494,47.54865529445445,28.298822862089594,122.66988659577241,18.50037390166417,-105.00000000000001,-40.36788815555925,-90.0,6.000000000000009,-7.984360620923356,20.667217915656376,3.687678081281394,-0.8097872231563147,27.26287685444012,324
-102.15227756744014,52.36454598301239,48.37806549955016,28.29882286208962,122.66988659577241,25.79540030583779,-105.00000000000001,-31.839531522052106,-90.0,6.000000000000009,-8.611968794606367,22.570289883607778,3.474086045969612,-0.3851818189757874,28.686358444313793,325
-102.4267035817556,49.86072217663605,48.828518497835034,28.29882286208972,122.66988659577241,31.830822658428556,-105.00000000000001,-28.29882286208972,-90.0,6.000000000000009,-9.261399352654783,24.391985119325195,2.8541150268491102,-0.12569839234343352,30.041193389093156,326
-101.9836585932932,47.2508639012812,48.678835061941605,28.29882286208972,122.66988659577241,35.897108622950455,-105.00000000000001,-28.298822862089647,-90.0,6.000000000000009,-10.17723681102258,26.08126043465201,2.1191138149463757,-0.03680778971820923,31.22458354756882,327
-100.64408583283048,44.847628632385636,47.71375882967922,28.298822862089697,122.66988659577241,40.199976471665316,-105.00000000000001,-28.298822862089594,-90.0,6.000000000000009,-11.25836811335807,27.0,1.3668102320028879,0.08282744748481057,32.10799705282352,328
-99.60862173995683,42.89754946192018,46.530858084051644,28.298822862089594,122.66988659577241,43.00851116110327,-105.00000000000001,-28.2988228620898,-90.0,6.000000000000009,-12.309207532596748,27.0,0.3026696348057899,-0.18400301575022424,32.51856063899478,329
-98.72404217827777,41.37847367750106,45.59255796118385,28.29882286208972,122.66988659577241,46.09378701577331,-105.00000000000001,-28.29882286208972,-90.0,6.000000000000009,-12.780811179825987,27.0,-0.2957507560336953,-0.25073924127861413,32.89832551816,330
-98.33310595486454,40.052020426256846,42.56897292960431,28.298822862089697,122.66988659577241,47.83282154020425,-105.00000000000001,-28.298822862089594,-90.0,6.000000000000009,-13.127126734859507,27.0,-0.8098227364246732,-0.39207724790367343,32.923368414139816,331
-96.98167931751021,39.24993362216837,41.07804206731271,28.298822862089697,122.66988659577241,49.60614431841234,-105.00000000000001,-28.29882286208985,-90.0,6.000000000000009,-13.726434039318406,27.0,-1.479022128651997,-0.6852355835843262,32.8574341425991,332
-96.13341857930959,38.7844823277389,40.11297867142287,28.29882286208985,122.66988659577241,50.679226580621346,-105.00000000000001,-28.29882286208962,-90.0,6.000000000000009,-13.954971462517163,27.0,-1.8477652934218727,-0.8395666396161239,32.724621428094956,333
-95.89365854368708,38.70140194956382,39.75692175353738,28.298822862089697,122.66988659577241,50.54938740557116,-105.00000000000001,-28.298822862089672,-90.0,6.000000000000009,-13.760907127459541,27.0,-1.8975225305983063,-0.859443132452758,32.50965823171166,334
-96.35582762616127,38.66490830294415,37.48656289299045,28.29882286208985,122.66988659577241,50.330570044833955,-105.00000000000001,-28.298822862089647,-90.0,6.000000000000009,-13.446239665139519,27.0,-1.9532468211338947,-0.9498909107635778,32.0814439341961,335
-97.1585750405052,39.23926263760606,37.820532571424614,28.2988228620898,122.66988659577241,48.9252756710547,-105.00000000000001,-28.298822862089747,-90.0,6.000000000000009,-13.084290670536946,27.0,-2.06571219258311,-1.2163558424253913,31.398450198484053,336
-97.3250428295962,40.31652215614625,40.13535395256215,28.29882286208972,122.66988659577241,46.78892923031231,-105.00000000000001,-28.2988228620898,-90.0,6.000000000000009,-12.621327824134982,27.0,-1.9755427319811594,-1.3064025432433624,30.616244219186818,337
-98.92980379103858,41.9696749977833,40.992450098605936,28.298822862089594,122.66988659577241,43.16804350084654,-105.00000000000001,-28.29882286208962,-90.0,6.000000000000009,-11.594786838434656,25.307737798647494,-1.7073819508115766,-1.471297376316028,29.24888632360089,338
-100.62548978021802,44.29663984307737,41.81962771552445,28.29882286208962,122.66988659577241,37.739321010889945,-105.00000000000001,-28.29882286208962,-90.0,6.000000000000009,-10.745851174829264,22.792190988253086,-1.4177566662408858,-1.753227067452547,27.386350208967425,339
-102.64235552127307,48.231353403639346,44.435751017382266,28.29882286208962,122.66988659577241,29.479917320572483,-105.00000000000001,-33.70193838710477,-90.0,6.000000000000009,-9.74536422581276,20.013818468637133,-1.4566547705576764,-2.157048637273085,25.09755841422267,340
-103.60559387932753,51.53745408027019,44.02222518076714,28.29882286208985,122.66988659577241,22.05153619762063,-105.00000000000001,-41.78491536592667,-90.0,6.000000000000009,-8.655061349884178,17.10655285458027,-1.275891539309084,-2.383445324800293,23.352966039404574,341
-103.93151983993964,55.239459417770995,42.83296776963809,28.298822862089697,122.66988659577241,14.590425795967684,-105.00000000000001,-48.89306166202869,-90.0,6.000000000000009,-7.536647728079792,14.118647944449409,-1.256130584079238,-2.5891451854123892,21.356380973119844,342
-104.68994239769795,58.196363053610455,42.366163497621876,28.298822862089697,122.66988659577241,6.631653420381919,-105.00000000000001,-54.33734767432281,-90.0,6.000000000000009,-6.523617979601736,11.529188566250705,-0.9374633093102775,-2.791306802908591,19.674802833320445,343
-105.50417487684359,62.640171334498945,43.673327877480794,28.298822862089647,55.82348654840104,5.17690695629169,-32.61310233056758,-59.29518372563667,-90.0,5.682503868508878,-5.732995974528224,9.045909455248749,-0.9643478412730274,-3.009572395681921,17.698249075622766,344
-106.03862403765923,65.80939439250785,43.33027255038782,28.2988228620898,95.27405805679437,16.977685649482034,-69.05342686371041,-63.27322014257983,-90.0,5.277159523608855,-4.719118636932064,6.7927219194952855,-0.190781727378477,-3.241978790124983,15.755918119328003,345
-105.97300099122336,69.20596374958383,39.37549226145198,28.29882286208962,97.16598768225661,30.2688188295892,-64.00592404965965,-64.77467101180424,-90.0,4.682510798001414,-4.0796513312254525,4.923025159292332,-0.40845906435986057,-3.4566404665049166,13.47502686180292,346
-105.64480372730333,72.85037179031029,38.66012801064726,28.29882286208985,103.34123569614323,44.138541576080776,-60.81344979664995,-62.387274491552304,-90.0,4.1437208802803625,-3.5311753158407324,3.3475703021964898,0.2300994698316857,-3.5476604694815412,11.221099762032361,347
-105.39348076393145,76.39983934062685,37.83640940490673,28.298822862089647,104.74847291099235,55.1221011826464,-57.01756736767786,-55.478879503896835,-90.0,3.5501713621443907,-3.1386493508756472,1.565592987078585,0.6497084432695558,-3.6175217288913273,8.97492122562666,348
-104.30528326176893,78.63479590596751,31.70429364582088,28.298822862089697,102.63503523760785,60.2556955750183,-46.000406690234016,-46.129389780100986,-90.0,2.836491022991944,-3.091628750305506,-0.2526734243939493,0.3076281854119272,-3.4497414287925943,6.696310430567264,349
-103.19675626305067,81.24058034501664,28.543621478179855,28.298822862089594,100.27549955497678,65.13285200794125,-37.583840253832506,-35.1591279686171,-90.0,2.373051858525047,-3.1803192669689357,-1.7980222349479618,0.6336635498038035,-3.413844795541329,4.85699408613367,350
-101.69085823712079,83.38111303348194,23.407087548325137,28.29882286208972,98.88851637702615,69.76246728671687,-31.88446193450168,-28.298822862089697,-90.0,1.8021600271764215,-3.032746343897203,-3.175088550981022,1.4699649598049889,-3.175906717359631,3.3329458224352977,351
-100.51931498762892,84.74085951987249,18.18290269234112,28.29882286208985,98.94832881464922,74.66123153206364,-27.606034598530524,-28.298822862089647,-90.0,1.421480155353367,-3.002728852879595,-4.019671172086278,1.79266642715643,-3.089012605167165,2.2386285014966645,352
-100.71654551564797,86.30931698928082,16.336892903322212,28.29882286208962,100.878995062927,79.13647095939112,-25.82879976870028,-28.298822862089697,-90.0,1.2955878921812627,-2.809322713200579,-4.5634679398199305,2.7883948169601154,-3.197402341632855,1.4656557538544905,353
-101.76170415340403,87.9383276118022,16.408917362939498,28.298822862089672,103.61359861347708,82.60669530636811,-24.40492955458409,-28.2988228620898,-90.0,1.171228062234396,-3.00310901832658,-4.878324238525002,3.0825340041868374,-3.3760871648678092,0.8951079101291934,354
-101.86126117543023,88.94900438964288,18.270614833919243,28.298822862089672,103.75386974431143,84.36816170735386,-22.110139931720354,-28.298822862089594,-90.0,1.123604723943463,-3.205656865718362,-5.123420387257212,2.644616621300184,-3.396068753018729,0.35938732190731987,355
-100.1904787443253,88.0494664089321,15.756277917750273,28.298822862089697,102.58419083644655,84.61815402590682,-22.206923061988746,-28.298822862089697,-90.0,1.1466000186577912,-3.3409691762870883,-5.641813747644769,2.4417128249871602,-3.372818562956847,-0.1940282936726102,356
-98.67689895267829,87.83293362421098,11.186930793456069,28.2988228620899,97.731384456742,85.97798135816743,-10.304663078597013,-28.298822862089825,-90.0,0.9198609999585803,-3.2621083551441608,-4.23639262522494,0.7858511109411651,-2.820625352374244,0.27223203161057086,357
-98.65604903043432,88.88610311003116,10.416634289885435,28.298822862089825,97.73896427182893,88.62873468002846,-8.274616467402945,-28.298822862089697,-90.0,0.5439588147063014,-3.3232364661128777,-3.1953903471125016,0.4332015289957419,-2.8435659199180403,0.8870440758505416,358
-96.8861994783927,88.16691328146763,7.820926449227594,28.298822862089825,96.31545240359137,89.04025832051641,-5.205539997777815,-28.298822862089697,-90.0,0.41730517532060063,-3.2398774321086314,-2.2707158146328386,0.3917074351839822,-2.9283324130486528,1.4501698406017154,359
-96.71579879235067,86.6423044409432,11.200205697776637,28.298822862089953,97.43546652389473,87.8801431424426,-9.865750257340599,-28.298822862089875,-90.0,0.6311063373346505,-2.522596704525208,-1.8873334861263826,1.0600356561762632,-3.260776460648096,1.7182918314637146,360
-97.77581098720225,83.42177890766055,19.91509937072163,28.298822862089825,100.40986306550839,84.62250382924243,-18.124535278993203,-28.298822862089672,-90.0,0.9365641657992815,-1.8799932612087609,-1.6596787620381774,1.5179229082688979,-3.725226159988084,1.717472184886253,361
-97.51510017841593,76.96094841070683,29.85393664226454,28.298822862089672,102.50273634573908,78.04992564216718,-27.18209450727926,-28.298822862089672,-90.0,1.3887494138521264,-1.5825751291676253,-1.9110882772604119,2.57463919829503,-4.249746693371484,1.5002617535272926,362
-96.88790530078735,70.91379495260763,36.856611041191066,28.298822862089697,103.99759913997325,72.5337662768568,-36.41852606940062,-28.2988228620899,-90.0,1.7124626771965632,-1.6905732765108061,-2.3573518060292353,3.528856186259353,-4.546887980808514,1.154946226407576,363
