JMW9912/AVATAR/install/dynamixel_control/share/dynamixel_control/data/csv/poppy/.data/waist_test/2DoF (2P)/0409_2110_13_29_one_waist__poppy_motor_degree.csv
theta1,theta2,theta3,theta4,theta5,theta6,theta7,theta8,theta9,theta10,theta11,theta12,theta13,theta14,theta15,frame
-94.51943290722572,21.299828405713292,94.57194978447329,28.29882286208962,0.0,6.077026457581033,-73.53588589053058,-28.298822862089594,11.949525018099951,4.227855492074081,2.8051766135533356,0.736096783755453,0.06106657397293583,-1.5574253403185632,-2.1207448039576726,0
-104.10745398972581,72.28581096856857,45.65811481081563,28.29882286208972,97.3871887133332,60.252226937592475,-22.82837784194842,-28.2988228620898,11.949525018099951,5.337556092539184,-6.3309324053182445,1.361414638279398,0.4701826157592827,7.569447575639802,-2.7692810731423383,1
-87.34504842861082,70.23319177021908,42.2751709634553,28.29882286208972,85.82050480698368,59.239756859654044,-29.054770349375005,-28.29882286208972,-8.702794457675175,6.000000000000009,-6.183206202577901,1.3361708641701557,-5.482747019103492,-6.672359483164608,-2.9460520416559097,2
-87.11502859280378,68.66502848633856,42.437191865751224,28.29882286208985,85.46155497148645,57.6683057031487,-28.80357617638021,-28.29882286208972,-8.8227965306113,6.000000000000009,-6.0358412912571815,1.3462034182658573,-5.4441405293273,-6.645399678536349,-2.976000102553325,3
-86.89680600121962,67.07484160924689,42.588455137028646,28.298822862089825,85.15736678576154,56.04990375961123,-28.538522477380102,-28.29882286208985,-8.950047135853053,6.000000000000009,-5.958337355852773,1.3833357503991277,-5.386415722056819,-6.528069893934458,-3.036448707327591,4
-86.29423312111793,65.78069423843435,44.96579783067829,28.29882286208972,85.21337076092183,54.60106545788163,-28.480394569896255,-29.267586955498047,-9.354939352457459,6.000000000000009,-5.884290925277586,1.379497038346891,-5.325128010137137,-6.461881453041606,-3.009053693777865,5
-85.96911533191968,64.05025411610029,45.00583790382056,28.298822862089594,85.35701079855765,53.17725455165462,-28.50844540186857,-30.494824779379506,-9.789460937432365,6.000000000000009,-5.792385267034498,1.3506890022250593,-5.327524382773044,-6.410629841572633,-2.944847804679826,6
-85.14362002243632,62.71756597497551,47.144758044013,28.298822862089697,85.61455476194956,51.73311777269675,-28.597144313669133,-31.814081167956044,-10.003660886026005,6.000000000000009,-5.678336706320956,1.338815744403698,-5.322239270601845,-6.3800227129799,-2.944927192646514,7
-85.14087049853332,61.36257388515567,47.268988900485034,29.342282306707016,86.00345015791271,50.30731764140351,-28.763193198738712,-33.24017637024837,-9.975044017988134,6.000000000000009,-5.573398631949128,1.3277188661852934,-5.3200714927197,-6.324769043999504,-2.9545164466446976,8
-85.16079185460256,59.985378646933604,47.414721817389186,30.468586613027203,86.2972779953539,48.86432625684971,-28.847657817336128,-34.72209739821733,-9.996061921087884,6.000000000000009,-5.470637220380599,1.315762185057984,-5.298797025029874,-6.270678724261461,-2.9385904367465603,9
-85.21806902065171,58.53676609901953,47.58577346752965,31.46519679521382,86.16214963047301,48.0222260600197,-30.958026823655004,-36.21783113056779,-10.115682713692,6.000000000000009,-5.348400401762459,1.2946109290096222,-5.276103136250268,-6.233998076389266,-2.894509785999553,10
-84.79915391692248,57.454667771356206,49.82349366577752,32.428418991645245,86.42247196330156,46.6465605775419,-30.94907202751058,-37.498053843189645,-10.487405172254773,6.000000000000009,-5.219242929110464,1.2950677123179488,-5.229811848984999,-6.157238898172758,-2.8411084652299423,11
-84.87515707728186,56.01232639196323,50.01696026241753,33.43042834322802,86.52215539536026,45.26009144096891,-30.748241915437948,-38.55428731982851,-10.937040192396111,6.000000000000009,-5.094902733071808,1.288314896585893,-5.087229798915184,-6.066658200917467,-2.769599654582476,12
-84.96854106924216,54.65843091532431,50.20670675156867,34.495400211622936,86.15660872299703,44.49239150091456,-32.50703799726361,-39.75400370678349,-10.90618867107177,6.000000000000009,-4.933402824919772,1.2817062569946445,-4.938832531108038,-6.014534215142231,-2.7330972232936808,13
-84.47790691861029,53.74410730303836,52.311700355099674,35.533764803553424,86.33440523694539,43.09477926025317,-32.321749917131996,-41.05595292922934,-10.970158570268817,6.000000000000009,-4.739813104525834,1.2685753327699216,-4.827588996808009,-5.9564152831617125,-2.682278369864298,14
-84.62578799276685,52.41811472832012,52.450568931851585,36.493620532007064,86.45428285923194,41.72269008459815,-32.05401509844724,-42.3771034293944,-11.206061198738702,6.000000000000009,-4.594318544282668,1.2390609302738715,-4.6924812820911574,-5.834266478949365,-2.599776355805035,15
-84.81679286299591,51.14202776624893,52.64578606094305,37.56616294353546,85.74804135336912,41.03586758767466,-33.436679094926816,-43.518837785674684,-11.431931968945122,6.000000000000009,-4.500847969761316,1.2536511784982323,-4.524032244205622,-5.691177160205506,-2.560418819009667,16
-85.02338409628997,49.91014098989441,52.85110936676345,38.669924242557286,85.48507749614173,39.6358365501611,-32.86238947346172,-44.42289188323262,-11.640697096073994,6.000000000000009,-4.327650508092064,1.274136780063315,-4.364675104494906,-5.647315349335128,-2.540724800412648,17
-84.37809122578837,49.07006758401809,54.705144385659445,39.53066635556706,84.70179552226715,39.01985669035329,-34.07891449401657,-45.552802249463554,-12.043058695334487,6.000000000000009,-4.135227478171134,1.2831361871893372,-4.223237855153542,-5.537199140066112,-2.5239659218257864,18
-84.43849965213502,47.74661812516233,54.699532764249064,40.24186841996062,84.78101715891272,37.86676070073853,-33.682310223006795,-46.87122531108183,-12.369096610024975,6.000000000000009,-4.045054600334569,1.2680922034790492,-4.064547938541247,-5.331756947643567,-2.4493562028537657,19
-84.50282429885496,46.4821234499156,54.735205417124355,41.116502526233276,83.91364746791731,37.39406445550192,-34.881049593896726,-48.01279199694429,-12.51123889755502,6.000000000000009,-3.963477527152299,1.2821823153722747,-3.9463061811128775,-5.215417084149871,-2.4076261612541527,20
-83.76115399686174,45.73534742248596,56.48122689099383,42.07125027343639,83.70214212510894,36.17756437778901,-34.29156525284108,-49.10353665908753,-12.788080077821414,6.000000000000009,-3.8721204106588694,1.3121983809581723,-3.816327459054772,-5.088012866554454,-2.417860263532047,21
-83.7687660961653,44.55535915854752,56.38924193660306,42.93103025399322,83.54772856520677,34.99002270996023,-33.74837563788309,-50.250179136892164,-13.305579840993095,6.000000000000009,-3.7278190164210248,1.3147236973388974,-3.7245638679740085,-5.003556933568709,-2.3932921101559343,22
-83.8055357457331,43.43437690028664,56.26967657360841,43.89398256578011,82.84650709833404,34.21385841197315,-34.023000161777745,-51.316066093127944,-13.782910658515183,6.000000000000009,-3.581559468559812,1.327567586219144,-3.6569334532003013,-4.897217632264286,-2.3786010735757404,23
-83.75034813816835,42.25996880278612,56.08065225858892,44.66480097992133,81.5834281278309,33.887396837518935,-35.09258668836002,-52.5048367711506,-13.850399697159142,6.000000000000009,-3.486565392535883,1.336671092012236,-3.587093185812851,-4.750393516151824,-2.4066023545759982,24
-82.47718068409739,41.400786641515154,57.28901542433551,45.31000883360337,81.12310246887212,32.84312536320131,-34.6788086736511,-53.61885749150972,-14.253554496099598,6.000000000000009,-3.373261650505071,1.3386490658287997,-3.5022028747969505,-4.697751351173185,-2.369692269092746,25
-82.32270024403336,40.12285301012679,57.058933082671665,46.14722043147319,80.57711513693565,31.782129803298783,-34.21085288255563,-54.62475031172399,-14.467651502622155,6.000000000000009,-3.2663352542037076,1.3738755366770725,-3.3863936583485654,-4.639442121549857,-2.374296612602968,26
-82.20170822188341,38.89318155199993,56.855922755469194,46.88084441205151,80.05519182825502,30.623711216381654,-33.77000227356276,-55.80961130976964,-14.242870795954143,6.000000000000009,-3.1528194819304276,1.3693554043206202,-3.247699655866875,-4.575653178420321,-2.4326217496503864,27
-80.91981449637821,38.01369906922711,57.944615789585285,47.49964007189636,78.2851349758354,30.325975600009336,-34.40952881937555,-56.950413738131424,-14.56115964953027,6.000000000000009,-3.0033826185086325,1.3550456720454456,-3.1296452213397665,-4.506716292460976,-2.4412639312833133,28
-80.75207186831054,36.560617477553635,57.56166785516768,48.084761020973886,77.6960637994977,29.231704204113072,-33.87414913610344,-58.0214242086329,-15.296944962498635,6.000000000000009,-2.822490099718914,1.3964536937346328,-3.08212816933014,-4.429746725014454,-2.481554184022783,29
-80.45835927864096,35.02576357474572,56.984773760570604,48.75137408832516,77.32952833196333,28.18739006490017,-33.561153231637,-59.145153861110835,-16.490991351197373,6.000000000000009,-2.677098279175108,1.4504685940245436,-3.087791232574198,-4.281019432893489,-2.507376101944897,30
-78.86662178649146,34.000881878621534,57.64170246795836,49.41136502646945,76.57608225814934,26.982495919750278,-32.917361027538426,-60.27019195905533,-17.35140281498654,6.000000000000009,-2.537580886371475,1.473717714778471,-2.980996268883291,-4.160487548811084,-2.5869312162680687,31
-78.66569463522377,32.41852803341684,57.22814101477096,49.933559611343675,73.65978085424446,26.525460680573556,-32.436132430050016,-61.1452052235053,-17.771816858677216,6.000000000000009,-2.335156270293143,1.492962094267306,-2.79471099141602,-4.103816911238813,-2.706402312040486,32
-77.42448746765466,30.955328243347452,57.02779597787057,50.34319809577092,72.01375565635652,25.172467853423754,-30.936116085243032,-61.97087274467444,-18.51943262020792,6.000000000000009,-2.1400897478420817,1.52547681285803,-2.668645623698578,-3.9852574460503827,-2.782072375403113,33
-76.70899367224355,29.224478102662285,56.3518772291941,50.76252874039244,70.38636796415473,23.84259025882596,-29.503217161546345,-62.92206834861583,-19.18727398762834,6.000000000000009,-1.953016577732718,1.5611709720476357,-2.5336133487136303,-3.876603654742209,-2.8673668367532175,34
-75.6427421631991,27.453898076433454,55.3351790353059,51.161015820636585,68.63207581186177,22.46084456954038,-28.01454400423041,-63.90298920920669,-19.992106322802748,6.000000000000009,-1.7600289958876243,1.588721277134995,-2.4953553098685948,-3.7847170888270085,-2.9478723235873967,35
-72.60565730416526,26.140880356352675,54.76539498810405,51.58075444669051,66.01792299650955,21.06978228545686,-25.70657771461782,-64.65852512866923,-21.328069639972504,5.8784902923975,-1.5572287648996974,1.6378948804269673,-2.4711511625933094,-3.6967566069769244,-3.0093000928655522,36
-70.86792066160909,24.30262932473387,53.08280453671433,51.94875871807368,61.72001553442999,20.740941548667834,-23.95398368759438,-65.35904743079705,-22.26950338576839,5.751936293519315,-1.363833361197894,1.7016196725778387,-2.4364284341493514,-3.5938793534027536,-3.097638310416905,37
-68.70245468243945,22.41015229487576,51.00952692914347,52.297741971403894,58.818481945409424,19.395510882048136,-21.430512734686637,-66.10590156385973,-23.596772396751465,5.615183146245001,-1.2095180607572236,1.770108768948061,-2.391805236178771,-3.462189210273307,-3.18023098132343,38
-66.40549831334089,20.535466463544655,48.86484170993881,52.714259924809475,54.72972401876892,18.155955468739105,-17.746954043916293,-66.77534997643288,-25.091804558749594,5.4531539604372785,-1.070826800882822,1.8169131876664366,-2.2789756730094197,-3.341295873923098,-3.263219204595802,39
-63.78093073584821,18.741169477956657,46.435335513204215,53.21410007009304,48.209510166613946,18.27169121646998,-13.814255864080819,-67.40464274758554,-25.552500061950692,5.345524910870693,-0.9134249964191538,1.844711217973503,-2.135585290355526,-3.270387569709991,-3.3561354210274317,40
-58.06766256668097,17.752989265447596,43.232277914781804,53.717685154758,42.69199071327409,17.375778880284344,-8.765287371514566,-68.1960243874507,-25.9256094655022,5.271927435428027,-0.7343401204006008,1.8599805171837716,-2.041728985542692,-3.2271060239435307,-3.4325121245785857,41
-53.4170457316332,16.21158607847008,38.75625562968579,54.21741999652883,37.31314149065687,16.55519917503438,-3.891784009905309,-69.04565258422112,-27.583242031744643,5.160661792224522,-0.5680683490385586,1.8558837149596268,-2.0124883019924384,-3.1672802951164827,-3.4534878122374963,42
-48.03701153721569,14.773053712087245,33.59184094914893,54.75932485245178,31.31612580905826,17.152234174995677,-0.5185991534489398,-69.82741263221592,-29.42950547062154,5.057975120471599,-0.4717434476079005,1.8054557023584628,-1.9782360634500313,-3.0587097946119424,-3.428813425644706,43
-41.46754512229971,13.631359537306773,27.42424745628428,55.44026091530931,25.3656437577069,16.647081184906984,4.810447564797804,-70.66771022216109,-29.687946687350035,5.080877993378213,-0.34464019927694656,1.7694094471569264,-2.004294337712527,-3.055592082991855,-3.436058704371111,44
-32.94945803987762,13.394610197013167,20.72878936890005,56.17419834418805,18.970577974555344,16.34911039365638,10.578824383857109,-71.53093108391803,-29.70433322043401,5.109130293960357,-0.21076431034993096,1.6915629479890701,-2.016776209463623,-3.034110176033709,-3.412678238824106,45
-25.468322493202812,12.44766288047764,12.817741855858579,57.04795289885875,13.680628913230965,17.549487222021963,13.220735357770314,-72.4145981518796,-29.842622435941596,5.098500612730334,-0.15428880268546452,1.5733866364312394,-2.0151449488558564,-2.941483183941102,-3.326743777497755,46
-16.501068714717395,12.826672065629893,5.678041568112399,57.99558903294199,7.820012337331786,17.6924844977095,18.39341349161153,-73.27485895898941,-29.394741875500596,5.168996130488931,-0.09508464211884687,1.4765341743512082,-2.048846727083188,-2.9315841025871623,-3.2816112173623213,47
-8.213247007096644,12.477970181356042,-3.0014343156302443,58.93299540728022,2.0515652911106277,17.971386919170467,23.460134553915545,-74.2507232630779,-29.18291896878037,5.165115069239511,-0.036561325705885064,1.3819350086681137,-2.08771290809903,-2.9095042026026006,-3.277019511292326,48
-0.7659584863677502,13.398536974190687,-8.721414425236405,59.91857325643522,-1.778791428735025,19.686637552178293,24.659459759500393,-75.22592680176939,-29.167559848218424,5.084993206900794,0.03148578740966021,1.2566979116496817,-2.092564522572216,-2.8647581993657774,-3.2514535189883293,49
7.104898396254183,13.593781468349764,-17.07623626506614,61.00756582072996,-6.485408087123295,20.378239023897148,28.688472347836615,-76.18334709335915,-29.223518950497958,5.11345079748502,0.12850409982433472,1.1757584656470197,-2.153616885363848,-2.843473793335595,-3.2135882609547592,50
14.615992318710088,14.014274140964803,-25.070088849484893,62.171671244948016,-10.698062643891303,21.157416909572984,32.21427949636373,-77.23969170016797,-28.303778665588926,5.1918963480328815,0.21448228339279035,1.131694768421438,-2.2107925324481523,-2.813314106946129,-3.217721264894557,51
19.241104520223494,15.570616083648936,-28.110847846105557,63.36659737633207,-15.19737735177317,21.741371205132644,36.60749676193137,-78.2720091118015,-27.32730732843094,5.215318532294951,0.30740667541196,1.1074388155888777,-2.2537956191514104,-2.775555561991505,-3.285287135871809,52
24.610845360237107,16.187008506801835,-33.99318151394192,64.74248560085556,-18.697792610567856,23.177006769092042,39.02601075490721,-79.0910720029091,-27.0883750248523,5.128062395922884,0.38188222125168675,1.0146142459607292,-2.2927496912437295,-2.698934230179891,-3.3271354994143003,53
27.59536724143279,18.059020504049638,-35.475439237425746,66.01200924322978,-21.768612344628547,24.568422174083505,40.93523077866184,-79.95089624025391,-27.585440502560562,5.114129391535903,0.43859219765246965,0.9260668583898115,-2.395010507514004,-2.6483530733237846,-3.2886465882740086,54
32.614151933911394,19.157901013283343,-41.00408673437778,67.10747080588429,-24.242361159815356,25.986031392889434,42.19692998131716,-80.89002565257368,-27.891808974085706,5.18114190612175,0.49584670644804446,0.900038490470124,-2.474540859429168,-2.62670367344297,-3.270869726673339,55
34.801095477936585,21.202648866381942,-41.73809418280515,68.14484905747273,-26.234552896853046,27.488802202584733,43.005216437954196,-81.86787718648812,-27.557693350153247,5.2573354951254965,0.5320961753478832,0.8937649361780202,-2.5164482329424476,-2.5801581346950466,-3.2857878219816934,56
38.46037693145573,22.316843025316828,-45.8632874066823,69.3413171827904,-28.098458095390118,29.0850956435406,43.712435508247715,-82.79378730737432,-26.946090947411378,5.277058771818231,0.5317415859343848,0.825767021674823,-2.5772807859307614,-2.52147985185841,-3.2872761388337985,57
41.60408929305261,23.492632603348593,-49.44736158682735,70.7143369904021,-29.944224216496725,30.63169741255636,44.664657568814,-83.61092282426009,-27.264627257496826,5.303210622281525,0.5006848986333108,0.7326086758350845,-2.6662954903936384,-2.475715129935431,-3.2081593154057626,58
41.96065376988855,25.58280065809024,-48.423299025236794,72.12735880101708,-31.741015502124934,31.916786634987986,45.86045537788815,-84.53985934945143,-28.473928101413865,5.3588148669290465,0.4032106410529292,0.6716963791938437,-2.7850749853693935,-2.3932273158528607,-3.0978774005358387,59
44.43082033862543,26.775113953527065,-51.29288584552293,73.57317187288191,-33.27456565941613,33.111013159638766,46.7919796398644,-85.61376688297784,-28.99931819968614,5.4840819855820095,0.2737002446676627,0.6157795272258313,-2.840602611302498,-2.3805515117088785,-3.005111581110416,60
46.68051640723568,27.85025943864091,-53.84311284665429,75.07479325962152,-34.69171488479361,34.26880428806392,47.675085893125726,-86.71663118442221,-27.946223039876923,5.6014815182215,0.13520069815278876,0.5408731641422783,-2.8609310047448453,-2.4199285708469183,-2.9788186070273346,61
48.43135659858605,28.968552048771137,-55.88080614935932,76.62820519064027,-36.0646433992758,35.26245836321142,48.62937181311795,-87.90342461462217,-26.175657407178683,5.735326897167675,-0.01807725338344635,0.4729550732175914,-3.0087318561421275,-2.4357627398962896,-3.0022794432329865,62
47.73034862481682,30.766424373896722,-53.775170792355354,78.29613342194273,-37.21399074563217,36.212478827872495,49.460819691477454,-89.0550470841828,-25.610981593677625,5.8694100027404925,-0.15940821440283512,0.4187305467524031,-3.132758289495892,-2.4773450334093443,-3.0103578920572227,63
48.99676858939164,31.723523888939155,-55.37929228922536,80.05272929287915,-38.191923049669896,37.093641311835476,50.18696049109797,-90.09686145331858,-26.004113546455493,5.9751538560107,-0.2847579095984759,0.3349487893111843,-3.2632337931479594,-2.53680153666656,-2.9243449851950283,64
50.06579497251637,32.70342129020665,-56.828417657911835,81.6629463980624,-38.982040420993734,37.831156142182195,50.792821824137626,-91.16468111092311,-26.07348851016841,6.000000000000009,-0.36149159895676053,0.2659053002586105,-3.409003615972395,-2.615393663138137,-2.824884628633759,65
50.91061583996394,33.62988167341285,-58.119809313030785,83.12512395629199,-39.39558945305656,38.4084187447008,51.24722904393667,-92.38678793388743,-25.843490285959174,6.000000000000009,-0.3410057754358553,0.24715672439006695,-3.527100463908269,-2.7496144966836704,-2.805622751076533,66
51.3818498301883,34.3898899409014,-59.165510588273605,84.51180710469153,-39.581229006747996,38.995739303773796,51.717522480261174,-93.4981325261943,-25.330390760253803,6.000000000000009,-0.2128020279235885,0.19029689527755753,-3.5910494741964603,-2.9047960032418043,-2.848391304640219,67
50.99410182696502,35.261626077927524,-59.09543385033836,85.72303507194422,-39.56011195705785,39.49881204160407,52.15698944603604,-94.50238975502135,-25.1008084971494,5.9006037084694025,-0.008713234312760512,0.11643779445584408,-3.644934886859706,-3.03632555236814,-2.913872081823728,68
50.619874937504385,35.93135612932092,-59.2553796972153,86.74477921717386,-39.43570202156044,39.93318257480727,52.61535446080374,-95.29261510919358,-25.49684887591926,5.5593465804836395,0.21995225363750603,0.05004504182126288,-3.7094227738776575,-3.0839300339111806,-3.0211335102818238,69
52.37114097646502,35.81956864415263,-63.03172435980948,87.59944037337495,-39.12658778353827,40.1880042442197,52.98661870250562,-95.92082919641605,-26.635080618426908,5.256422228462783,0.479354736022017,0.0030434451218304833,-3.8104894330454884,-3.0892811964729567,-3.0997559909264503,70
51.71990874183759,36.32620799852415,-62.94672320847207,88.23107808311018,-38.67822834889682,40.2412784059658,53.323317328760915,-96.46831622264494,-27.753439752348903,4.980251547598436,0.6960233242144029,-0.003302222355914125,-3.953649671902084,-2.9812814781216606,-3.244872931435875,71
50.7522316496462,36.61381304508093,-62.58521999594951,88.75418233125265,-38.310256502386785,40.19710981068322,53.768799247445756,-96.71976861434098,-27.539336980712317,4.698306691068307,0.9233722153130625,-0.059383125849230174,-4.170731109853366,-2.888631396884656,-3.393337108025842,72
49.74066486336711,36.78764778163547,-62.24759104131781,88.9929944302807,-37.75499513398529,40.04270499809832,54.079768415160494,-96.83275440458968,-28.173771074680243,4.314642476058168,1.1788435662129884,-0.13254383801681852,-4.349385285963412,-2.791359273888794,-3.4939035832850776,73
48.590089331696944,36.70494304523628,-61.79653436322078,89.09034873265712,-39.11755355631899,38.837626652644275,57.71406949433169,-96.89025564378257,-29.644607715342584,3.8230510781721,1.453559806025315,-0.22375998757980056,-4.4955575883300884,-2.676436795401629,-3.6009472365555446,74
47.30006319201668,36.382388795627385,-61.19957262980926,89.11092803093068,-38.28955554914725,38.387421552469355,57.87386633389578,-96.73031017303076,-31.304007447688953,3.377210300561073,1.7373434366924696,-0.3293023949510956,-4.631463159439909,-2.526182472184016,-3.7050955384341355,75
48.18516210082843,35.274491803329866,-64.20008691054615,88.84056283229799,-37.46358111960178,37.695314919613764,57.987942501422296,-96.51002915410643,-32.9787405236631,3.000498499543085,2.0253953658214563,-0.4092875618790342,-4.824027894362689,-2.3570202326417267,-3.833965734808097,76
46.647965095301316,34.5846269727065,-63.32192467538718,88.46068350888073,-36.624180123873906,36.92965626525799,58.05470952723258,-96.12526442239529,-35.09004590342445,2.6341133085112527,2.2760736430374,-0.5047432905468718,-4.981530367866837,-2.171037642311258,-3.9694169948169096,77
45.12213890058454,33.63911735248707,-62.349148976308285,88.09283414752443,-35.62460687946232,36.04076362685846,57.96919860793564,-95.49593393015016,-37.61333467348083,2.288951142467995,2.4825868087452307,-0.6230929953836445,-5.10075847513783,-1.9838373248390422,-4.018264038537316,78
43.56860572871489,32.5560575661932,-61.19846756175377,87.51984141985332,-34.55674417590151,34.889120494233644,57.75055474488898,-94.84229736694054,-40.91124218245303,1.989975430690213,2.645625643252825,-0.7301503578383429,-5.254177899675189,-1.7960850368253327,-4.043367255375243,79
41.97445325219866,31.32662978131111,-59.939018871377606,86.70124664181883,-33.52778198910493,33.62355901669748,57.41732534840089,-94.19697824234235,-40.93055610400109,1.8386249458662935,2.815942109780878,-0.8311992851456911,-5.348852206299721,-1.6915228916799392,-4.130009669579667,80
40.02207157546727,29.925449869462728,-58.26137901429959,85.68286884218229,-35.03050105924567,31.59502778211081,61.022969868678416,-93.3454747876377,-39.31899454964324,1.702908468152885,3.0368473153114026,-0.9650578453252406,-5.347680854673219,-1.662627535765051,-4.235356901510591,81
39.77180055082384,27.823868504474216,-59.382266972711555,84.53779598994342,-33.72736448048934,30.26302855873724,60.44568072157694,-92.40144018364653,-42.470796607167735,1.5539520278985877,3.2101023195951877,-1.1023204727967262,-5.26273798250465,-1.5630209235442654,-4.244030785813256,82
36.833680177351056,26.447167714898164,-56.09223775003361,83.32672410451372,-32.16879980441453,28.652609862455783,59.50936126906496,-91.533053480833,-48.23059545458018,1.4835971980270937,3.3194401146494004,-1.2205374736053156,-5.188405736007488,-1.4434014095560057,-4.142250020185417,83
36.50281312124386,24.296969547115214,-57.031449207775786,81.90808647500414,-30.433019975305893,26.903056375563718,58.36162900729679,-90.69583906056248,-53.30663238000342,1.4231888569686773,3.446235586688335,-1.3089507414049197,-5.099517184372747,-1.3808013149893141,-4.072524791217868,84
32.951788011724474,22.90271566474575,-53.063366788953516,80.3727189708891,-28.531271817910493,25.176722120247536,57.17479738885316,-89.6903838491766,-57.87247527088988,1.3527981863701612,3.559069966873016,-1.40171507268532,-4.989224537691628,-1.3048391562778465,-4.034895639661932,85
31.88849627110825,20.690054569674512,-53.26805409209908,78.77499150656776,-26.45711049929722,23.333508880893756,55.85148132066898,-88.6699067895652,-60.473869219618635,1.313907638778326,3.6171785992327767,-1.484953343985947,-4.931444114823172,-1.2111591425599453,-3.9942580738060163,86
27.44159154058232,19.20225569104956,-48.26340104102655,77.17210551769058,-24.733220344237946,21.302042583905546,55.36357126971899,-87.59424121054894,-60.22582993383481,1.2951439156561226,3.664990825451786,-1.529514215453668,-4.789025693209215,-1.1537831062030988,-3.979641574836341,87
22.385570040458816,17.785999166356973,-42.64726440372894,75.53327385493485,-18.361686168613648,20.47721211399354,48.136858279706736,-86.38493848751264,-58.23610325715729,1.32736945593045,3.7069490716936926,-1.5783724593076967,-4.619624577508715,-1.0883053213478495,-3.957661378969142,88
19.965022010618487,15.597854095114956,-41.56644349282437,73.67795859044816,-15.166507809651646,18.56548912933193,46.16085808507084,-85.12809625110525,-57.036895598063644,1.346512011401059,3.74374373830983,-1.608740619625543,-4.49581972342979,-1.028829762121447,-3.921610595652108,89
13.491707959423742,14.474842071518081,-34.50880136572283,71.90939569361046,-11.047370084521747,16.861532182572564,43.027815483962776,-83.68252475365351,-55.71639449786442,1.369765949065307,3.7238781345434306,-1.6389208727436235,-4.413942601563873,-0.9474354767428341,-3.8667958445797184,90
8.504010352048356,12.393791213874309,-30.839014337236947,70.33226400313018,-6.112951372305315,15.160914090915773,38.94496367971202,-82.19675804613132,-52.919248928355,1.5141532291782434,3.6240312056687505,-1.676846401085598,-4.389074902559828,-0.8674111158498863,-3.7920713241278228,91
-1.4055794870375633,11.560846989545908,-20.250568311423038,68.8557373009643,3.2183176448458997,14.811125483008642,28.530132582570083,-80.75708236451202,-47.20375569584779,1.645410963267261,3.521092085866684,-1.6858483625062555,-4.3634733797280525,-0.837901904988026,-3.7919153240800068,92
-12.282423324237259,11.07937649943502,-8.746678097440551,67.43975586939165,11.245448031989843,13.692169912501662,21.251371664774936,-79.28932221410095,-40.93724185843227,1.75176105012489,3.4950926399972118,-1.6456001877009234,-4.29603176154282,-0.8970257337039538,-3.8081034092576673,93
-24.210396178303277,10.984613873453316,3.7552841134864137,66.270970389314,20.510408794342496,12.93686644393949,12.726387403138853,-77.75464049508092,-38.5094943548419,1.8647415339831523,3.432560326075235,-1.577528601166131,-4.234706238992476,-0.8881809032408641,-3.8534801934294625,94
-37.85745012806148,10.330216233329164,15.837653002125998,65.28053624627772,30.906981174569918,12.53439129923841,2.9981340921606607,-76.17032448471504,-36.91531867599886,2.0842954995602927,3.2442641942514534,-1.5337228131867318,-4.270142676670098,-0.7833468297938938,-3.8704927194491274,95
-49.20154460655739,11.408246266361875,27.806256274279793,64.36704766909483,41.877791926894375,12.578713389090467,-7.47173755922659,-74.57153661823865,-33.18352257250239,2.427200573161244,3.0494004841763305,-1.475446354084377,-4.360134664634359,-0.7998513963555564,-3.8993483076701976,96
-61.84884552264209,11.972377205970002,38.85588009060993,63.592675092053526,52.13460419030129,13.158169937002764,-17.320455741187516,-72.95476120358187,-30.36058698008866,2.7508695272878843,2.8377298862820233,-1.3828124705143034,-4.392763919735619,-0.8465783670478713,-3.9476280942161397,97
-70.01564707594163,13.92643252477375,47.598732067267626,63.08674683465887,60.584436170400664,14.264566977788096,-25.40718465902847,-71.31244446449428,-27.957469371870385,3.0575402036640518,2.6151810729517906,-1.2831232318086512,-4.3274768863683315,-0.9215219283675288,-4.01040859365907,98
-76.03364747871669,16.19352415749234,54.144545468660304,62.75906900982442,67.79804494869042,15.692651587695174,-32.28995392120155,-69.6986733764001,-25.177629456550278,3.340458807826285,2.3800765344977353,-1.1582939088043387,-4.3042162782584255,-0.9850442641975182,-4.122035749739615,99
-83.45891860388268,18.068443456423793,59.770359655169145,62.52416481436307,73.75834966647852,17.38691184354525,-37.98130470282151,-68.07249867313104,-22.723258373297092,3.6802700055408053,2.0675536547481896,-0.9827638034975489,-4.278876430489218,-0.9970912649205238,-4.303616307184444,100
-86.620243551684,20.741128730849447,63.467735661515576,62.373283316378796,77.76848929062479,19.303163537363933,-41.83275295869573,-66.33434729255552,-20.282908464336412,4.112721191843064,1.7360891441878255,-0.7683711427987624,-4.157832062603492,-1.1029377335539137,-4.527034902043017,101
-91.44480609862427,23.008368852405095,66.45924273023341,62.206947882385315,80.49195956339422,21.301004716563728,-44.47800405590461,-64.45842568393884,-18.35709122171255,4.524043541456566,1.4630742735240163,-0.5536411816015417,-4.057162303051343,-1.2971089978540307,-4.679447353633398,102
-91.65007375342105,25.909439396988297,68.10206559250634,61.99203660003176,80.53131577016481,24.125541740057955,-46.744042997870885,-62.49530475505949,-17.631779204035492,4.9544592693322915,1.1796371043953642,-0.3433071352576187,-4.007497251147926,-1.4224460456858596,-4.772334932229967,103
-95.20434079017652,28.18628064767177,69.30913357052054,61.84097830342137,82.26168262754909,26.25633167625337,-48.472606344895645,-60.52197274468613,-17.437592057972484,5.496477463715486,0.8475606008100045,-0.15269695548202397,-3.9421618586227245,-1.5300863187248255,-4.810882721876917,104
-95.87461860650953,30.84242010650326,70.07481778746718,61.67631598051579,83.87779916558553,28.525147934436333,-50.1937124973166,-58.651286614106596,-17.479333304768804,6.000000000000009,0.5401447108859818,0.04826977025884204,-3.9254362753248473,-1.7046168460095856,-4.8091338019434415,105
-96.53481347836451,33.51928704715728,70.47597796728803,61.475730120740984,85.08124344439423,30.735864016564356,-51.49861104407232,-56.7175306465435,-17.40396809198831,6.000000000000009,0.23461553816169897,0.2272558883016174,-3.883943125685426,-1.8348798698151354,-4.825795076135806,106
-96.66071456512422,36.32080340967618,70.80845025501225,61.25759748398582,85.94479199909516,32.935182745179354,-52.485454063901244,-54.81486593522152,-16.858483365021424,6.000000000000009,-0.05291935018025317,0.354134297010897,-3.86814106468512,-1.9841620200453804,-4.822841603033796,107
-96.66864555446234,39.03684643910556,70.96771857603036,60.84612027129745,87.41234472390119,34.81684849027006,-52.61755791415309,-53.03560948596351,-16.32931881616845,6.000000000000009,-0.33629124989218145,0.4054268522415911,-3.912753291707149,-2.1243601505119476,-4.724905658804822,108
-98.04818186312541,41.3217552299874,69.91202004219261,60.32108326115025,87.62238512577062,37.290674833288776,-53.612609583779395,-51.3990908885826,-16.043582796250476,6.000000000000009,-0.6533343138839673,0.43692869771717474,-3.9806999988522533,-2.239182125170053,-4.566780643243227,109
-97.72598823638543,43.92259754941502,69.67097764394504,59.76772861502582,88.97594242117678,39.30523732379227,-53.19077308744813,-50.01215892438321,-15.560143620512203,6.000000000000009,-0.8861059361114019,0.4507811141878738,-4.007034394236604,-2.4561650847046095,-4.372002935340356,110
-97.42365801912182,46.5101060497843,69.30280727572325,59.29474717724197,89.19667401621516,41.88642712831125,-54.00911125311851,-48.662886099567885,-15.487491371008376,6.000000000000009,-1.1051453428201277,0.47883493205248184,-4.088317708996997,-2.594587553835113,-4.185312321521439,111
-97.14944153643633,49.14279624158965,68.92267604816824,58.73046046240303,89.27734546549907,44.27816674927494,-54.64667842950002,-47.29788283203227,-15.042429910461504,6.000000000000009,-1.4000818938899613,0.4753245372857638,-4.157376455252156,-2.6465830399607313,-4.062498289447912,112
-98.01665918760655,51.29763582446272,67.07956485944868,57.98083726515611,90.26330532358882,46.17261362709847,-53.65922314866417,-46.1441568793206,-14.141934302682243,6.000000000000009,-1.6894884533652539,0.4383810102939374,-4.252041658168154,-2.7710092194566704,-3.9241837051220125,113
-97.5174217375518,53.765959306393356,66.43938720588793,57.172607906682664,90.36187906518748,48.74617697336145,-54.23946982472263,-45.370161733355076,-13.375924857837374,6.000000000000009,-1.9302567072599461,0.3695097661031016,-4.368743549130551,-2.920479803954539,-3.7083394862443146,114
-96.9298963966468,56.15640228774813,65.66478837375975,56.24508514081633,90.66137719661353,51.48719439068341,-54.90905811145087,-45.00236677561347,-12.824223592496368,6.000000000000009,-2.1393100053870846,0.24525665629766707,-4.5086942380794035,-3.068622403587081,-3.423143502902361,115
-96.52927438825411,58.54183822371789,65.02761794864638,55.414773251178005,91.89110934178986,53.75534370574869,-53.76830543192371,-44.60847135423085,-12.45942079245335,6.000000000000009,-2.378025597967416,0.1645050318764013,-4.604498233284188,-3.144809276264802,-3.1968423046397723,116
-96.19989608829223,61.02642712427512,64.46024779290653,54.671151584533334,92.09388000283018,56.38944630573161,-54.13699941304463,-44.18069024043531,-11.776212797483797,6.000000000000009,-2.6335039603546933,0.07441844786633113,-4.639438824631072,-3.2055760112130756,-3.034448353775535,117
-96.65967149097678,63.046081300632586,61.99111710910313,53.785518182727955,92.8201688047915,58.480947273388246,-52.41666094236247,-43.860542449408456,-11.007612964251969,6.000000000000009,-2.9054499701923713,-0.10921646051884544,-4.677570665183978,-3.2829095286582892,-2.8143393080192,118
-95.98735709974062,65.43947021162367,61.156726858710165,52.797245311427034,92.69647448925336,61.058852503413014,-52.53402993134192,-43.59590236437655,-10.519912786825275,6.000000000000009,-3.238899927149017,-0.35204422011005204,-4.777802072744851,-3.3581952125910814,-2.5292712065799408,119
-95.34075642148464,67.88154334702408,60.41691930750978,51.72690276287716,93.18237113843406,63.0608606951324,-50.60183879341603,-43.346189747456144,-10.013686418875293,6.000000000000009,-3.555668224290887,-0.6210742811702036,-4.8422294533128705,-3.5136314751972777,-2.2762652064004425,120
-94.67768350768957,70.2980220993347,59.61119242672778,50.50644222562996,92.98842402457184,65.55584345267076,-50.58035825956777,-43.2362636939384,-9.481560584560588,6.000000000000009,-3.8538396615467265,-0.9211855908019476,-4.945565124531533,-3.6357951178949857,-2.034529048840517,121
-93.91054730142909,72.6386664394939,58.68954073370621,49.190347746662404,92.88955783185008,68.09453379831248,-50.6341049601232,-43.27773936113157,-9.0408175605895,6.000000000000009,-4.210785417590486,-1.2346295767419986,-5.129382164777959,-3.685408007037687,-1.7877737810655188,122
-93.09221077837107,74.98531696903457,57.86860373275131,47.77640195683321,93.30896878802425,70.02648358167534,-48.50691563285026,-43.2912594745041,-8.465913599522578,6.000000000000009,-4.612235942208665,-1.532733057638647,-5.244328410613674,-3.770161452633968,-1.5940617668962909,123
-93.00246380789999,76.90627933967694,55.02941821008574,46.28283104324134,93.00064194534006,72.3734252518006,-48.325456407960274,-43.24448480282526,-8.189409887902503,6.000000000000009,-4.9957584319977855,-1.8079705706981506,-5.311298585215897,-3.9084562821337876,-1.4515985018212456,124
-92.2076815636973,79.239531296874,54.258769912865176,44.62722406377326,92.711891809561,74.63186460010861,-48.13242390074265,-43.09496587994781,-8.028103676901946,6.000000000000009,-5.361147771441786,-2.093362030768415,-5.40656288262788,-4.009756428952358,-1.3002225640335958,125
-91.40358359974478,81.52297277670867,53.44768008555857,42.83689766336201,92.35716721705812,76.649810745958,-47.96259517081515,-42.65990092426599,-7.267485750287567,6.000000000000009,-5.681077806771447,-2.332806596906385,-5.56496398717666,-4.109526203082546,-1.2621818220353451,126
-91.19593231796873,83.24180519492052,50.44213908530131,41.058312754577926,92.39778392140015,77.87526209240141,-45.569676200396884,-41.78319534212966,-6.33808044857368,6.000000000000009,-5.948957147514008,-2.4280331434090576,-5.720523241896941,-4.222022199347546,-1.3915344880266762,127
-90.25177526790313,85.20427840378542,49.689276668981435,38.88787680747512,91.77648138103156,79.48228140246427,-45.30174534251952,-40.6964999801501,-5.510981010895715,6.000000000000009,-6.2223063875514315,-2.4374480392572675,-5.853194146877151,-4.308906679390079,-1.6037497328395345,128
-89.76708518202467,86.50263188504431,46.73646844658104,36.47642978912162,91.03120762390412,80.81226337652794,-45.04621048435237,-39.10081627452724,-4.881642114687678,6.000000000000009,-6.4272037458344915,-2.3643891378438475,-5.972026543560949,-4.478014905436195,-1.8590277395517154,129
-88.74377114073967,88.13377722672399,46.131194646582536,33.99810195299183,90.13638716106398,81.817383159205,-44.75683115265375,-37.03289769164456,-4.491865882176962,6.000000000000009,-6.469899045620082,-2.21053494455977,-6.056653254076653,-4.7232276843821115,-2.180413124315411,130
-88.30888218113044,89.1737707185501,43.3186213969805,31.38574519016557,89.39310358015884,82.72002243894705,-44.47332215902385,-35.233475997692544,-3.975720868361481,6.000000000000009,-6.456629404838744,-2.095435393489688,-6.105981192247649,-4.8860252978833305,-2.4682987375170824,131
-87.81390976547976,89.84738291307103,40.59980791373684,28.408388513399796,88.87514756902844,83.66476363939638,-44.235222612533164,-33.90594911806495,-4.506513213086785,6.000000000000009,-6.492537232329606,-2.074186070957117,-6.14219353312742,-4.947662106023194,-2.586120960957925,132
-88.05169017251775,90.95335714464588,37.9309572469816,28.29882286208962,87.83688184020279,84.90838710709214,-46.303039914926146,-32.38344126485015,-4.320637649530624,6.000000000000009,-6.511332009945545,-2.0417715914128514,-6.167532677441084,-5.026339515586992,-2.6004426817558226,133
-87.77997272052583,92.19380450671513,37.7109843852244,28.298822862089697,87.09301916104852,85.42654312064295,-46.05250849495281,-30.417479095350405,-4.669626224375524,6.000000000000009,-6.555423010030062,-1.9377310454906507,-6.129733825778825,-5.088582291772514,-2.6817317619472525,134
-87.32799007159528,93.1927593954321,37.58569603097001,28.29882286208972,86.76880527898984,85.94948452647476,-43.368483704711004,-31.717010813709543,-5.088949028012525,6.000000000000009,-6.565386817963729,-1.8267308102077155,-6.047269416035936,-5.210438129324669,-2.824170086099221,135
-86.59696827279359,94.336031355145,39.93004968257355,28.29882286208985,86.21468514394203,86.34580061886531,-43.0903093717478,-31.29927515350751,-5.06175287466027,6.000000000000009,-6.448623238868644,-1.7700709940459942,-5.934028245677454,-5.379908928507942,-2.8567852199975783,136
-86.40586267731923,94.73688084828497,39.93916940282303,28.29882286208985,85.84577549990424,86.71437513805147,-42.83869868841409,-31.15737570235695,-5.278344997201542,6.000000000000009,-6.323590684838216,-1.72893229850696,-5.819218834130267,-5.374884308649674,-2.7793607204142545,137
-86.14942523200966,94.76505014319527,39.97481055961091,28.29882286208972,85.56848176595166,86.98315006764197,-42.640921830033726,-31.26459102455732,-5.1010242047978664,6.000000000000009,-6.22810616768977,-1.6243094815409316,-5.716347125106822,-5.309819789602823,-2.7091409328398117,138
-85.8205982057821,94.50775949424542,40.07976160241153,28.298822862089825,85.27837358227524,87.0756259203386,-42.43838983835785,-31.510951970685536,-5.350881210069602,6.000000000000009,-6.096581856617973,-1.4986748178944265,-5.585256698126031,-5.3246764914182325,-2.6487421605996158,139
-85.57545755374325,94.04833006109766,40.21852653537152,28.29882286208962,84.65444098119993,87.28492808051048,-44.578709928148434,-31.87599634523427,-5.19443932293775,6.000000000000009,-5.937039576954206,-1.3968956816389753,-5.446831823844327,-5.30377635086744,-2.590413154415926,140
-85.36156404315443,93.29737281529218,40.41747180161169,28.298822862089697,84.58648330968195,87.1952282733085,-44.34026566841748,-33.09784328017814,-5.076737999286199,6.000000000000009,-5.742966244393157,-1.3277345192764054,-5.2735156153389715,-5.253992407932766,-2.4748967243873534,141
-84.78026246574231,92.61690045130457,42.94745427145704,28.29882286208962,84.67221743249871,86.93714134542152,-44.18820997805122,-34.38206276275328,-5.425234237529169,6.000000000000009,-5.526920005558308,-1.2804453578199593,-5.153934644910583,-5.177836720009492,-2.273996462085778,142
-84.60478978385412,91.30513670863071,43.07503967602531,28.29882286208962,84.72385678387614,86.4064545420024,-44.06644744117454,-35.45138781082303,-6.026428903001716,6.000000000000009,-5.252272436785784,-1.1856260966852843,-5.058758306568237,-5.118238250983185,-2.108415056152172,143
-84.55541659461778,89.84703710454623,43.211403431944575,28.298822862089594,84.58948672566653,85.43720397534797,-43.912076998488075,-36.110913965601554,-6.112754307919245,6.000000000000009,-5.0147539911683,-1.0860194649197357,-4.961997329956091,-4.969785242410719,-2.0178667902768095,144
-84.43482777936218,88.22819782486334,43.21482817373499,28.298822862089924,84.33969269743076,84.26231967201363,-43.84446397405183,-36.73664045732361,-5.854423599167242,6.000000000000009,-4.845664679015534,-0.9971117935663215,-4.990991699620654,-4.788169041737904,-1.9427443753213467,145
-83.7838599803271,86.7740707376285,45.483127864576254,28.298822862089697,84.20071270626738,83.0221160669782,-43.8437125713255,-37.50247203680473,-5.9742214220788,6.000000000000009,-4.650468562662269,-0.8387993338659626,-5.06376999626169,-4.710588606373764,-1.894058080788124,146
-83.52829731214175,84.82386692114515,45.44594772631872,28.29882286208972,84.17951857832294,81.60241421633206,-43.7878594492488,-38.290244335005006,-6.1830300613280595,6.000000000000009,-4.406554517303675,-0.6693491417383965,-5.074541285118439,-4.656090804048091,-1.8829586359407402,147
-82.97374509823942,83.13535222654552,47.69097857443495,28.29882286208985,84.10186325629192,79.95363710414411,-43.682372258256656,-38.88236568004716,-6.28201541023239,6.000000000000009,-4.164404506947547,-0.5344428477553238,-5.095464416730489,-4.525236126955571,-1.8682665016398825,148
-82.87104900837788,81.09300511904021,47.47473074680289,28.55949199749052,84.00109127014397,78.15331984999479,-43.66359553079053,-39.451094812941115,-6.260651068370192,6.000000000000009,-3.9417529140851464,-0.4038632858849545,-5.249691909162475,-4.385926967083379,-1.8873974646202847,149
-83.26177531645256,79.512361609611,47.3398832055547,30.456601971463492,83.96219366896882,76.31593806265296,-43.64244118213064,-40.26351840787678,-6.635943463117013,6.000000000000009,-3.7639119692107226,-0.2857663199106561,-5.414418647351483,-4.251118704847745,-1.8939115792180428,150
-83.18926787707507,78.24892828064584,49.475783355424866,32.54099864745016,83.84727287740728,74.33583250262318,-43.562052187561775,-40.84744403390985,-7.267483185891312,6.000000000000009,-3.566972530709892,-0.1658191023094843,-5.566205697899742,-4.163530265523707,-1.8440673357705852,151
-83.51711536691498,76.61842489133497,49.274167884445745,34.69305154923071,83.68225924567508,72.08480628341466,-43.486214872981535,-41.186130180404824,-7.4477155927620045,6.000000000000009,-3.3466834367631924,-0.03399334493963912,-5.792435675731189,-4.09271008196852,-1.900691769873177,152
-83.82144474513295,74.8662643305865,49.0919154354678,36.618772882168436,83.02937220209066,70.24985401613782,-45.47863189802695,-41.613812340576104,-7.499757054407508,6.000000000000009,-3.148271583050623,0.07810471686135645,-6.019271540672821,-3.988148402756246,-2.0008177462420713,153
-83.56678973212817,73.42029944507064,51.110532836145325,38.39291062623784,83.02682369938114,67.86833926787916,-45.30853172920501,-42.176391709074565,-7.817611339930933,6.000000000000009,-2.9840569257751453,0.17023653796192606,-6.215463818875678,-3.8466348409618254,-2.0462789579925507,154
-83.75837143574913,71.38314501166896,51.01335242924476,40.035723869589134,82.93113991797763,65.44885879548117,-45.01827262671467,-42.698628242003124,-8.226834447306592,6.000000000000009,-2.833529134031589,0.2361438813975027,-6.346995407302024,-3.753119261689182,-2.0271218407805116,155
-83.83332675973307,69.21455596679645,50.906963448574814,41.51850535314154,82.83890764673885,62.932955552106286,-44.6922793366412,-43.221899837821574,-8.488572749426806,6.000000000000009,-2.6775995013946075,0.3039097121770494,-6.468438780241218,-3.699720283869071,-2.048884933152469,156
-83.25954273810328,67.3956236534306,52.89174674755396,42.78558908151932,82.1114425364586,60.89219549221143,-46.225403859496524,-43.845283108540954,-8.616633844435606,6.000000000000009,-2.4707423929079466,0.3334893052812251,-6.544481859702692,-3.6759428630300373,-2.054143787647034,157
-83.43340159564568,65.0429360876031,52.808110356042164,44.1618023006001,82.08971324313518,58.19738827488765,-45.76430830670327,-44.32397701184985,-8.785512502664814,6.000000000000009,-2.2643105714736493,0.37234289654712055,-6.657895283825972,-3.5917381484319657,-2.0391565101714506,158
-83.58384698872116,62.60346968846335,52.77323123706796,45.37201202576081,82.17114567596919,55.46540463423228,-45.27370749289719,-44.994695642784976,-8.652953559188095,6.000000000000009,-2.111564628209087,0.409438849091963,-6.715573880973587,-3.445860596681173,-2.081733607713245,159
-82.93992448443336,60.526964642827814,54.74349685086487,46.504153751037244,81.38555549619552,53.311793903431045,-46.4132149189567,-45.726643097012605,-9.018518340114616,6.000000000000009,-1.9426698363722976,0.43488702337998714,-6.64678869259572,-3.3608693735678474,-2.0792812749273293,160
-83.09925059124735,57.845757844802655,54.89232784242936,47.580992899758456,81.14315544707198,50.45567126396174,-45.451715474095096,-46.292186907759145,-9.483651565918008,6.000000000000009,-1.7920096507659862,0.4609942824341804,-6.483739966492306,-3.249395804990834,-2.076060747465582,161
-83.22372940286337,55.099580684473075,55.0239250122083,48.61039598087921,80.84510852493447,47.500705049747985,-44.44829341443002,-46.78338504507059,-9.43847786069024,6.000000000000009,-1.7076932042804451,0.5189808679259753,-6.338516585926794,-3.096772102374849,-2.1211382595433803,162
-83.19206418359855,52.28030578063627,55.05519156599999,49.60482530193295,79.62438208805293,45.112886616587936,-45.12795058102116,-47.19388699975356,-9.268255339546684,6.000000000000009,-1.5963303693137652,0.6209005890301355,-6.264857808531972,-3.055288835598183,-2.208625254050518,163
-82.12393065051933,49.87804898204625,56.65268281607848,50.43750510884387,79.18920305430747,42.095236227980166,-44.046839743662645,-47.622061389025575,-9.164649720484055,6.000000000000009,-1.4432640875878373,0.7447945928559566,-6.201400469266198,-3.058335377399677,-2.3309450918061807,164
-82.08080460348833,46.82554002005544,56.642563972202865,51.015222150515825,77.61666972699591,39.57592142137076,-43.948006124227824,-47.95387804858675,-9.604451864123456,6.000000000000009,-1.345441109138043,0.8494825259423597,-6.1039454411953535,-2.9561138770165223,-2.3817001316361446,165
-81.93595122390062,43.56904227786849,56.58275873718185,51.38506148186604,75.90416532347953,36.87237709287073,-42.91104834179673,-48.15797670411213,-10.58614205290933,6.000000000000009,-1.2964778283034426,0.9063867657793052,-6.036931549425079,-2.8559872411133314,-2.282650077323514,166
-81.6741652452496,40.29340382020906,56.49143517517365,51.82723990903457,74.20002819261273,34.320376245933836,-41.97371944012135,-48.47703051729035,-11.240962434641576,6.000000000000009,-1.2389212732212065,0.980317288024413,-5.975275060579799,-2.8554636966493336,-2.1877870838268203,167
-80.032548029992,37.585064802241995,57.547327824893365,52.17784639082451,72.59189373558102,31.78055630558089,-41.149286690009745,-49.0224672307762,-11.254971855029787,6.000000000000009,-1.1975565701457302,1.0496385521211173,-5.910932216161905,-2.8618834890587443,-2.1770629179880303,168
-79.47293256551406,34.3358888547871,57.172703617058836,52.456916611152096,70.56662005137883,29.17685303408111,-39.929736735798,-49.3857845467802,-11.551090734647094,6.000000000000009,-1.1801061964442523,1.1158776877164172,-5.8711604114065015,-2.8512466335379605,-2.160227231843251,169
-78.784442284481,31.083514110662136,56.702165707477214,52.62094042307055,67.99222932024936,26.559277381406183,-38.166970288686834,-49.71319204050321,-11.787892083598656,6.000000000000009,-1.1038260930031558,1.1655262134411952,-5.8213888560837335,-2.9197035324794247,-2.1548480909695917,170
-76.52662471859034,28.361601683556326,56.91960899431569,52.794724958042124,65.04122739638385,24.049227703095,-35.96141802975082,-50.09847671571227,-11.937801973641275,6.000000000000009,-1.0403457826364206,1.2044589290521805,-5.737087141237169,-2.9309659165088355,-2.1364171569668358,171
-75.1461926512111,25.340239024331375,56.151992569872405,52.96450766789882,61.59823855326664,21.596210998266557,-33.284707400123224,-50.58738432711597,-11.786016806255194,6.000000000000009,-1.0501807299881476,1.2166667615606366,-5.686676200117385,-2.8900737761651167,-2.1073410102354737,172
-73.26385909636608,22.31595343919533,54.933316685142344,53.01525514944236,57.22527126027991,19.202642975290953,-29.758015405304338,-51.058949674119454,-11.734276125948586,6.000000000000009,-1.0417507750091537,1.18252471608729,-5.694788765375297,-2.937960644143893,-2.0325303745845402,173
-70.94969728571219,19.235555448962906,53.262132668572825,52.96748405777566,50.35548805292513,17.822863511566837,-25.99522033831447,-51.53527534583005,-11.786927521461168,6.000000000000009,-0.9740431517098096,1.131605138719451,-5.677971803962771,-3.023135662664822,-1.9292810962811546,174
-67.9192719559211,16.20672768086103,50.783455429734,52.998700373168845,44.066104146060226,15.888699254114792,-20.41347894645655,-52.086942432813125,-12.251384209788856,6.000000000000009,-0.917268861324619,1.1047919371001795,-5.6699372104781,-3.0278732866075444,-1.838967770619901,175
-62.90632076287935,13.505001760305138,46.70548198771298,53.06595070206513,36.17137267977417,14.177758535271346,-13.210221965434092,-52.69944671651493,-11.851471510671454,6.000000000000009,-0.9033440114741805,1.1290989149930664,-5.7100832435706925,-2.994416292061047,-1.8878882918262017,176
-53.54721582897133,11.475464390146966,39.83945377703777,53.1354462892766,26.355175494636626,12.847066048065347,-4.144253298057102,-53.396402659588276,-10.692190969801354,6.000000000000009,-0.9143142548424823,1.1565270507404948,-5.717758339574124,-3.0046129549611704,-1.9698210760708879,177
-43.66032497337318,9.049575771261123,30.17795800637052,53.15460314070358,15.313406242814787,12.869558531364529,3.9249227753993154,-54.24732928184929,-8.84497888516114,6.000000000000009,-0.9317750399759989,1.1553485599002218,-5.7658922962783,-3.0219762110994366,-2.052393250646025,178
-27.5414012911403,7.04032137976481,14.298446396409872,53.16060363327899,4.00163244681045,12.388979661163912,14.49822794936901,-55.19874193763957,-7.707787065075173,6.000000000000009,-0.9732704136570077,1.1354095145346352,-5.8546681689111955,-2.9995137630197495,-2.082122833782274,179
-3.907233296880797,6.907048265565435,-6.887481090272506,53.14468013771403,-5.655508770389785,13.406766711480074,21.258026628415298,-56.13107897810668,-7.596507503387041,6.000000000000009,-1.0059047470482008,1.1046622031888649,-5.922765438715056,-2.991393585398777,-2.078717059661113,180
21.036386950359127,7.150967683791898,-31.627503082014183,53.13249023697705,-15.122828575961876,14.1147128053944,29.362232886228053,-57.0471972323725,-8.387065230187897,6.000000000000009,-0.9800324701766806,1.0956257448684883,-6.03915341523204,-3.0380173790302996,-2.044343427705114,181
35.83213776239355,9.224327049015729,-44.10915092653303,53.10040655972616,-23.19591912445521,15.248218196451662,36.017015912622405,-57.988292890977306,-8.570368518121066,6.000000000000009,-0.9429595754115393,1.105201594806613,-6.198676160427867,-3.0448335464850325,-2.0412305523535514,182
48.763735553879506,11.065851581177927,-56.88277622767877,53.068611882517246,-29.716430678919945,16.702370484337703,41.14921656965774,-59.00181229076202,-8.592903612288357,6.000000000000009,-0.9038863511558995,1.1247326087873406,-6.328457231748566,-3.0726846049532703,-2.062905086395936,183
58.02698779989431,13.18514250469947,-65.96655729933957,53.168408505713195,-34.68064339246895,18.351473168541435,44.74537363102425,-60.132421831251456,-9.12113962221328,6.000000000000009,-0.8873184152126874,1.1411196655836124,-6.390383835721121,-3.0788435364215303,-2.030602532690254,184
61.25253826568518,15.861804884076026,-66.91808874853645,53.36993461970806,-38.43898828967252,20.050228392173956,47.16689653841415,-61.40747283035375,-9.97615873967948,6.000000000000009,-0.8982154195693697,1.1531794428991144,-6.460849274426225,-3.0512537515331704,-1.9525605410777194,185
66.2022372231261,18.20191164756031,-71.70990355731828,53.707005437829004,-41.07171155079056,21.71892310830785,48.467751890681136,-62.88831236817414,-11.082825279599227,6.000000000000009,-0.9036545673827276,1.2083511383830283,-6.530749525521865,-3.0493577221802477,-1.8866019897276058,186
67.31607070150936,20.75367517543233,-70.65590316046737,54.216117683664734,-42.97200326814776,23.48511371650386,49.08278573567568,-64.41878304498425,-11.814294311916907,5.954313094683807,-0.9303037643705394,1.2577837598181374,-6.534747332711482,-3.012471248635909,-1.8371605351563693,187
70.54656206677681,22.930644011968987,-73.73619034272461,54.86823510467553,-44.41204327304467,25.287794343987557,49.236626266202336,-65.94339443899446,-12.988887639679323,6.000000000000009,-1.0139953418905536,1.2928892495714541,-6.531996171738076,-2.9531471341827378,-1.7762850010242237,188
70.71721289062482,25.2685472702208,-71.69947268147385,55.708748544703965,-47.615878066533156,26.310131858145002,53.015868039423005,-67.48366618037704,-13.700321530496659,5.931787948353221,-1.1405234397807025,1.332338920999582,-6.587239612683501,-2.922344353519317,-1.7535709565814503,189
72.82041585143773,27.186609194776548,-73.5706731465888,56.7546451910172,-48.23695852644407,28.09746741097534,52.33130053702551,-69.01148106639523,-14.27126991065589,5.974381786382201,-1.2930157736695032,1.3321169169738267,-6.635066077017336,-2.92683109445569,-1.6757270167387472,190
74.667971792036,29.03410538173241,-75.12997494680228,57.933488907210894,-48.5293175492304,29.873242154064155,51.34420551346842,-70.6164903635278,-14.810692877142666,6.000000000000009,-1.4696342671364042,1.3857556481666873,-6.6756585256627385,-2.969328919668488,-1.6513292335349878,191
74.09838594716905,31.001480617866516,-72.34907943196805,59.240438524282204,-50.785254430202194,30.853830824763318,54.093762113293145,-72.22349852518003,-15.493935026734588,6.000000000000009,-1.6630823794316973,1.4792277466273303,-6.768009586188417,-3.0427957374510903,-1.7229423838465643,192
75.37411203309611,32.54243015275334,-73.36425133049134,60.74913857079348,-50.619400150938716,32.465557785049754,52.628667843441455,-73.92878960753431,-16.561845754371216,6.000000000000009,-1.8986529885803083,1.568930141735208,-6.825903806362355,-3.0856019354975626,-1.7290324448554137,193
76.58004264038269,33.91594727224338,-74.28947637530624,62.437518014693744,-52.019415371169075,33.27691385730859,54.47325338926741,-75.78932892096198,-16.58739720529671,6.000000000000009,-2.171730392267135,1.6277400828961914,-6.8180062252911675,-3.161803222834609,-1.712971989193637,194
75.768418651479,35.42703646955258,-71.38991930780695,64.18691390792202,-52.110757656349726,34.50648545836862,54.17267570137908,-77.73199258731154,-15.90526803804248,6.000000000000009,-2.4229609835410675,1.6551806842669494,-6.7808935898394935,-3.331171535063921,-1.7468259595604556,195
76.70272039051663,36.39330495334998,-72.08228300087242,66.09029569326589,-52.41144938329628,35.547879207735726,54.45398613127468,-79.6865416592231,-15.337583272020982,6.000000000000009,-2.5979856732261144,1.7069106413185893,-6.7323400952094,-3.5595266244511916,-1.837573421014205,196
77.41146899211884,37.20749040732323,-72.7071050773782,68.15038477793424,-52.40533445572257,36.45589226288334,54.55280311277283,-81.623488360783,-15.694864882404936,6.000000000000009,-2.647531794995211,1.7951852356254232,-6.64743674097602,-3.8163509828615076,-1.8695630956258578,197
77.72595485020143,38.006209930416894,-73.21467550722038,70.06963050476139,-52.015357302116925,37.19204770495473,54.52471927547667,-83.41750995130238,-16.74656557271465,6.000000000000009,-2.568173923874364,1.9096275782168863,-6.562626059047507,-4.0328820021276135,-1.841718083050376,198
75.8632015840543,39.156719065899395,-70.10186458820463,71.78555464325018,-51.33882211667479,37.74146093380181,54.411413473107444,-85.09577181303091,-17.60336697437341,6.000000000000009,-2.432527569828323,2.0251013522001156,-6.480386668957546,-4.171175699569806,-1.8114618253307755,199
75.58974776167625,39.70692410961674,-70.34956663253203,73.3849327434468,-50.645723806576726,38.22273907843879,54.39250751237854,-86.54967913373214,-18.67719254284318,6.000000000000009,-2.2527422252540985,2.12449429895586,-6.443564087894479,-4.268706162006323,-1.8164943945648746,200
75.02563004201603,40.09408888714838,-70.38621005733944,74.87787672983157,-49.948730683681156,38.65345653270817,54.48619409057231,-87.61637541717019,-20.73717010633148,6.000000000000009,-2.0598422334641997,2.1728379308118857,-6.48023317491469,-4.290366151090403,-1.7584883080889262,201
74.27405121060043,40.517528992865174,-70.27587557272824,76.03348912065603,-51.02196990560336,38.01009352038143,58.012807573312166,-88.4758889319064,-23.296299022453415,6.000000000000009,-1.8525608090775987,2.192141600469853,-6.608776109842966,-4.265707927111473,-1.6247222771479073,202
73.29217466755748,40.676754452833336,-69.9546196432571,77.01770366706826,-50.13102798852281,38.31442366077659,58.27100888835488,-88.86020274478305,-24.394106532012817,5.749739354612366,-1.6407026209702258,2.101576325586609,-6.780652919308765,-4.192355204688762,-1.4741950797130792,203
72.10333542865065,40.72142541212732,-69.34338371037371,77.79334674868288,-49.37217243260945,38.50336394448313,58.661297030166445,-88.83912975965124,-25.103524842085037,5.540196147473362,-1.4528429964738907,1.9355463962532755,-7.094538286939691,-4.07078564795517,-1.1888070505241977,204
70.79973320348137,40.98211321968171,-68.60686939735335,77.93791967342085,-50.57464143098191,37.487188096454226,62.462578212654584,-88.87043164888192,-27.83804399579047,5.374054993595025,-1.2321201282252434,1.874176397374262,-7.516003171731391,-3.9746966135445203,-0.9220708180075563,205
69.48315592438321,41.06064255416571,-67.90713678219771,77.58555421821158,-49.47317428849627,37.086697889828336,62.56289234703201,-88.94109798828956,-30.329121118062755,5.098873002620075,-0.9968003931721365,1.85724514107229,-7.815218310254427,-3.856227344830274,-0.8707017608430496,206
68.13335240888621,40.73916078042975,-67.18506553086179,77.10858086961792,-50.65430013881708,36.18270936717492,66.35066630883622,-88.73145929848563,-30.553979421893267,4.786888177192383,-0.7086621296619104,1.7865817665657457,-7.949392396281086,-3.7977604105418665,-0.9375808426422555,207
66.6559768643974,40.37901899960243,-66.38119767068287,76.40080292201354,-49.498323134917285,35.80251617534529,66.35322463734175,-88.22484445355403,-31.440838432669512,4.5046793305475195,-0.40205504198602815,1.6970393520469647,-8.0673363238035,-3.7241261924894102,-0.9563146306644491,208
67.0486541102467,39.33286770355636,-68.91165451800062,75.53239588797841,-48.35899546728064,35.197895735652494,66.3023342353945,-87.59455477434848,-33.526652027638555,4.208483868676147,-0.16441552357827285,1.622018105335509,-8.203652105932457,-3.564898891586458,-0.9742360073242294,209
65.43131950327255,38.518220734441606,-67.73255715914307,74.6573067408144,-49.75507002244327,33.880182285444846,70.15779984890688,-86.7891367960911,-35.4464360534589,3.81973347825991,0.04226852715379276,1.535135997246718,-8.339563328145859,-3.433696680026177,-0.9976912251891934,210
63.73455485540616,37.5347545828927,-66.41271452720333,73.75196857590628,-48.58698055621281,32.92602121817919,69.98233264990822,-85.99295554626065,-37.04706983543826,3.6822411354053792,0.2639834091910391,1.4603577663553606,-8.429445839330294,-3.3656011840337428,-1.0289815170854744,211
64.08149471861879,35.816173357515126,-68.72716423674495,72.86223718469198,-47.19981336584375,31.862294784950404,69.58736698791165,-85.18255235633532,-40.789823671143445,3.5662934685869536,0.4783759254666389,1.393503326848225,-8.417548816134387,-3.2867285342380113,-1.0513646239716088,212
62.23914987429862,34.54988826543487,-67.19606860279472,71.88249520302307,-45.78122581610859,30.589316914671674,69.1277352330276,-84.28374967936813,-46.27313828647817,3.4760362578934063,0.7101462134466163,1.3131116200929565,-8.446967574412934,-3.21016978295965,-1.0057159046904502,213
62.270838253341715,32.64688718201789,-69.32234097906914,70.93079063500103,-44.12067177742266,29.1978088142922,68.48061017446771,-83.31408758434588,-51.075524412088534,3.3859749365680414,0.9456806427218938,1.2009603790674697,-8.410124732016763,-3.1039819225162484,-0.9208874154381389,214
60.14812117201493,31.09883076341544,-67.57385284686588,69.89892424035726,-42.13438978364308,27.65603043686039,67.55813920876832,-82.41864011352725,-55.686145792353265,3.339855071007316,1.1331312437849055,1.1177434532718022,-8.284914445391173,-2.9586639427810875,-0.8694992099199681,215
60.2825118880418,28.973648212701733,-69.75524997735631,68.85662265528069,-39.91746169362989,26.0350670010868,66.45140200594533,-81.48662359085981,-59.978019970226185,3.305663790262955,1.2861865994872859,1.049220405981272,-8.129894364449065,-2.8233930264927323,-0.8293643388593271,216
57.869363225514064,27.181434769509618,-67.55530133768187,67.80329946747416,-37.55603512155258,24.40387463215327,65.31352256957041,-80.38264957655568,-63.93858100244577,3.2591181916228975,1.464237731094076,0.9859604783168191,-8.003425934624177,-2.7270707936350824,-0.810376208682896,217
57.64341732523154,24.942415465812573,-69.40746946733091,66.70240671306959,-31.67889770512506,23.289875759686545,59.041614828195335,-79.23236323986906,-68.32991710992957,3.2991009015115855,1.62907286018653,0.9352244826589569,-7.897363458858163,-2.599326412448273,-0.7373053359968854,218
54.799280649187445,23.16010868418836,-66.76744757304138,65.42378034543306,-28.2699926483439,21.538999333512297,57.01283802221726,-78.05380398730442,-71.44820648679053,3.3796724018817033,1.7471842948454626,0.9180220008645352,-7.726786639394303,-2.460679595643454,-0.6738578056729659,219
54.464091094943875,20.817445861137728,-68.49189586894693,64.10710836241763,-24.671610041263396,19.913692372875865,54.834519935141174,-76.80671048220344,-72.77415619656453,3.3749244682572885,1.787418042507767,0.8959804815404087,-7.4859379547320675,-2.312969503398214,-0.6924004832322899,220
50.8150017676717,18.887853474990987,-64.86402388478176,62.86220948506585,-17.74545283421135,19.16007164980791,47.53702743841595,-75.44575145428806,-73.52810203395003,3.406523641879377,1.8156788132687716,0.8614940989771585,-7.263342721311523,-2.2645797722847574,-0.7024919019519859,221
50.10064570122068,16.533181892576003,-66.09320755299586,61.65271480473639,-12.649873598662586,17.64978907167637,43.72411026549458,-74.07174893284969,-73.89011648430778,3.516238947631911,1.81658052836428,0.8627885362287498,-7.081082512572285,-2.2010497625546925,-0.6896174027404539,222
45.43786916706138,14.739066410504545,-61.36431875818772,60.368275801775276,-3.5565610303228454,17.265889234193146,33.96670467471676,-72.67996254263308,-73.26325175915574,3.587736173268996,1.8250346354414377,0.9083120556119341,-6.928180540755419,-2.1510557147816685,-0.7007783010497849,223
43.31336354143922,12.473364426461883,-61.21236175754315,59.03929552563875,3.307688582390086,16.144736119408876,28.26265356306828,-71.21900922612507,-71.70569785604047,3.5970275574292603,1.809822059415889,0.9425908586392125,-6.837188769893827,-2.0834399517334155,-0.7726157004052253,224
35.987901952265396,10.897161453484916,-53.76712210038373,57.63563571450224,12.54790512685222,16.4908386647173,18.037313258179346,-69.72737514498166,-69.78095139391985,3.6928505048144804,1.7407775696478136,1.0047800833582,-6.732965483692759,-2.0185615108257946,-0.8441638211061911,225
30.87432173932729,8.77587698457634,-50.62328539034479,56.29223158170172,19.994626728102833,16.146742957011938,11.503441276985287,-68.0838433246439,-67.98891405376382,3.7673829747639553,1.6689766637331325,1.0569040838158166,-6.588064169869839,-2.001206222700467,-0.9541981951757568,226
16.86837861791864,7.565303797895336,-36.47512025014224,54.98396100226934,28.007154567367934,17.182324973683894,2.255788208586754,-66.45455003551044,-65.28602873688956,3.78612696492685,1.597334779755976,1.1074782339898044,-6.503093225527529,-1.9819510182734148,-1.0877129707549253,227
0.24916874759276447,6.918284496134532,-19.726338553258117,53.65466807623694,35.31183982669996,17.39711717331696,-4.272628212616059,-64.78846934310161,-61.713296166511945,3.912129945990707,1.5519324610830896,1.21397699844985,-6.378088908681426,-1.9908222691832398,-1.2377725906237562,228
-16.791947785570557,6.034617143171008,-4.816258913168513,52.27616921622103,42.11484382141979,17.908546536248853,-10.322980727125584,-63.04722032562753,-58.898888728854466,3.9922502891236897,1.5866651343152787,1.3916856455592814,-6.170131524649601,-2.0921438127812557,-1.5538756880261222,229
-42.67138350015033,6.743142051004361,21.202354156774067,51.33837992662152,46.70082283373757,18.529414034931285,-14.228441186324272,-61.34410694470441,-53.934665079237185,3.6571066245538013,1.3801321465150285,1.292118640295477,-5.749242211367022,-1.9313143669794592,-1.8030416971480494,230
-56.530427749727096,7.459291440863315,32.95060685821079,50.31549799567077,53.89056008729695,19.447073766423237,-20.977557654885853,-59.73918982171368,-52.91505385116429,3.869780827348004,1.2132070448323966,1.3847603357371212,-5.964107627292267,-1.931700298815083,-1.699960834696161,231
-66.99364308272794,9.426976503521322,43.633710286542424,49.499357862672284,58.805396496737266,20.518613567595306,-25.465117343455326,-58.134765948384825,-46.96065106481664,3.938878321726643,0.9877642907433355,1.480161597314795,-5.800484119147599,-1.9303242208856202,-1.9948221838475986,232
-77.97680228288161,11.25075495930607,52.57288872285042,48.89142533222005,62.544312056734,21.648866776095186,-28.887399598901656,-56.54416539118965,-39.18281903699579,4.087273285055336,0.7532653788094705,1.4782119150444972,-5.596130144714015,-1.9793651637318885,-2.270491855793623,233
-81.39805186497823,13.695475382441455,56.18739703718183,48.289281118222085,66.2829710119703,23.027474063031296,-32.358706073580805,-55.01750101028027,-34.41816216793146,4.375934994567297,0.5368172156767983,1.5132120234315138,-5.536396829512589,-2.038438219216914,-2.435119604428605,234
-85.5029036484823,15.859011998066597,59.10344271457304,47.60603989640985,69.37918056371919,24.51335249715591,-35.26909447825499,-53.540737155535986,-29.89753496544953,4.756031525090611,0.3282417954600552,1.5298886776762533,-5.4669434594323345,-2.142442859312118,-2.564879032440638,235
-87.28429186148057,18.340174604441547,60.83638871492727,47.09059023624487,72.10730771622484,26.12050937883847,-37.87328507973482,-52.136848539546364,-26.387148583905013,5.254120649854301,0.13411326188193198,1.535801792159374,-5.454481807379634,-2.277544995081792,-2.6408844253823167,236
-88.43865600876768,20.963631377873867,61.90003417957147,46.85480565911856,74.65442586942702,27.830040349348465,-40.307446149381406,-50.87847288731232,-23.51049303758561,5.750737720350967,-0.10222355390299197,1.55317357789547,-5.52517099603156,-2.3397902420334593,-2.7171846334789573,237
-89.39947338142291,23.6058305249602,62.433786768952416,46.7105637541939,77.03360512616719,29.59973132497551,-42.64295578974941,-49.71916041900418,-20.94230880467391,6.000000000000009,-0.3474140436249533,1.5940966973811066,-5.643421699610859,-2.4051727016863365,-2.8272855545051083,238
-89.70293228363421,26.304526266344737,62.76312472187396,46.5061129916337,79.00370454171157,31.443952703148536,-44.57486717451811,-48.65059194569717,-18.939447741989635,6.000000000000009,-0.5334519053047129,1.6083062995417856,-5.736945268172672,-2.51066125401705,-2.891298785817448,239
-91.48105321879822,28.539100899898035,62.035624939439934,46.237092737355624,80.915779472003,33.41801997118473,-46.4417775273582,-47.772953585568516,-17.700965079229746,6.000000000000009,-0.7368253586165426,1.5935134043084478,-5.8545373793959445,-2.550490846763396,-2.88105804600429,240
-91.47952791041709,31.15747112133363,61.926993320451786,46.00813868050719,83.79832329656422,34.8541390301013,-46.89495928765942,-46.8948656493389,-16.814095836920632,6.000000000000009,-0.902557918167033,1.6038345080248055,-6.0310764152682435,-2.631282312656535,-2.894447360582181,241
-91.56389786617854,33.82618019481614,61.82512839371129,45.86298344758588,84.91244897894936,36.91222154875023,-48.263970149380064,-45.835862797001326,-15.648753569742707,6.000000000000009,-0.9803164184053451,1.622835486439824,-6.163384860718751,-2.7447455495629205,-2.9382869946227155,242
-91.62989183645293,36.49501941707119,61.619015178192264,45.59032146969341,85.84107898564672,39.03691437058421,-49.627325867459014,-44.96214013057593,-14.131168141245862,6.000000000000009,-1.0795557274117407,1.6282268185103108,-6.250442206960052,-2.760409762736879,-2.9978820591057627,243
-91.6365205454338,39.08027850333478,61.38200198802358,45.24573454444909,87.78631637571081,40.7719660482756,-49.46034556573014,-44.33275919935476,-13.406247861644704,6.000000000000009,-1.2387646937907764,1.6404798479354055,-6.316255801508013,-2.7517620068199005,-3.0251444215422185,244
-92.82297286846331,41.29990543581253,59.82065970247494,45.075360620990445,88.17075023913779,42.92739659023493,-50.25297841049111,-43.3582691845552,-13.003484713614734,6.000000000000009,-1.3373371942912793,1.662720541203455,-6.314401803216502,-2.8455675662162156,-3.06352188275643,245
-92.82636450114899,43.962517354857226,59.53158350395027,44.74774383609691,88.3503383391157,44.95002219399665,-50.755187140419,-42.39460726616299,-12.09221788132763,6.000000000000009,-1.4163152895393245,1.6366992142553443,-6.298622787913632,-2.889663973609862,-3.1342424846981256,246
-92.67454734767954,46.46638261094255,59.09268775781738,44.12629823577846,88.65745567769754,47.15215550426477,-51.33756512942723,-41.8467270664882,-11.463989420431439,6.000000000000009,-1.4955821314035427,1.564721865022144,-6.32416054778767,-2.935543104766586,-3.1198260395647095,247
-92.56795339082456,48.92261833508831,58.704492385904146,43.52180251815433,89.81244063877003,49.017633552724355,-50.15605592700613,-41.45923273320203,-10.975790070518977,6.000000000000009,-1.5954246450596175,1.4957403251852626,-6.336571608940822,-2.9759147425689045,-3.0353092509522934,248
-92.49971785882245,51.406812401417476,58.32168644003446,43.005066962632995,90.20264705651367,51.38371335738754,-50.69694808458206,-41.131555132047374,-10.728664436993155,6.000000000000009,-1.675515495166079,1.4459957643806225,-6.352586001448026,-3.023411357236764,-2.9650731706666837,249
-93.41389794502628,53.47175716272836,56.29548035312808,42.47250337160436,90.42864923967628,53.73353230543155,-50.95270317846577,-40.8326610077034,-10.788645430446604,6.000000000000009,-1.7392098960876141,1.3922831953508739,-6.255167514783351,-3.0398968836394213,-2.892367248585329,250
-93.47186719698652,55.97100525162539,55.99853292625882,42.07048810477261,90.58903213743605,56.10286082644503,-51.133541110348155,-40.403078914572205,-10.805729936076908,6.000000000000009,-1.8012220053293246,1.3413732267935756,-6.164447261516122,-3.0574883925887435,-2.794112720050944,251
-93.51817565948664,58.57424770848738,55.71934138970442,41.63652756352634,91.47544825269316,57.93692446787517,-49.35800800159851,-40.12316795789201,-10.390104554163685,6.000000000000009,-1.8603527845377836,1.2969153545290621,-6.042450067308195,-3.0990903936008936,-2.8230273739929137,252
-93.51357120680453,61.108588278586495,55.37785400349253,41.10362340500521,91.75199357483449,60.25745490589477,-49.496317000157596,-39.96608542552483,-9.95787834734578,6.000000000000009,-1.9067387993688951,1.2657583263186434,-5.9386528872776605,-3.1259506385284372,-2.879177085373672,253
-93.51211655624108,63.648640941696165,55.05337146189431,40.6890447599985,91.91597927592485,62.572290495294524,-49.48890307627129,-39.77271968000784,-9.786861706069738,6.000000000000009,-2.0062454981624827,1.2223220389382041,-5.798452081384167,-3.0959213066478504,-2.870383327638467,254
-94.0451273495087,65.78164192632605,52.677471446048905,40.27409906173412,92.01567384710236,64.91038599320393,-49.464198672510435,-39.764546039891414,-9.401159511599246,6.000000000000009,-2.1469295959336994,1.1221015772517378,-5.666695198451665,-3.1310638574602536,-2.8043773740609734,255
-93.8088016245443,68.27631935471958,52.272603481223314,39.757145912978736,92.75496005673031,66.80610685428496,-47.376735369136675,-39.884487413406276,-8.918928782683812,6.000000000000009,-2.292927472695417,1.0249913248001294,-5.544176342428527,-3.1983285095928564,-2.7268711067844538,256
-93.51585134918994,70.60549842279566,51.9225569640385,38.9565603701255,92.88122245541871,69.21423889556215,-47.19793586147964,-40.10108565849875,-8.681391726714404,6.000000000000009,-2.515477649288661,0.930514610241643,-5.343348888483223,-3.163301009536963,-2.629184336125364,257
-92.99652789467952,72.83154189782134,51.462485825564606,38.11108660549043,93.34069655810511,70.99009566279508,-44.86509323628989,-40.01900059984177,-8.742975364864021,6.000000000000009,-2.8043017179143326,0.8648509316711191,-5.216935095292343,-3.140786093649765,-2.530414215993635,258
-92.36340351729018,75.09623047319373,51.00455442138678,37.34807038149798,93.01938093128678,73.12129552605595,-44.59441328486978,-39.73735022115173,-8.736124806632846,6.000000000000009,-3.156206818770133,0.8068798748191227,-5.113934668868254,-3.1711763180757218,-2.464984054839238,259
-91.50740962725455,77.21062093366092,50.50579894754402,36.28012189212872,92.7301154534694,75.26058625640215,-44.401694985034446,-39.59944462578988,-8.5491724845651,6.000000000000009,-3.5485083366978816,0.7274944865161622,-5.061017561982275,-3.26403954201147,-2.396182061564873,260
-90.45763897024577,79.10414193351197,50.065565141563674,34.78957693490222,92.36351441135457,77.43750049932821,-44.119283227221594,-39.52886441092853,-8.45689693761645,6.000000000000009,-3.982092982792958,0.6104961082805741,-4.96309455028282,-3.3695551481303805,-2.2381753408693053,261
-89.38787745060158,80.95757219998205,49.730022058211325,33.27362631317085,92.30475069837058,78.92858836742677,-41.52535269619274,-39.14851072700271,-8.357080360262035,6.000000000000009,-4.3685748312694335,0.5074623222142178,-4.821568064553782,-3.569119868238233,-2.069185099641926,262
-88.33450466142126,82.77682646063857,49.41532483202803,31.64704555222715,91.69903308247474,80.71686413963377,-41.12541403507311,-38.27896627792714,-8.503948415213035,6.000000000000009,-4.616539612469972,0.4104377039740475,-4.697951022011196,-3.8354411803267934,-1.9308914833339779,263
-87.16959770919226,84.22021905662906,49.13549596880807,29.244626832947638,91.13366924013667,82.38503129775181,-40.702760073193964,-37.535686010426794,-8.132678298432115,6.000000000000009,-4.813841742092823,0.29057299462382785,-4.576193962496359,-4.012737494593059,-1.7908607477368097,264
-86.90922096088256,85.61098594044755,46.63647294146683,28.29882286208972,90.60892646613496,83.91366358368606,-40.3122035135665,-36.48937122358857,-7.716930877672234,6.000000000000009,-5.030707294841555,0.1530823894829802,-4.461974748839383,-4.114557214953287,-1.601590659044343,265
-86.53641436151511,87.464106627198,46.540678672119306,28.29882286208972,90.13253868298575,85.41009357662502,-39.90980814472133,-35.652063939150736,-7.814880412498432,6.000000000000009,-5.140011572890088,0.04125870605635627,-4.318602791535132,-4.31711350706621,-1.3761796774885495,266
-86.54575019635796,88.78352369885019,44.0646769838322,28.29882286208985,89.73080908082515,86.80356545890042,-39.554228217545926,-35.04611180971914,-8.092332126723187,6.000000000000009,-5.157479744633259,-0.036273992988044595,-4.212540946463239,-4.504154876277534,-1.1950970700333499,267
-86.18565298973274,90.3507267787753,43.94512856276797,28.29882286208962,89.24303728056351,87.8909372661509,-39.22068830684913,-34.38107576578154,-7.968698072437011,6.000000000000009,-5.157808102953531,-0.07825590444221395,-4.110165480603863,-4.633007754006388,-1.126786746653806,268
-85.90595657400796,91.76012818032503,43.90191122812894,28.29882286208962,88.37336366317648,89.01180982280809,-41.24900907295249,-33.56056847845767,-7.568426183934197,6.000000000000009,-5.083211942012197,-0.14287771125934537,-3.9804123412698607,-4.791916246417724,-1.1232008750922817,269
-86.13934269898363,92.52181717339954,41.50533368520339,28.298822862089697,87.99694900948171,89.55861956634487,-40.98153493599954,-33.3168337182046,-7.288509656742901,6.000000000000009,-4.938961866424886,-0.19690663236774686,-3.871036036061804,-4.885112408774365,-1.1545711884881056,270
-86.00460581335302,93.3826123114801,41.45044158017282,28.298822862089697,87.67766814129095,89.9294339080148,-40.79007666600365,-33.01625122820904,-7.124621827032451,6.000000000000009,-4.690697194223392,-0.21160906154112558,-3.8077026948956676,-4.970634001673694,-1.1783613643947357,271
-85.55880995058516,94.41673523667491,43.805766091441406,28.29882286208972,87.57469541189543,90.10518746627376,-40.63667535398617,-32.794924047160855,-7.050245086816671,6.000000000000009,-4.357026740329779,-0.17930311502893925,-3.7366805530508764,-5.002648072127685,-1.2436054279725417,272
-85.54930124727818,94.74121360935875,43.84063748319724,28.298822862089697,87.58842511367318,90.0604422398009,-40.47679833443938,-32.72867683077221,-6.906249543709899,6.000000000000009,-4.026403059117152,-0.1161871336477773,-3.6293411679131533,-4.901002795211791,-1.2879378875398717,273
-85.18400336589337,95.19825910033235,46.35367251591961,28.298822862089875,87.27105495207341,90.28340819488345,-42.61478768822467,-32.91526686398183,-7.325772799017906,6.000000000000009,-3.7423338403002924,-0.04327818685164105,-3.4596581462365457,-4.744314590414986,-1.357886996386669,274
-85.2624713683758,95.04748627417722,46.46408247043691,28.298822862089697,87.3552187077073,89.85529480423682,-42.45899441065821,-33.14002820380545,-7.602594563918312,6.000000000000009,-3.4077090159678005,0.04121174502374117,-3.325036732878612,-4.639902490504009,-1.4399453951951893,275
-85.43287858806183,94.60654589942878,46.53027988365757,28.298822862089747,87.52191322100872,89.16277046365903,-42.36830869170102,-33.36097916255152,-7.66892072808839,6.000000000000009,-2.9659639704950007,0.16536222730596983,-3.246795710834201,-4.523867335337709,-1.5791616524698207,276
-85.23842750330755,94.27698400953324,49.01102936687307,28.298822862089647,87.7561466919567,88.27870494177341,-42.24240470653171,-33.73400197861869,-7.698734111328636,6.000000000000009,-2.4987758744956348,0.3059514122492753,-3.139761108019555,-4.3434373749172845,-1.7351908447554834,277
-85.403431869843,93.35923249516891,49.07983028978134,28.298822862089594,87.67154650060561,87.872474676325,-44.436953518264204,-34.58082844088002,-8.043380440896367,6.000000000000009,-2.0107895259472266,0.41510759472437847,-3.0495955182341503,-4.188992431005441,-1.8233103143427665,278
-85.58437662490958,92.14639141033167,49.126580337326075,28.298822862089672,88.04656685197139,86.94160341919175,-44.304686561592774,-35.38415459941993,-9.226665370795889,6.000000000000009,-1.6195865539490337,0.523870925571567,-2.958176276291053,-3.889156465097634,-1.7896167568296768,279
-85.27740321779417,91.03742827050256,51.53873668712143,28.298822862089697,88.30937315644114,85.8048074887757,-44.14718729483363,-36.133200880863626,-10.666696738933702,6.000000000000009,-1.325054140359434,0.5960536910853018,-2.8524542970918314,-3.584637550706245,-1.7172455617911357,280
-85.24423501908345,89.45952120778782,51.51395030521824,28.29882286208972,87.99102432744711,84.9997369354467,-46.29911346097509,-37.023249314957795,-11.719256481009985,6.000000000000009,-0.961236895927795,0.6594461330619985,-2.7997382024987525,-3.493132804195215,-1.709573857406564,281
-84.84670231484168,88.03205142836119,53.80903704247012,28.29882286208972,88.15933962559706,83.62150792167962,-46.128027910765155,-37.88657628026298,-12.538838763302254,6.000000000000009,-0.5395648637798984,0.7743764574921339,-2.743738053126387,-3.4021238722848968,-1.7492568500861647,282
-84.92547279104517,86.05764863534598,53.692389025636416,28.298822862089697,88.42758399885531,82.1568651767496,-45.9673774140127,-38.70689688952316,-13.687588466790055,6.000000000000009,-0.18827863686576948,0.8810114393371414,-2.702876198585853,-3.1700267202550876,-1.7045718917750705,283
-84.52349522615576,84.28337587674731,55.86916972511627,28.298822862089825,88.64314905974506,80.51806007931758,-45.790180971836044,-39.556490144150544,-14.529973028818707,6.000000000000009,0.15695119624054957,0.9384814002479132,-2.662477146844541,-3.0103648103547545,-1.6520527311576614,284
-84.57210409524302,82.1886426721625,55.66707935056147,28.29882286208972,88.29886139409464,79.25837548855571,-47.82394243031769,-40.45741704162462,-15.434537093253871,6.000000000000009,0.5415306907262365,0.9882956868970062,-2.6638325720080522,-2.918316756513179,-1.649617057757536,285
-84.64009177611028,79.97216856685178,55.40121564254228,28.298822862089697,88.64682350658171,77.46757820936706,-47.66905378440899,-41.56601710303469,-16.204625714151216,6.000000000000009,0.8461256966689202,1.022050252367983,-2.686733492614633,-2.69628167604009,-1.6434416940234355,286
-84.12571884571871,77.90501648197181,57.36717446232361,28.298822862089697,88.98415132638681,75.66002336871436,-47.48399134452298,-42.861874140159344,-16.98249108713668,6.000000000000009,1.1224734365738147,1.0473087387501865,-2.6790685687431908,-2.522014312999348,-1.5968933564954553,287
-84.13891413141965,75.70450304489609,57.036423846630676,28.970900042497426,89.2572621470915,73.76598658151826,-47.29759524740343,-44.09009761042977,-17.719671514208432,6.000000000000009,1.4489299438563954,1.0558856230323923,-2.682311827313736,-2.4651471763494883,-1.5073372980179605,288
-84.59902277159766,73.96561689815836,56.79898663678597,31.01989743076586,88.90239382247046,72.23346340159421,-49.171419289667675,-45.25488042271047,-17.6665300043718,6.000000000000009,1.7788587741959692,1.0563733537912336,-2.70081843585539,-2.3788565543910214,-1.457755661650245,289
-84.55152909763797,72.4038352212264,58.72065234627024,32.960956213358145,89.07860066754135,70.02524600791999,-48.888115945827465,-46.298707955604264,-18.11885107602437,6.000000000000009,2.0361089439444124,1.0685892207571892,-2.7496442364282103,-2.2030933557819425,-1.4103179057812065,290
-84.84401697053796,70.42601944282873,58.31447385923101,34.93398608281645,89.09853350527048,67.63857668431277,-48.584979728747214,-47.083218141100446,-19.191435258795654,6.000000000000009,2.2928545588567872,1.097676608723922,-2.865859438239482,-2.0849176065714965,-1.3695962613258192,291
-85.14462977915699,68.40375107467618,57.95303502536976,36.8887599069542,88.52146213796948,65.73361507122686,-50.26064021528176,-48.00848354057796,-19.51310797806296,6.000000000000009,2.552343825015169,1.0874913520476195,-2.9586160964070065,-1.9932102309136122,-1.3544527364435064,292
-84.7963757553323,66.58538419115195,59.72661398986268,38.54589326280541,88.8060813494982,63.1768852379455,-49.92414440438643,-49.11628540411521,-19.449837422331356,6.000000000000009,2.781629816500073,1.056114024699667,-2.963652604864436,-1.851443480807421,-1.3610302226950277,293
-85.04745960495458,64.22785553669353,59.47358868643429,40.104668795808124,88.91039628270897,60.48002637089405,-49.40084490370849,-49.98566978972045,-19.87292355246257,5.958654821836202,2.9845915891340455,1.046071629755854,-2.8766530045304797,-1.6999808587969567,-1.3486157031917727,294
-85.22581304008447,61.745455149712726,59.21866518157341,41.50626255749853,87.95215827161637,58.2564019609373,-50.50777770991825,-50.833297798650996,-20.026352744391424,5.845215784693987,3.2111532854188636,1.0030078264532116,-2.786555829038036,-1.6313675825679126,-1.3206843858750479,295
-84.49021890355931,59.53346059192306,60.64963887106455,42.783574904940906,87.01030823300405,56.02959006354894,-51.646246986746995,-51.743234380674714,-20.73003052963884,5.769811104263405,3.382792331558872,0.9281547565579279,-2.844880175482789,-1.5161637877103455,-1.202499455412872,296
-84.44681510479197,56.85809772343076,60.133200000854174,43.971488321978946,86.87396977684975,53.11970269764189,-51.01176733744802,-52.44124949130389,-22.03358346359841,5.753541553178309,3.497049217810971,0.8369114039438263,-2.9241601613541524,-1.4034993898949446,-1.0463903442282894,297
-84.39996104150084,54.191064137603284,59.73026595165565,45.20456376038423,86.5431182651099,50.08898675246076,-50.229553360186515,-52.95818036156573,-22.486914603136814,5.733300317145494,3.5556987220323175,0.7423433251543209,-2.9418090610175147,-1.3185709012961344,-0.9407346117272205,298
-84.26613606939264,51.549491887645125,59.3258739548522,46.60743896337815,85.12447879961144,47.596548698401186,-50.97498010355459,-53.283550060203964,-22.777663792024935,5.689510096342079,3.563444810788386,0.6847920935504691,-2.9542048760392614,-1.2663023136708633,-0.9001381714785687,299
-84.00752702805097,48.866041237594615,58.9075642309766,47.72988450869655,84.58570161761772,44.303234415386555,-50.04015263101389,-53.536683179481265,-22.439502709094484,5.6841685691650135,3.5694226509937557,0.6246244463254584,-2.9293812154228016,-1.2579192976061946,-0.9358318749473074,300
-82.58447235017964,46.461859418595914,59.93280054804424,48.58815953518649,82.86738889384328,41.68392915899307,-50.43465216833563,-53.87105529012305,-22.17594995612856,5.776918428902352,3.543851998814593,0.5449576728554516,-2.9082979928378334,-1.2285159315555672,-0.8990578303841591,301
-81.99501576545605,43.5022816210246,59.25669885834601,49.43060170157356,81.41713501390622,38.82183081067938,-49.91905994957528,-54.135406373866054,-22.142470317075546,5.952656598221731,3.54373595745957,0.4711124468704938,-2.8782616987174254,-1.279471495725926,-0.8282987864353365,302
-81.34356956491204,40.54957665499903,58.5339909115759,50.15051879512651,79.69616810866403,35.89447477770784,-49.071032608276994,-54.290631720805195,-21.840059584498036,6.000000000000009,3.582336336310383,0.41760812696935257,-2.8088480932264117,-1.3503971030791664,-0.849033738730481,303
-79.5203589999632,38.12527961571094,59.13518209867426,50.87111069924582,77.74799048271328,33.03903051177597,-47.93272346441042,-54.447075802578986,-21.51773788486224,6.000000000000009,3.58262645013549,0.36068369113540394,-2.711209036063196,-1.3619973834395303,-0.8637009855262122,304
-78.51117393765696,35.340617233372726,58.52196608573947,51.68991847688725,75.54530166327191,30.18426612375923,-46.58703894737027,-54.500973782789515,-21.400863532798652,6.000000000000009,3.597589311074215,0.2873901134858475,-2.6732254744646804,-1.4202805870102975,-0.8353507327037293,305
-78.50025847550434,32.102781349884545,56.67837205336168,52.40722864130616,73.17821276578992,27.28426486949258,-45.03565696368043,-54.52172460458489,-21.178347215113085,6.000000000000009,3.6222815673139004,0.22588199747846924,-2.703487076131341,-1.447305158500135,-0.8785042401184279,306
-76.97980360388046,29.339796726154592,55.80417438246344,52.96566473499084,70.31176473074298,24.458095495543503,-42.919411241564056,-54.58474070705072,-21.191902941504026,6.000000000000009,3.645275091884719,0.17616946355854818,-2.6977238758487965,-1.4567161840744522,-0.9718240138422084,307
-75.13859023296335,26.47117152297057,54.607971870168065,53.28310328638862,66.52123792574692,21.745338333073498,-39.84634879178871,-54.579910164851526,-21.347848041249083,6.000000000000009,3.686704995258453,0.08979886406954422,-2.659763760102028,-1.4809487435451296,-0.997476943387335,308
-70.78447532921952,24.12253857367465,53.27647336086687,53.45600610217373,61.968771508968864,19.160208149465955,-36.02986895000676,-54.54412996718857,-21.16276742221999,6.000000000000009,3.7254440150043275,0.011119854305965904,-2.651167301264935,-1.5225063398159508,-0.9883691584509627,309
-69.8570108516324,20.696520074836457,50.606698084307325,53.73809941834487,56.49999415498397,16.749609578316576,-31.273738749378847,-54.58409599833189,-21.31153120152984,6.000000000000009,3.723593499443831,-0.033589838012971086,-2.6254004073337587,-1.5290085629956356,-1.0298203287389134,310
-63.94668372217441,18.605946286010223,47.67336717727477,53.999479880969474,49.547976439747266,14.538666778769759,-25.04370531031368,-54.732461338148674,-21.782134793677354,6.000000000000009,3.695255130015798,-0.07355635608473511,-2.570215371097124,-1.5436213027251928,-1.1045462788214113,311
-59.28586427274183,15.762054313710058,43.160609134626725,54.11672040760772,40.34835439871959,12.695131027135584,-16.56186885860887,-54.85366879364648,-22.32093780421689,6.000000000000009,3.6350474442987166,-0.10714128153184707,-2.5368877620236776,-1.5459019262253648,-1.1640004573572431,312
-52.61284177805303,12.984607338777067,36.58504171869444,54.14178151603735,29.225391890664397,11.275897192929389,-6.172896536653693,-55.104608561964916,-23.007555796190513,6.000000000000009,3.565979388193961,-0.1381692478223356,-2.546343235178062,-1.5684783616139188,-1.1847634780895113,313
-40.19987026469094,11.343904614037529,26.56327852996332,54.075513623488604,16.80130420836347,10.327147234853465,5.529760300927015,-55.64227316537389,-23.073195710141604,6.000000000000009,3.517128164719326,-0.18328046974615272,-2.548167322360792,-1.6319670391373788,-1.2018469671116419,314
-25.27769658482147,9.4728755072319,11.742423441579225,53.84351153312348,3.665602679392372,10.288032419596306,17.212204404354463,-56.201089833570094,-22.636079038095524,6.000000000000009,3.4771425308759585,-0.2568846476587707,-2.5947363701848007,-1.6769374697097328,-1.1939020929791766,315
-5.619380803636271,9.474391471671836,-5.601382318038244,53.53758815722154,-10.696516244816719,10.186234522198832,31.765652477339927,-56.717404255783464,-22.76184633968785,6.000000000000009,3.4536694683471274,-0.30343496897101885,-2.6329861867978335,-1.7426733200324787,-1.1572254409135,316
14.476741893029073,9.52016786536676,-25.546813378027277,53.25825098654256,-20.413625431640007,11.416841652251696,39.48563389838812,-57.400567576702876,-23.42127427207113,6.000000000000009,3.413825275398252,-0.35492454006468144,-2.61465597559632,-1.822068904654682,-1.092456662955123,317
28.71477175013973,11.278146757574318,-37.40743490349803,53.00330545219424,-31.624771713005988,12.099041125885652,50.75742086832865,-58.30251241670156,-23.91277424777632,6.000000000000009,3.303931582309228,-0.39204424880040845,-2.608378259944382,-1.8545621151074392,-1.0784507905142326,318
42.00733218172943,12.93406970354772,-50.45438277693678,52.701767978375685,-37.34311954871984,13.636081679397691,54.39644436782037,-59.308691587741684,-24.23503983460103,6.000000000000009,3.194779063949348,-0.3876102222114794,-2.6265584130014297,-1.9138924903780261,-1.083199209637572,319
48.97281462142379,15.515449459090163,-55.03470102833994,52.4898020394244,-45.18914254093368,14.870010809750195,62.26381848985863,-60.25389799536177,-24.23927331041152,6.000000000000009,3.1245503997407744,-0.3602817844443933,-2.606569316465813,-2.0098903598030216,-1.0841165435411462,320
56.558516984644896,17.85813163222778,-62.34889947795298,52.325139729820854,-47.951627296995476,16.603838274508707,63.03420090893501,-61.33984271964486,-24.634409407690267,6.000000000000009,2.9798787505316136,-0.31739309228150653,-2.648636212705537,-2.0264020099713167,-1.0229025958339304,321
59.68934670277573,20.711275122943412,-63.04738750877514,52.23369196880731,-49.98577369901137,18.28668695667241,62.98992840894597,-62.584314419440545,-24.46196835451394,6.000000000000009,2.7921080419708226,-0.2578235468921808,-2.6855439284423532,-2.103559479138017,-1.0360032937929589,322
64.31024919673976,22.890753874277387,-67.27096121215983,52.46707294949874,-54.54804207015953,19.677200546853015,67.40381082099937,-63.77402893759414,-23.852870395361563,6.000000000000009,2.6179072319824157,-0.23774169180879384,-2.6105956019026224,-2.2440557693445924,-1.0700334454402074,323
65.75093364826135,25.332517784347765,-66.31431749665643,52.99463640131417,-55.635024648060224,21.556086520284552,66.43429410762089,-64.96265167276579,-23.460142404402763,6.000000000000009,2.4135586984703927,-0.26059488515695967,-2.57306402320456,-2.323345864606619,-1.0220775480142348,324
68.73582006790917,27.382086969411013,-68.93851262265215,53.676371603353914,-59.073854635135056,22.842775881444837,69.71180538019753,-66.30920803751447,-23.32238316175564,6.000000000000009,2.15008778233496,-0.30834204842884544,-2.545317965814945,-2.3635228755322926,-0.8888294889523162,325
69.41108053237397,29.60321448334989,-67.23884930495961,54.597917291015456,-59.157282429790826,24.582382177916287,67.74072516916526,-67.73648485653705,-22.733333688449722,6.000000000000009,1.9029034664754283,-0.3970455270972165,-2.474022907379681,-2.486592446760489,-0.7717466913499561,326
71.4547505308849,31.282112229504037,-68.88294845249231,55.76302580138286,-61.7286494725258,25.726034599030804,70.15265824867973,-69.39770197751056,-22.06145090763935,6.000000000000009,1.6879250782252186,-0.45703073185864307,-2.48353015517238,-2.6351459779484574,-0.7221865490968618,327
71.3225194274433,33.05177933722955,-66.52541688150093,57.244148406616475,-61.30634506635317,27.2637741043815,67.8155474542697,-71.13559182874283,-21.08746274775039,6.000000000000009,1.4738694515966195,-0.5233119931426072,-2.458401094911225,-2.729904180847215,-0.7165268040099851,328
72.6440896399605,34.26928357394236,-67.58182925876255,58.88899916172534,-63.112905524445836,28.28110027175043,69.5770467689552,-72.8253456467068,-20.4587737481341,6.000000000000009,1.3334653499328497,-0.6184415556942807,-2.4571861368077097,-2.8774087846602483,-0.6777822019739412,329
73.58545284574011,35.45072178794057,-68.31915877323478,60.414190426455576,-62.22056692870156,29.55359594959522,66.99976430629677,-74.63318955285462,-19.478322820677597,6.000000000000009,1.2187195440817635,-0.6654630834479924,-2.5514458546573398,-2.9688964422931545,-0.7172160388666482,330
72.70194959713642,37.04154264812903,-65.52949293162443,61.73575564194815,-63.43721552178178,30.196181286464615,68.24549895169085,-76.47701661159621,-18.69953229804122,6.000000000000009,1.0839443699341889,-0.6761563072655252,-2.570901056602493,-3.0087252952737784,-0.8002813100248656,331
73.44594678113178,38.061751826545986,-66.21106406542236,62.89780319287011,-64.26503937029776,30.795859629778178,69.11999588114848,-78.18327424839012,-17.534480899757327,6.000000000000009,1.0012899423047386,-0.6709523835147262,-2.5426716364931337,-3.130224832692094,-0.9269439337888113,332
74.04782840969355,38.9740958849022,-66.74453299338201,63.83920766430932,-64.78951066617623,31.22248339219518,69.78356661117425,-79.82636626572207,-17.123684497208192,6.000000000000009,0.9567625802191627,-0.6280674077535241,-2.557379826952498,-3.241547705684488,-1.08202089067455,333
74.44876864150665,39.762384412614004,-67.10607505414548,64.63213811113515,-65.13333239539996,31.518860562413177,70.32830781754606,-81.34732295431728,-16.557655144819666,6.000000000000009,0.8950039613573912,-0.5768305853802488,-2.6112711361607706,-3.291156228438826,-1.2406478352709478,334
74.64524548911496,40.413291410430475,-67.27475025239023,65.26543051419519,-65.2715127721984,31.663411059204794,70.70716968302408,-82.65954381842303,-16.15050192523525,6.000000000000009,0.8141658960898894,-0.5758299163294934,-2.7062788482131457,-3.319424604118408,-1.3051495753862588,335
74.77803985569962,41.002083416682524,-67.39290194704306,65.60418636995867,-62.58086233267185,32.1950843931228,66.7339675986661,-83.73856388903039,-17.112592351222368,6.000000000000009,0.788534116050152,-0.5865890267077409,-2.792074087633097,-3.399293608979401,-1.2842954067158547,336
74.70206359180858,41.59123698470895,-67.45936635217265,65.5838943725271,-61.94981436706704,31.984313545791988,66.48050156611406,-84.69965477202935,-17.841352678800863,6.000000000000009,0.838404994399936,-0.5880291002229997,-2.8590934050279158,-3.472096673356077,-1.2025574833254713,337
76.04873679933165,41.55342379359822,-70.73630994027366,65.34383823663639,-61.031819005095414,31.710241189636196,66.04442637001974,-85.44292381738173,-18.271684918660704,6.000000000000009,0.8853458113785176,-0.6217966731984577,-2.924122921304008,-3.454530501404637,-1.1329200703938935,338
75.59127602688534,41.633740445348806,-70.46052512760845,65.08033176901434,-59.87609080660251,31.34186222054197,65.42431917078989,-85.89060501437035,-18.350788919851823,6.000000000000009,0.9373455063327566,-0.681347382997119,-3.036469290212965,-3.4366020198062186,-1.0537210379218722,339
74.92527159038201,41.59552707109993,-69.98164757905815,64.7088924618435,-61.00969100826277,30.09276992122229,68.65674691168952,-86.18735639924834,-18.60842132316334,6.000000000000009,1.0599238238894202,-0.7143346985232855,-3.219452193983607,-3.478915376181018,-0.9368632812147526,340
74.006413951858,41.424618625024856,-69.36088704152392,64.12350794985203,-59.19646946566602,29.280466336787608,67.43343754581709,-86.30878735001596,-18.394786879614376,6.000000000000009,1.2341682238968692,-0.7488976596432437,-3.413703394404228,-3.4912187594688704,-0.8599796917596674,341
74.60547734440802,40.61905624236315,-72.03983047143147,63.44388033229763,-56.90163362876008,28.383082155306422,65.73857348861209,-86.27598222011049,-18.11690118577994,6.000000000000009,1.4492262241330058,-0.7689520757416086,-3.5600186412143295,-3.4883048988140386,-0.8439563392592262,342
73.43996224900864,39.8948065543641,-71.2250501651162,62.948568165959244,-57.03127241947334,26.700727434526456,68.04780788887638,-86.14666295298629,-17.685214662938865,6.000000000000009,1.632142926624808,-0.7965286961073041,-3.706359221851809,-3.400102446635664,-0.7694620230695685,343
73.87774223727229,38.60461931053502,-73.77193511315252,62.494932289198005,-53.535186044988485,25.379156807410645,65.08308585026612,-85.99676125127003,-18.13370539960073,6.000000000000009,1.7248771065555453,-0.7811701676742605,-3.822165722804208,-3.219235147876105,-0.709686185562096,344
72.44409807337122,37.33323548645213,-72.69756605971509,62.13153590456272,-49.470957030097125,24.102920624030702,61.403807972237715,-85.6715143999871,-17.656894591324864,6.000000000000009,1.836848549125455,-0.7977432237695355,-3.8854607067229394,-3.1188761928723654,-0.6851804366557136,345
72.64094673331142,35.5705012676552,-75.04129275295956,61.83940393923838,-48.067193752228846,22.109202702651956,61.97843629236507,-85.18675637572153,-17.14092626063918,6.000000000000009,1.9962098009994402,-0.8580758075519874,-3.9538352908018113,-3.0578610395917516,-0.5979276240292659,346
70.93941249319714,33.905172870132226,-73.67191298956458,61.60452278494629,-45.83213785257748,19.958990966823542,61.698794605896985,-84.73793205847106,-17.188823614357215,6.000000000000009,2.086703789006804,-0.9140323687495491,-4.000976003429093,-2.902669603135064,-0.48431014151052615,347
71.01187954176254,31.748018691443743,-75.8520048414445,61.40150023823253,-38.7973753679256,18.533554508560286,54.80463703036457,-84.16727396121215,-17.12628615570197,6.000000000000009,2.160418549078764,-0.9569205257554857,-4.058313339786237,-2.77421001772766,-0.42260370818239373,348
