JMW9912/AVATAR/install/dynamixel_control/share/dynamixel_control/data/csv/poppy/.data/waist_test/2DoF (2P)/0409_2031_13_16_one_waist__poppy_motor_degree.csv
theta1,theta2,theta3,theta4,theta5,theta6,theta7,theta8,theta9,theta10,theta11,theta12,theta13,theta14,theta15,frame
-94.5194329072257,21.299828405713292,94.57194978447329,28.298822862089594,0.0,6.077026457581008,-73.53588589053047,-28.29882286208962,11.949525018099925,4.227855492074081,2.8051766135533356,0.736096783755453,0.06106657397293583,-1.5574253403185632,-2.1207448039576726,0
5.429830252667216,32.45823628258975,94.57194978447329,70.34202640544059,-24.433899576842627,56.809564411575465,-73.53588589053047,-32.435509865070465,4.9309605596658495,6.000000000000009,21.604019580428652,-2.7119876779886165,0.6861814414248294,-20.352149877967115,1.415702820916039,1
-13.225124434061694,49.44132072198973,94.57194978447329,72.36756905906302,-4.586688302606422,39.00438141741311,-73.53588589053047,-36.93302402949767,90.0,5.301791802132262,21.3986603552554,-2.7236719433169934,-15.822110120286853,3.223359162038755,5.687973516863878,2
-10.103918164754313,48.68354861399019,94.57194978447329,74.44785312333084,-5.257518538843759,37.95124276738114,-73.53588589053047,-41.23025604129762,90.0,5.52588688656807,21.14183626249486,-2.7338137004207814,-16.114137957489866,3.298645394981569,5.863745471216113,3
-7.896898655011691,49.63243944292264,94.57194978447329,76.03466983322474,-6.571715138164757,36.144790455411105,-73.53588589053047,-45.63765953557156,90.0,5.635244172300167,20.755750646683882,-2.7525937807859777,-16.429884276955647,3.4705942638075924,6.091420964545566,4
-4.858757907143124,49.816163316616816,94.57194978447329,77.24073111372223,-7.350756087429467,35.197372327625544,-73.53588589053047,-50.07771973345301,90.0,5.543198047718559,20.29909705214489,-2.732159695147574,-16.57134214540196,3.492863131193539,6.007383427626306,5
-0.9264004885226725,48.71418912354053,94.57194978447329,78.41708481475978,-9.506572121736317,33.69880184243966,-73.53588589053047,-54.442702270988875,90.0,5.373559575965806,19.81584546969757,-2.70139599294307,-16.557318244362772,3.3732132926299627,5.705662281013963,6
1.9996402222711345,48.83264684133846,94.57194978447329,79.55861744080885,-10.471887919385553,32.820887879381935,-73.53588589053047,-58.81140034574364,90.0,5.206227249689139,19.275312280468217,-2.6324286382335083,-16.58486488152356,3.2719251295425202,5.384469234935852,7
4.954509548723965,48.99173204268387,94.57194978447329,80.67362298831863,-11.441424169904348,32.05757371792482,-73.53588589053047,-62.93002413784905,90.0,5.032823930914524,18.70458394443331,-2.575975218433173,-16.578056794626075,3.1723264099419906,5.120151004758744,8
7.87916289589634,49.184112284513255,94.57194978447329,81.70899330327003,-13.822176695782629,30.50906602814952,-73.53588589053047,-66.88204893011637,90.0,4.843239996631555,18.137097433288606,-2.497360378596834,-16.521749243479714,3.048110827816474,4.836796975139192,9
11.671727951811771,48.197180850769904,94.57194978447329,82.6159702546663,-14.68749759155824,29.82387108041678,-73.53588589053047,-70.80369647350382,90.0,4.6669106854372275,17.57581099898309,-2.3504895018283563,-16.462795593424765,2.881782429027588,4.467814029868318,10
14.499960342544323,48.496367317683415,94.57194978447329,83.55273555154655,-15.436806853316153,29.167190534680657,-73.53588589053047,-74.63987421123268,90.0,4.442077809703217,16.947654908422216,-2.1837549160031586,-16.377122902202952,2.774114420983269,4.145785757281949,11
17.34313162979904,48.857766690747965,94.57194978447329,84.60076844691064,-16.06434246811031,28.523963083322343,-73.53588589053047,-78.34230029288605,90.0,4.134321616552112,16.27636409345274,-2.018398897415261,-16.26808800678835,2.6477791482962214,3.8898249138871,12
20.952745604182628,48.023747790504906,94.57194978447329,85.68611389491531,-16.567329328694026,27.778106885790834,-73.53588589053047,-81.97233071707721,90.0,3.8354185651703836,15.64414800865552,-1.8616405784910486,-16.223079081911262,2.4394337151019947,3.668220819475217,13
23.563669705355544,48.54652099164549,94.57194978447329,86.71954550497011,-17.668595360438307,26.339777678446534,-73.53588589053047,-85.59708971771792,90.0,3.5266062589294895,15.042735298249168,-1.6637812207238412,-16.168555244394277,2.224325040631094,3.432523215404228,14
26.899709181951316,47.636277266076455,94.57194978447329,87.78478295241182,-17.95391854894656,25.406847099273225,-73.53588589053047,-89.12057128177477,90.0,3.2326083635330587,14.456195653864548,-1.4716289818544914,-16.010990447083948,1.998968948360308,3.150898176067183,15
29.223135894226402,47.99650530190653,94.57194978447329,88.96299434669322,-17.966229749664755,24.58728186860509,-73.53588589053047,-92.37480466885518,90.0,2.940445403428476,13.872463595911622,-1.3088973887599975,-15.75900756854853,1.8055036456261828,2.9035261723161128,16
32.217547422418626,47.07853965083797,94.57194978447329,90.07367049700218,-17.63319396546735,23.71026905427751,-73.53588589053047,-95.52844813701535,90.0,2.6791063869042615,13.316838776833231,-1.1287265608994503,-15.57700216943769,1.5784956859263426,2.6787384610022498,17
34.21721186846887,47.40830973315354,94.57194978447329,91.21978176134876,-14.979000335448166,24.380107622061,-73.53588589053047,-98.59524509881058,90.0,2.4191819096285325,12.76756264154813,-0.9309974847331399,-15.30445216456387,1.3496352476871203,2.398221926837671,18
37.115058752575855,46.325735127216866,94.57194978447329,92.38886403218257,-13.639446467156171,23.667205242933814,24.446142218912687,-101.6263953525775,90.0,2.2601242884752852,12.250224245429788,-0.7477344557788556,-14.998534154679547,1.12282244861222,2.179055010294153,19
39.60856335012973,45.17900736491507,94.57194978447329,93.61012321923852,-11.922154031448093,22.88007765096405,21.312471478324483,-104.66779936443419,90.0,2.479288125016951,11.847354257284605,-0.6174575311416985,-14.745605356505957,0.9099128486593677,1.9402318448416602,20
40.542556326931276,45.33512223964365,94.57194978447329,94.76911217932695,-9.925917260975714,22.504383867381208,18.36924840945411,-107.44504445737094,90.0,2.656376446186921,11.38271426724122,-0.47868855215319683,-14.360057613755295,1.0157169696557766,1.5360745754630039,21
42.87425494651069,43.45750032603869,94.57194978447329,96.4601933821852,-8.801635641192027,22.54379051921649,16.115565370092508,-109.75282489356903,90.0,2.971788535938491,11.06990553342289,-0.40541517020406326,-13.752708940543025,0.6799477354400941,1.114014938515227,22
43.4431404283129,44.50662475771215,94.57194978447329,97.33001351477046,-4.756525299363256,21.712389843299345,11.12102103145122,-112.46137362183471,90.0,3.017456043698437,10.535899444786628,-0.18409738516922328,-13.799163432079732,0.9386048509925633,1.131272530917014,23
45.41767119052233,42.425298841464176,94.57194978447329,98.5477442997508,-3.66041040200086,22.18256697403776,8.786340511564683,-114.6174645950425,90.0,3.180093603594769,10.113092282478313,-0.08365068779037,-12.956077182645457,0.568286124907895,0.2916006491621752,24
46.80644107929663,40.85759924840992,94.57194978447329,99.96487242264261,-1.5278703594286644,22.273093058725156,5.6998927234735035,-116.50422002133796,90.0,3.325510728371248,9.71661089401401,-0.019105537760625242,-12.521772840515586,0.4198717260465886,-0.03199154230193452,25
46.76275963390189,41.07178916017639,94.57194978447329,101.57068841264599,1.4115361985514245,22.34960355612906,1.983567706053254,-118.26857766403849,90.0,3.437677422151705,9.331943843332397,0.08002134841134531,-12.267156726162364,0.31851426051318577,-0.24703292676244426,26
46.7262391882089,41.304931118996976,94.57194978447329,103.07439707033744,4.469009576545714,22.592104769558837,-1.7286302597317256,-119.83262946660952,90.0,3.5784283795314415,8.908568593870847,0.2128536442890033,-12.056947334298588,0.24602115827712476,-0.5219804703670009,27
47.542954848791446,39.97728717923885,94.57194978447329,104.25279013541943,7.728211041904675,21.113155106252222,-3.9913106298658487,-121.15536087626352,90.0,3.680032372817647,8.405575259419521,0.3303921414233158,-11.895049723371427,0.20618131022501945,-0.7446995577962504,28
47.7343143015753,40.485165776841946,94.57194978447329,105.23817070272086,10.765337071696395,21.561346489985986,-7.639109407677695,-122.25016252811847,90.0,3.7343914141109478,7.995115387661102,0.39710773312168235,-11.777397827389946,-0.0034442168799420987,-0.8290061103339382,29
47.85303751456161,39.40164174393906,94.57194978447329,106.29787670941992,14.028972513322644,22.23053706458249,-11.32003888998101,-123.27253653409072,90.0,3.9054985558384394,7.691253090638529,0.4814904511193005,-11.651848669760714,-0.21286904584462515,-0.9805138619282914,30
47.01134203302827,39.900224010689215,94.57194978447329,107.54118637995113,17.04018737755292,23.235198495720997,-14.420487057691787,-124.11114463793714,90.0,4.107551789259564,7.397970665062926,0.587561093616842,-11.44789876940738,-0.33240046935557765,-1.206647321600845,31
46.49745245126423,38.946552155090586,94.57194978447329,108.63740637050066,21.641223595899238,22.62164931874084,-17.404768504763986,-124.77800421438722,90.0,4.232123465847182,7.122339023408656,0.7223895232269054,-11.31678976852825,-0.4768053719172541,-1.3387468816252766,32
45.45383138793748,39.760683705123526,-3.181865145409796,109.6422925044059,24.59024651851441,23.921700405204362,-20.295990712378504,-125.29782067801182,90.0,4.418106781978626,6.849710312499425,0.8022165293011013,-11.201314354870384,-0.5959427520271913,-1.4486289379192214,33
43.93139100789474,39.10825014588778,-1.7854396969953494,110.60842934218948,29.240810601158252,23.836455978422862,-22.967761595218363,-125.6379693038218,90.0,4.543843170275425,6.878690708773522,0.917607026627499,-11.084919777808167,-0.9704714791698451,-1.5586575373003766,34
42.48028625560359,38.041027806985994,-0.48330175813672804,111.55772714439462,31.109133791089473,25.68811116288711,-24.274861425163344,-125.66753219463878,90.0,4.726903051457257,6.71368798448685,0.9737517413153273,-10.694783693122865,-0.986644740248812,-1.7574520072517854,35
40.91512724107072,39.15851881619641,2.62939314011489,112.40819995036837,34.80367042682421,25.670416718601647,-25.835322256765107,-125.4742215918868,90.0,4.661358992236973,6.4329478717913675,0.9781633103205662,-10.569140518043797,-0.9652145263643422,-1.7660349819087129,36
39.09322489621284,38.77127266201848,4.281108442075466,113.0884088614111,36.41695437573197,27.38931090717177,-27.01529778618615,-125.16112197290464,90.0,4.492485858121037,6.148715288811573,0.9852715021520468,-10.553819376677433,-0.999508712610836,-1.7859317639636447,37
37.00910809888456,38.489011790373084,6.09889335181548,113.62806571406588,39.41335399692585,27.402160881058116,-27.90030466860318,-124.68689013541616,90.0,4.379359366559708,5.919497639589633,0.9678226876705055,-10.531198604109631,-1.1175994006713976,-1.8559107393415604,38
34.6937913262707,38.241317418721756,7.9920015201331145,114.11130754248958,39.972596872400366,29.076291217444282,-27.973247518287216,-123.98269760499872,90.0,4.29162692570472,5.680551384392774,0.9228731155485137,-10.418752817789375,-1.165363441850991,-1.9855497102828572,39
32.286553259263634,38.260014709214936,9.881539835305691,114.52930031429563,42.14957229545524,29.123719143358688,-27.766023982114067,-123.1114627208456,90.0,4.135503380538255,5.473743473397684,0.8878715359972014,-10.369318316372157,-1.2392289679522261,-2.1056450170838046,40
29.81037243614188,38.58014252107953,11.693993965270737,114.78829187991477,42.294345465129354,31.081679036578134,-27.37793447275368,-122.1082197006695,90.0,4.022458980385603,5.302645777302809,0.8786460711899341,-10.386771637109906,-1.326992854255114,-2.2182288460088744,41
27.287962083093355,38.9958523372762,13.433755319854814,114.90987486427186,43.845076654745974,31.317006993091614,-26.546866531722845,-120.93028743695844,90.0,3.875463173039718,5.128358323489492,0.8840330113711335,-10.3342845606687,-1.3923268684924406,-2.3854429562343467,42
24.62006895777108,39.50520970599744,15.215029763172526,115.06846070320653,43.56616088673495,33.175462594122976,-25.62436322763961,-119.56555489378508,90.0,3.674380227332733,4.973504571695298,0.8442573249257073,-10.236129763686252,-1.45539824843036,-2.48832285715374,43
21.83531948655182,40.29234248902118,16.916368675538752,115.24920310698454,44.76233182334657,33.41807251680926,-24.275622527321854,-118.07058218197281,90.0,3.5264279272467784,4.86382092221134,0.7759366360691962,-10.17270155639257,-1.5126172258951556,-2.500995927207705,44
18.037967024011103,39.52000804391678,17.709240643609146,115.27230452220526,44.61682606251698,35.27847917803555,-23.29435561396786,-116.52396495529759,90.0,3.42382346617575,4.771050638405707,0.7063325610200571,-10.128427456120288,-1.5453976213971283,-2.5296943443670585,45
14.938342252879435,40.47735042873325,19.59011849128149,115.30688425467689,45.586792889912054,35.426693152773225,-21.540121318882697,-114.8483430410892,90.0,3.279597629710728,4.688159559409963,0.623530801113814,-10.016196373010475,-1.5720056278057888,-2.572520090420659,46
11.866574440594036,41.4977964752197,21.455497069270237,115.46865879143705,45.398299611427305,37.201922370131065,-20.424937065711795,-113.03456274457754,90.0,3.096042122190126,4.6314153698901785,0.5320293174063807,-9.888473740599881,-1.6054987196403545,-2.56327677648942,47
7.878349688978324,41.0589071292969,22.22506435365014,115.18831267086463,45.37932524800513,38.970741167345594,-19.388154610919486,-111.11288288821515,90.0,2.985471574270671,4.554214281160365,0.4583584573662749,-9.774946664793324,-1.5574632431526152,-2.5426356426538783,48
3.773422365886241,40.780074408905996,23.068858824238816,114.8829254356606,46.27551523925872,39.0117585193929,-17.366295446484582,-109.16116976041,90.0,2.8245488005567796,4.524998038930057,0.3783399382042426,-9.660211988654385,-1.5573457729051328,-2.5425960555600717,49
0.47179086749873234,42.39931881433333,24.772172298425847,114.7026054057145,45.90897883755597,40.70510455136126,-15.892087205850904,-107.01198911746316,90.0,2.577386788005182,4.519155181333871,0.26462106855282214,-9.457168391032475,-1.5465527124294502,-2.561337782505622,50
-3.937023491548333,42.553960571116896,25.68953767174397,114.53144947629127,45.398106465930084,42.387757451944324,-14.267089395933201,-104.55631502669868,90.0,2.3847125508679086,4.449161851789992,0.11970133637277218,-9.26185847712384,-1.4697149034108574,-2.5609979279482697,51
-6.839257557615402,44.51344714067496,27.106537274142276,114.07843079669753,45.16381390895991,43.93405055668276,-12.969119366344694,-101.93219056029606,90.0,2.184510753625473,4.382873571911001,0.008275839299601283,-9.179450531153295,-1.4271059652521292,-2.5689376562613666,52
-10.732172682804006,45.06530084940276,27.48632220102806,113.4043778471614,45.13143459561051,45.42133819375692,-11.804819105293841,-99.26933206725577,90.0,2.0142542367821985,4.385607541377494,-0.05477076988705402,-9.091804112715502,-1.4349454664600974,-2.6524707283609747,53
-14.854148811981624,45.79529121772783,28.053565516759768,112.73896973869307,44.980335430047994,46.871472597185885,-10.454045290429908,-96.55458978358436,90.0,1.9130615583280544,4.420980402978759,-0.14480524413918253,-8.902462019665544,-1.4315336596626569,-2.7814832351772525,54
-17.705901998768994,48.258245724182665,29.375885559490246,111.96702661571071,45.065487717000295,48.31757063629078,-9.34614472814779,-93.82112766019921,90.0,1.8064690126977632,4.42890834389619,-0.266667876693166,-8.714119496920672,-1.372272656136363,-2.7677749144191477,55
-21.24616704763622,49.236982285469814,29.473507700784765,110.82741331762449,45.6150165866213,48.225034554429136,-6.745907346759986,-91.00532461666793,90.0,1.5855111330587477,4.432864107860198,-0.3703247116114126,-8.570039746758798,-1.323931270651327,-2.7164844782463433,56
-24.45832124742393,50.19985429362302,29.415112523146018,109.34708168514675,45.823753598653674,49.656506478070334,-5.706614558321486,-88.1743111921451,90.0,1.3588590885821212,4.446475906026453,-0.4858715809828951,-8.374910716652339,-1.292967469697036,-2.70609157437563,57
-27.529698627739915,51.219833944744174,29.32303119621059,107.7707109842616,45.82372544909709,51.09348533485067,-4.442827335970577,-85.22242508510337,90.0,1.1993351711791762,4.483613510969862,-0.5818925288035147,-8.105897209558647,-1.262805540322166,-2.76044102626102,58
-30.57499053160561,52.1289425083077,28.97632207686349,106.09869513078856,45.8425813484675,52.448573366945304,-3.2432926832287583,-82.15008821469027,90.0,1.1825607130955227,4.570197400877836,-0.6970016424661999,-7.897066469880893,-1.2867597563014566,-2.7992633035298145,59
-33.356182702248084,53.283909782388264,28.478253359150575,104.06475947454899,46.02796680562675,53.68421607676327,-2.1739956176478294,-78.98604344686387,90.0,1.1777509524011323,4.560089886919853,-0.8304238896014676,-7.756468099205805,-1.0955580319472478,-2.8073790689478564,60
-35.915159160452745,54.284819192685205,27.81713982294604,101.6908587001652,46.020675845237534,54.880600003812674,-1.0527610017858302,-75.7503577186426,90.0,1.0684221013532391,4.600328958923362,-0.9488725688773025,-7.571103945441326,-1.0902432782662226,-2.872790180962634,61
-37.152011529315914,56.60753259665323,28.040259778591256,98.90055923561182,45.96302249579787,56.14595486865681,0.17457196468490352,-72.27627522407236,90.0,0.9743080305818496,4.789912660421967,-0.9772228510983395,-7.272524703858493,-1.2541323613575,-3.0636291497988957,62
-39.861663080523705,57.16261750993757,27.48582532357411,96.438218958332,45.82077519114026,57.42813660818857,1.62428453475795,-68.96081494449112,90.0,0.9828885500861276,4.777953056040183,-1.1204419893131823,-6.792531366632785,-1.1725736061802368,-3.255846049065183,63
-42.03475530298715,57.90961443572984,26.080967490339283,93.78980943980379,45.96734632329214,58.55807387874381,2.4706018591037306,-65.76735503668077,90.0,0.965308046177214,4.946091162878074,-1.3095202040602971,-6.725272353282499,-1.2715965439136,-3.1277949146713335,64
-44.319870403157736,58.54303458524543,24.63400485412188,91.13306213438355,46.36411293846219,59.688340345983995,3.3484218653904936,-62.91500813118901,90.0,1.049152949061122,5.121141190202559,-1.5077582924102972,-6.54237444209631,-1.236908261322069,-3.0594275861244857,65
-45.73366390763594,60.36470056695613,24.61763729903147,88.46345059785222,46.808866827387746,60.8249056593548,4.219116066326328,-60.13083512746909,90.0,1.0603418518804375,5.230870888711159,-1.6227673602978403,-6.330319403062079,-1.158398883669441,-3.086932007993744,66
-47.710183239224676,60.64198361118589,23.01673920544373,85.850985878784,47.11792800070867,62.397615348845825,4.416780513949388,-57.104366839920495,90.0,1.033783046348833,5.3014460398282734,-1.7367458572664278,-6.102958451171675,-1.1388107604625404,-3.0785599178839735,67
-49.669296651858836,60.87319718264885,21.35999906885765,83.43429824954642,47.46909895063143,63.538898082506016,5.500637052643919,-54.239004764425644,90.0,0.9788165988900909,5.3001452568034955,-1.8750336725278431,-5.871054590630797,-1.0758292652120838,-3.0285226247566848,68
-51.40027654376303,61.14748404857026,19.472378478689127,81.09316971855883,48.11257160162217,64.55726291832259,6.321749889142466,-51.87852520808756,90.0,0.8689364052916846,5.328769330987595,-2.0051639852716296,-5.726303673454655,-1.0861296019566336,-2.984469703033959,69
-52.664865812447914,62.793575849894054,19.36112608532226,78.86259961458677,48.991533215844235,66.45099279615705,4.8871258023297335,-49.9420000119315,90.0,0.7709529928573956,5.342010172610033,-2.156248142330475,-5.5231592931583,-1.0662640528927978,-3.0378756091390273,70
-54.54046256372715,63.14893332410653,17.650476927738406,76.80311404426371,49.59704518345039,66.6209338463327,8.128830146691135,-48.2803519844395,90.0,0.6911144383953276,5.283474509160876,-2.348199259349054,-5.227498978527937,-1.0184835568924733,-3.150342495972426,71
-56.207550003266476,63.49696653506347,15.798701059284102,74.72391498951808,50.400236172153946,67.68152768786372,8.967404306823013,-46.803815312577036,90.0,0.5528706675061825,5.239922464861732,-2.5352215979873356,-4.9651948859738875,-1.0853560106398374,-3.241872104917491,72
-57.52833646104595,65.06419149963968,15.82751157154027,72.77277446597806,51.4104967106989,68.74963459759923,9.74793777228869,-45.57110645745349,90.0,0.41904165533840576,5.165783402397876,-2.7165443581057835,-4.652142813159019,-1.1263859922040185,-3.3318233601662706,73
-59.33314292989458,65.45589298430609,14.108230726375547,70.98955168104366,52.34016511001444,69.79267224756111,10.671456099989062,-44.372207204514154,90.0,0.2753749476325896,5.089173487423034,-2.9128644135796353,-4.225953039112852,-1.1876745430821454,-3.52100281695481,74
-60.982967087449246,65.94192172358495,12.249785476157346,69.26920746985547,53.21953579904965,70.79648878464816,11.609478144407348,-43.077291612682096,90.0,0.2303819827996315,5.036970452139456,-3.0628673971901126,-3.8245805973620195,-1.2999559911772935,-3.8093529566970825,75
-62.19740752066657,67.67182805230391,12.172337481962668,67.54155252766094,54.15220552760617,70.95595245174226,14.766116451167543,-42.019527852976495,-8.706469655898642,0.34461164148334367,4.876224512135797,-3.169716737941944,-3.4900786569742706,-1.2885797950237639,-4.14964748601476,76
-63.526588679742,68.17247849601759,10.059153551009592,65.771509067437,55.329918673403526,71.7793314673395,15.462711789487397,-41.40261150394463,2.096836641650119,0.6195977730733778,4.735782216043679,-3.3153256451304145,-3.162601219252414,-1.3828275803814591,-4.428313941132288,77
-64.59419953489439,69.77477747899287,9.864421555020199,64.05252191808182,56.61091153187032,72.60586318974372,16.05111220587816,-41.05268280138468,-0.4973217906668987,0.8591946820344221,4.643753071403627,-3.45020354743565,-2.8556604128021967,-1.5027243590785075,-4.644053808659857,78
-65.8090714859988,70.21568029425782,7.46501876424756,62.33484254933981,57.813255142954574,72.71851250979373,18.87290434148046,-40.97749548859893,-3.059584983934052,1.1168492910640242,4.534986520799716,-3.5563455204527705,-2.6078398069683697,-1.573660071513396,-4.817915808501305,79
-66.69722722471374,71.69795041981205,7.075777313333959,60.52041601190435,59.31684938339007,73.58064012577816,19.27156386936772,-41.10446230842322,-6.410867452463624,1.4103172134006348,4.393534492480177,-3.678101243663233,-2.3560319476376277,-1.636047484003191,-4.919291321538094,80
-67.55263650311896,71.8007398817496,3.978648462684047,58.62124115409575,60.798540519839435,74.4551389422034,19.642303245528257,-41.245616272723275,-9.325505668297938,1.6680712780408373,4.223746752775229,-3.8160128910977593,-2.1162032114021767,-1.6914607355222961,-4.975079772466789,81
-68.23244223981789,73.01055977020413,3.05757316605911,56.72619111631152,61.91567036698939,74.58561189202688,22.37193836934831,-41.40997049604582,-9.23464264498623,1.8847269199823322,4.077840647877038,-3.995517236706054,-1.9138147033820854,-1.819607037523662,-5.013267854250384,82
-68.88968520616895,73.22203827745535,-0.09062119073397842,54.78511789099734,63.42169029821241,75.36883981122435,22.61603118198541,-41.85261122427237,-10.037433690248546,2.028610461781809,3.876132729044007,-4.214339269592618,-1.7857003354862668,-1.8656527144007162,-4.981688628290312,83
-69.35810059691467,73.45827836969553,-3.2641101382847344,52.816403109795466,64.94776947494698,76.12994233340245,22.791482795762303,-42.28372276334226,-12.956173682493413,2.3017912778570406,3.6329825972035548,-4.441847531523641,-1.6765837712827012,-1.9213673551159207,-4.886702585945181,84
-69.79972743882796,74.67284777896107,-4.077720369339946,50.761582478979264,66.06513329122556,76.14283645692826,25.41019338597033,-42.6774818497957,-14.774492095672203,2.714747630520464,3.3980281573727575,-4.693398989709449,-1.4961244943000285,-2.040754451525287,-4.80102726888615,85
-70.0211294883628,74.9915864457396,-7.172446557665089,48.5729750341648,67.44255243273354,76.86453878893225,25.610919635932294,-43.20985202848437,-16.418544539300797,3.177342849496568,3.115707950803216,-4.9546811148935,-1.3670319959255424,-2.113995796750541,-4.674282221636597,86
-70.24344278180457,76.19253792088715,-7.931616821555333,46.40030711034943,68.78924478611079,77.5533298130414,25.797343651065294,-43.778247991254204,-17.36548784807407,3.63028371367393,2.7249912430292094,-5.225586024120723,-1.238206349305873,-2.1353763842432745,-4.528716118019199,87
-70.23295787294876,76.61638786456687,-10.835984727886819,44.35563752979737,69.67691215047489,77.45448280128261,28.40092297327105,-44.15915568515564,-17.329187555370094,4.094755754305104,2.3786565587181006,-5.466120931489144,-1.0850993632385992,-2.3160830633531795,-4.4872815815600084,88
-70.17656049616782,77.18540778773801,-13.656758803934629,42.17027800303268,70.81021571564229,78.00804940335843,28.733489994233175,-44.428153134614085,-16.60070336482381,4.554278499139349,2.097070627847513,-5.707327472428795,-0.8812141893717906,-2.5191702937014995,-4.517002776806845,89
-70.14488475344407,77.81057690287747,-16.46104624931163,39.837623612864675,71.48598484705944,77.8231753043967,31.424678009845703,-44.64699508262694,-16.4028659484637,4.966542670173213,1.8098058724095918,-5.923122394588613,-0.6568627802583499,-2.6650186109150984,-4.5548076527309345,90
-70.12123767736368,78.48247959838952,-19.20721648724007,37.4530866065302,72.53157211467735,78.30869572198303,31.774931107077943,-44.912090329016905,-17.398721215990648,5.316394302885485,1.5152530665443948,-6.13287200592131,-0.39251768550431904,-2.8210932525393737,-4.582869577292089,91
-70.35362538096561,79.79814269272731,-19.497511921865673,35.35118941761012,73.50404780964872,78.83364394772882,32.15576311658822,-45.01035105646051,-18.996157243982825,5.665516735341401,1.1843339000222814,-6.320620139411215,-0.0822404948285319,-2.9555741065463677,-4.594699801396348,92
-70.40338175263122,80.55491244784399,-21.995158447581083,33.46764670559784,74.38030041496994,79.28171989921553,32.633139259251465,-45.025615371995805,-19.780823920866876,5.981564035606143,0.8555721384726437,-6.493594287058994,0.3045754522889009,-3.132736797969301,-4.688935990279772,93
-70.27651432281017,80.89447969377142,-26.741106208274335,31.563242085499663,75.15752143279187,79.61616892235531,33.219191795110504,-45.01342540932159,-19.86402526919136,6.000000000000009,0.5310640344681558,-6.651534499055647,0.7757624884321215,-3.3074878160691985,-4.890327886147567,94
-70.38548184335383,81.86723769458698,-29.076396197350945,29.698491514635883,75.89691034976077,79.84084355751065,33.791315395848926,-45.224336200813184,-19.444420063121626,6.000000000000009,0.19203557070233995,-6.823186317317158,1.2444459659611407,-3.4981362636087683,-5.081594938706524,95
-70.54401927421112,82.75436454519577,-31.40224428027241,28.29882286208985,76.65967088251729,80.00244250762492,34.29151963555643,-45.74755466225288,-19.101485670675757,6.000000000000009,-0.16522698090183455,-6.981735306799499,1.6627895257983931,-3.731033747057905,-5.239340722909588,96
-71.21113900465018,83.23901959634614,-33.583502486906184,28.298822862089697,77.37583635490792,80.17168442286263,34.84403494470829,-46.28971072692279,-19.844089994907986,6.000000000000009,-0.5661089707757647,-7.117403059986127,2.156546817715926,-3.941451460422079,-5.362896049532049,97
-71.52757679049107,83.26598513721329,-38.076193051747936,28.29882286208962,78.09162970268665,80.23550402542809,35.444563988420306,-46.97970098141779,-20.53032526507591,6.000000000000009,-0.979495079066379,-7.318355122403786,2.7170125403562926,-4.161477238526903,-5.423224858258375,98
-72.09469796861785,83.72505028408094,-40.13206776821444,28.298822862089697,78.83402745457256,80.12140160617909,36.037292467957585,-47.91976213566643,-20.57626237464926,6.000000000000009,-1.3378807321170043,-7.5494655762755025,3.2771611598370405,-4.472189219691808,-5.496818117613785,99
-72.25336222721069,83.72506512392752,-44.555529484473574,28.298822862089697,79.5221271301384,79.94603810062188,36.626601684210826,-48.86871985490423,-20.61248885790873,6.000000000000009,-1.6769235899498092,-7.72031515994025,3.8512961863629473,-4.790249632728149,-5.606943735235575,100
-72.82368267025143,83.98943587631828,-46.591227542220444,28.298822862089825,80.57960122076429,80.49087858912772,34.89041524139202,-49.80879484011028,-20.4634627347149,6.000000000000009,-2.0457644087602245,-7.893828771449176,4.414494222046903,-5.0605648619998655,-5.69190446608754,101
-73.02219224256774,84.29884682021886,-48.57324963487055,28.298822862089594,80.96359943443,80.31279584698275,35.51762470455276,-50.855473309248616,-20.653320165445926,6.000000000000009,-2.3774776874815027,-8.116396212282536,4.975841993306934,-5.416305178681006,-5.684130132700219,102
-73.2320161860311,84.5142205932976,-50.5306860209553,28.298822862089697,81.32404511825213,80.14517340287341,36.16854673384762,-51.95694151653838,-21.34739410909605,6.000000000000009,-2.693421873382988,-8.325176383639345,5.5619470694320166,-5.750444415460768,-5.644226596298685,103
-73.45300094333757,84.59409672719993,-52.520045494493445,28.298822862089594,81.7202058468903,79.92539569648437,36.752546997978136,-53.198466218954714,-22.276734821824185,6.000000000000009,-3.050660039941841,-8.5013433065256,6.127653205443281,-5.979676344090268,-5.566033098219242,104
-73.91551254070085,84.87178842370953,-52.00238287851513,28.29882286208962,82.08451460019583,79.61359554282575,37.385853471523085,-54.687851097146336,-22.98822136219781,6.000000000000009,-3.397346891890438,-8.727786725675905,6.751808441858265,-6.252371578387843,-5.3994768783837195,105
-74.10926785065897,85.04073557591234,-51.42269097463377,28.298822862089594,83.0737943745751,80.07392929368824,35.693753001920975,-56.254748130642184,-23.848487149380972,6.000000000000009,-3.661495427531671,-8.943766342340794,7.376514225611991,-6.592821714347982,-5.186323438064995,106
-74.02388438143979,85.22108906923721,-50.656790436261964,28.29882286208972,83.51572200042104,79.65091892366915,36.39092278403961,-57.73477233334326,-24.556124824667286,6.000000000000009,-3.87515982624959,-9.134778354264,8.114012192393474,-6.864377471213359,-5.036489760353659,107
-74.20871118130536,85.79706519474077,-47.2363792836454,28.298822862089594,83.76945992066076,79.02627323528046,37.32739982751431,-59.449358217889696,-24.45206329323706,6.000000000000009,-4.094928499152659,-9.419898469789583,9.041888709789028,-7.106294409311249,-4.920003783228064,108
-73.79341008282468,85.86442075183221,-46.48540452262727,28.29882286208972,83.68065114745153,78.5014221329726,38.009054784210946,-61.20239597968136,-24.96631879826688,6.000000000000009,-4.328745376326344,-9.730103582132044,9.676843865323608,-7.372694915061806,-4.638449188018074,109
-73.1424652620287,85.82362168516181,-46.08305604265287,28.298822862089697,84.18855831895213,78.9403506504256,36.02607061476792,-62.928854717723816,-25.638510932715008,6.000000000000009,-4.538595489134415,-10.0081794189526,9.9375534427735,-7.621611917431958,-4.308068379115381,110
-72.41723125162285,85.70618164936992,-45.675538495993024,28.298822862089697,83.94683248545566,78.476840829395,36.306048311221375,-64.69485807755095,-26.035741517208102,6.000000000000009,-4.72144056786634,-10.29920249166515,10.16128328037003,-7.8068160826887,-4.006620841135851,111
-71.57397871571885,85.45737491889611,-45.326491218219815,28.2988228620899,83.67263830821278,78.0232210540831,36.47574125194357,-66.42861024986482,-26.822236638543067,6.000000000000009,-4.881007425055881,-10.539186546034033,10.30312498589822,-7.987866741909743,-3.7165448405751804,112
-70.6696802626799,85.22932405891814,-44.997153550140865,28.29882286208985,83.32494273826003,77.50813172797072,36.57691015259585,-68.01797424704829,-27.437163489785398,6.000000000000009,-5.033182582933059,-10.678226002127873,10.428093315021197,-8.134111781154788,-3.5360819049379915,113
-70.08880321940809,85.46000021466797,-42.25639270087629,28.298822862089697,82.87222347597724,76.84730848969036,36.648660983699564,-69.55867497960541,-27.49684599450025,6.000000000000009,-5.1881447154775024,-10.78152050250812,10.542947862398247,-8.211481005659074,-3.508381282864026,114
-69.01911472661101,85.27003155213033,-41.929676533855165,28.298822862089594,82.97731208647916,77.17543924159105,34.41738854021935,-70.97521027854698,-27.61643157347586,6.000000000000009,-5.346993034611347,-10.869121740060924,10.59123275532931,-8.246170634296128,-3.533736475897948,115
-67.744928701381,85.05373803688326,-41.627132150793166,28.298822862089697,82.16464523455404,76.53793903867111,34.377638642069485,-72.21783300732875,-27.65723128028043,6.000000000000009,-5.450736607548335,-10.929925163182826,10.59126573945463,-8.351779506197518,-3.555330511043501,116
-66.46946790365126,84.83671725471626,-41.3047566762557,28.29882286208972,81.36266791264634,75.8281483932551,34.31622674927007,-73.51752839423388,-27.86530550411576,6.000000000000009,-5.495467791891888,-11.000098721615348,10.599260410215274,-8.445249285604143,-3.6005623526047277,117
-65.64376324995665,84.91490121778726,-38.6005519000524,28.298822862089697,80.63885894364384,75.13112115713592,34.230648449145136,-74.8829875397083,-28.278063738785626,6.000000000000009,-5.560511926844264,-11.08976473208685,10.626061210103241,-8.45491410987394,-3.581709382561082,118
-64.35615233967613,84.56693866660369,-38.23317854607438,28.29882286208972,80.45097716663903,75.59301720343065,31.998548761314975,-76.10746658145378,-28.292733246351226,6.000000000000009,-5.611370853116828,-11.161659344286356,10.688226122103407,-8.517664408063032,-3.57591790735016,119
-62.86381817318292,84.22780312504398,-37.889003953834596,28.29882286208962,79.44298664784183,74.93829543238716,31.910182230712202,-77.25594657231444,-29.00136061175482,5.675397974944607,-5.673732544900111,-11.235094607157103,10.70769082521529,-8.572883555059208,-3.5678935562793153,120
-61.314138747140774,83.89735463249869,-37.60715515571204,28.298822862089672,78.59285814820397,74.27082782771976,31.71264420670001,-78.39670293396017,-30.789038276482394,5.28548682746849,-5.802281578292378,-11.328197159469529,10.686056339062013,-8.543367086476849,-3.5140533341529485,121
-59.67308231701482,83.58002377052321,-37.31435680976117,28.298822862089697,78.22348329510974,74.79702607058259,29.353877260689245,-79.37434197207052,-31.596653355240317,4.9769928255812195,-5.903519088142748,-11.384748272424865,10.678703355558033,-8.584593563395817,-3.4953442303267606,122
-58.25426264645354,83.71088058632253,-34.648175833508034,28.298822862089647,76.90234505188526,74.14690255014744,29.161016344556018,-80.17736368913192,-31.79152477534364,4.623413855870779,-5.93977952689573,-11.398714989333348,10.640099201603565,-8.660546405205967,-3.551038901850698,123
-57.39742731224663,82.82349192582647,-34.30377694676347,30.707655602946595,75.72132124131467,73.50174617846386,28.910869318079726,-80.89696306064724,-32.50569281284497,4.224458796473751,-5.990275020905381,-11.416447706665586,10.580717212993974,-8.65257806660762,-3.608645088637851,124
-57.6184850238541,81.20156588523996,-33.84837097495186,36.190145457800696,75.40146006073726,74.12182987563092,26.403136268440516,-81.44915480845935,-33.88636537681383,3.8433289535912016,-6.078573611122498,-11.39519218465275,10.459384134250392,-8.614992801940444,-3.6981797966293066,125
-57.7115623230817,79.72999366637285,-33.41046445010834,41.398531392293926,74.43833686551487,73.42560496301576,25.9388580998567,-81.95977551555046,-36.460371876882526,3.3772730788887984,-6.165230417800835,-11.353651017593037,10.250653763988405,-8.567603190166574,-3.8616831362753716,126
-57.58974128303893,78.33057054033465,-33.02709833823638,46.27857572333362,73.41307793473,72.73638679558452,25.368137707089783,-82.42406182005378,-40.98491600390968,2.9089713854032806,-6.235172410721552,-11.29271214672163,9.968503219278661,-8.513034302450539,-4.003919502800384,127
-57.78490591878098,77.80546261159188,-30.32481916831179,50.904202910513995,72.49928027120633,72.0417767469926,24.72513741022028,-82.85902836916243,-46.56660721228136,2.4712567733375237,-6.2569295516617,-11.210252391281424,9.65669981423603,-8.480713622918506,-4.141488762776707,128
-57.48419090000389,76.65797555633537,-29.926479180787375,55.35195486451563,72.19468102600136,72.65414623949096,21.989074504979552,-83.1506248964786,-56.88564827683809,1.9839065646279226,-6.297555622745702,-11.099286863915033,9.376697672760208,-8.377275303809204,-4.341563694919603,129
-57.16951802344067,75.50696395799183,-29.561863302282315,59.64325002823476,71.05591282404286,72.031354176882,21.364218133872175,-83.14517547484951,-72.93978093844082,1.6967710353626808,-6.357073567178128,-11.014044199964895,9.02970316836207,-8.24265004598435,-4.495865858021835,130
-56.696543187749064,74.37472217274514,-29.52747857083272,63.81245529363808,69.79579775328907,71.52363864530494,20.42309829991459,-82.87173697006648,-85.0555673967829,1.8450113779311963,-6.386720903164319,-10.918757305628333,8.355850946945392,-8.132777080840556,-4.550681384309035,131
-56.496106067305845,74.3668023822451,-27.514597786386194,67.78083876760378,69.1975750311825,72.37265526517726,17.049521795439038,-82.61805150487545,-90.0,2.2182462141428028,-6.360111093616821,-10.777993688259432,7.4221822321958335,-8.05422500878825,-4.556037004009484,132
-55.69282014579391,73.40035107570087,-27.595884623021426,71.63063406076044,68.24596901037283,71.79378050069599,15.91104484022663,-82.40146566810007,-90.0,2.6061640910306942,-6.375330503605051,-10.643507079038105,6.653256885210979,-7.9012810685929304,-4.5949367399937,133
-54.84334700286301,72.53387896848906,-27.52014469724952,75.32197770603551,67.34276037587827,71.13357594638337,14.915000006526384,-82.16788823724303,-90.0,3.0417811838463487,-6.408157561003179,-10.493088888718228,6.01318377851854,-7.746954886770698,-4.724092650873223,134
-54.532795008091355,72.97486254522028,-25.18851916042706,78.7724031696683,66.90676331796902,71.84446090712538,11.933351002292584,-81.96669895868997,-90.0,3.5843626321259072,-6.306952901751447,-10.365786795384357,5.411535274864714,-7.746128747087445,-4.871462509741883,135
-53.6741428654039,72.21283127269675,-25.029447411433292,82.15975483126628,66.40046209649792,71.19837218692565,11.006108257249682,-81.7708702196262,-90.0,4.347383070621766,-6.18633603154567,-10.275024797842514,4.829693577847157,-7.656728516163945,-4.958969071581937,136
-52.713049388812095,71.47021133273735,-24.888141588459185,85.34567125725964,65.95571093090358,70.55317682414693,10.039879375032323,-81.56389025485294,-90.0,5.209022274891252,-6.132595465005727,-10.179045353150311,4.233148375333285,-7.482195695240649,-5.025920230130069,137
-52.39215087995317,72.09113843029263,-22.390296303294164,88.36687290682957,65.26977806510946,71.3052227077166,7.342035437964448,-81.25816128592078,-90.0,6.000000000000009,-6.130312410426524,-10.101255094909439,3.8015497216266225,-7.352290165270448,-5.1572423338197675,138
-51.56105939649282,71.32268833602778,-21.945779045476165,91.47029060976016,64.3342982637364,70.72236932255797,6.739179607359713,-80.99572682742878,-90.0,6.000000000000009,-6.1742416039729315,-10.041786310942527,3.427590767170936,-7.249273061506668,-5.223166910522152,139
-51.2894352205162,72.05308555209321,-19.45930167484874,94.4801808049686,63.78538286642845,71.49241787694854,4.056910082970898,-80.82880258852754,-90.0,6.000000000000009,-6.1951540574211945,-10.00564548023869,3.015116797442961,-7.212334918317306,-5.2832895220291265,140
-50.45918545949705,71.30790035040027,-18.91248003894223,97.25732641053452,63.1167562168127,70.87681850017749,3.4300915316044933,-80.6438804708897,-90.0,6.000000000000009,-6.173421143854416,-10.01775531404282,2.6068534528958875,-7.221311542624335,-5.313633889599811,141
-50.27407168886806,72.14340246368921,-16.41219274110106,99.71048120707813,62.431469137531174,71.72280786113696,0.87550468588853,-80.4958404210474,-90.0,6.000000000000009,-6.160402938267178,-10.04328800454347,2.214975986341702,-7.225204286227251,-5.316909980049037,142
-49.651542324173306,71.47287002322545,-15.846344110934366,101.98152954356426,61.702091454240794,71.24570838381553,0.39116267872081767,-80.45997875658858,-90.0,6.000000000000009,-6.101313949742841,-10.069913059556901,1.8694294886335443,-7.297492006178861,-5.310721920506468,143
-49.617452948953265,72.4126467987875,-13.402617595581534,104.27605026609235,61.178184855885945,72.2032589383142,-2.0813648650833647,-80.52117044561577,-90.0,6.000000000000009,-6.046325312045062,-10.089122816534463,1.5740858786456846,-7.3262029615396145,-5.2579982859382275,144
-49.30852822176012,71.7945853885936,-12.796429398978162,105.95625157608525,60.82631905964996,71.78419709302588,-2.500912142895518,-80.82079566563519,-90.0,6.000000000000009,-6.042048121419927,-10.122607269694482,1.3880408088152596,-7.324744128094812,-5.217731101243509,145
-49.52473890243138,72.89440057442837,-10.210919269793193,107.44535805687534,60.39654435469544,72.7325149445237,-4.68094258961293,-81.18117636629063,-90.0,6.000000000000009,-6.055808660784351,-10.127082997824397,1.3725621857577717,-7.365015940625926,-5.279844882435402,146
-49.648610578659905,72.35317615648545,-9.351062355232594,108.820447427231,59.932754546856465,72.36645567989127,-4.7127210827740456,-81.3132959094432,-90.0,6.000000000000009,-6.141364396188998,-10.151612316269516,1.4450034040677664,-7.358256823220652,-5.36679615443603,147
-49.6112013575726,71.90594590650946,-8.84639623813002,110.00301000712986,59.657057071561404,72.1034177607017,-4.996515317590528,-81.53418605889406,-90.0,6.000000000000009,-6.189819163804844,-10.16850536561394,1.296141782501007,-7.48891569976488,-5.346826690261042,148
-50.16238132199891,73.28971410595055,-6.489321938927517,110.92878542626754,59.313200399623575,73.22872148633284,-7.000903169279863,-81.94458711472812,-90.0,6.000000000000009,-6.267357237680637,-10.194823389849507,1.327155770853905,-7.557008691110832,-5.410847569872486,149
-50.503571509879336,73.01778630739057,-6.012719461208693,111.57345539744311,59.222295570911825,72.97135569803697,-7.1157397144880585,-82.42327208638882,-90.0,6.000000000000009,-6.372312232539989,-10.155684304302966,1.3908382575162261,-7.637409818906998,-5.502576534859475,150
-50.97955234826361,72.82057634424837,-5.523812004819657,112.04736557304184,59.09678546194455,72.7413750077499,-7.061893212921544,-82.75523548985471,-90.0,6.000000000000009,-6.424843002974987,-10.11932257226794,1.5786323506381277,-7.826300471140702,-5.6202716842570375,151
-51.71735682121598,72.67427053768472,-5.164276186795245,112.49928702475289,58.83813523376505,73.97677128833114,-8.942594236914665,-83.03479802945957,-90.0,6.000000000000009,-6.529487805258771,-10.124651050332151,1.717241694810466,-7.930389720049338,-5.661233918601309,152
-52.59860994696019,72.59935232982188,-5.016721614220709,112.86607404182963,58.8391423582233,73.83895197995473,-9.075671444172402,-83.40616271225093,-90.0,6.000000000000009,-6.734025309651807,-10.115474177233482,1.7159190872892194,-7.965072815220813,-5.679958908928321,153
-53.4343105817018,72.61442493044241,-5.130343238431981,112.95986072598394,59.10497764985948,73.72635487171571,-9.375282684487933,-84.0607964898178,-90.0,6.000000000000009,-6.9530048108411915,-10.098608667123685,1.6371865427441938,-8.045000735244178,-5.6513644269749665,154
-54.51291519742969,72.63286488286441,-5.0516435327233165,112.8576751092745,59.367312495585054,73.64504036901349,-9.376980515952958,-84.65388852311644,-90.0,6.000000000000009,-7.133061701508541,-10.108563873035491,1.8375606817428716,-8.195215829136952,-5.638215877722455,155
-55.67255207943431,72.62988335760384,-5.182275062241009,112.54595675310162,59.66264247403095,73.67279146807451,-9.484819798430486,-85.17928970253296,-90.0,6.000000000000009,-7.3127089523999995,-10.147274320255232,1.9354892034484106,-8.310693839505332,-5.49347777438392,156
-56.790797242295035,72.65556030544256,-5.569382366145209,112.01443871869147,60.099927926365474,73.7590680176809,-9.750484896706157,-85.72222843075228,-90.0,6.000000000000009,-7.456738439014198,-10.164686684073786,1.909867069503686,-8.477309951254139,-5.291282235268868,157
-58.00304379166983,72.75757739002034,-6.000044717644485,111.26380129141971,60.751720030659854,73.83877309580966,-9.952436580221269,-86.27900955638275,-90.0,6.000000000000009,-7.596339736090006,-10.16083262994342,1.9973026382487231,-8.617670876384613,-5.115316070166207,158
-59.231754059427566,72.92847033877497,-6.412745872472455,110.33250641437665,61.535311550838685,73.9101352841118,-10.04873775595012,-86.82095351139391,-90.0,6.000000000000009,-7.761130324356545,-10.126269790807683,2.214235048900308,-8.72022055513882,-4.988120928252025,159
-60.663446613979545,74.91414667151777,-5.134596732073504,109.29021220181117,62.433226908643675,73.98196174658602,-10.086904544692487,-87.3266562618621,-90.0,6.000000000000009,-7.926503401622715,-10.05818334979804,2.4929541876140497,-8.842930384742024,-4.904310159942456,160
-61.94147332265879,75.23415365086669,-5.629297573637972,107.99099224582991,63.32193939442322,74.03326426944642,-10.106473861071015,-87.78628267928242,-90.0,6.000000000000009,-8.09394157813463,-9.994661001072837,2.754208729517751,-8.932082723024115,-4.8507006331527895,161
-63.17434888297353,75.50283983162156,-6.23342935900052,106.49809022627038,64.41203402751711,74.18906480028102,-10.210810581225145,-88.37296330403517,-90.0,6.000000000000009,-8.307323766875541,-9.941621091401574,2.993856629182948,-8.97862710449984,-4.677956924823852,162
-64.30968861777622,75.79453098055077,-6.882408175670975,104.86984967562913,65.64028134428274,74.41357982125095,-10.293119397662577,-88.97657911677089,-90.0,6.000000000000009,-8.54779510163591,-9.887980722034154,3.2591249285074424,-9.055846766976954,-4.459847437916893,163
-65.1732175554229,76.20786564226083,-7.594411599926959,102.27711544900528,66.78052225801147,74.64748146157693,-10.231593638392553,-89.29962050201007,-90.0,6.000000000000009,-8.768090912230683,-9.806545137242693,3.6101641099735216,-9.17463303145229,-4.27061090186153,164
-65.92203922802773,76.6678630092556,-8.282668171491192,99.6683957751118,67.86443147943818,74.89646346781227,-10.108597707226645,-89.52301972853418,-90.0,6.000000000000009,-8.907627940817806,-9.734709151024058,3.9761227569179103,-9.372497136558977,-4.067856579078829,165
-66.64273928893006,77.09559846342451,-9.0418026803467,96.90184055810977,69.43091009037502,75.16651496219042,-10.153315614996668,-89.84393693553504,-90.0,6.000000000000009,-9.109291847967011,-9.618984169761053,4.2700329694571,-9.4032816918514,-3.8560436355930316,166
-67.20503373786664,77.5762274042587,-9.741175719231292,93.70496402591918,70.9373658366297,75.47162929659093,-10.068823902018092,-90.06956573684948,-90.0,6.000000000000009,-9.302200693171516,-9.495705695643194,4.626410230748958,-9.473117787145917,-3.657190819540888,167
-67.51754060659164,78.09491513252912,-10.482746059265567,89.94614090756644,71.93649405607667,75.85919041895448,-9.873246135670612,-90.05898539290456,-90.0,6.000000000000009,-9.422230051815015,-9.400562779759628,4.959228585209897,-9.624792481821494,-3.391758981217223,168
-67.6321482678069,78.64051894120537,-11.236871190734334,85.8690760355614,73.09205752623544,76.21487602920226,-9.738029241692663,-89.92595397704477,-90.0,6.000000000000009,-9.528400747450249,-9.297749277246242,5.2892426930781635,-9.747837195915885,-3.086034984017288,169
-67.63549389396054,79.31078953498847,-11.819538068726171,81.5128760968124,74.85067026275252,74.8881759687816,-7.7472089956318095,-89.81305445570243,-90.0,6.000000000000009,-9.679639657484143,-9.19854534336931,5.713087488251065,-9.779208253379576,-2.8924508875722728,170
-67.48619954786393,80.05679069856674,-12.318088986772555,76.81223263738899,76.24158558912684,75.03689203080481,-7.487497756873817,-89.64237755761744,-90.0,6.000000000000009,-9.805124725192123,-9.104370339084046,6.1599746299803,-9.855059520961525,-2.7443793759185815,171
-67.26109456923795,80.82206480825556,-12.944062417309578,71.91665057038286,77.57517573441963,75.30828658581221,-7.281884638033365,-89.28550647950597,-90.0,6.000000000000009,-9.839705284950833,-8.85294445276651,6.529616515069161,-9.977461810982364,-2.6562327430755843,172
-67.02289925538001,81.52453964329153,-13.633086495954482,66.7052180054248,79.0680974694086,75.67655365290382,-7.17949499656584,-88.96039062671821,-90.0,6.000000000000009,-9.87855894275266,-8.707953082328038,6.802734498902602,-9.941164990225895,-2.3724956058449034,173
-66.45263353069893,82.2698844600928,-14.229393028912307,61.051623217482714,80.45067539744413,75.97727491901992,-7.072697342213914,-88.65221444046007,-90.0,6.000000000000009,-9.894105885856353,-8.562533682348205,7.055858098098512,-9.949060953638625,-2.156062481983413,174
-65.51819238745423,83.15799145263902,-14.84762937359946,54.652394533533936,81.82254774897098,76.20319000225457,-7.0451544095937075,-88.32182274353245,-90.0,6.000000000000009,-9.88845661724747,-8.402767773292444,7.231708191659303,-9.94351355232649,-2.0285123610100246,175
-63.79991663460615,83.33423771399076,-17.774730237776833,47.23818986831576,83.55407534002836,74.93528124539512,-5.263866757549499,-88.0680709442451,-90.0,6.000000000000009,-9.796030103635603,-8.248183296806067,7.329805047900038,-10.005403650313516,-1.9092039036544501,176
-61.72294341061209,83.86204167869015,-20.618615236263494,38.870255675744374,85.20086089326578,75.15013585667981,-5.223191019836665,-87.8927412868339,-90.0,6.000000000000009,-9.711429910051203,-8.104723390994522,7.561393556513408,-9.999255482433831,-1.7429374215473372,177
-59.29390877052732,85.43298133982759,-20.985292144096405,29.073153737490223,86.79450297676644,75.3085174104967,-5.061569345746839,-87.78692182845145,-90.0,6.000000000000009,-9.68563521118046,-7.971912541781426,7.919825063830716,-9.941570260879978,-1.572103211768276,178
-60.29010435951862,84.56733070260061,-25.712955384887913,28.29882286208972,88.34476004172464,75.4219811335278,-4.903750322147945,-87.75679825008295,-90.0,6.000000000000009,-9.680918519474984,-7.833271101172991,8.269100594815733,-9.923451670981445,-1.4534538358062867,179
-61.61392719780072,84.04842977566486,-28.07603296145712,28.298822862089697,89.89099887755334,75.5665712170586,-4.791318142680067,-87.82874733922733,-90.0,6.000000000000009,-9.651932850431256,-7.649713980835628,8.575304696691223,-9.946930304496194,-1.358558150238299,180
-62.61221105771509,82.97821540002973,-32.7827897163571,28.298822862089697,91.48223973345162,75.72077007722521,-4.635366784415609,-87.86301809519495,-90.0,6.000000000000009,-9.618715409468319,-7.443111490591864,8.942401764363604,-9.932285601782645,-1.2146473071914865,181
-63.54676853532319,81.90129045237482,-37.316439210253606,28.298822862089697,92.99664585055778,77.22541283681555,-6.231816868821587,-87.92896257163491,-90.0,6.000000000000009,-9.590460868709684,-7.244591381972499,9.477636577139952,-9.899405712097806,-1.072751673121954,182
-63.935817056692564,81.92932522634399,-36.85563641528802,28.29882286208962,94.72587051170277,77.13446317773865,-5.853601391797552,-88.135054309192,-90.0,6.000000000000009,-9.586038309461962,-7.037536150867573,10.16298871839971,-9.8802687306995,-0.9587686256191567,183
-63.68593408321256,81.71419534131405,-38.74397293789699,28.298822862089697,96.28678792833914,77.03726433267113,-5.367941479398593,-88.4652340010792,-90.0,6.000000000000009,-9.569202299941741,-6.857967196747644,10.924932665806267,-9.928324127745611,-0.7843967501728336,184
-64.32917999855215,82.61309702083157,-33.38129417972021,28.29882286208985,97.30577222444032,76.96660511138357,-4.734190804232119,-88.53736027424254,-90.0,6.000000000000009,-9.579843324437473,-6.720236276889657,11.753948345108956,-9.940883317344625,-0.443803207250233,185
-64.4654567063543,82.9894355954549,-30.352469006079552,28.298822862089697,98.32533640249733,77.07166916564181,-4.265107853950541,-88.89276917280755,-90.0,6.000000000000009,-9.624546598412762,-6.622371142310058,12.65032597495455,-9.936797940115655,-0.00841961418002686,186
-64.11773859047435,82.61303236285883,-29.68654192977544,28.29882286208985,99.66377407491547,78.79780850965169,-5.528640747440277,-89.90856988367793,-90.0,6.000000000000009,-9.585158110946173,-6.569603448087847,13.60795864993519,-10.082557987514793,0.6828859990600777,187
-63.74963457591193,82.10860928590684,-29.18414035719441,28.298822862089697,101.21414602843316,79.14737300115159,-4.965914199597767,-90.70989946658794,-90.0,6.000000000000009,-9.577182969476493,-6.448256606509774,14.50491523188939,-10.133162871165545,1.5172560847051142,188
-63.40031902576833,81.92934519230893,-28.78757198490092,28.29882286208972,102.62013022048697,79.25272232181318,-4.586423996294299,-91.10643275012028,-90.0,5.785511084767819,-9.61705816030261,-6.227904370259873,15.271547117256748,-10.073929761409445,2.010094612589887,189
-62.97467123600247,82.0225202082856,-28.46982962853452,28.29882286208972,104.00514421936752,79.12894676627624,-4.43757432924334,-91.357798993727,-90.0,5.525589538594952,-9.629713583638804,-5.974806970449146,15.89386523852353,-9.991632592330504,2.1880678077065245,190
-62.51332244802773,82.18944100249512,-28.204236922099525,28.29882286208972,105.0685194073798,80.409852603919,-6.226215438979969,-91.38896436998283,-90.0,5.220313301521441,-9.540717718795488,-5.665553526875678,16.443621359149112,-9.947541405712943,2.188179124173426,191
-62.13561364000712,82.43085459944513,-28.129540281171458,28.29882286208985,106.2575114159614,80.1572356848871,-6.3910141295316,-91.23328055167131,-90.0,4.9577040026079295,-9.430590235973613,-5.350298226271765,16.785354313503635,-9.808112913813959,2.105241939310652,192
-61.74223317417738,82.7608170632623,-28.075798253148548,28.298822862089697,107.37800061786378,79.80574930837898,-6.654602422011564,-91.04550531160261,-90.0,4.66829536123098,-9.37798068326274,-5.096721211525817,17.0585929112116,-9.588201198943695,1.9674423505245213,193
-61.20494335158395,83.07898107695644,-27.9911751199332,28.298822862089825,108.23027751336487,80.92646978474703,-8.774998013007483,-90.94960320932458,-90.0,4.261593212547745,-9.305463095156858,-4.825911456273743,17.34496626621971,-9.47322526158294,1.7663780721574684,194
-60.6413746529502,83.3092173408727,-27.959120453037976,28.298822862089825,109.44545238815306,80.57895035861675,-9.133388735531721,-90.93388324976952,-90.0,3.9073247117019987,-9.206360029167056,-4.591161889742341,17.57848315909466,-9.33633521137902,1.6232270480293403,195
-60.164319206650234,83.53592939426431,-27.866551577627988,28.29882286208972,110.25880608037559,81.70702939800294,-11.23573573380355,-90.81598816032398,-90.0,3.5345448107669872,-9.122224137563578,-4.409666385996272,17.86449401538492,-9.170721617394838,1.5282717777522465,196
-59.73184307964072,83.78366285140147,-27.77651501505943,28.29882286208962,111.21410349104825,81.29558077598564,-11.53746009768448,-90.66151308828186,-90.0,3.111060462549928,-9.03541664783852,-4.214930654120912,18.132902661441754,-9.046177199399908,1.3909664925559064,197
-59.275862823679034,84.02934385463752,-27.781240225668668,28.298822862089672,112.19921731611703,80.94405378988981,-11.939535000728767,-90.51206575492594,-90.0,2.731028228714147,-8.928217399618404,-3.994037851443027,18.2894277793188,-8.904891772452011,1.184427402715347,198
-58.775010709970665,84.21740520867029,-27.787400164334173,28.298822862089825,112.74384823696019,82.1173920908571,-14.106244721359314,-90.34157281731733,-90.0,2.4332141272276706,-8.735955485102858,-3.7721184035508624,18.444914191906058,-8.827476127886598,0.9755866283228947,199
-58.36222260617809,84.33254546359314,-27.772196285536953,28.298822862089594,113.70898771824511,81.79846984800643,-14.406287297472542,-90.22422474679466,-90.0,2.2615966007273287,-8.539618455001063,-3.581929961671852,18.654998211459436,-8.671023954453691,0.8714592083748695,200
-57.96227751634751,84.37169769741627,-27.777154799216596,28.298822862089697,114.72440584827712,81.4590447891742,-14.764802727134802,-90.22199535776495,-90.0,2.1412590250396017,-8.388469933849391,-3.4085550654838834,18.87463655784991,-8.486552639983616,0.8624967415676914,201
-57.50381275366667,84.39803007944988,-27.74125465866827,28.29882286208962,115.10152319339554,82.52435372377118,-16.89899610232561,-90.08722560400783,-90.0,1.9999301428967045,-8.214754341110588,-3.257386118025494,19.115436031548533,-8.372210458697968,0.8337401886109168,202
-57.01853492427929,84.47579127602738,-27.760264069775904,28.298822862089697,115.7616091755481,82.16762275480698,-17.21697598410631,-89.76399531997446,-90.0,1.8939843060801322,-8.022889579637779,-3.099037228751212,19.26604165426154,-8.246449544928632,0.7096432034947074,203
-56.54867346714637,84.55093509464606,-27.84792169341542,28.298822862089924,115.8224250538895,83.28161848898178,-19.361898690202647,-89.4586466981738,-90.0,1.7641585963496222,-7.79641443241813,-2.96272122873131,19.349161343976665,-8.110454813904063,0.6100818224453123,204
-56.07711985398848,84.55653931604506,-27.960263908650823,28.298822862089697,116.2540124220492,82.9773102365533,-19.63516541781017,-89.18857890203718,-90.0,1.6667017220653315,-7.508508898579743,-2.853030579395893,19.429956657434104,-8.019640686746396,0.5868628461347916,205
-55.60813312227019,84.56808259702694,-28.054238407740648,28.298822862089697,116.63946812767622,82.66798420699607,-19.83875179070982,-88.82096553830742,-90.0,1.6323141862797343,-7.247535065480069,-2.71841811559254,19.54800390241061,-7.882350176695739,0.5446502889024093,206
-55.15801598896258,84.59141776117417,-28.064816219010243,28.29882286208985,116.4337175692023,83.68498809630421,-21.82584178575322,-88.42366034687097,-90.0,1.551172704438445,-7.0091828318620095,-2.5685783798024704,19.72691727013549,-7.73125329271573,0.4286828364621704,207
-54.73829541852693,84.58920011104148,-28.08182394565391,28.298822862089697,116.69905475112955,83.25223122325204,-22.01487866524182,-88.02389561196516,-90.0,1.4594389890394333,-6.739664016048858,-2.434073499731245,19.884626870217986,-7.5930051411390584,0.3094828066206953,208
-54.32423468417536,84.58108677690453,-28.143696470217517,28.298822862089594,117.01231605049443,82.89808305571748,-22.213826526542945,-87.8299354123697,-90.0,1.3961803927969754,-6.427207965949272,-2.327443237349986,19.985503452890946,-7.475838159805162,0.20355855404054998,209
-53.91099561281953,84.53002808954629,-28.296237823661503,28.298822862089594,116.8811057033491,84.02736255426657,-24.29498205013714,-87.77567481882065,-90.0,1.4318572203792619,-6.135031361543315,-2.230798759130658,20.023970753246974,-7.324764355573862,0.16902184766465184,210
-53.58479586657146,84.489930790694,-28.372553979713036,28.298822862089647,117.19754221680792,83.70374705322916,-24.47122062523982,-87.69612454754329,-90.0,1.4385399623608222,-5.805303957145156,-2.1998843691643253,20.108092105676814,-7.199176756772691,0.15743402663398676,211
-53.27353297843705,84.5046717479966,-28.45071984055977,28.29882286208962,117.36452363486337,83.31522745800943,-24.651085108244512,-87.52211479176225,-90.0,1.4153016611491105,-5.418668472732884,-2.1869044505408763,20.16990910718519,-7.1156735828235975,0.11971201148803506,212
-52.947086215844344,84.53064860615928,-28.5558668657054,28.298822862089697,116.87808272594039,84.24261288882244,-26.67995038958179,-87.2391081612496,-90.0,1.3887497963944857,-5.032529204371801,-2.1056353149974165,20.22391818080508,-6.9994496726935305,0.01734883130350672,213
-52.70101702113884,84.58743913957969,-28.61730122277067,28.298822862089697,117.11297369133678,83.85586807456107,-26.83422183383458,-87.09817540791596,-90.0,1.3445437318894398,-4.630747388002374,-2.0205372365278143,20.28620573953753,-6.857772635233409,-0.1479988994769328,214
-52.56329860871544,84.63586029423234,-28.645431194387434,28.298822862089697,117.32120668021314,83.4675552737867,-26.961762494319668,-87.00652485129783,-90.0,1.2815670060421729,-4.257898874025025,-1.966131044769512,20.345683595628362,-6.674415840753645,-0.3101819402498332,215
-52.3838347443123,84.71695892038959,-28.65961734730012,28.298822862089825,117.39378773206833,82.9696978339119,-27.126261703087632,-86.80544987784364,-90.0,1.2169054155752201,-3.894587254346981,-1.889790453432922,20.40654526170617,-6.522885198008774,-0.5221368252683106,216
-52.4173640013394,85.35131162980596,-26.337251057093688,28.298822862089825,116.76704932699391,83.9234163001867,-29.03988902184743,-86.71862633645762,-90.0,1.153538567467187,-3.5121075759860827,-1.782124535430674,20.408909249478576,-6.372066813515317,-0.8069860994417889,217
-52.270762277032894,85.53218235726447,-26.38068753927387,28.298822862089697,117.04856487805367,83.48157688739208,-29.316484052299387,-86.78623160491641,-90.0,1.039242757307516,-3.1553928826480244,-1.638417370618765,20.382435506529173,-6.173133172318655,-1.1757721851688425,218
-51.82047512191428,85.25295753304178,-28.82998973438287,28.298822862089825,117.1600402471237,83.01958669819284,-29.571598881098048,-86.78805211042422,-90.0,0.9075416779487834,-2.8199077235815246,-1.5054465519668083,20.31901442188931,-5.9729260374071425,-1.541669101382282,219
-51.47900709962059,85.53370203957451,-29.097976781739995,28.298822862089697,117.07106798830701,82.72765054431525,-29.82944340805864,-86.61208805269324,-90.0,0.836552380941755,-2.509809710648665,-1.317285941309276,20.059531793993827,-5.762493206437879,-1.9467398710743238,220
-51.2122652577638,85.78953265837725,-29.42528307843538,28.298822862089697,116.94577043281463,82.54967401688909,-30.073302875789842,-86.37145656540147,-90.0,0.7846703586268985,-2.253889109418176,-1.1321819717292787,19.718331027237493,-5.502721054145722,-2.321561794158421,221
-51.06520452673624,85.99733108448214,-29.622139932000557,28.298822862089697,116.56924545102252,82.28138034232806,-30.154168761558935,-86.1239435079505,-90.0,0.5980607989609608,-2.033951405745651,-0.9574505115783633,19.47184729301174,-5.264915318718192,-2.70389514073661,222
-50.92077927794892,86.17897619985543,-29.908289432270102,28.298822862089672,116.1298962075776,82.11670064441789,-30.2396269300177,-85.98764495190068,-90.0,0.4787886987746186,-1.7793769330736955,-0.7546552585931802,19.149343041238847,-5.100510196856763,-3.0440386126615735,223
-50.48577375681239,85.92962532225391,-32.7493896682752,28.298822862089875,115.86697959584909,82.15725626569318,-30.43343964304989,-85.83689738982743,-90.0,0.4847285641924513,-1.5087998693555316,-0.5104774138618124,18.670230135267136,-4.899484276728965,-3.354770380524413,224
-50.36160794299176,86.1247758916822,-33.15535883419567,28.29882286208962,115.59825150323287,82.19958310560136,-30.56671919477713,-85.7464182691304,-90.0,0.482333688005054,-1.2361771063439801,-0.2681561666753342,18.201202685155938,-4.652663562094936,-3.729010692542476,225
-50.25130326949946,86.23307035560592,-33.560790642712206,28.29882286208962,115.33402860588605,82.32908839877817,-30.632275523201084,-85.90913697613655,-90.0,0.4647268541056525,-0.9874741861063926,-0.0802387970072536,17.749112606197404,-4.392417106105591,-4.000745165509017,226
-50.16910573398391,86.34553257206964,-34.000531369423214,28.298822862089825,115.05592055110861,82.44449663103572,-30.76019172492972,-86.08051603567638,-90.0,0.4070417238723169,-0.756630716861211,0.13472150527292434,17.279673988575553,-4.1784324232773296,-4.2375571768650735,227
-50.63490268406978,86.08482907143757,-34.371252425964734,29.7861842216451,114.70868668336954,82.48914601844726,-30.920510279372994,-86.12150116834009,-90.0,0.33781644265572774,-0.6129063390906924,0.3495093433635703,16.795449013502772,-3.906624204800059,-4.524836405050902,228
-51.12273134870964,85.55610474043591,-34.72580107625992,31.724260201324594,114.04507768925514,82.55254578105809,-30.974173136768247,-86.07611089798928,-90.0,0.20822741165339023,-0.47158568319121547,0.4884519848680721,16.279689613400652,-3.725736702095087,-4.735816198308608,229
-51.43053074044485,84.98043734014895,-35.15184711178383,33.34920116275115,113.07003835020603,82.66978623730908,-30.918809007605276,-86.04095838777918,-90.0,0.13645319409855186,-0.23135354477244607,0.5725480239429754,15.706612376272675,-3.6890240095327664,-4.811499697144742,230
-51.37663925212784,83.84959044421885,-38.041987688759875,34.95718499510452,112.90613645909438,81.57130552410035,-29.102825074748605,-86.06276116775828,-90.0,0.18036373699441513,0.026833822265437603,0.6041286303135742,15.074420304165834,-3.614894907505929,-4.740127484928769,231
-51.61553490760468,83.25967217250559,-38.572056836519856,36.426600537873696,112.28867992469847,81.74562650056014,-29.293772008709418,-86.36052243521533,-90.0,0.29902138097900555,0.2311991479488891,0.5842492541885272,14.392885414547955,-3.482599000953031,-4.651426787871618,232
-51.626832836813335,82.73239989928014,-39.075966979880135,37.582557960776015,111.68883158328183,81.85067383886386,-29.561402055354822,-86.75477096823096,-90.0,0.44531114481910833,0.40866025006298906,0.5737676829015517,13.706335480936227,-3.4078058857718982,-4.607621214393432,233
-51.14748548501925,81.59699008068611,-41.9056131735551,38.71465726084915,111.51834435151781,80.54889490332651,-27.90771937755803,-86.9728369354106,-90.0,0.5161198614974485,0.650981744776339,0.574902530297479,13.048884909021375,-3.4308114219295507,-4.5687300480589315,234
-51.17904356135798,80.94153182478635,-42.30555589524749,39.822040647245466,110.36938883056051,80.42965889583213,-27.883901718211867,-86.94516874201291,-90.0,0.5423541990613119,0.9246219544041533,0.5584755773507649,12.428992998213499,-3.394327299603038,-4.529557818417661,235
-51.10411377895291,80.31321707487866,-42.65644553992176,40.723074053289814,109.66661256502492,78.83639347594502,-25.97018117380349,-86.77615786326754,-90.0,0.5979186219593253,1.152825727489244,0.526970941542372,11.837290884187992,-3.2937359500797574,-4.513735115036271,236
-50.85192217849322,79.72726639081893,-42.99697173500484,41.42580035655347,108.34519572473496,78.554453090246,-25.878934423495718,-86.87158687618948,-90.0,0.6915883930265384,1.3334830692306248,0.4799243921044302,11.252119796092654,-3.226547775379271,-4.485389486550963,237
-49.95282212584326,78.60232359923837,-45.649340801792285,41.93544452141073,107.90209276237792,76.92521949863037,-24.06193212449939,-87.37800148004129,-90.0,0.8447165539366447,1.4596030925748973,0.4167155966019713,10.716746584569492,-3.139467539897974,-4.4913415772310685,238
-49.47737333485793,77.93919426945706,-45.87693876311669,42.29802584644419,107.28572292777719,75.2298386568952,-22.162888472465408,-87.78002458774996,-90.0,1.0041961337819822,1.5144285214448514,0.354507565518513,10.241312782833583,-3.036071159912972,-4.458203409590199,239
-48.85933485276854,77.22182443703693,-46.01983516604192,42.545193366794415,105.7962514129768,74.74283075678242,-21.863553676736508,-87.90601020379474,-90.0,1.2029135468593746,1.5440320798939255,0.3547398470471948,9.862383878264636,-2.97944278347204,-4.489202937238093,240
-48.152384814983904,76.4579357988429,-46.0267475949955,42.61318539923635,104.66841921835453,72.69416421000565,-19.60831501018152,-87.98158584722994,-90.0,1.4087318735428636,1.6378681270182676,0.36325419177413437,9.616953129104541,-2.9938659117466675,-4.56789926311913,241
-46.854079001358286,75.16320896416288,-48.506525296380026,42.546419009371554,103.36598008716014,70.6126173030642,-17.262949833174723,-88.05000176942706,-90.0,1.4961365987754704,1.7829422465041536,0.3468456367461278,9.34565863972538,-3.009427088383966,-4.589306648657052,242
-46.06617334526979,74.44380108679799,-48.651957118835554,42.382063973994235,101.64616582669325,70.00094387116519,-16.693380263034072,-87.98376435323384,-90.0,1.570484827465914,1.8118391199244517,0.38364525185136994,9.025426036784925,-2.8560510357753457,-4.613709851792036,243
-45.15776968243095,73.66320481745038,-48.60397960681117,42.03885239981327,100.15253162942962,67.79580925477276,-14.145338194007701,-87.91538993974126,-90.0,1.734872854854726,1.7587759526800508,0.4250796392376057,8.88452998533943,-2.715613163159723,-4.722201953300263,244
-43.41953053149183,72.36861426538736,-51.06312642704659,41.4037356588628,97.87192094799111,67.00268464572123,-13.140959286209997,-87.73495088327851,-90.0,1.8881958017476057,1.776837767797226,0.46181910864992454,8.747161501681164,-2.721566972895615,-4.785168640717484,245
-42.226424698933684,71.6381116706763,-51.164440427973524,40.43288219373995,95.7019334406496,65.65307592930577,-11.338034494100487,-87.48360690871327,-90.0,2.029229638067467,1.8184230710467086,0.4748876019301329,8.572510381673002,-2.7189577967220084,-4.753842287626782,246
-41.09494360316059,70.85833696347511,-51.195320531339995,39.424194737590796,93.53212784185895,64.3855391918303,-9.508707201596375,-87.19341223414008,-90.0,2.1816114837592124,1.7860036073834413,0.4853630866889751,8.49318302134162,-2.656831751510723,-4.729892846261421,247
-39.696933617116294,70.23223829835781,-51.24250819078617,37.95907496411012,91.26026988185336,63.10147161144386,-7.627870180587247,-86.8935431112465,-90.0,2.344577988748996,1.7689741195652242,0.440498822396897,8.440072985709607,-2.658846735450859,-4.681260951886236,248
-38.10540115207502,69.72280983921665,-51.32202608321642,36.091525418019174,88.86384860824374,61.79976735064714,-5.682581356812644,-86.47747386014214,-90.0,2.501148914094756,1.7839032699583866,0.3796388479851084,8.420858357766061,-2.7096121782871654,-4.619664496943896,249
-36.068987044551264,68.7675275017257,-53.87870936116065,34.245292018412705,86.20234163765633,61.99451702577276,-5.503021845708396,-86.12308430400523,-90.0,2.6718331487139158,1.731680907583793,0.28116564608450323,8.458902247127996,-2.6749588686407786,-4.541235046506829,250
-34.43892190770255,68.29181501341304,-53.969722729461715,32.1647956803015,83.60924125473629,60.822022790941446,-3.4433145386019635,-85.83797766169056,-90.0,2.9009653619129474,1.630850446199561,0.14270049218804395,8.49380071390824,-2.642633270442964,-4.412309171017052,251
-32.560319834705126,67.9632301935708,-54.10234395344706,29.60719036947417,80.81790588768477,59.683091476018184,-1.2701532540245075,-85.44607979326119,-90.0,3.165338201622073,1.6826669342134664,0.019325716039294685,8.555166054034364,-2.826515230734498,-4.308070208345276,252
-31.081499582847485,67.24407087647518,-54.18898920990397,28.298822862089697,78.03766434977813,60.04084832424002,-1.0366687952505158,-84.90809006335805,-90.0,3.24724771915665,1.8379832962478566,-0.07024872544730698,8.565433985268982,-2.9783494352807436,-4.209789523053156,253
-30.073225612906235,66.08721604914251,-54.15945447231534,28.298822862089825,75.30788008256054,58.99434521499003,1.1569236912965373,-84.20345193319856,-90.0,3.2287151424928298,1.9164555248861865,-0.15594294312901472,8.576083901809827,-2.9204240076687182,-4.110047177149091,254
-29.049375220791482,64.93071194737881,-54.05201643461886,28.298822862089594,72.48807282852664,59.398191297549,1.549314662536705,-83.32541367040344,-90.0,3.3102214512437462,2.0107995208305423,-0.20331363489141857,8.64305772398854,-2.919274321786743,-4.100880011168371,255
-28.072751367681228,63.814851906273276,-53.87786386612085,28.298822862089594,69.70850085319185,58.30601422107343,3.939142013171314,-82.42602565575244,-90.0,3.36330459591583,2.0871474956597926,-0.20020316713420608,8.704359810010871,-2.876136242492448,-4.215116542062996,256
-27.12779357949143,62.70158782250875,-53.685818476233024,28.298822862089672,66.89154221945843,58.68294041058013,4.421740169732046,-81.3186556883033,-90.0,3.4232102632608075,2.1682449513464435,-0.20011761704347772,8.799361610263082,-2.8413736076484684,-4.32791670021643,257
-26.190487343706785,61.586579717552695,-53.52614180285745,28.298822862089825,63.978960447969115,59.18985962328593,4.828513774268458,-79.95229312810642,-90.0,3.472232669689359,2.3325370327145123,-0.17792996975831632,8.885191838744811,-2.8754273152185235,-4.433936703884048,258
-25.730347787930082,60.7797319296075,-50.8280765352229,28.298822862089697,61.088413139550454,58.88329659134929,6.410257172295819,-78.51174272977411,-90.0,3.387729312849582,2.488671558279847,-0.1462693016433186,8.928733403019338,-2.826386883133562,-4.519833612820752,259
-24.665325248042357,59.67669340392488,-50.74957038501172,28.298822862089697,58.391653148789224,58.66027763732348,7.81722383378766,-77.01603622658946,-90.0,3.353313795171866,2.623621603761013,-0.08411806944969463,8.988601236446751,-2.7721602568140122,-4.617715028589284,260
-24.4257336070479,59.0934726747144,-46.72530829217651,28.298822862089672,55.621693529088226,58.50594993715595,9.340234950336344,-75.30701017114667,-90.0,3.3440701699707835,2.7790696056259945,-0.009612009264820455,9.119196970013805,-2.7387255195019082,-4.793408160658949,261
-23.97048224531319,58.39938152279668,-44.194981786234415,28.298822862089697,52.76416890198456,58.53679427676873,10.931211671497673,-73.18681009754958,-90.0,3.219196194207218,2.905091792835212,0.08259441191078462,9.179212322900066,-2.6249917734916925,-4.92289941789701,262
-23.379913080078385,57.78973967962187,-41.721551738108225,28.298822862089825,49.90723100133585,58.61271396842881,12.50593301912573,-70.936147013345,-90.0,3.169557934815615,3.0419524187917237,0.16169754630052774,9.204216929004213,-2.552032472394875,-5.083318109669449,263
-22.805922345135183,57.249735342935644,-39.27893426262518,28.298822862089697,47.162626540468956,58.729937463212,14.00523439104256,-68.94364825431704,-90.0,3.1095935568447746,3.211526077678796,0.0938056358294971,9.260678043861649,-2.5202596785752367,-5.102605813287408,264
-22.631326560549272,57.03494006379303,-34.31828101235765,28.298822862089697,44.41896279500489,59.057872286348875,15.487474318254002,-66.8569143784054,-90.0,3.0324141318337046,3.4332134200972524,-0.018387691778131387,9.403511320232484,-2.5757341324556187,-4.992381132471752,265
-22.00763641878226,56.5004547501375,-32.101563364924665,28.29882286208972,41.94283894181396,59.404405250313324,16.72037725320988,-64.55337717614533,-90.0,2.9165480527280097,3.6573143442389813,-0.05962963087607918,9.425119270239351,-2.5656476788798876,-4.885136235505295,266
-21.602418034087556,56.58970449685383,-27.46680964549581,28.298822862089697,39.33180507534837,58.61056856040959,20.113534128826206,-62.13617907511825,-90.0,2.784640844201659,3.8113651132577915,0.05175874760411191,9.369532487411872,-2.441015447209722,-4.954157440354103,267
-21.11233206321016,56.76550721127005,-22.823132699118663,28.298822862089697,37.22263304979288,58.80926684728654,21.09526931811397,-59.90916506346384,-90.0,2.69260511185846,3.9502170394008402,0.11946002024750758,9.323956249648885,-2.356947543300692,-5.0483495027880405,268
-20.413984387619802,56.429406512131635,-20.62230191321486,28.29882286208985,34.56221275680783,58.061325701821275,24.556177602755948,-57.76124247271866,-90.0,2.6226367732040696,4.155194127891452,0.0430493836253944,9.310772624074094,-2.363443685314684,-5.034398011836196,269
-19.81105910584858,56.73107080941452,-16.1765016686393,28.298822862089697,32.107720962133314,57.3119086891425,27.812528856175344,-55.731659921707866,-90.0,2.4994978641304924,4.365000822107213,-0.0316433366395826,9.169884808309412,-2.3275091920064273,-4.9181136461682,270
-18.96734745741344,56.591020783664455,-14.258522455094564,28.29882286208962,29.68008173233063,56.594213767335056,31.066208871355467,-53.82491739286943,-90.0,2.4093901369934954,4.546675407856093,-0.08430732294423772,8.972094072233666,-2.2554439303235245,-4.8184253248803905,271
-18.04062990409327,56.55140678949403,-12.433659032647991,28.298822862089825,27.40300825304469,55.7619167949493,34.191787032458095,-52.20431584032064,-90.0,2.41204156073854,4.6925587232747255,-0.1263240568540546,8.704814959557007,-2.1552725220321243,-4.708808570783545,272
-16.93246984563375,56.02158184986319,-13.01337745497967,28.29882286208972,25.779936400654297,55.52493858880463,34.7040206991853,-50.862143227624024,-90.0,2.426427877322672,4.8248683398532775,-0.1807282875472744,8.46667691618419,-2.0922458140048747,-4.637535804451452,273
-15.721534781860667,55.56720631594882,-13.643230144096089,28.29882286208985,23.499720876970194,54.43977837181133,37.81556124892532,-49.71854202056669,-90.0,2.426073851972023,4.984263136204717,-0.21493923106096183,8.142112774266199,-2.093558406522973,-4.598015328807506,274
-14.593217339688055,55.13989177150184,-14.242822033410421,28.298822862089697,21.16612943413525,53.38302636566424,41.05414364330801,-48.72617300033083,-90.0,2.4262198275760407,5.13107105411487,-0.270350080544309,7.751000277871665,-2.0383269798093053,-4.56817232639223,275
-13.40073854801616,54.74958354783829,-14.975571108993083,28.29882286208962,19.54886481396088,52.98080470494408,41.566649191150134,-47.79013507442437,-90.0,2.404716685501337,5.250660708634981,-0.32967481340626337,7.292996747275158,-1.9443262008473847,-4.444713157679422,276
-11.934603009521286,53.91984410941647,-18.298310491787305,28.298822862089672,17.899318367589103,52.648490694751885,42.06222021982165,-46.72229647981697,-90.0,2.370469879466627,5.3697349909353855,-0.36008974367121316,6.777793314596462,-1.8662054441639702,-4.269487266711872,277
-10.49665175774733,53.677907947986526,-19.290492737995432,28.298822862089697,16.567149190729122,52.10611011509873,42.338179616127576,-46.19055259090579,-90.0,2.3813017289130936,5.382516051221048,-0.3643163361426164,6.18553573622485,-1.7057451880189125,-4.060302689227497,278
-8.996948956848343,53.34495656248134,-20.268391567110594,28.298822862089697,15.108331371490051,51.75135211328692,42.747175449880615,-45.60060458641862,9.967766601020626,2.4112374761615367,5.51593906440978,-0.3838221218017588,5.723361197473473,-1.7193253603390828,-3.86048768056441,279
-7.386126936698313,53.04013777898208,-21.432832181613378,28.298822862089697,14.598590138362836,52.049782231812635,40.35505961438331,-44.73623045131663,5.3614378014052075,2.3788037870079557,5.614195269870858,-0.32566388354059067,5.255594033173248,-1.598958325272787,-3.6619859123771095,280
-5.91680048632987,52.9952001092168,-22.347721801033135,28.29882286208985,13.284838161101973,51.45338518017148,40.86093060333681,-44.14982684583796,7.336710099990833,2.332164903425631,5.860085676658629,-0.2968212779733613,4.580988553027045,-1.6466485468332008,-3.6374596706821976,281
-4.716813490264521,53.252257723065306,-20.829360479214724,28.298822862089697,12.260841358726537,50.85319918776407,41.23672182097515,-44.01064383252778,7.67269491444191,2.2284720461863383,5.974382127721086,-0.2764293660443232,4.124421153126812,-1.499881615213034,-3.551862128583482,282
-3.2013372935635673,52.93161830239925,-21.734686929011705,28.29882286208962,11.74464497085083,50.89821689171121,39.04162773333251,-44.00364038165847,9.185857139037253,2.2103925358821295,6.050025874958255,-0.26076391075977,3.720129586903683,-1.4223586447182286,-3.5498431492261275,283
-1.6675437247693587,52.490094047318365,-22.612737589468104,28.298822862089697,11.33504962138863,50.88618365928577,36.77556477592399,-44.54690056642326,10.121865637471478,2.293232634420297,6.041171358924838,-0.2636289810164981,3.3541316590294983,-1.3372297604854615,-3.5547238969618196,284
-0.06576721054462938,52.01013710641625,-23.590848477243707,28.31745252923391,10.385572116194886,50.19607375803544,37.04853872646574,-45.32391666072239,9.085154420037581,2.3639144999081974,6.037194456746994,-0.27651755069983913,3.0115629144468583,-1.3060157051314802,-3.473648133573409,285
-1.3221073578856866,51.26738418293233,-20.50341659009693,33.40165252954905,10.280613995844243,49.99897490933306,34.47802623729289,-46.40783434663166,8.100282783868108,2.4484971711959624,6.052639058792306,-0.31920468705414834,2.625628151683049,-1.2836962270241057,-3.3067122400464095,286
-1.9785539252514297,50.086468662323256,-20.07474818139774,37.73615927187463,9.677504897119658,49.040637268362815,34.54435619358178,-47.91738990815711,8.358314259229445,2.6081623214682543,6.065250251353538,-0.3773124186864973,2.2859486918229504,-1.2554514449568523,-3.1776535022116326,287
-2.7553496528187083,49.59329829190218,-17.187620636132465,41.59238697666191,9.71382143413513,48.92030945218596,31.991649845821446,-49.615857483899106,8.636494777915892,2.917866653763606,6.002366476924251,-0.4156704574239928,2.076023450105124,-1.1839493701924635,-3.1325123165408044,288
-3.2485773828402356,48.238207740175056,-16.675398959286284,45.65052342198558,9.603298350705948,48.827603584921285,29.448266686781768,-51.45217457353057,9.454529021753993,3.1889336472041103,5.898554321464155,-0.48690815579553515,1.8997560634506776,-1.2271712963814987,-3.0617250854519775,289
-3.5364765162324647,47.032397719207445,-16.385130233684745,49.47977227082712,9.130080991860916,47.73513782881621,29.29233145381942,-53.45126540752403,9.151204980110462,3.3678207040748096,5.775967674639213,-0.5478760284251412,1.5740026755981857,-1.2160043686148643,-2.873300458098924,290
-4.1883453991683295,46.69258066021376,-13.601560570519379,53.18619891388234,9.32834747043267,47.57940848852044,26.511613411443395,-55.47302011125027,8.991818151229587,3.545691344315596,5.643143413100534,-0.6231845408962043,1.320078338272954,-1.1944840325693606,-2.690852102246992,291
-4.549071250132929,45.39159861511781,-13.201264228991901,56.786256505527774,8.838899697518041,46.6257930855939,26.438325549693104,-57.42860811221318,9.679805906284198,3.784979429661475,5.5400621061334325,-0.7221260298285805,1.1176351711178303,-1.2122158292702776,-2.5305463451896366,292
-5.157976250965659,45.07783060899779,-10.468881295026256,60.25916826195968,8.979602853665028,46.607420080871584,23.755732730868278,-59.40110457479519,9.774238799854306,3.948293537864546,5.485964084534853,-0.7816872830319188,0.8755574683056707,-1.2610349286561067,-2.3935241595521384,293
-5.734350892752208,44.86485805180763,-7.862673831445826,63.61523271283486,8.5746925848304,45.523268810393645,23.6287972424543,-61.40396470578335,9.76386605956909,3.9787293551062017,5.4927569196512245,-0.881487340360569,0.5910990861454849,-1.3078970079630912,-2.182991761774638,294
-6.035938854389834,43.589688386055265,-7.600945604660372,66.72830776322262,8.937420280197536,45.401253895269114,20.91282605749588,-63.56104295578799,10.6160766891758,3.95686295399742,5.441154546065007,-0.9357452839267547,0.32882397363746224,-1.2349851738403825,-2.0685441669060616,295
-6.4643551180059315,43.43682979584987,-5.072670056001134,69.66960271048583,9.129594081845967,45.63805581136759,18.368943081213118,-65.60899918493276,10.862494311800004,4.095116560424753,5.323307798161772,-0.9763918116016737,0.14870270227766738,-1.164106632882857,-2.0215623094238446,296
-6.612846494660782,43.34535661024978,-2.7980971382599953,72.43358721592678,8.892409743953358,44.910714417122094,18.162547963618337,-67.76482442880544,9.742974348151208,4.221783955511035,5.206225745627322,-1.014752893293488,0.030641105504864655,-1.1624731346439598,-1.8931690093400635,297
-6.647434177149797,41.82682799902252,-2.641484931835963,75.03997942645219,9.037972994662468,45.32382283645113,15.635858273363436,-69.94951441036355,9.635911525092046,4.334431636762517,5.076398058283253,-1.1006955677784571,0.004856258011191294,-1.1448577742330874,-1.7760157994519705,298
-6.47803771129742,41.60549450021001,-0.5879546139257433,77.39440279857853,8.764655719618434,44.50346674584302,15.509895533365833,-72.22613393356126,9.937219221943216,4.50746202261615,4.9883958408501465,-1.1730364517888088,-0.06182802999178894,-1.1869722221993144,-1.7064615385778241,299
-6.362667367590035,41.47373283032455,1.5028995930461453,79.76053806901169,9.023196770776375,45.04849446730798,13.036708583285398,-74.45024521339279,10.915733722714188,4.504468152299698,4.912583869351631,-1.2337468887285556,-0.0386140546075927,-1.2022493794542075,-1.6767537541591142,300
-6.31737752591156,40.35577668216847,2.0172811632595904,82.07115899603907,8.829902681279346,44.37594038387839,12.932472205806048,-76.59522234239408,12.545125396038083,4.415716774718274,4.835601072148658,-1.2740351544575803,-0.029765941513328637,-1.1923177070286584,-1.6405777061544258,301
-6.062326573191998,40.709850423300004,4.386547489863477,84.28367025154164,8.688550452390253,43.67066508404541,12.749241028119357,-78.77428204832219,12.810382819035045,4.37399619641763,4.778609908533617,-1.290522431114848,-0.06739364572699243,-1.2189240129007322,-1.5905774224258986,302
-5.890829961458562,39.65372450150141,4.832700688320575,86.41388100744604,9.050373305888494,44.35083992684348,10.254849777542352,-80.98425511402337,12.70190269245478,4.312414525823106,4.6989620366072735,-1.3244611049037263,-0.06921628995562369,-1.195179081593311,-1.519446141305205,303
-5.578019282736948,40.09955566444089,7.167025039020703,88.51671768965561,8.891577849414615,43.77269997180017,10.141884030561569,-83.05176664245116,13.747280015950246,4.235781827713327,4.579892326306158,-1.3937674872030907,-0.04524884795759309,-1.1552054224856232,-1.4498750381180325,304
-5.400772234868614,39.16473755213919,7.722504147134145,90.45591756782915,8.727780815809977,43.24347686106326,9.976361701739242,-85.0137018971122,14.006698433496592,4.178893505594935,4.544626756195342,-1.4547917062132358,-0.06719096648680872,-1.2393737540463245,-1.3387102270476683,305
-4.826989706126529,39.76995044867411,9.71635768618381,92.3087645432873,9.103291878962066,44.22370714715671,7.541241616609999,-87.04402501595857,13.1527370320345,4.074080976682901,4.481472223227658,-1.5027981286209477,-0.04430487516938347,-1.2265676226515034,-1.1976696192604805,306
-4.7061911180929155,38.89690623638043,10.250529977611448,94.19063546439756,9.149484903867673,43.764988891083284,7.274167655388527,-89.22128762069212,13.039336689053329,3.9878919426189174,4.2521210252188775,-1.5717423695927657,0.008485161298867621,-1.0953392219819034,-1.0873657569751658,307
-4.224097691945125,39.67491071225914,12.48674184451757,96.11286133046235,9.023858519862413,43.62385115780423,6.838823584284011,-91.39485780553578,13.721874677021436,4.099329194944967,4.0445197125963395,-1.6295933760401038,0.06803668802938545,-1.1397048674568815,-1.0770057797123171,308
-3.575963229659098,40.5630487914457,14.492772144246407,97.90494028524807,9.153606513788915,43.69505796136372,6.081195152483523,-93.6163234972133,13.858771450751114,4.12966878469763,3.9610170135232443,-1.6556055342250213,0.10673843689811068,-1.297528651802818,-1.0535392743569467,309
-3.7222341170596804,39.88574826553552,15.235834747296877,99.66123282750806,9.39847121128469,43.87089121827252,5.415956476178636,-95.7599637654347,13.872033825662964,3.9490877247165197,3.9001644718361,-1.6975928088587091,0.20711404562874658,-1.3637758202278603,-0.997641762692381,310
-3.241566463770124,40.81477474085732,17.23726212252083,101.43738489851091,9.748655263668955,44.071202862521396,4.809471291392828,-97.82282155542474,14.782897328500411,3.744444788341404,3.8541324207004584,-1.731659595361379,0.32914351408882914,-1.4106157737027272,-0.9539810215842189,311
-3.796705530057826,40.27031933716842,18.302256669373147,103.41585107373012,10.17229798483993,44.27664662298549,4.302155847284281,-99.88537894719754,15.357486124396857,3.660312785680147,3.799184570971622,-1.803286322169229,0.4412767849137268,-1.4365194033596378,-0.9058385341223033,312
-4.466412794914314,39.94157186573608,19.425079541525026,105.36902497033941,10.691261456974535,44.43287973359366,3.7127538984593897,-102.01795290873676,14.709216726535281,3.65904316639322,3.7039044482243915,-1.902989271422502,0.48589632194811216,-1.4670487957538323,-0.7729351171877971,313
-4.154462937364965,41.275434624148374,21.484600457471224,107.14051006761623,11.325183900434896,46.269785502269926,1.278689585978172,-104.21234334295173,14.991114381407371,3.613103936627512,3.573934185694538,-1.9771475142884356,0.5491663174211652,-1.5043428652548907,-0.6687793593150133,314
-4.872660360464767,40.93906647710426,22.654918986012074,108.87834580751249,11.914589813935494,46.51095318807957,0.8525348883118162,-106.41639063385132,17.280567457050385,3.4722859814931093,3.439155589176007,-2.0187786131548418,0.7022524986369624,-1.515877902174197,-0.7021036996379638,315
-5.856316163158771,40.738693067543565,23.991038657976123,110.71808229837382,12.600031331097194,46.78708676751972,0.616160880779679,-108.52346034581342,19.930551276668993,3.3217579615917763,3.2996931240425287,-2.0771302357106767,0.8647141417920651,-1.5026252258831017,-0.7559554270561956,316
-5.78863767132927,42.32440304318786,26.180620067849866,112.56260282457369,13.363346057115493,47.02276383412437,0.33396116731894965,-110.60219138346496,21.233568993794222,3.2660501620642526,3.1451939730755476,-2.1588565970802365,0.9951698824804379,-1.5367208981079967,-0.7464191909608768,317
-6.8258027287021745,42.396416558313305,27.587279457741403,114.33297381399554,14.094357527670704,47.24430231274722,0.025458095653123868,-112.61626933139982,21.341217876432808,3.239191283789479,2.992822480268012,-2.245721461907187,1.104274285135111,-1.6248584586395718,-0.6861584144039163,318
-7.932207966280694,42.69952312295896,28.859928036154464,115.99980483031123,15.05871170748543,47.46448891549891,-0.2304361205925676,-114.56929220583046,21.110167209786315,3.1542713532886606,2.8722259648124013,-2.308826398784763,1.170396130001475,-1.7062034920270963,-0.5996640983766,319
-9.174562636632178,43.22400330541888,30.04478007875782,117.5759365443774,16.16021174945281,47.72720427213197,-0.24543499978313704,-116.4380192113943,22.48008080994737,3.038532432847423,2.763884961135784,-2.351401938231341,1.245398901237644,-1.7644424254914242,-0.5806163269303176,320
-10.511049572966527,43.79788839187578,31.343641975229264,119.12265055388568,17.200371438089388,48.04663897305157,-0.04458544709991986,-118.17893903076428,24.452420069527214,2.8940853688313375,2.6219952595289264,-2.432578423147933,1.369116261980617,-1.8102307155982982,-0.5725588227112326,321
-11.874451399540304,44.594332604739755,32.57632942876487,120.61867560325092,18.479040435477646,48.34290048811964,0.10955764165667586,-119.91937592577234,23.86846491799243,2.7769696946934506,2.5150294748449658,-2.5349382012779467,1.452901254492802,-1.9143384213969936,-0.4733235722771081,322
-13.41603940109786,45.712167668283314,33.75138691238376,122.06519780876,20.037391814731613,48.577933740558905,0.31236368413607657,-121.60227415943108,24.612967544021153,2.626411790410581,2.4516699960367876,-2.6432184661422626,1.4951656771675204,-2.0050074688721344,-0.38121881584869555,323
-14.98794055162485,47.0771571133481,34.818865587335715,123.39994228704174,21.68479251312758,48.765793191311054,0.6595652620181859,-123.16989514090197,28.32872417488637,2.4276614827112213,2.364237086099693,-2.780878104099571,1.4648299682956711,-2.032059553157134,-0.28688098321505795,324
-17.954064309518365,47.074124611191515,35.1784042345611,124.68251903552581,23.437937332210137,48.98512284955924,1.0498454562291282,-124.7479955085091,32.40478620864122,2.1903328359475083,2.2763693925978528,-2.889530484210339,1.4350698308909857,-2.0901646977570674,-0.19340495473044422,325
-19.48406971215476,48.75106770702266,35.99506314515183,125.85968655371516,25.39844159391792,49.26089859010732,1.6167595223888398,-126.26325756951495,35.54715575195294,2.0252071253249793,2.1595996431683937,-2.974351163536816,1.4591864460691284,-2.120634665254469,-0.15341056652087157,326
-22.46045262823396,49.17348209220105,36.098486020319484,127.01305110209506,27.540695331135783,51.42553329903771,0.8379217369723778,-127.52101984984895,38.527912167362146,1.9775127803785437,2.0626007165789444,-3.0689674960489,1.4328402211978541,-2.18229979369803,-0.12433767261741076,327
-25.418254237319417,49.84465368327063,36.06279450133239,128.05173922001018,29.744594008741796,51.60395224631198,1.5716601925865583,-128.63511999250608,44.19015832484477,1.9497883793154522,1.9636245695393917,-3.1733677729195566,1.3639315116434285,-2.227942421525419,-0.12769749889404172,328
-28.375779681175214,50.74715928982602,35.94451212704472,128.90446934719185,31.971814560922056,51.08855871089944,3.097352963978465,-129.53592166081808,50.14019640409094,1.9474515277064912,1.8315044887658438,-3.2586331607586834,1.332978326707659,-2.246264077820487,-0.17742635798543827,329
-30.34951831985085,52.72992377804754,35.84114557479649,129.72505824584022,34.37242277667757,52.81357774617161,3.083278869320576,-130.1881716969128,55.30368015940494,1.9428951589091155,1.7104142200665517,-3.322881813666129,1.2580307575210488,-2.2997448128262845,-0.21932657423929372,330
-32.51743096433645,54.37666017153805,35.00713108406943,130.37649849023856,36.78085998578933,52.63579493496521,4.662276078582914,-130.56411201123055,60.630487705151225,1.848774730952913,1.6416580054029644,-3.3661111854109294,1.0930460348473447,-2.359801286852759,-0.19087558125714396,331
-34.71579918129811,56.142826554358464,33.906496212474245,130.79289818164855,39.24924040774454,52.40388892558487,6.370268023155916,-130.63424888308708,69.78210093487799,1.7688806493427467,1.6399453128281996,-3.4019532338790905,0.902290593347403,-2.4397199215831322,-0.1587218954062637,332
-38.104986259091284,56.358874818374154,31.643845118703723,130.99054283947763,42.05555474083668,53.980772110358025,6.511716998747673,-130.56546446455644,80.98175820454018,1.7282669752242796,1.6202442027085295,-3.409068676589673,0.7082277032169186,-2.4462202332003966,-0.13134780359194867,333
-40.25043117505217,58.12462353906935,29.95351481842511,131.01634329504898,44.450342485435755,53.552236149947696,8.45489947893598,-130.42793220767928,88.9524352474761,1.766421334859013,1.498068431973805,-3.407072111055521,0.5863282539025082,-2.369535972120278,-0.13965595902570793,334
-42.32889205158672,59.92517777587319,27.98991107392634,130.88051470828623,47.0475789180903,54.8244800271799,8.75668391012028,-130.1107642948059,90.0,1.835397418153585,1.3679603058086696,-3.4002925561321757,0.4100500204253636,-2.3650754525210727,-0.1783881435976435,335
-45.29591606713104,60.021168087103355,24.612880127360487,130.6185202216728,49.58269331458623,56.02411289854095,9.158645200091291,-129.3384026082988,90.0,1.8903439245729126,1.3174346711615401,-3.3676547741959952,0.1036729333498617,-2.421762845443313,-0.23584747631882708,336
-47.08416229591565,61.569666760151335,21.790121497798218,130.26042709022528,51.71410616176962,55.337425974255645,11.337136687847142,-128.16368220070848,90.0,1.8981452407813755,1.248538010450355,-3.312190919200461,-0.3048133810835583,-2.390965207381532,-0.25294859846557305,337
-48.79580249201131,62.85245997065464,18.826912068585255,129.7281634990402,54.26177600458227,56.4033825646859,11.779849295506754,-126.82214428202047,90.0,1.9450682016135754,1.1557915886873673,-3.259963112528617,-0.737696887039326,-2.364560540900672,-0.27978370222330956,338
-50.66311193405694,64.00699743308442,15.888028080040737,129.08170383375992,56.39060948461531,57.29477855797785,12.369704665100286,-125.23612162562172,90.0,2.0475411101868275,1.0553141263521457,-3.212822618696221,-1.1247841210224638,-2.3852807309447384,-0.3880549348679854,339
-52.63743636514714,64.96304318338537,12.925379193063417,128.6214061032712,58.35362781399778,59.18310253489529,11.98089611449348,-123.48703212177685,90.0,2.216300586346746,0.9476000823450371,-3.2092804060983173,-1.4592596030053386,-2.4569871220606503,-0.47043817461428183,340
-54.25366319919543,67.67684284518268,11.052411063578033,128.2204991944279,59.898594929059385,59.709020152968186,12.752693207614454,-121.47987053816313,90.0,2.3894886216209805,0.8211036732702574,-3.2117462086173774,-1.7898614939245197,-2.4192479230939647,-0.5718619031949573,341
-56.069160537534,68.35413980910653,7.564875883598804,127.65097363951185,61.351073950638934,60.22914778289871,13.419691625630149,-119.29513870784686,90.0,2.518153272304177,0.7165245807477862,-3.2033323841338572,-2.1718933360366925,-2.415913031141319,-0.6802951186099113,342
-57.730161623070586,68.80334443645229,4.075846745428166,126.98706796125245,62.33734097027961,60.73018963897542,14.204395587878187,-116.98522123486792,90.0,2.7044297995276234,0.5933078038454123,-3.2488667361362724,-2.4483241116450407,-2.428583327347137,-0.8166584619080293,343
-59.04540058124115,70.89664305390907,2.0828914382856554,126.45175898805876,63.458171715058555,62.87204140170152,13.117959994591299,-114.67230372593363,90.0,2.8317932869912883,0.43095516938851447,-3.309615534217467,-2.6143049403271865,-2.496888389218631,-0.9886507158005428,344
-60.46076671875033,72.8053822954825,0.2343441489218265,126.1411816688334,64.07557758123642,63.116075435583596,13.786771129076387,-112.55740016822058,90.0,2.9975077404005166,0.24776349685965623,-3.3302025708257323,-2.7003743685967088,-2.5935695893269943,-1.2649741328628339,345
-61.96191482254294,72.5438761099948,-3.037806898756298,125.85812820838922,64.38083643078396,63.43895616983874,14.502046191671713,-110.26835448248988,90.0,3.1267470007853637,0.0535728430231668,-3.37936543609967,-2.74229418129553,-2.612453587436791,-1.462705791246582,346
-63.09771406741103,73.33968797722433,-5.308728338506164,125.5121769903758,63.95766387890709,63.93186057161714,15.305588695159587,-107.72070261103823,90.0,3.104984431558827,-0.08620139603728552,-3.3906164477321896,-2.706794256348437,-2.7309758496788943,-1.5656087764225477,347
-64.02175053796206,74.59889294427767,-7.120524786020504,125.48841164009323,63.503485532892455,64.41322637466934,15.92979226233825,-105.33509810603555,90.0,2.9369583192556084,-0.29985304833271204,-3.2993713310819053,-2.610833098419951,-2.8355386599309926,-1.6496311732131002,348
-64.95428808462162,75.84970588784333,-8.713914094888183,125.46526632222077,62.889217153679255,64.7522040561201,16.52735856338903,-103.11405888778826,90.0,2.9062715342896106,-0.5387202739020099,-3.211685425731544,-2.523303110297848,-2.935372740330732,-1.824741031599378,349
-65.28747134758963,74.97822675835373,-11.716640185001854,125.50078341395555,62.00310306757466,65.2644078979566,17.12679857670048,-100.82522738860241,90.0,2.7749251269658997,-0.8034467577626122,-3.1146352188106783,-2.33230147740759,-2.9900703454442823,-1.8315619641628649,350
-65.75439895523334,75.87371695119312,-12.953692146365464,125.72694326301193,60.918136935780495,65.77068478437077,17.711557275297228,-98.54161113508327,90.0,2.5986375003964093,-1.0880600680801258,-3.0154128060503558,-2.1201331299967627,-3.03033236235205,-1.8265774102890502,351
-66.16723486880184,76.75348087540512,-14.237355906633324,125.89596786128612,59.672298132503215,66.23918276006522,18.15756922153013,-96.25929187994879,90.0,2.4394650251062275,-1.2206492281717682,-2.9627903464267367,-2.054224890022921,-3.221068645247451,-1.7625901768596839,352
-65.98975436644105,75.70974948999027,-17.148214852632936,125.9793435811263,57.64669167337584,65.33212940760845,20.6284954658795,-93.87933881290736,90.0,2.3152427450431516,-1.2578579907142322,-2.9464064249121895,-2.0247867297839153,-3.3991166188828212,-1.5685903481073094,353
-66.024110148282,76.25888696352325,-18.21039380718543,126.27867981706127,56.19173114505901,65.97544759308012,20.97346850648564,-91.55887167354476,90.0,2.1783270238148407,-1.4099970767647758,-2.918169706574378,-1.980379350745236,-3.407050666609536,-1.3123019844795936,354
-65.20115855532973,75.00423807517083,-20.934997473808867,126.77642303843737,54.73077674320695,66.52673904536951,21.17966114152022,-89.30607769335842,90.0,2.0504344464093585,-1.5532297268011703,-2.878771157159323,-2.016792902112112,-3.45500346564089,-1.0669582377692777,355
-65.04638426492214,75.5836903201716,-22.003110047199318,127.21241159640822,52.49474826040106,65.6508093766906,23.529860445497388,-86.89149395032615,90.0,1.9822486529449632,-1.623498218530839,-2.8551308397212742,-2.1559863332598668,-3.49038326866153,-0.871092402343693,356
-64.73569466067114,76.15822170506573,-23.013388845197756,127.56383800082335,50.727892278777766,66.17130688136878,23.76524641762579,-84.28166088013064,90.0,1.9699005464593349,-1.6573135330966222,-2.7987904218759514,-2.3123048193771534,-3.5195563957220792,-0.7334775218630085,357
-64.37015513472758,76.7030259040116,-23.874028591371005,128.01022389895346,48.763802095887044,66.65568453295151,24.06960847514368,-81.62247736149698,90.0,2.063472747013914,-1.624691286197684,-2.7507000634956027,-2.4429140395656135,-3.603640126918606,-0.6507294916453005,358
-63.10953730388508,75.51622361236235,-26.53023012893732,128.58661980222055,46.35298428068913,65.75540154485039,26.40096122399033,-79.09238616539277,90.0,2.1446396151790355,-1.5723059845899965,-2.6673331218144307,-2.740801643636505,-3.6059063368401034,-0.5778706127892159,359
-62.82030541028359,76.02622800887075,-27.407158575483237,129.23832105690838,44.57236694972522,66.09178348051562,26.53818953468019,-76.67826297220049,90.0,2.279160502846532,-1.5097489314803259,-2.577220767273034,-3.048391950191055,-3.574595339164131,-0.5585467631822045,360
