JMW9912/AVATAR/install/dynamixel_control/share/dynamixel_control/data/csv/poppy/.data/waist_test/2DoF (2P)/0422_1747_Anysong_2_one_waist_poppy_smpl_motor_degree.csv
theta1,theta2,theta3,theta4,theta5,theta6,theta7,theta8,theta9,theta10,theta11,theta12,theta13,theta14,theta15,frame
-79.97867654416812,81.25327195619201,-26.0200286211538,28.298822862089697,90.88872657233303,77.18640641539629,14.65793976528135,-58.15764662324877,27.598409163339173,3.468021974620322,-9.240782347037953,-0.9800611137302001,3.088577713914869,0.391416418606264,1.7404704155701751,0
-83.0570190668491,78.36263589306604,-23.993339064098283,28.29882286208972,89.32221429502204,74.21087788262504,19.621340823249895,-63.110097924472356,31.356933855957127,3.7459958013031063,-9.103037115260012,-0.6101966225978018,2.3358253722645492,-0.39420707508635183,3.22217237147542,1
-86.20873377647804,75.28093315696297,-19.58211134968314,28.298822862089594,87.91208965554368,70.32086822175695,19.85099679736527,-76.83799734935636,31.467712421443558,3.350679599479606,-8.484203418639426,0.3815904151489264,1.390298879146786,-0.921024538440399,4.112591251258441,2
-87.66486818151465,70.98296211100937,-17.96108423471986,28.29882286208985,84.74262615062025,64.40111841848365,20.66980079053405,-94.12911508757709,31.14164153219425,2.9036087880827646,-7.6780333748802905,1.1879230147468665,0.14365713192195162,-1.0470846622041126,4.294594605597595,3
-89.31518064441235,67.36211715275353,-18.52298815311259,28.298822862089672,78.17931135266414,61.580211541229524,21.718534974485546,-108.19018827116491,30.58169477280274,2.619059948297629,-7.102663845279796,1.7710025345968514,-1.138553280983288,-1.1625241968753268,3.8018646837937453,4
-98.96989327993813,62.29277570630181,-17.963969749730726,42.80142381530999,69.05020910084075,59.6196962483929,21.83384604257578,-117.77347696274869,31.274690228348646,2.171196294644208,-6.191482474664,2.2789761542776725,-2.391112392515331,-1.5314372028236811,2.816631320107017,5
-107.38317229586843,56.78819662521936,-19.47564691186711,56.42429074783895,55.359310330883524,57.27266672460675,22.599342355967234,-122.85018483118016,30.0730567039291,1.6360187416655616,-5.484130237920359,2.9896103085479018,-3.8240912044411033,-1.8357470909493248,1.9758442427910594,6
-116.27451865098348,52.03502906409625,-19.85508549359213,66.65351076675272,47.16392499145916,54.20471685976816,18.753406594415072,-126.81294689567129,32.74672528855778,1.0287159334643978,-5.046219504699325,3.996741322496662,-4.891415841787228,-2.387812715751088,1.282477937763846,7
-124.06915669891289,49.071279606518594,-17.759700711392732,73.66154570550644,40.08017305953642,48.82222809826463,14.481529557050902,-128.88888595295032,51.68369362400464,0.4895517866494144,-4.507889221705447,4.697949085498851,-5.432609676146516,-2.812374797518439,0.9559162660201435,8
-129.22137929539784,49.04658723541585,-16.2463434540467,77.86929586219705,31.91144596978724,49.913449575099115,10.943351899625412,-129.75457733080475,46.24573293365609,0.06454447576238095,-4.268037534172162,5.219702418421329,-6.250080342216899,-2.966964209875108,0.5377480771496647,9
-131.1807892670513,49.11348854176118,-15.76624469552298,80.77594451106395,27.680561409626677,50.11956581993292,7.933163909325243,-129.92161433686294,46.24573293365609,0.07150583344913093,-4.168056966271767,5.4347687200009585,-6.481787204192115,-2.9923666127352933,0.40591908741364785,10
-130.1731902488051,50.42631082495704,-17.970208950459515,81.93104235197752,26.682911414141277,51.56096806138787,6.111647194392601,-130.35006564434178,46.24573293365609,0.17725264580085306,-4.174195038734263,5.404216347028284,-6.615606055417171,-2.8102368029621174,0.39540709572388916,11
-125.48445630709367,51.14860724536991,-23.58741899855446,84.06336486212149,30.51046546416785,54.239958780980494,4.369334665100237,-132.1106589784292,-20.318005309719037,0.42764048726917564,-4.3801733485190795,5.332219434204307,-6.0725721103969725,-2.5084193804041917,0.3863042002432368,12
-120.45771252700939,53.84564597817828,-26.22202611922054,85.49871591069689,37.671993715451286,56.97955641743349,2.3145609091687045,-133.9038223660554,-3.2875260935370982,0.6977748126191357,-4.553434875458783,4.902251109604785,-4.903555096454836,-2.113690641337281,0.4522583261169984,13
-112.66901690362081,56.14241451772448,-30.463684428405806,86.6270410552736,48.67164053346805,62.41547712043162,-1.3800954933344471,-135.41333804991586,18.474127398959673,0.867258774825785,-5.408205718487884,4.096148825200138,-3.021695323091457,-1.6904560184632658,0.4252500422364891,14
-105.90090548494422,61.354073098501374,-28.844745823424077,86.73440053368338,61.374417591443056,65.82871028391928,-1.4726407882703938,-135.59218056908242,39.665938236491485,1.0744003543294178,-6.667582520759544,2.947994690152913,-0.8733400516305014,-1.5622986888216657,0.5038268402441093,15
-102.01034031716267,65.45299804231908,-26.694882312100386,90.16516200521993,76.38401784352082,71.08924200957053,-3.3702848959912832,-133.7261621243904,62.034938771000036,1.2424585067833984,-7.442036447868006,1.9419722221290663,0.4927450422517191,-1.9585120226616297,0.7082438227039839,16
-97.03313551561926,68.14808971103497,-24.77742931396387,95.36146913605147,89.30281627729774,74.23434398204746,-0.5925393693289894,-129.2608491194052,78.60916330274938,1.560781940471408,-7.564574435512368,1.303276546115307,1.2442324537197282,-2.4009257902882704,1.2134045969249254,17
-92.12716458569122,70.61610550897747,-23.417788368460773,100.81837268846512,100.01848433849055,77.97572417284225,2.299299381991473,-123.99072544245581,90.0,1.7660286759885384,-7.3263197396915025,0.9495781399423221,1.8305838698907413,-2.8935374370086095,1.840918771478528,18
-87.29607447172972,73.37647271062956,-19.831557742523504,109.5822085076501,107.90755456573457,80.71358485380341,3.216055541469234,-119.7423800863252,90.0,2.131534289755991,-7.21057757201103,0.8602654310177041,2.2647545257206576,-3.360987226496768,2.3269850664527483,19
-83.55678307027561,75.77047023669225,-18.87456498403006,115.57824315810535,114.17010019011667,84.29216243769775,1.7930162485312986,-115.14195705718036,90.0,2.495845478393698,-6.826567531162347,0.8782054279435283,2.9992265364005823,-3.757192873080795,2.5133032217724227,20
-74.0875971461181,78.70311522868414,-22.514322737308873,121.15346521193017,116.19188503225372,84.76670594215565,4.039756471061451,-109.90524759001623,90.0,2.9366267578228635,-6.524491267819216,0.772342102124559,3.8688437938112785,-3.604406050731676,2.582567572261189,21
-63.89635785003583,80.18305668918383,-24.754927998027327,127.99490090632797,119.71037220768511,85.21408208008943,2.813625427820976,-105.91749629615003,90.0,3.6851261417345893,-5.368928888498416,0.4136643385819888,4.692398772854615,-3.8518590016666736,2.356885554223871,22
-53.695443559839035,82.57233388578254,-25.232293780742403,133.8415109434751,123.32202241019687,84.9170490088182,2.3708181735829275,-100.11688282419563,90.0,4.303026654511634,-4.474342398159336,0.46519240805500567,6.023870854050703,-3.89072278118506,2.6109503346837197,23
-44.77612183956079,83.00759453289886,-25.845273669172503,137.82888373454796,124.00994488177317,84.65999387532831,2.9307181255658414,-96.16805551479938,90.0,4.771694820711261,-3.8470976164767228,0.6716491223662846,6.646196494922491,-3.9799830968031746,2.582397595059496,24
-39.383390020893025,84.20407565737196,-23.855526046351123,139.37556152636716,125.1346948554033,85.1995214170605,1.5314684745590474,-92.51273418401891,90.0,5.1077759350130725,-2.713447268005319,0.5476387879987477,7.615913635640221,-3.8756092588898525,2.4234117841709764,25
-38.322065829965545,85.34467960007585,-20.529574170471616,141.32343568195097,124.98648837910682,85.52151268836668,1.191669105280977,-89.23519424264337,90.0,5.401431415283528,-2.0349550560308147,0.6095737666954063,7.104347347455731,-4.062332729244357,2.1555254860284823,26
-37.29725526495235,85.7415340939566,-20.497260825768787,139.80383543181946,123.42071004988429,85.37802158716323,2.3711989532997,-86.46357521595483,90.0,5.52662359648908,-2.1742348164253253,0.5521769179475912,8.022059267369038,-3.9551763367349086,2.1507530104372514,27
-41.433382330246666,89.62204154553156,-19.057476384850812,138.68281923483048,119.89563966553082,85.92102328685921,2.3620318327095666,-87.63611028443921,90.0,5.378954601009986,-2.832604517266527,0.49774996650313935,7.584907620363171,-3.975289191895082,2.187137454207654,28
-49.26630421980913,90.01257891482977,-22.599986749230304,135.6693046720304,116.14609468773651,85.15855969111634,2.537493734628343,-90.32394204357753,90.0,5.162964681286644,-3.3670782327706674,0.15713092828403305,6.576737096076665,-4.317177816714351,1.814217339309331,29
-60.259660238415115,88.888921659501,-26.402645395972378,127.88495683267912,111.21222091401175,84.4493218651538,3.5112205933414833,-96.07513337599576,90.0,5.029006411185932,-3.388672841193289,-0.6289809909009447,5.3660304488190365,-4.718335670790094,1.3299032576257606,30
-69.62683350685215,88.31918666829478,-30.671057498872756,117.73636890048363,102.98540296232088,82.2197096105505,5.990577677061978,-103.69494935590659,90.0,4.460945262597611,-3.4050635625663714,-1.3597597265743138,3.5543552071986615,-4.831541907939171,0.6808886531147244,31
-78.51566765584589,85.99013554664239,-32.7854951996528,108.04619113724844,95.04109707351552,82.14141843934762,4.9494846354104185,-112.0584255884664,90.0,3.967783050109277,-3.9975717165237747,-1.9960378732308108,2.2910208460501886,-4.979386965698241,0.2932732314998507,32
-85.79964977442297,84.23996994107367,-32.40235430286017,96.70428019997681,89.52977927955442,79.41447954811285,2.4422330402051635,-120.12974740805878,90.0,3.5512013226479846,-5.076747156719493,-2.609305761643247,2.1585615798195485,-5.136190619548729,0.06468383959411213,33
-88.16774190201919,81.07674703350241,-34.26227974506797,82.73548384994835,80.59432074506245,73.69688271310152,-0.15537166520319703,-126.85533558321742,90.0,2.938980050545052,-7.041581402943569,-3.3265215965093216,2.344249329880225,-5.10216760764017,0.19432063784026374,34
-92.6674986231525,78.4030168246432,-35.61703886341492,74.71277849791805,69.63448448666284,66.7489675657739,-2.276887405254183,-134.76778431682098,90.0,2.663013464489674,-8.511189097682747,-3.9648331703240047,1.944511278204931,-5.287509614040634,0.4631266783126133,35
-95.37073239031432,74.3628182614444,-36.78435516101799,68.9244403605146,55.464817744708306,56.15121037494951,-1.7848978551406647,-136.97938783834928,90.0,2.5126107929685,-9.50494558058805,-4.555044905488644,1.606616656327921,-5.323593273594783,1.1634144151933914,36
-100.26060626923763,71.60157345870785,-36.51878879150028,69.64497784998049,33.29635247673219,48.081086256355235,8.322712791938908,-137.38882804042336,90.0,2.369194565805919,-9.970286214598692,-5.3475008519695955,0.14303393782021026,-5.227757854723173,1.5834810044498524,37
-104.25718650749987,67.30976809061566,-37.46156888466065,71.25804851246914,14.127646244420148,43.55786411594388,20.998328022132103,-132.28190938586997,90.0,2.2439462123272587,-10.963508643557233,-5.8373172304795,-1.6514211487011037,-5.185863368530882,1.8053664711421413,38
-107.83646610835822,63.23482744521304,-36.944242240907194,73.29191612359652,-3.6255887572134187,40.84848621919698,32.77135150089031,-127.30298511238186,90.0,2.3417194109760704,-11.491928017713667,-6.344902702994191,-2.928052592498512,-5.1468662940222405,2.362889744932576,39
-111.7069134988129,61.16157586975225,-37.0087545017413,76.31028871209729,-20.549699053094244,39.1645067796191,45.50500918241606,-124.83930195999646,90.0,2.409095262628819,-11.992973557399349,-6.805576900535532,-3.943977769336036,-5.065772673065332,2.891784452167886,40
-114.83576539287067,59.419546556046,-33.31062530706278,81.24466921705702,-30.860332409876914,37.47095950447242,53.09863865354416,-123.5303631067349,90.0,2.7342811549587,-12.118832235334402,-6.8049880773704405,-4.541298260003745,-4.965642894387565,3.2276334516485936,41
-117.49715894221714,58.58183079634477,-32.720722005373005,85.42587704742374,-33.13285037179855,35.47868021990656,55.471149489103205,-123.93696468042182,90.0,3.0555723817959572,-11.644756764450863,-6.565400123763172,-4.656242235796264,-4.873548919602539,3.5832825214948714,42
-119.28083924110706,60.048181377032,-29.876663070664225,89.20432230216387,-26.594180778066537,32.61806027417439,51.67802178401083,-125.51159701785254,86.92659437515493,3.2859738899310105,-10.89274038869119,-6.047520367073561,-4.282392548381728,-4.765908878172634,3.6769046017986264,43
-117.54315908603306,60.231713807371136,-31.981689215840667,94.02819986269755,-13.729847449743808,30.91896281899604,42.197124679565555,-129.5350657748541,80.92479564147,3.3791763852823866,-10.347248273469843,-5.348069904429853,-3.3795441312950243,-4.616925046077354,3.4656567403159446,44
-114.09416782529108,62.04062606892022,-31.223374773835314,97.8443979272823,7.997858548879124,30.926360684343685,25.054078835998023,-135.87231480828825,78.5945590027084,3.770986133703573,-9.933352967248704,-4.333784933802215,-1.7854456300599384,-4.587203925354755,3.4660954936293047,45
-109.74472612613012,63.6445990208478,-31.16927964542306,101.3012013690873,30.32311663902112,36.58002209910054,10.620202343712377,-139.86799594619376,76.46922207657835,3.9279537314420145,-9.992707346156566,-3.2179986879073894,-0.5992376663157981,-4.6716894215978675,3.4490289548131643,46
-104.9550329525004,65.2119673886058,-31.61668232601472,105.49870616321546,46.507468502100146,43.6099915081687,4.636246810768356,-141.3678746836228,75.22548561525443,3.981228289173006,-9.434407555406263,-2.4535898649855272,0.39250434305152787,-4.529285388427221,3.4680661235106576,47
-101.47053843373594,67.7160030945005,-29.917582531202125,109.92413549588086,59.90223159842292,53.10809374794898,1.1057039270177633,-141.92954593542146,76.69701883920933,3.9422523693519205,-8.552044151161427,-1.7966520657131433,1.3258337970656082,-4.353828358558566,3.4952205265729037,48
-96.85842524849987,68.87704347740302,-27.948163909248454,114.96983441075248,71.67332940721825,61.469513411829034,0.7488831739156202,-140.34116207820784,78.07203001865145,4.018950715351428,-8.192163602307012,-1.1236543340170713,1.8100660139488145,-4.074610280944105,3.368890235966529,49
-93.95817466500317,71.3263485651372,-25.106582765082873,120.81070514668268,78.22040433262622,70.16476478042397,4.961763667072283,-137.4025837541936,80.31839329944599,4.014899441986328,-8.065703032712324,-0.40509588917395195,1.4540919214994663,-3.732592616446398,3.3064109542379803,50
-91.31783865781972,74.40929489271937,-22.858792222922595,126.68323422554903,85.68308379230015,76.18003849986813,8.995220199592229,-133.10950304151945,85.94003762013902,4.214643994323585,-7.941845091183686,0.1287393619035549,1.0197448868798549,-3.6194321074153435,3.13007755252785,51
-84.87183241010736,78.28599967483548,-21.293668816049212,131.86619915553823,90.94230957185538,82.09323046948776,12.71534834971532,-127.08153786224841,90.0,4.470311011356524,-7.833496987992905,0.6092335019853505,1.289831573277872,-3.273574621266891,3.2288654170744744,52
-76.4636504723025,82.64271841007508,-19.483509214328894,135.8520712719572,95.31439024217632,87.83624648044594,13.611696875058001,-123.41315998396887,90.0,4.832570518175296,-7.417694843524894,0.7962681192111105,2.5060321750288566,-2.835051693185837,3.3308871254558015,53
-66.34967881276653,85.41029182818492,-19.18894425704874,139.67852468944739,97.45917779339514,89.22177137501671,16.88802551581111,-120.60268496210159,90.0,5.100285106696842,-6.356065712819349,0.5931611737144611,3.343006166939223,-2.5247017149076103,2.912466933690708,54
-54.278552893770296,86.92823817078454,-16.566781651430734,141.70677050479617,103.12837611307766,90.46311785570072,14.429187592646885,-119.85756173353165,90.0,5.559134229399894,-4.961968831084656,0.39560593794483895,5.077888995548484,-2.3125799822089257,2.3417285272866755,55
-47.7752919269728,87.93628371156969,-15.079910608915085,142.85235177716123,105.6986941609937,89.59244905613966,14.557637202546251,-118.55725740423837,90.0,5.596825784556683,-4.299207233318755,0.5770176329803808,5.69431239134876,-2.2728668812519803,1.9886601295032278,56
-44.88531638540268,89.77706960837574,-15.088339799412115,143.30228491962717,108.54337657797109,90.31892829870785,13.049414276227663,-118.76369070819776,90.0,5.626839785501641,-3.4395855246696714,0.3470689456278242,6.079422740086915,-2.4146340433602784,1.500867036649635,57
-43.71065050788362,92.04333028773115,-16.0465314008067,143.42039028009654,109.45729075235093,89.47847692635371,13.170422654122147,-119.82074644742487,90.0,5.63520564624215,-2.9560784624679757,-0.036302324650850606,6.392365758043298,-2.549508826644337,1.1322816445452253,58
-45.30792671174015,91.34551679019177,-19.029974971086585,143.06729817678433,109.69295400238188,89.10720585486351,12.944955793496547,-120.89325980006655,90.0,5.629838829882543,-2.338362870601293,-0.24530635562814818,6.360668231611255,-2.685234199091853,1.0315595734124774,59
-48.35021092928176,92.93080733780278,-21.432512464505404,142.15942915130154,107.0348684168086,89.21471614238312,12.59355919745421,-122.7623306168579,90.0,5.449469802899279,-1.9435227417428713,-0.60599221131892,5.804590855971438,-2.7731312510450685,0.8058929185677446,60
-51.38721938611866,93.38487451431328,-23.435016406628375,140.44366206973302,103.52949577600525,87.44088420323611,13.479648898987122,-123.76844718937932,90.0,5.323580583679729,-1.635700072924719,-0.857301915548936,5.321387773881663,-2.8399749196913042,0.8772843476074975,61
-55.63545198234401,90.29936009937538,-25.58666512031067,138.22091436778086,100.33030509197917,86.8248311346891,11.782746560550343,-124.93607724315969,90.0,4.860258050888092,-1.5636242440749355,-1.3589545121881834,4.43288699744204,-2.907153022775506,0.9801124402579261,62
-61.266927599067444,89.80495237673034,-28.501616816699002,134.9055508295324,95.54184262100581,84.32726631516923,12.021496190975416,-128.07279887764162,90.0,4.210163716551541,-1.5157266547299826,-1.8954496055175916,3.7590762300246667,-2.9257243221846005,1.0491678738599428,63
-65.75132961456247,88.63972143002145,-30.579567638859622,129.20967517409792,88.00353391199197,83.18283722953774,10.426915119947395,-131.32857611019332,90.0,3.6666321556635126,-2.2649228443356515,-2.5907723767884723,3.427906056053465,-2.9735604221499328,1.3496703478092624,64
-70.35733240437983,86.28083145674422,-30.986178786491795,122.31331774912294,78.9774060249416,77.89597590359877,8.211849719091182,-135.2239660747235,90.0,3.4078242759893125,-3.4463657162793537,-3.755819961388276,3.3020318949572887,-3.171133430542357,1.6889185052330888,65
-72.96991482109698,83.31453170643064,-32.01515877926753,112.44190038415951,69.45410473121181,73.98187437778344,7.867558354506947,-137.46103099840246,90.0,3.6460451167582253,-4.485667503050184,-5.013787216121852,3.158441666849089,-3.295841144307634,2.039533421916289,66
-72.92555886462821,81.75390609971653,-29.118454479697125,101.83052322545663,57.49804393164417,71.98132875932782,9.507184483092903,-137.34359981291385,90.0,3.921751727505079,-6.406622925369189,-5.909448620516518,2.836846733260443,-3.1195076167530313,2.310651034783806,67
-76.27139215341963,78.54454008046329,-25.92736889100623,99.25158425363314,45.84494106886045,63.66164847687452,10.31488274921366,-140.8721059817684,90.0,4.230050700283549,-6.770684171755697,-6.941277499975397,2.7570418460018318,-3.4389389783988613,2.8088493936243855,68
-79.09527527087153,77.17331556213306,-22.034337244601172,98.27926143957566,33.07447326586336,59.94192972157479,12.374326767805467,-142.07817901148601,90.0,4.590384328599629,-7.408669807865013,-7.75675597441068,2.2767284921776048,-3.4374834734237694,3.6007548168307495,69
-79.63891959508666,74.3080789098434,-17.370468860526913,96.88994545802618,17.4955006085468,60.205276133692315,19.75496788410824,-142.4104627639217,89.43044237392805,4.912929273225834,-8.507100116488694,-8.175299850914696,1.433872309953074,-3.2387266759305677,4.282679907926225,70
-80.8126480908628,71.75016301437348,-6.075170355186856,98.54826579446537,6.969818933526556,58.86740488677347,24.92767266733493,-141.8689181221829,85.60017457482246,5.451752385311527,-8.8501340554959,-8.482344343921303,0.7621798819996124,-3.112951347985225,5.253473231886834,71
-72.36930423844562,64.36306238638504,4.635572971761247,87.65993344045029,-2.675771972273004,60.048450693496804,31.66385459750268,-141.8458944993522,79.10524375059468,6.000000000000009,-9.179694217283945,-8.651824508752528,2.4015622509621215,-2.749753430119358,5.7513219695118485,72
-70.15713883514833,62.840404528371636,11.225023604933591,81.84072379007897,-9.133826241501202,65.78986114780874,36.237864881708596,-141.6425960116625,75.3556980667443,6.000000000000009,-9.313684546234459,-8.932611130943867,2.6993085565150077,-2.399084214965111,6.423863687325159,73
-71.49057623720572,65.03294455735238,18.172251974067297,90.49968084196796,-9.45719042427801,70.04126334032047,39.228553032729366,-140.9470725360447,73.46356054396135,6.000000000000009,-9.140154919792867,-8.169359744812,1.9502546297011696,-2.0997075534189404,7.392915578860288,74
-71.91112083949116,65.69376537348214,23.25216800688336,95.60533699376639,-8.586154699400344,72.1215778118351,39.51194624412782,-141.05566823025055,72.23569262999155,6.000000000000009,-9.078255449508216,-7.246957891798104,1.9721702347217396,-1.9492013386622074,8.137475522935217,75
-75.75157271599808,67.90705720350256,24.932675636796912,103.81161085936222,-5.844137870839119,72.56247288561504,39.040069340010106,-142.17209505407428,73.15537485579812,6.000000000000009,-8.336142243712981,-6.5064654661696695,1.8727978013935003,-1.9799660655311278,8.538669547736916,76
-76.0381833287405,67.2387393545825,25.62093608056047,105.70010922621722,0.8361820946812106,70.8322715108599,39.76440285828743,-142.8774947702991,74.45596300171631,6.000000000000009,-7.712720396170268,-5.836064165809187,2.3997041504131924,-1.919075123151753,8.62600280968779,77
-76.09237349389221,67.66240365488,24.152651542770407,106.83348018521285,11.369331688682763,73.64321813947674,43.8417562765652,-140.83384420931256,75.42820995641199,6.000000000000009,-6.962132988535969,-5.11292007291776,2.4531546023617685,-1.8284237912136487,8.732583149994145,78
-73.54848433726981,67.90252843108941,21.70132605387211,109.70723633227749,21.38627019669797,80.43418921736479,53.5754223475193,-134.59673327642153,76.65546739248134,5.791507172071775,-6.895082014724184,-4.088059482466975,1.5564290680670574,-1.7167229477900385,8.94589050718042,79
-75.66355466895025,68.38674237422795,13.676006211618356,114.98197080337339,26.52106778226335,86.53736183761265,62.84423981926941,-127.8740055047137,80.45438540640562,4.836823227420689,-6.395215580432344,-3.675005084860934,0.25267996282852295,-1.6606993011407585,8.783237256087387,80
-73.04233285896403,66.94068732112926,12.203348279951316,118.85825639988943,28.96460424307187,87.69458488955286,65.60600397624866,-126.8170707098642,88.0719580622357,4.810839165353033,-5.599778035516639,-3.1402544732870394,0.8574386277384637,-1.7202043201392785,8.526307250051552,81
-69.00481008149086,65.36625316748477,10.623063958206167,120.0518793966715,30.98524710536449,88.53997982295425,63.94187938468261,-126.5069269799134,90.0,4.845151650019568,-5.181144859940363,-2.5508865389458926,1.4737102555332675,-1.7057837462990526,7.922342344151171,82
-64.94214831938835,65.61272506014052,9.53473619676913,118.05672247556336,33.5702205049041,88.86442979841759,62.20574337070661,-126.62307068169707,90.0,5.010883757604256,-4.439478012042878,-1.952923771236839,2.1214300246705458,-1.579351049116499,7.142163690715709,83
-61.23200100409582,65.48270754725742,6.171599179068317,110.58085104595308,38.241304923736514,91.00780653404985,59.77211644074098,-123.12766177262712,90.0,5.2106785629046595,-3.9149164900206395,-1.16691484112345,2.6809010241219235,-1.2281425202923164,6.470575001841605,84
-61.52411745242801,69.29217520632353,-3.241200632938691,115.07259282412791,41.09493394109074,92.25621198167934,59.34324366203281,-121.89989170910559,90.0,5.2078070193044015,-3.2657654827499814,-0.58924374495435,2.4655930453357566,-1.252496381960771,5.919079452891277,85
-59.9446864724463,73.61131366369018,-12.128099597489179,117.36458642860502,43.96169954277635,94.91286514769473,60.47105646467711,-119.03385653365474,90.0,5.118510017958657,-2.656172043251972,-0.07524697686839066,2.1213071355046806,-1.120699468111567,5.351886057756965,86
-57.598808945898895,74.85242329378077,-17.1746403224868,115.99807599560151,48.17766374814074,95.90096580108,56.713960640329745,-115.99252505629009,90.0,5.206264310423402,-2.054589032595065,0.41459754227582946,2.4601603516138275,-1.0012291939078224,4.871240351976027,87
-56.69465047268198,77.25026138310409,-18.69047426024886,112.6208567187359,50.29905179621392,95.69264249867044,53.82514482935915,-116.58260439556122,90.0,5.453928696830272,-1.0032465293487733,0.610542767905991,3.150970261202469,-0.9715624864800457,4.177476032869851,88
-56.00849271095449,79.63630418266172,-20.09648004836936,109.82756399717778,54.055754668552595,96.81702076290047,50.73009446058377,-118.07103173645488,90.0,5.7925725671546155,-0.2841700564035324,0.6780570007693991,3.601667878737979,-1.0605818355452943,3.599065999547854,89
-55.11178803933291,80.1685392423571,-23.561822508925886,107.40358121300548,54.55417873241864,96.81058784256139,51.0079793088309,-117.96752743325193,90.0,6.000000000000009,0.44556967103643763,0.6556337657479983,3.7016658673385514,-1.0306702468796822,3.205762439289169,90
-54.92774174340643,82.03213792340404,-25.295904135593652,105.04215961358446,55.687225148690615,98.02756150901868,49.6279531931795,-116.75959185613604,90.0,6.000000000000009,0.771148209554624,0.5402083579777397,3.430741486892205,-1.1569665629556516,2.872070981436853,91
-55.25561815268387,83.45861605282248,-26.770774783977387,103.78596013881143,55.97407566275578,97.79137984707586,49.45173298275492,-116.18549957539194,90.0,6.000000000000009,1.300280629256188,0.41216483434540047,3.353292182471943,-1.2074333474112535,2.7159077432168863,92
-55.902949135736016,84.27118126832173,-28.06659620489358,104.22960630716204,55.463593485013156,97.87222227899566,48.985155664637745,-116.59718159451297,90.0,6.000000000000009,1.5477006911385218,0.2801813941050608,3.1223539146922357,-1.3836571448566306,2.722643634658366,93
-56.23991129371699,84.65227388128767,-28.88884547756611,104.33816186861178,54.62224707738266,97.9412829514183,48.450298620584405,-115.42847474916702,90.0,6.000000000000009,1.3760962151302494,0.11866759727352814,2.6668152427968153,-1.5486128438062592,2.8100917161433934,94
-57.24474132952821,84.599336610801,-29.69648477185958,106.17015413082595,54.113905047673754,97.22459509419656,47.70319693222882,-113.81415872589065,90.0,6.000000000000009,1.036205156597478,-0.11864428642889718,1.8269521883402062,-1.8131042482974038,2.9465327399250265,95
-58.038077575714524,84.28098224722936,-30.766956149739745,109.11966475374497,53.47783670056427,96.90199119486611,47.598232226177075,-113.17106395912847,90.0,6.000000000000009,0.34701360756011396,-0.324279806787138,0.9564087614629693,-2.1532844127336364,3.2421137124755055,96
-59.17666599335476,84.46018900271481,-30.5140591946656,111.68614461964181,51.11945661098462,96.12718428311506,49.8908226418884,-113.21449730609947,90.0,6.000000000000009,-0.5244985260258247,-0.610346782710749,0.024816084650522534,-2.454294356232589,3.48487600290118,97
-58.70078476879132,82.68209390220088,-28.762379478484693,111.05446900233544,48.069654760558095,95.15820611692183,51.34315849772285,-115.26928022246533,90.0,6.000000000000009,-1.4396720193921348,-1.0490518017552917,-0.2823132889528012,-2.734934556181894,3.7874650972337753,98
-59.270230680599184,80.87646139078481,-27.298478562557346,112.06129408967722,45.45069192523499,93.99313876800716,52.99394261637427,-116.93041632101394,90.0,6.000000000000009,-2.3268253220798347,-1.4744030781423259,-0.8289590767504281,-2.9879828226701393,4.09485566734514,99
-62.09590215783748,79.79119294386396,-23.431995876920546,117.4951583576489,43.69998704233316,93.0682223047629,51.26957981219892,-120.22516433730094,90.0,5.7478099890041,-2.9364360647935723,-1.879199164312669,-1.5272238023608378,-3.2083870151162475,4.266121803265541,100
-65.63275594265637,78.14312038944401,-18.4472899090258,121.42839121253743,39.16067990668616,90.75398656574748,49.5592750032215,-122.21461773782998,90.0,5.326980249580865,-3.8370561976633852,-2.378624025773952,-2.227223167885223,-3.3360740420062407,4.487395262469377,101
-68.00680288073023,75.44579912506953,-11.698734308315354,125.1311561605948,34.728313510158195,87.51693827085859,47.4769439190426,-125.55984025956087,90.0,4.965045806596577,-4.7393871016342475,-2.8245327925561456,-2.818071004811959,-3.5209475472402225,4.681920678787439,102
-68.57312038879459,72.52205357504415,-3.788420495510756,124.62946653048233,30.358267649766315,85.28101595398525,42.474819890561264,-128.0710015927241,90.0,4.626399934224126,-5.842935844550338,-3.267691101605089,-2.357820299124564,-3.5496955539959587,5.171919730799753,103
-67.41209607788718,68.2981638589057,3.087822385905783,121.50059911553909,24.085644056120003,81.50380076295357,39.82525955288345,-130.71394982847056,90.0,4.4554033691012265,-6.68781598147409,-3.8991418088265304,-1.645827801226926,-3.385337064674063,5.2647847689716,104
-65.49963243566772,66.54108385322655,9.852703873442323,118.95403439778643,20.805278284546045,79.9680828852383,37.16887113557312,-132.31973425887628,90.0,4.429393093320524,-7.839936882269734,-4.050945321556622,-1.1408316678647634,-3.222832724562066,5.518243535385987,105
-64.04318538348063,66.79001647850623,13.335897443208635,118.17068595165684,19.053834837032305,80.57496530506099,36.27730683874585,-133.17450227992234,90.0,4.526862365450218,-8.462773629739859,-3.9457368800416623,-0.871185227634411,-2.9820220193824767,5.827995521388232,106
-63.18692431694618,66.08576371559221,13.660699767866616,118.81239914723723,18.404705620388338,81.93734340089038,36.625224070184444,-134.4659265510477,90.0,4.725809643983323,-8.754489363846911,-3.8549327072297674,-0.6916291192980631,-2.861642462297902,5.930499400782689,107
-63.14659434448884,66.49287531397518,11.545464686873528,122.90840487584012,19.194432558220036,83.47884586454859,37.658429940722115,-135.74201291778806,90.0,4.915580576927559,-8.705125838955166,-3.5797596365962328,-0.7480300350320804,-2.879723243144523,5.976690692811652,108
-62.81423168726853,67.53495907759695,7.084268039498976,127.34211016327825,24.225719113442715,85.47445079085328,42.00789459034968,-133.8215790099009,90.0,4.909069184872701,-8.496806825896616,-3.0919072587940195,-1.4855434666920948,-3.0064693748817755,5.920549808104235,109
-60.66418589774876,67.09538083426392,4.442814170119281,127.87649319955659,29.926695783751885,87.60284078435137,47.86938109367209,-130.9070331085355,90.0,4.89563267341147,-8.411879713287387,-2.3792303774561567,-1.7305142931184856,-3.1204698110277103,5.937635627975356,110
-57.81549229749861,68.79456684998897,2.2945953162762773,128.04348652583877,34.34714700999358,88.9457735315451,53.274103151401896,-126.01313572847455,90.0,4.569913605497546,-8.752785281952443,-1.6456676352886643,-1.7924482476094907,-3.116831135459593,5.946559103891718,111
-58.99217949563264,70.38528469315317,-3.4174721762188813,128.92180554427046,36.72293121543662,90.13718798463275,52.43236262487179,-127.58749782681893,90.0,4.461113335464019,-8.106894732277615,-1.5787417204106855,-1.1139029615398626,-3.1193804416257684,5.728666424530279,112
-57.159065014671285,76.08186701745578,-14.809425246088407,128.423691527939,38.91944475468368,94.36062372317959,55.550924610002596,-123.46179143040163,90.0,4.021495685233827,-8.491991167672117,-1.1574802650237535,-1.007240710260445,-2.8168807024688403,5.360599805284537,113
-53.76726839275214,78.55972126914881,-21.009452460004322,127.34206850128656,40.48757590070164,95.58660998294651,53.91552662678654,-123.39766544290019,90.0,4.072813239806601,-8.246652242558428,-0.77926169609969,-0.30281283264677983,-2.591949259831408,4.8586358137701815,114
-50.81953964020691,80.3795451674506,-22.284122718796404,124.8107407883675,43.56542878065806,96.57186480325721,49.54432159444942,-124.28498698846174,90.0,4.22502999804702,-8.101160981106377,-0.5994072632455388,0.5534156055193522,-2.360938120167437,4.428314620691154,115
-48.452647847391795,81.50092038969967,-22.476191063645448,122.41415330344041,45.96778608547343,95.98669290296907,46.50532763233435,-126.04071274378381,90.0,4.392557408700554,-7.703791257361968,-0.31046486802419393,1.640578150717118,-2.2511926040953387,4.074513425261009,116
-46.936345245540124,82.95295937562962,-23.641820059815217,118.10469419811153,49.31178663911951,95.79877287426484,44.54965228838247,-125.49708370957994,90.0,4.417246964956073,-7.203898190527569,0.02406754163993717,2.439177027098126,-1.9844316064213419,3.7227297244111996,117
-45.11154076672632,81.26258602198153,-24.826045454541305,112.78750652289563,55.7578494596323,95.50271329547554,40.32619585456113,-123.97663842106148,90.0,4.476238829920591,-6.6430345645619475,0.651884576775556,3.083711415855671,-1.8430988507174366,3.3431253141582062,118
-46.46090412704707,80.99827989951194,-25.20633730983066,110.63701794458406,60.57882570669051,94.36644133373213,37.5618594600937,-124.3054321362398,90.0,4.5628176700141125,-6.09584494147867,1.2786412340673161,3.4199319341947834,-1.9823508948044897,2.975312920219637,119
-47.12942668060205,79.32216672452142,-25.951954442279593,101.31222193242343,63.78817551950171,93.46904955215449,35.90310224618791,-118.86031157002219,90.0,4.355414729174874,-5.493667391615933,1.8824460301353614,3.3056352291468682,-1.8456427228037033,2.5341060995569307,120
-50.04347441966891,78.21271924128284,-28.23090830960451,97.64600407317505,68.38037967727975,91.75109947248777,32.68107352991498,-111.4031796895799,90.0,4.150339137596101,-5.199324567213742,2.6619997578477133,2.4346659547986476,-1.9367969120001718,2.057060919567519,121
-56.22438634679323,80.57758549373813,-30.21332968146912,98.05542440984692,68.56386629135004,91.9862086646835,29.13439366568255,-112.52386506253997,90.0,3.557566602833863,-4.923590190222891,3.0651046161390547,1.2237206565563075,-2.0740638413107653,1.5914635917713695,122
-61.53442846901278,80.53912890207435,-36.068593499496146,96.23524719149908,70.36868022138444,90.57467723678865,24.326852985102118,-115.23666457745492,90.0,3.114086084307481,-4.804710654367656,3.3786058400969545,0.14404912858231617,-2.2332461591577544,1.2069893065732367,123
-71.61348404088747,78.50130599327862,-40.82535798124284,92.23661456083016,74.04372421820558,88.74581781535962,21.156824633317488,-115.74149198753678,90.0,2.8332299494103266,-5.336514466166501,3.7864094866901747,-1.4067648673962339,-2.831346746957955,1.0370221882152184,124
-80.01032064403195,75.76556159064066,-42.821903854461766,80.21065754846968,73.0364107065619,86.52687486934647,19.28893855423488,-107.25494983001515,90.0,2.1369683790119334,-7.230089112392333,4.088006524529957,-3.777645344785328,-3.100097482607253,0.7659492364340537,125
-87.04874271626447,74.0931836257998,-43.60979004606992,67.40908354940392,77.56890830316911,83.16422625854895,22.48186912750321,-105.72805875674896,90.0,2.6972562947476253,-7.938350709145636,3.814064690872944,-4.017355699075669,-3.760230853722797,0.8191189251162595,126
-88.69100047653951,74.21345766805905,-42.06815292940245,46.80395172085309,77.95282963562302,80.15795639207961,28.26033699307584,-103.37325400920017,90.0,2.805835659175248,-9.333784037492817,3.8035513406411856,-4.043584286151784,-4.093075060329495,1.7280436070788754,127
-85.98741253235453,75.94775400093638,-40.17507510530693,28.298822862089672,73.78545830363798,79.81041522198014,34.12103191355585,-105.4612153973217,90.0,3.1369512026218547,-11.013700646483032,3.2195448109243805,-3.49884144185554,-3.6543718694676053,2.9692709016732652,128
-91.870988669868,72.79965336972226,-26.821070987454007,28.298822862089647,66.0153158421381,77.92350308776166,36.970288191511614,-112.17421713021608,90.0,2.510366681175115,-12.12040897303691,3.343019194210622,-3.939078228128162,-3.6432898531072873,4.470188775317435,129
-93.52066468138041,71.27058070142385,-18.64045529068728,28.298822862089697,53.19224026441198,73.64408009389643,39.25011857579211,-115.23447513510614,85.15104659595723,1.6433116035940778,-12.84925054524623,2.891501927020502,-3.9942159483086943,-3.182216749291371,5.36924633238564,130
-93.57135504473415,71.21072244472394,-14.659430398445172,28.298822862089697,38.54614615149442,70.92084818539739,38.29294752771286,-112.91143194408617,72.3504276862859,0.9288354790755955,-12.538525296622375,1.943977589450425,-4.119078081658825,-2.543995309830238,5.630165943950154,131
-93.0486499023759,71.39412662886585,-15.245839020479186,28.298822862089647,29.283513384844046,71.51553170466134,39.29801055720778,-109.00607918417006,72.14848409595382,0.6575259319380873,-12.22024026638037,0.7630125985306013,-4.6833306429657195,-2.0958490251681314,5.2107933767244,132
-94.5115906817886,71.7900824365736,-16.30098689302463,28.29882286208972,18.891472778445074,73.00979526449515,39.507585677191926,-101.60455954356398,-21.43718576106524,0.19007650195161185,-12.638977372485499,0.11350750164130077,-6.195237381171176,-1.8342828156875202,4.3450845699401945,133
-96.05181853350928,71.96623387445473,-20.22322516750416,28.298822862089697,10.825723897496143,76.05441554391025,38.31695609627786,-90.95309190053466,-80.6003055667989,0.7865494985249191,-13.150511072455663,-0.4000186189843317,-8.265352237868761,-1.6708832581095727,3.3069427338099096,134
-100.03686446136832,71.48363424288563,-21.76485688563999,28.29882286208972,2.8816794688604475,77.28151123912954,43.594098890697325,-85.17356582531609,-87.84425849046232,1.3299660897195664,-12.887521673347146,-0.6709883806011496,-10.062847571439365,-1.5544316953919917,2.7830297586790027,135
-102.27740710364354,71.29914232049362,-23.874609145318242,28.298822862089697,-4.357420345588701,80.43638241173066,44.67639396523388,-70.37667712278835,-85.17626396677815,2.3093831949671744,-12.974895200424484,-1.109253964940348,-12.186611813890268,-1.414492260949769,2.076334224482512,136
-102.62291772902019,72.93658972176212,-27.88321071772002,28.298822862089747,-6.860029091309062,82.12860596854,43.146956425416576,-67.97714427601409,-82.88309585770118,2.8830630249437657,-13.319773529041129,-1.5567015974076195,-13.21814898731506,-1.0177616838085843,1.3736186301855853,137
-104.72667936798544,73.51476531607064,-31.871081901355534,28.298822862089825,-10.022091906166324,81.94420739563404,45.75299243591495,-70.04193649145951,-81.22187967667838,3.434407520352192,-13.455326505235456,-2.0208399999093056,-14.534666176229358,-0.7821153114144639,0.7502369225024265,138
-107.07578881020527,74.69900864268733,-30.9367341634873,28.68435528602221,-8.69935539499231,84.73416158680492,41.65015692538581,-77.82557953102851,-78.45888551571605,3.8555899410119383,-13.62527451861713,-2.223594471745088,-15.743618421869709,-0.3773198242334546,-0.1336193506438402,139
-110.56534535637812,74.10694772269183,-31.289609791419604,36.57782670122892,-5.214392277804397,85.58998346725083,37.742455005602515,-87.1045784229938,-77.71869960575951,4.0100249081008,-13.822452754341397,-2.0584813241285187,-16.43710084839047,-0.18195225334591006,-0.9718869335352075,140
-111.9107851543118,74.40016966596595,-29.75608948333313,33.94587284144819,-2.7039472359438195,84.20125312569571,35.67048440019291,-94.32323232191555,-78.50304195919207,4.152181499802688,-14.215126670861164,-1.5834454175068198,-17.20900302119173,-0.21048701290030855,-1.7542959260017061,141
-113.1892303055547,75.0781157228945,-25.515361476770128,33.56138721607489,2.414748518744752,84.66218431160928,30.018941253352022,-99.13525627464699,-78.35559939935965,4.337335209673545,-14.472532293128625,-1.2202632431304008,-17.763358411381883,-0.3438737551404733,-2.482564430791994,142
-114.23585209376378,75.01224415207834,-22.87758262864753,36.905080729890436,7.49025096083851,83.04422160596859,27.682287439658523,-104.88136437362053,-78.30685989193692,4.242347999245153,-14.167919886725414,-0.7117191628449949,-17.80439520881826,-0.5081284592936182,-2.788991578516368,143
-115.44972915399362,73.83601635301262,-21.724355184478295,43.3522289479828,12.171776032229202,82.66005605945328,25.075603773215168,-107.79172783820461,-77.93090088745149,4.230683348398871,-13.358753705448976,-0.20314158657849454,-17.3850671424045,-0.9070913106632669,-2.6825992752007335,144
-116.89380396377112,73.45770179112492,-20.52191460240645,52.416302626602175,18.744927177200402,82.26341613158127,23.000015746313824,-111.4292722455998,-79.30047307230329,4.137788017164414,-12.506531079448814,0.10710849532404772,-16.744791431545003,-1.3122054549890452,-2.7169876941883007,145
-118.2074233563614,74.06575966884247,-17.627586051119344,62.94788344076412,24.118812661993715,81.50619529842947,22.825078404962706,-111.93189536953564,-79.97256868998102,4.099373721394929,-11.511121045226497,0.3996328133531685,-16.793269312857753,-1.748135190695853,-2.412225635235008,146
-118.8665675119892,75.37771415234064,-14.777358811110227,74.56917649861005,31.390227071037042,82.92814470876021,21.686816288292047,-112.57619583646303,-81.93492527494226,3.938982384495504,-10.359074531910565,0.6587456960601521,-16.470303188922628,-2.135717076461252,-2.1678935561788713,147
-118.34801660466455,76.238399182905,-13.980127335650057,86.64818067220314,38.697231440305714,83.93485078234853,23.673861681114058,-114.15371639816827,-86.1353264716339,3.6576616652645257,-8.86543741964346,0.8056609702858014,-15.616578871581547,-2.728883711043526,-1.5178161046313916,148
-117.41537276322312,77.50893156952283,-9.896599130407024,98.41849124268329,46.724418451721114,83.78124412784096,24.27935354577105,-112.70002878174486,-89.89321091690117,3.41325865112669,-6.956354558639963,1.0884484099947995,-14.709668112765128,-3.2758737807428604,-0.71429860018627,149
-111.15499498964029,77.71198380743117,-10.411270276163133,110.35750706607014,55.505503663433494,83.14020794091408,26.71927316001693,-113.64094558540586,-90.0,2.995013249617761,-5.3453602355489505,0.7357367885534356,-12.588494567004002,-3.4227199589475203,-0.1420854752632039,150
-104.67832618093831,78.79283296426452,-11.562279731823212,118.78340104310494,64.7900312694325,83.0190519262697,27.68900289822791,-114.8624697393379,-90.0,2.8243085205577096,-3.449238031384369,-0.09488856057760629,-11.134030817302584,-3.1919968325555903,0.112238158082817,151
-98.64977230594556,80.18236104091444,-13.366720636805967,124.13101175492518,75.94757363164157,83.24497101320266,24.6917859591985,-114.88639820028934,-90.0,2.6250661861251907,-2.2645154989092395,-1.0157900296840223,-9.837209121297303,-3.1574859678103846,0.3589698938427806,152
-91.17753670166626,79.83818243304907,-13.408786987584584,128.30907346108037,86.2901875695157,81.52445443608629,22.911537719948647,-113.88879154240708,-90.0,2.237350591305667,-1.5083530796465183,-1.746725452608447,-8.420541567581319,-3.206306961314615,0.9484148547516851,153
-83.18376780461494,81.16202330228813,-15.274792339259065,130.40549341398776,93.99384121745071,79.18589595162358,21.824093529904115,-113.20891465440687,-90.0,2.1173174117811957,-1.3487135834213764,-2.5660566599982206,-6.847982413356964,-3.2735617602185303,1.3261760074066087,154
-76.38484521828308,80.04650811889539,-14.983220219710471,132.68208578929017,102.9366019039267,76.5520430981435,20.26466010533604,-112.52881546231663,-90.0,2.208017503353196,-0.5209072456771545,-3.111959557611458,-5.498263034642541,-3.471789824273277,1.5719404422890442,155
-70.1520627176303,78.46181207100427,-14.955629627955872,134.31315928940262,111.35716774504775,76.6990431384892,17.59647349185662,-110.1184550778349,-90.0,2.4111213920278756,0.7671203354870343,-3.540221762097254,-4.529956671000936,-3.535939802054552,1.8379550564216334,156
-66.04801874059844,79.19473103384458,-14.407659327018118,134.5059831392028,115.3216135816729,75.87487940541588,17.699354637913633,-107.95087847814035,-90.0,2.6574857706172215,1.2917987236665496,-3.936281536335853,-3.6657324294677234,-3.5766742823488413,1.9590107523114169,157
-64.22234991778225,79.64484818706997,-14.667653327798154,134.23783815733847,116.21508981826811,75.98049922998038,18.467938859850044,-106.28895546319634,-90.0,2.902641315830182,1.1525378488104907,-3.8776296259718386,-3.0416960905483084,-3.607534268945286,1.9999342204517474,158
-64.08757496256952,80.44139555054265,-16.17088971019963,133.37225105308775,113.86156597459997,77.01126607483968,19.70679874644306,-105.75108995724509,-90.0,2.9797005527502542,0.576585361553164,-3.4673953658305217,-2.7962387336769843,-3.687119004973275,1.9600967491361994,159
-67.7533509871704,81.27358133159997,-14.904437845419425,132.35306077997026,110.21738040441438,78.25595175413568,20.224364098529048,-104.87716692524758,-90.0,3.1988108234148767,0.05544780427091632,-2.548368646655395,-3.112729431071351,-3.713664684348076,1.7446646195034161,160
-73.06672234454759,80.04897689134458,-15.396952628132189,129.4231354377784,104.27065017567736,78.75394840202122,22.718252957334208,-104.35623818241363,-90.0,3.2022773367554764,-0.37316233024163525,-1.6535287433682528,-3.8839959631521412,-3.6655473042282494,1.5286946075104295,161
-78.49930280155421,80.74687416203972,-16.853172744634357,122.56256806956966,96.33866195784515,80.84854839209447,24.314570346198764,-104.0449446181912,-90.0,3.2573793120681307,-1.2701040686624774,-1.2179061372208746,-4.385064249723343,-3.4301285268831188,0.9115415198869606,162
-83.90492039623315,80.67848139894322,-17.972250362833446,117.86138619488631,85.84638888565432,81.83765469712353,28.130887699999505,-105.87587430438114,-90.0,3.745515535614387,-2.7527295555262747,-0.7337002651572762,-5.283955129120182,-3.2929380524430854,0.21105294707440272,163
-89.12628239490878,79.91171972873603,-17.802842723375488,111.32844145690379,75.58584072379233,83.88331395766417,30.759238868226095,-107.40871021011684,-88.0004687893272,4.25967468392317,-3.879384520665396,-0.43398778810662986,-5.849904983846495,-2.9655994775179924,-0.6008709653795067,164
-96.51744644345096,78.2255259616625,-17.61000405002884,106.38237214674002,66.34285933662994,86.3535149987886,31.33845051545577,-111.03445143122194,-80.66051755428494,4.893948278176899,-5.312068881079456,-0.025583697035848844,-6.578043443590353,-2.9241716835760085,-1.4674214705380186,165
-102.99606880219933,77.02270954226248,-15.191252421889521,103.31922246029559,59.71109930869588,88.79111835585533,30.688330772772893,-113.00692496358721,-76.64679284738943,5.517478196999094,-6.327113634050773,1.0383708805095966,-7.326846909143413,-3.0947575681351718,-2.150511895509092,166
-108.62588488773959,76.3949034703363,-13.559224751610115,102.02201294756487,52.35018346574962,92.09414582432018,31.13946875210231,-114.88248333455203,-71.89076148826815,6.000000000000009,-7.522865514212764,1.7871748014123392,-8.516515564660937,-3.020934561788899,-2.8966820030098046,167
-115.04658587689043,75.28690856391559,-11.703623343001688,100.69812077502051,46.66277621450758,94.90652239161533,31.119206922470106,-115.76385726128609,-69.3199490747731,6.000000000000009,-8.143499552053045,2.4621961601625877,-10.039810678838277,-3.007517517260218,-3.6118163612051473,168
-121.29224924792175,73.92216200277805,-11.766427595017126,98.18091194023819,40.297875256940685,96.00537908214976,29.506277690294596,-117.09940769771868,-67.87407797324985,6.000000000000009,-9.105740063212068,2.7024374365478243,-11.428603771038818,-3.068647145989298,-4.5970567843241295,169
-126.97173999564411,74.00878816557395,-9.554034068199426,95.30964097815895,35.58722144430398,97.27886593159812,28.039216973266388,-117.82678836856596,-67.497606474128,6.000000000000009,-9.268928490294813,3.1005024370496987,-13.394973641843162,-3.1454962968260136,-5.165655426218555,170
-130.09170719324402,73.99110458385282,-8.095870896140273,93.55328918196695,31.446748623055516,98.97286655956765,26.2925536325528,-117.55149943201229,-67.31629461508848,6.000000000000009,-9.286171255557448,3.551402616041081,-14.779218170999783,-3.2544282573696743,-4.994183550916543,171
-132.85327094391783,75.76831159386771,-4.770196943903055,92.46980526524443,29.89227881487551,100.02520719680666,25.255217898003508,-117.36577153551116,-67.53630326543102,6.000000000000009,-8.767002678351494,3.9283204114813697,-16.18510998969405,-3.387957740042284,-4.747538793382846,172
-134.53225254094954,75.77698923394898,-2.785193564858247,92.69174518982705,28.278705839213107,99.12762499647349,25.84305444486343,-116.35222586092975,-67.854664743218,6.000000000000009,-8.113423526721002,4.149215899965983,-17.36099662278727,-3.544905812259509,-4.382541555956001,173
-135.6583483152567,75.86242640927519,-1.0653833375270507,92.94181296343746,28.167610875492148,98.71497128931833,25.01832015110952,-115.50097115654658,-67.91303097255216,6.000000000000009,-7.56969587677799,4.117977943787327,-18.603706623242118,-3.617551340266721,-4.193759282647928,174
-135.65388630383444,76.14856422672685,0.7102163489019844,94.55195863835175,29.39584191499166,97.67979069527279,24.983479470787067,-114.48469820666975,-68.17161564626488,6.000000000000009,-7.267054407579442,3.9242202962167667,-19.534933186836234,-3.630531647890455,-4.2073277541776894,175
-135.3051303422794,77.31174386287458,3.2920029467694536,97.747925800777,34.11651705082117,95.61780865945524,25.555998217341642,-114.28201960114049,-69.89961223465534,6.000000000000009,-6.680240832902031,3.7348625003414644,-19.32239263995746,-3.7173139036051865,-4.055093185326839,176
-133.0614262586068,74.97172691808179,0.722493980461186,102.87535725869299,40.34933596737919,93.896840977708,27.471638159685074,-113.6777881366767,-71.2100439823746,6.000000000000009,-6.160047758170962,3.426889681612134,-18.046634613987834,-3.6730105127027883,-4.01298791619624,177
-128.76162150350422,74.58906027371684,-1.4698423740364837,107.02543319609936,45.28873374821614,92.43840846113638,30.139056340059504,-112.85739004884823,-72.33874101783233,6.000000000000009,-6.0211414294724,2.6170060487763336,-16.739563233345166,-3.415596494983778,-4.108345832803302,178
-123.81152418721715,73.89619563602349,-3.667493667904739,110.82444518110646,50.98503998905397,90.41904023892525,32.17222130684993,-111.2056186348578,-74.16681860548022,6.000000000000009,-5.599230281766501,1.8403503937978816,-15.618487446422545,-3.2260776084449825,-3.8986273033733436,179
-116.73865788672019,73.16729577308602,-6.134659428842585,116.24726652752331,56.928363254912384,88.85812301818463,34.84827740081269,-111.1198063742446,-76.12589342704155,5.723708260757883,-5.128975747910389,1.0254770917934701,-14.371478162382852,-2.9755029578638816,-3.233662249226488,180
-106.17912016554327,73.07265731272896,-8.632994222238743,121.52368048170042,64.04654934536703,86.51454867086899,34.25180394953957,-112.50066614791868,-77.16706782793418,5.072898721400282,-5.317676009980144,-0.25601943430074003,-12.495647962788048,-2.517410858839668,-2.9036560003176497,181
-97.45920543031566,74.24517782447687,-8.6573899301665,125.09921542094135,70.60446552492003,83.54326091245998,33.32953866394223,-112.93747110143146,-79.51036779320758,4.460152642642745,-5.19862141077113,-1.5016520805316458,-11.199021555662686,-2.130294183884977,-2.4362231676121047,182
-89.37703551819561,76.23045074990084,-9.641241388187979,127.83263195476087,78.2754473210654,82.13505005794035,29.932324137869614,-113.31936096300086,-80.2320977831541,3.8982782276823698,-5.709704107158613,-2.797292286007419,-9.619537422172847,-2.060800533132191,-1.9844085585237767,183
-83.8169271659538,78.36918193223254,-8.362630412233429,129.66507892742567,86.25076103580156,79.0328578285782,27.68091833542305,-114.09760829904656,-81.11454818294526,3.2412059570402096,-5.785737568286228,-3.959211313828936,-8.145879240839964,-2.135279403311741,-1.23568002706356,184
-82.35737580115695,77.46311153670108,-5.275169467638923,130.78787489784426,93.0755970438243,76.25100396412893,25.308408950225665,-115.47278534673907,-86.07874300607632,2.6672726700334235,-5.28933156154001,-4.908715789411033,-7.307077019514889,-2.291847665389276,-0.47541810974658616,185
-80.7084838910643,77.28776533913056,-3.0675793819302495,131.61206496159554,99.76686571971429,75.08677778985042,21.104208043995477,-116.10978577532437,-90.0,2.1951013704861824,-4.482593824020015,-5.750065024571312,-6.584032794129709,-2.4770662807870005,0.027834790248334358,186
-80.4836285808537,78.69749578062351,-0.687258806215759,132.88117948914635,105.56770946462404,74.0353033159589,19.58418691444684,-117.1035996073963,-90.0,2.1683870693651506,-3.3093044275333092,-5.984824572897413,-6.044609776383995,-2.846937321321721,0.7188001429542733,187
-79.67670301637011,78.12368293944148,-0.13957151970869053,134.19830923444653,109.69763733543101,73.63603304590727,18.74711743089967,-117.58977133483671,-90.0,2.615737092362879,-2.3167957999576756,-5.883577500248161,-5.602811683594662,-3.236827574449599,1.3000620797157547,188
-78.77931274245479,77.61564509562041,0.13103696663432315,134.77024937706213,111.7121697369486,73.55478880185912,18.603739377715385,-118.3010180000273,-90.0,3.2163876322459943,-1.700519963277892,-5.580233430843396,-5.1721849999083975,-3.713676354428805,1.679506252320098,189
-77.85264466521095,77.74035776663602,-0.25132116309695274,134.85131115365695,113.26855061540267,75.06222919346006,17.033059137444052,-118.57203180476264,-90.0,3.7146637814640804,-1.3077282993789645,-5.27225320498701,-4.565715992845052,-4.116165672156722,1.9249274036722077,190
-78.17534126913415,77.22174606408605,0.2772402121948891,134.40286447265984,113.25067091503162,74.46034396681144,17.0338806273649,-119.16245067448793,-90.0,3.9170543725864757,-1.181420613115393,-5.005900287307917,-3.960171493176043,-4.437482884040666,2.0636316572064413,191
-76.54184852624417,77.22589564813258,0.7022547419839061,133.59504203499878,112.63165140633994,73.91050345866246,17.63172954247486,-119.95421036206625,-90.0,3.8431946053328603,-1.2472659561470996,-4.664599104964087,-3.050156871055732,-4.615806164107842,2.027729185892916,192
-75.23950415660359,76.65694905436513,2.0368710365355858,131.85801322057233,111.35570989032286,74.43633378621233,15.992601856498647,-122.27956245180688,-90.0,3.6248241109795982,-1.5209571814063203,-4.2693809539418375,-2.1396137940229223,-4.814750782197334,1.7718163665064828,193
-76.12967588223725,75.02741710377285,4.79397986888692,130.9147246649321,109.52651540798928,74.17596405870432,13.239685909623747,-125.6072069188646,-90.0,3.549856163226421,-1.9243939500961587,-3.7686567885446407,-1.3784690599740839,-5.167606724374823,1.3234838548163343,194
-73.03158635074271,73.68521562970339,8.229217687121187,129.78376030580694,108.51750602081806,76.00743911457435,6.171746645564594,-129.16358357210055,-90.0,3.2206568691362105,-3.1918677517996774,-3.283982253426108,0.07611068736372538,-5.390531421540421,0.7192680124766669,195
-69.43506312397399,70.0014044648875,11.004538146673983,130.47306175698722,106.58451443416259,75.75308734695611,-4.404610234850418,-132.25056717736277,-90.0,3.0299401567172586,-4.48468329379582,-2.70343081049389,1.2872099724652075,-5.466712916946426,-0.005234535728899139,196
-64.27402890285146,65.723072615108,13.726380583243015,131.84281088150757,101.59667420794759,75.51105209238618,-15.961656025232188,-135.05617745948157,-90.0,2.8496637189166942,-5.468038673067906,-2.0091595855258273,1.7994982239060267,-5.167004698414435,-1.0150424165781122,197
-58.290132091541146,60.71592306948339,14.46334770966828,135.32678047432745,98.75838851050193,76.11948564479968,-25.553425060178785,-136.69058270385784,-90.0,3.0934220500128284,-7.151896091787301,-1.4372980792026968,2.1902249027950638,-5.1113043153498126,-2.2345903680168124,198
-50.022439291803366,56.279803969520465,11.765749068003531,138.10920743629333,100.0211865680633,78.65861082794922,-30.41599150577541,-137.92799800806543,-90.0,3.147044854682724,-8.081143194208202,-1.0742082224785099,2.9001856869883524,-5.1462329049568085,-3.4790324930955667,199
-39.365366737302466,51.32611019873867,5.035286198007801,139.90562148849824,99.4296544385146,81.44774950575324,-34.33144062263515,-138.69399983705915,-90.0,3.2089512895167873,-9.160649743721148,-0.8625214802794983,3.422278563660207,-5.077925477706238,-4.6431814070010535,200
-28.659670365740244,49.40771178100466,-1.2012081144280318,140.19769388483698,97.65076460736987,83.35959561161116,-35.15130888454969,-138.88803933378858,-90.0,3.1538712242854094,-9.698872983673912,-0.4856519386643549,3.478190472391381,-4.843828677134215,-5.532918168035139,201
-20.910585967054896,46.185582944864976,-6.056576642683161,140.36765851467607,96.80986202477244,83.393831591358,-34.87501989460718,-139.15127729097205,-90.0,3.2515318542038854,-9.817747407865856,-0.11959907364015586,3.0826235263881885,-4.626328515699056,-6.352145468938687,202
-14.774865047219784,45.35462118102555,-9.760718372915653,140.8159527594221,94.95213018775696,83.61513373116337,-33.952126224505236,-139.4567178039775,-83.95612621453952,3.3873212824101877,-9.737612555483166,0.1588799856863224,2.3519494529866107,-4.334194776222312,-6.988960239334712,203
-8.116050725819559,44.897289701183965,-13.943959668492395,141.26867424081502,91.76622265018223,82.63996619138855,-32.6754184997445,-139.71570838891628,-78.70934538373933,3.640749959176605,-9.481715493338848,0.41762566182233435,1.3440441143398505,-3.981674961585631,-7.508678368417776,204
-2.317329483569505,44.64810537561041,-18.725116374648,142.06689090258598,90.14804159132817,82.26819480847695,-30.62093676262754,-140.04676033700272,-76.9299836099157,3.738771473627819,-8.794318807414149,0.6894967260104083,0.4728500536190563,-3.726192049164407,-7.732922032002848,205
2.131335942450876,44.535684262269285,-22.672094673347292,142.99385759375733,86.93552407964775,81.44896182786246,-29.034439373799035,-140.22502909168168,-76.20537699543192,3.8903794977796413,-8.070746501253234,0.7725215867235854,-0.7429875302553939,-3.4561737455434884,-7.817445297651036,206
2.791067123989344,48.823103640635104,-23.328050417745143,144.3021252707386,84.51966171589736,81.27565146671756,-25.9916997788445,-140.5699077719189,-76.95739904999009,3.696193413036178,-7.415555592816924,0.4825981163914711,-1.6138908996904633,-3.250523685145734,-7.631617315150238,207
2.4908396752596027,53.39168222486768,-23.445694228313688,145.45591079810754,80.98181833330382,79.36114394564116,-20.85637233497801,-140.67848784584743,-80.4107753075707,3.593845738255512,-6.715702225805049,-0.04547628322638069,-2.7592323051186485,-2.9890938473274695,-7.481410728767792,208
1.5279646759232846,58.52187863697398,-24.216792147147174,146.0099478288752,77.72040346144784,78.55246089877072,-13.822101781328058,-139.48531685557447,-85.39632649446649,3.44327292729881,-5.545008431052197,-0.5031468545545019,-3.951379132008022,-2.6534364387080918,-7.284220924692713,209
-0.5074766164773603,63.731488099085965,-25.224275550223638,145.92901399871286,75.19553750997073,79.2112699199871,-8.208630608587614,-138.0027812186808,-90.0,3.389249510842933,-4.2704290081353555,-1.0252331802836023,-4.7794104207616,-2.2825844717935575,-7.048653239413466,210
-4.981947348367665,68.39705695798942,-25.802701535009593,146.20669483078962,73.35286681788763,79.91351850682418,-2.526413848562763,-136.39653432040782,-90.0,3.3921898725620703,-2.503115110609335,-1.6792373585999663,-5.411324236932559,-2.0167494228970555,-6.556767619997955,211
-8.070914438020782,74.43344462081626,-28.353777682465477,145.2536078189678,69.85810576590316,79.38641661097999,5.5039627550171755,-134.25014288214678,-90.0,3.4703679393354157,-1.313519358061519,-2.180710132897162,-5.822595977805916,-1.7412988842615897,-5.96638573625606,212
-11.202889600792137,78.41708801840502,-28.73100630382109,146.22972678279464,66.59560413034946,80.39924319179586,10.230950021402222,-131.17123803057294,-90.0,3.770510582862091,0.0985313104715367,-2.5347488014911703,-6.982858486088856,-1.5402810944199286,-5.058360802476256,213
-13.19078620229989,82.14695536333194,-29.1104022077988,146.44957658203225,62.84091031906036,79.78901204067378,15.14768503689612,-127.53428919627045,-90.0,4.098684395479672,1.1711898719073093,-2.7986961957297707,-8.022393878959525,-1.35832927711832,-4.176032737541221,214
-16.26004667208386,85.79418558282117,-29.482970715919638,146.28414132855158,60.93835572282427,81.47666245690704,16.60508442369837,-123.5359465038496,-90.0,4.593642210666628,2.126108363265297,-3.0701244039529314,-8.8046110891053,-1.1678298366026654,-3.55865624064373,215
-18.970232610906685,87.1879046277662,-31.2315014825821,146.9238206059689,59.02133685035736,82.55106654530539,20.841001812834374,-119.0685247777983,-90.0,5.237492763652463,2.885370834594175,-3.1178752663045395,-9.779051970888835,-1.087777359687832,-2.8751254699535536,216
-22.506051322798218,88.69492251262974,-30.21385032222114,148.0,56.467779379190304,83.28291596473201,23.646767931337063,-115.20872729794125,-90.0,5.779964569676917,3.653887116803176,-3.216185021151332,-10.607503555695166,-1.1494570325009383,-2.0573649824088225,217
-26.742657788655897,89.7867658756342,-29.636061287370964,148.0,53.96175711130135,83.45142263365669,24.903497818232843,-108.72814242271511,-90.0,6.000000000000009,4.227315980993809,-3.0858433209110325,-11.26129223755192,-1.195785147573846,-1.1515603075256848,218
-29.129414894353854,89.27447245576919,-30.425118759591545,148.0,52.26635109809523,83.66487027000778,26.864363330327,-102.93997852506394,-90.0,6.000000000000009,4.469307380757925,-2.860519076525867,-11.983745269503784,-1.3924180052751751,-0.4917964743886082,219
-30.457452075738896,90.46250293009255,-29.391077769399903,148.0,51.33798686409293,85.15878334584771,27.16211606351238,-97.84992622594932,-90.0,6.000000000000009,4.412999009984582,-2.646300871546778,-12.183126305699828,-1.5711741891060769,-0.06129895424840065,220
-30.24134910698828,89.54394221897772,-29.025332570676536,148.0,50.27461586494114,84.83436780288132,29.688753296406468,-95.69970089110046,-90.0,6.000000000000009,4.061821995916377,-2.3933703439823026,-12.160661446799283,-1.7611104333051364,0.08114348158433399,221
-29.324725645091235,88.39738651640126,-28.091889976875308,148.0,50.04975255866278,85.03727101197214,30.010799872267828,-95.32196316093389,-90.0,6.000000000000009,3.351224669301933,-2.086419626481143,-12.008085096808962,-2.0609957118773616,-0.06974187366706368,222
-27.438860638558353,87.60281720176458,-27.056228903518022,148.0,51.16543989707573,86.36403873959729,28.953868408202524,-97.3422551794665,-90.0,6.000000000000009,2.4714404694075247,-1.8129218859358347,-11.665595860789846,-2.2787583765701283,-0.42709399449983787,223
-26.067167667828574,86.15660799798934,-25.355620350844223,148.0,51.580583499582126,85.64904169199447,29.270877412084946,-99.5181967261976,-90.0,6.000000000000009,1.4451494504261242,-1.5029929992379503,-11.28082987186704,-2.511179556080931,-0.9139579180962092,224
-25.296427135633888,84.97564239793597,-24.166972554679585,147.7506985091627,53.00805781120611,86.10280099980066,27.915339298371535,-103.22732002634791,-90.0,5.601439614030099,0.23518321329605935,-1.2875897315981644,-10.329742507673284,-2.598830411930833,-1.4985741004841733,225
-24.364559770316905,83.26961244909255,-22.888416817858516,146.2057677474626,55.5484094422373,86.23176745037429,26.038421450528904,-106.63055760698045,-90.0,5.001568144003848,-1.000126181167935,-0.8809347131099766,-9.11547831809305,-2.7465074651933086,-1.9471028537020938,226
-22.212461228620665,79.80259093411368,-23.10224001132653,144.38535018559185,57.60693523827026,86.57003653661953,24.036078102965668,-109.72212972064224,-90.0,4.225137025362887,-2.427733864135633,-0.4767686215817193,-7.894627391842269,-2.798199041740182,-2.377942900185887,227
-20.280270682684673,78.01421428377765,-21.741712978816082,142.99064359109244,59.23804169334499,85.32557754218873,23.614034538250436,-112.63861985665906,-90.0,3.5639691434762737,-4.041625653525736,0.03810038322741636,-6.666617155613293,-2.8855417354110346,-2.795486625616981,228
-17.750071589873652,74.83883546976256,-22.471494195343187,142.07431814728457,61.6032785855264,84.91358142864412,21.57540508298882,-116.01667775085245,-90.0,3.160430464692069,-5.456482755652694,0.4649750413611793,-5.2986158895033055,-2.972042847117332,-3.2003844955918384,229
-16.169279607308074,73.84329796980626,-21.88293134822817,140.7713529703506,62.14416926134885,83.29535816369295,20.885349968918483,-119.0473908167896,-90.0,2.905200235355397,-6.8522700907910705,0.7236601386940916,-4.023351823657099,-2.972388952547803,-3.533688436579461,230
-13.563039483500445,70.88365578739597,-21.730528911364253,140.46312451640264,61.96544501489522,82.96461987927141,18.101436933952986,-121.0352188350182,-90.0,2.960478051939299,-7.804047850620262,0.7728079520315988,-3.5544043477721967,-2.9676496805899095,-4.020203062630254,231
-10.491825315995664,68.19218379012315,-22.07778573845215,140.3278077520095,62.817792232767324,83.00040846174628,15.305681762137958,-123.01496111159547,-90.0,3.1568461899998015,-8.081056986312865,0.9133641134140135,-3.1610040040073537,-2.933685456842699,-4.461853902095815,232
-8.168914157308715,65.95292173879913,-22.74565656021006,140.101841655209,63.23417874985726,81.33438247125659,13.988481974293737,-124.27678545151342,-85.27426921579854,3.3670485618347055,-8.181350521597858,0.942566751582843,-3.0995392929833536,-2.834096827821175,-4.864524834147846,233
-5.997413565780662,63.85795687993771,-22.971864106221457,141.19084043511828,63.6213911542545,81.70925433865132,11.241225802142987,-125.96774474250005,-81.8193433689345,3.60804097528515,-7.893806206406324,0.8283605459525191,-3.6333222455223426,-2.770706072219098,-5.265929529488349,234
-4.810856641497861,61.56537423792586,-23.356022231890595,142.36685211838906,63.03114373248125,80.71872858333222,10.210014160682773,-126.65812937055341,-79.2139572653609,3.781808184051186,-7.357420576568461,0.7572929063426511,-4.196159226153337,-2.6427498071801927,-5.395534213005432,235
-4.901964116503418,62.048720405943335,-22.947718703754393,143.4811032193956,62.54878979736811,80.17006051401263,10.027481635443886,-127.36017949587945,-78.42085832305662,3.8959724440136654,-6.91695457268899,0.4696882722665584,-4.726216936202082,-2.5263446099134117,-5.501959590214921,236
-5.074301606310334,62.91804128272502,-23.03516437118071,144.36387497062262,61.524197547668635,79.94640384119968,10.274963091896304,-127.44005807076753,-77.62441055930358,3.9516808672102024,-6.633058686317925,0.11713196232589791,-5.284369584974996,-2.3719428749102383,-5.525445762624054,237
-5.522859600083338,64.6721586623967,-24.632671922268695,145.33162137453988,62.44276551808615,81.31611196884953,12.114002085370547,-128.11757354627875,-80.09927076106828,3.8998244850884323,-5.904167441292143,-0.1538729539665723,-5.618569767412857,-2.2364595746146128,-5.462717741236026,238
-6.6465859704578945,68.13202389668464,-23.98638077798456,146.11134327556582,61.415136346064145,80.59910981041418,15.197313628539163,-127.36835285931889,-81.64618802083396,4.021958428383934,-5.393560446294518,-0.39593472950757275,-6.287045483844258,-2.037592304525333,-5.432690396840371,239
-7.074034680046676,70.24497338781939,-25.53419489749506,147.06242022453205,61.501789710699335,82.07206690809656,16.90930430213635,-126.23722737134018,-85.06988686599894,4.103849937431702,-4.696777059655137,-0.6442476255615048,-7.02704361522073,-1.849406835391902,-5.379606342428762,240
-7.280942449086805,72.1995709083565,-26.82941076383618,147.9347806242944,60.02058703444906,82.71091030232941,19.770654306841273,-124.36933109767013,-87.8856743891159,4.1922675015030695,-3.7725394253573157,-0.7489712886083221,-8.072657029447539,-1.5398634222003127,-5.207099900331483,241
-7.6870405642965105,74.46018627149553,-28.43884485583268,148.0,57.38208295618622,82.4918640236532,23.25252157860966,-122.40261848276855,-89.89791358690569,4.3211346700881315,-3.270126890481257,-1.0137451082478248,-8.80364007873074,-1.2021694544284451,-5.097527575920777,242
-8.91316438135545,77.67390543956594,-27.923036146834747,147.7470545092395,55.950480756123085,83.37026132446013,23.43215497508444,-120.51774350492592,-90.0,4.35588510253991,-2.7455337546866487,-1.1608320548833577,-9.355162050297961,-0.8841555464124885,-4.898191623279177,243
-8.370744801576015,78.18150431476491,-28.063732214006226,148.0,54.58827011641211,84.38992905050033,23.355235514823168,-119.70373106126627,-90.0,4.3402796933512455,-2.189061999463043,-1.1685503607217138,-10.076195520990126,-0.6585675344116241,-4.572318615149708,244
-7.307483743088129,79.03357239594862,-28.94534534321276,148.0,52.314789192755946,83.95527427567563,25.159920980780143,-118.86056183271694,-90.0,4.33170246271778,-1.9006174328907495,-1.1088253972575057,-10.438846007811243,-0.5784241319846144,-4.228788566902507,245
-6.6491221044485584,79.0516525389116,-29.536606856443033,147.99703385274324,50.40125364154079,83.38140244466486,26.767390295510193,-118.94899142088508,-90.0,4.296404231776248,-1.6471216013194485,-1.0333569975615617,-10.29293062188722,-0.5382962500693532,-3.816495755199911,246
-5.073459960313758,79.08906090760635,-30.038486481589647,147.56293327278357,48.98179299036317,84.12668302652384,26.341407046935604,-119.55319327279715,-90.0,4.312007928697091,-1.5448877099986733,-0.9669855897532859,-10.059921569454426,-0.5690169238370344,-3.4750231112455507,247
-3.703522302172268,78.88950735943178,-30.367627375377207,147.02704544880575,46.68184615288198,83.25636960095642,27.577733043983006,-119.81594847750185,-90.0,4.3707235798064845,-1.4579293868526115,-0.8414279088173102,-9.779178884343391,-0.6000761357163888,-3.1952741559447784,248
-2.49286067069589,77.82185180946527,-30.18669826711166,145.8656773869266,45.05607345068579,82.11529938558881,28.780803604816683,-119.8695152242604,-90.0,4.349920896694645,-1.3706237510809263,-0.6569868301607762,-9.154091828666637,-0.6675775411070767,-2.946618641860444,249
-1.309707489899445,76.990378483225,-29.90903374459812,145.4554914412997,44.6138467832114,81.16600610100498,30.840377254966498,-119.25603204522183,-90.0,4.220191515549399,-1.1520853989657307,-0.519353845149666,-8.772483697468045,-0.773121638933516,-2.746574966823559,250
-1.1685717446518449,73.25815230805657,-30.63459560309215,145.55495416205628,44.31938151104877,79.70346199274994,31.678838061703296,-118.98566002535074,-90.0,4.088538446396392,-0.7068951336861622,-0.21425784780728224,-8.514825546433899,-1.0152199391308423,-2.2649737972088366,251
-4.0238588784599845,70.31241459376389,-29.583785395454058,144.2921442309126,46.84783762417916,78.78260246867508,30.8500525458562,-119.93393516505985,-90.0,3.9705932648574453,-0.345384333907501,0.019697349750582682,-7.351765421079418,-1.324095287866893,-1.9492081120363913,252
-11.572055374341465,68.78370329910568,-26.868925725131056,142.63944996355684,50.64806757607766,77.49180607112623,30.577445241053532,-120.21268806346606,-90.0,3.9626160598476536,-0.19989539964077177,-0.0063855384492876735,-5.586278470080205,-1.7621560161973624,-1.6750968841272018,253
-24.56604659351706,64.94045928667732,-24.69516745754802,140.48204763586148,55.59726049019722,75.934586435823,31.10478710660181,-119.64895709206046,-90.0,4.10673047791294,-0.44070193403865493,-0.3351872707650026,-3.9188804379017297,-2.3972589683686505,-1.436802379488582,254
-43.82849516887137,62.0064594665734,-18.17925437502825,134.89805064904147,62.462219832552044,75.30772987319519,29.190159020403243,-115.803118622399,-90.0,4.158931261772849,-1.020684397431116,-0.7689280703297363,-2.489521240940006,-3.1216299063791686,-0.9564900821345985,255
-59.3890311833429,62.323315377391076,-12.98395982776405,131.27770390315044,68.30793822553441,74.32506357107246,30.771435469703647,-115.06916668984549,-90.0,4.053958334911853,-2.4971070480160025,-0.8915389964128936,-1.5725607614015595,-4.023185869341167,-0.1295340160176364,256
-72.38961137944378,65.41771648935254,-10.239458971542634,126.86545084171966,72.03769835149878,74.93748867695716,33.80302664910084,-112.96642508180088,-90.0,3.9837796664479197,-3.945086431954203,-0.9402280164580508,-1.2935627203650097,-4.685630790809107,0.37322713447190703,257
-78.60872916918498,67.59568891147788,-13.169474622791844,121.93789623789401,75.20806973513552,76.54346939825061,35.258056032431526,-110.70656952947532,-90.0,3.9387979241511646,-5.449986977343984,-0.9682640162112837,-0.5657517550811445,-5.299518281709671,0.634780000226055,258
-84.2072579726118,70.37559302126998,-15.318151497300645,115.47806344284277,80.64568152487067,78.08020949841334,34.53514347333732,-109.97729691735823,-90.0,3.7789623720237424,-6.345171771457687,-1.0636224903661975,0.6216865344864762,-5.780661999224778,0.7924116529775127,259
-92.42532413816242,73.70490482758846,-14.556784601790275,111.47257015937599,86.63699332079217,78.16928488411857,31.969087447675207,-107.8078953245201,-90.0,3.3956304630037923,-7.456905597187329,-1.1550693834270598,0.9644308959891756,-6.240542214963029,0.6509556996219014,260
-97.69686640278329,76.78043026133994,-13.150246923729618,104.49903445112439,93.40322782808937,79.22748951119547,27.224260659467948,-103.67445940501413,-90.0,2.703441668393951,-8.759637321952084,-1.3787473256361527,1.6811355130254617,-6.370612004093438,0.885646471186434,261
-102.6919345105483,79.61277035806928,-12.680272294597408,98.09788420183158,96.19537973542168,79.88732649516996,24.123703961547747,-99.13490745196201,-90.0,2.223172848374044,-9.208365648481141,-1.613748317427334,1.292966391521517,-6.066503976629052,0.698026994230873,262
-103.0590722245535,82.25098146945884,-11.860836679244676,88.71509067672113,95.85259366640227,80.88949744545131,21.48111039528534,-93.99542988461548,-90.0,1.3896981855313133,-10.587556454679815,-2.165109055016488,0.8294429843295449,-5.358313955469993,0.4109599161317546,263
-103.55038205806397,83.31054042639998,-13.060117569617223,77.79306357868647,95.86473582821085,80.20979950061624,20.365356990563285,-87.7508634839085,-90.0,0.9742836318665292,-10.70887275678631,-2.752196946846944,0.27729546724058046,-4.5260034659295005,0.29383021290545164,264
-101.06494585369308,84.3690566634041,-16.203623770885653,71.97064550013243,96.38572636047094,79.46184162720984,20.0845782389676,-85.64949117013343,-90.0,1.1874298868910718,-12.534384297411648,-3.3714432855267904,0.27998207473867176,-4.465076517842084,0.3055979863428046,265
-95.63419604544664,85.57969226559034,-18.57331760530289,69.56220192820675,95.60296790617352,80.18152737144158,18.50855702954121,-85.03005669155112,-90.0,1.5367740144870174,-13.888290650376291,-3.8023962397151507,0.8014468723294539,-3.9662701254653676,0.4274826241290148,266
-92.5954539231415,86.84658955386908,-18.648323953166457,72.01757910311849,95.08722655981947,81.11736495583465,16.92852152490505,-87.88819350816618,-90.0,1.9423665906858962,-14.848433316448096,-3.9461122859069344,1.232314665145446,-3.7172322803095805,0.629378498818599,267
-90.3505224923212,86.12573299285131,-20.70394167397004,76.41489705751148,96.20655401878352,81.75730789012944,14.844219323667705,-90.50117683709438,-90.0,2.38059796326709,-15.587751169948955,-4.051888865105008,1.5679206349351982,-3.814628567880707,0.9056342812700202,268
-89.87934236740267,86.36640003612915,-20.379550362883737,79.20670550763799,98.47870759383997,80.67437750464782,14.635859582376119,-93.62208590076632,-90.0,2.873200410936577,-15.618798996331375,-4.111670235864731,2.1530321068602993,-3.965614451785954,1.2986360603220657,269
-89.85185396658105,86.1867677919662,-20.300506713624845,82.04051855056247,99.21882967479621,81.34240500779892,12.245570549478266,-97.09034010616598,-90.0,3.2449837428609727,-15.3800232103111,-4.1425400301575,2.311322392922107,-3.8997430198272607,1.519835492891059,270
-88.97665878920448,85.7550767421986,-22.659585469948052,86.84103592609512,99.72697293431943,79.94775975376437,11.667181892103004,-102.06914992003024,-90.0,3.5474696340260703,-14.680103937346336,-4.364794073418126,2.7017990361477406,-3.9620054200403585,1.664508670120365,271
-88.86939276887294,84.2392722800014,-24.22044771041753,91.06428878010172,102.9171509530961,79.51491129804612,8.489863653511394,-107.31844671166009,-90.0,4.0984285102003,-13.928529936032824,-4.739961137411039,3.121130572414247,-4.285325763742296,1.9534298832020234,272
-90.01401360314156,84.26162490791117,-21.479319398781676,95.08468992227479,105.17141069080722,78.06256586036912,6.944944260478378,-112.07723903045473,-90.0,4.696655899996589,-13.579460029202501,-4.980858874901668,3.126838803328776,-4.76728080093236,2.1656018323620274,273
-90.91262127609023,82.78494521780843,-20.7486836695552,101.73727674343039,109.60377616394764,78.49824343344461,3.5840960731297495,-117.99241127247313,-90.0,5.415986285639382,-12.791653536122658,-4.969822155872119,3.359410094819513,-5.46002482056948,2.620550027037439,274
-90.95407930103727,81.89672163549409,-20.87811174028312,107.80737139692526,111.57471613048564,78.28475094518973,2.596124752406018,-123.1767820810121,-90.0,6.000000000000009,-11.973048638786938,-4.932620562908768,3.1891844048344957,-6.0782576881991925,2.95869759821438,275
-89.052904565294,82.12117328125571,-18.489779056923467,113.18443627089387,108.85099454768776,77.65369250724697,1.2630687609113902,-128.6999207047984,-90.0,6.000000000000009,-11.310041029618361,-4.999771356507565,3.020219237346314,-6.457306966239397,3.142677926971271,276
-87.05907035338248,80.08000049816764,-19.542767662282657,116.48123883857028,110.54635224026161,76.54463765482727,0.35443771840671096,-133.9554603362933,-90.0,6.000000000000009,-10.843216249184227,-5.295599378199048,3.566395959230078,-7.073538794949835,3.637436664648798,277
-84.63933799199135,79.82210737306586,-19.504375447517916,118.49891005591657,108.71171319922469,74.35695458457305,1.528216340795697,-137.06764082801942,-90.0,6.000000000000009,-10.281651846652242,-5.354490595633764,3.8614511505394455,-7.300673784328493,4.050930687592962,278
-80.05810641761201,77.69384273366845,-17.802753758159437,118.72470897641831,106.68763606451259,71.73728951042585,1.9480606818863637,-139.84646741659213,-90.0,6.000000000000009,-9.75836215970905,-5.199232575834768,4.247859409738695,-7.345922537724124,4.463755498139839,279
-78.10064255787279,75.99346996819764,-16.144236936340306,117.98333651911584,106.48937919459264,70.59790589565145,0.6424949799480061,-141.8480476764745,-90.0,6.000000000000009,-9.047370994010565,-5.138400777305982,4.850236126597547,-7.55934564208625,4.920892995163235,280
-76.96168480114906,74.57133797348236,-15.614537831941604,117.08126491914372,102.94886535412354,69.8616469125148,2.7582705489242842,-142.58503474602017,-90.0,6.000000000000009,-8.557158589608719,-4.869582213896402,4.7741139582208865,-7.429718484966882,5.26066056542819,281
-76.1486827663864,73.79775381855686,-15.291949182055827,116.78763237232063,102.52081060396874,70.34769301901795,3.2555414959153457,-143.32332956834637,-90.0,6.000000000000009,-8.450801941601123,-4.629278810626356,5.056641311524432,-7.426520675039426,5.601310762260179,282
-74.85206067321651,74.27939346701685,-15.960098052789224,115.92940419320196,102.71128084069287,71.57655926613582,5.516008430306941,-142.79204566019598,-90.0,6.000000000000009,-8.388099115954452,-4.231047024573865,5.674299257808211,-7.233517662959852,5.7278166550022505,283
-75.16100263644377,75.30258186595991,-16.60011016460868,115.6015227529928,102.8279015287698,72.55375507092965,7.643515322520574,-141.98634513951217,-90.0,6.000000000000009,-7.5133116768698756,-4.09763618870029,6.260355057827289,-6.929400563923892,5.625447525542864,284
-75.6897429342247,76.29909946349369,-17.01794931006995,114.38395996795879,103.46351565820797,73.51459197988007,9.727062436450437,-140.20065089972718,-90.0,6.000000000000009,-7.484412596172694,-4.106764214298042,6.582301877400243,-6.635594912824158,5.508362842762845,285
-76.852513898619,77.59161336572359,-17.859003397549245,112.61729575590802,103.19413725911718,75.42950929937305,12.324741452513383,-137.3388483945871,-90.0,6.000000000000009,-7.551940390716487,-4.136143377419974,6.377186858335582,-6.224368729074289,5.197768638638725,286
-78.09971012646255,77.82404588327279,-18.691060827253445,111.2194489522107,103.2474965493897,77.39084653997372,13.711845996985021,-132.91108528422615,-90.0,6.000000000000009,-8.045591009377908,-3.8926494595367727,5.627435793296815,-5.767880711374678,5.072076958113376,287
-79.10016505486638,79.78339506286378,-18.21151269423337,108.75282500308198,101.69701684446942,79.84624749045345,15.080264708679138,-128.209329173306,-90.0,6.000000000000009,-9.479473248453633,-3.36500858409098,4.7795019498600295,-5.245518058312307,5.04454774681048,288
-79.57465110040455,79.7452030323059,-19.749101761935844,106.61099096111938,97.82817031135077,80.94852583836719,17.449354474173628,-122.37656100724573,-90.0,6.000000000000009,-11.629838870466505,-2.718443610337945,3.348187004523972,-4.7868187079046,4.866261339728405,289
-80.97462348372875,80.85393827965021,-19.068099694499534,105.38257996214594,96.46261224322495,83.07863387477374,17.5244037413526,-117.09771919280597,-90.0,6.000000000000009,-13.716016753320975,-1.8961290087124758,2.21688497009397,-4.549657439968231,4.7187918323473586,290
-83.07687936579109,81.66602087577708,-20.10826925075358,102.65058814986098,95.10118967129813,84.23592718046788,17.44506875268414,-111.47625756908963,-90.0,6.000000000000009,-14.219084284475246,-1.6675872216031105,1.3811958555825505,-4.10745111378205,4.164155829835787,291
-83.96841542873558,83.13799938831059,-21.45818860828627,101.32699432261137,92.87594905018524,85.0658977850999,17.495937518649,-107.35604655931654,-90.0,6.000000000000009,-14.699264507846562,-1.6701037331612858,0.7070756306861499,-3.767434076769736,3.4792122007310406,292
-85.10456616409533,82.75156462511646,-24.120196772155918,102.12370666135061,91.88314354799239,85.04070201657113,17.3984395794264,-106.01438662468787,-90.0,6.000000000000009,-14.483061369205384,-1.9319277585609107,0.2407269213181505,-3.5806744900516208,2.7993158057115646,293
-87.42977653871647,83.574303540455,-23.96253985697061,103.93631359704864,94.67530269363003,85.12052151110237,15.245918448456337,-107.23576964315183,-90.0,6.000000000000009,-13.126174354874749,-2.320401560766106,0.5079231680530539,-3.712458282357403,2.2166606975886296,294
-89.59534532246315,83.47842384396257,-23.278109948826437,106.46558293415367,97.21501495909513,85.09570984161843,12.76491270990253,-109.81392583759134,-90.0,6.000000000000009,-11.796941516357474,-2.8098929383442988,0.5541677840590732,-3.9822910825277424,1.6366182107785503,295
-91.53714575169745,83.11956187248344,-22.731511290364953,110.65247697329991,100.02063743837446,85.07816126233213,9.862820353786713,-112.46214834455824,-90.0,6.000000000000009,-10.550275686727987,-3.201815189711594,0.3932120385651716,-4.459559394969462,0.9473450494620805,296
-92.04076245352414,82.77032999450947,-21.702923749355126,113.89719651226294,101.5488310336933,83.8039819301112,9.49265342963167,-116.5613561213739,-90.0,6.000000000000009,-9.120065259724447,-3.6964307471039026,0.5622794607500815,-4.829420762238149,0.5388017295901955,297
-90.2557988967765,80.97203005995681,-22.410262108696955,116.48516900772518,101.31917011819763,82.2260056947871,8.757896823141154,-120.06604159848358,-90.0,6.000000000000009,-8.119056782910976,-4.284574336397456,0.6115234153467066,-5.051727440980243,0.11287587526217338,298
-87.6371496695444,78.46838582158003,-22.97905479050022,119.57696544735867,99.99644023224685,80.77454716579356,7.551152617373947,-123.59827879880733,-90.0,6.000000000000009,-6.999193027750657,-4.540047508537316,0.5412734256834412,-5.453302826761521,-0.06330088204431608,299
-82.90512526693679,76.30325397913015,-20.619741161410055,120.70397378423719,95.9457154723674,77.62842380920888,7.701290314295535,-125.63807068006399,-90.0,6.000000000000009,-6.477982392359856,-4.532508814103521,0.4393278016031692,-5.519199613545181,0.005107549902856974,300
-80.52909584025349,74.15409095194282,-18.38322572812523,122.79354360392274,93.88235534597385,76.21098668156841,5.788731875326755,-128.3854855377992,-90.0,6.000000000000009,-5.957682317461575,-4.492919622757406,0.21105787354808958,-5.892171314987276,-0.036767685286777214,301
-74.4770286317132,70.88002303227661,-18.736848989699673,122.56668248869902,88.45476288359478,72.09288610034528,8.180877462217678,-128.75167637024353,-90.0,6.000000000000009,-5.680548508561007,-4.28452172764547,0.08337793660937574,-5.834999877469099,0.16036479554400468,302
-69.73101646937742,69.79166711298525,-17.637018395565928,123.4726402277697,84.61664870673233,71.07005033403107,6.728672822160642,-129.92898590276457,-90.0,6.000000000000009,-5.610411976211698,-4.16827381026433,0.15442156555747155,-5.94663604835595,0.36323216142300635,303
-65.4844704876724,69.10260802056003,-16.720312840187937,122.53829274423522,82.06742118174894,69.98469163604445,5.4063893061667745,-130.89272467184082,-90.0,6.000000000000009,-5.752447354243239,-4.120008407777444,0.3051357032321469,-6.011205904886599,0.41170361548882123,304
-63.3019907313567,70.02119381958958,-17.91754420269595,123.19208688253886,80.12828022606037,70.19274472131252,5.566391361406646,-131.40638502387557,-90.0,6.000000000000009,-5.8220613401940895,-3.999850806792526,0.24066603106450069,-6.125170510526288,0.37021210575186664,305
-62.37439669854443,71.40670084561994,-19.47948883862476,123.14674273799602,79.3322196610506,70.16566069726044,5.554782612588051,-132.00184015068544,-90.0,6.000000000000009,-5.663256783928923,-3.9706476969736193,0.26321523185767737,-6.258253277284376,0.3463779089867814,306
-60.8898844826861,73.11803122646506,-21.112286815836285,121.88236075102607,79.1278814386478,70.24232004693941,5.9359846933503455,-132.24501940773516,-90.0,6.000000000000009,-5.819564537068286,-4.021182146861447,0.4423197973874826,-6.297758924470843,0.344759698378149,307
-60.335958626205226,75.63095968956907,-23.52171036856314,120.65187140719814,78.57308928333784,71.06672388591262,7.264385431462768,-131.50505107621026,-90.0,6.000000000000009,-6.097906070535509,-4.10467015727692,0.3839402788738674,-6.360252325826545,0.2793516444437469,308
-58.2790325382256,76.58988650431336,-27.811571700924105,118.51361926875116,76.10034890628323,70.8372121697465,10.994750638903623,-129.65478851154214,-90.0,6.000000000000009,-6.754619967435685,-4.098301459712996,0.22953456755634527,-6.2647946503675485,0.27242845799818577,309
-58.03288434020827,79.3664239411513,-30.099990309406977,115.5836442383155,75.11633566958136,72.4720491955661,13.116804320419746,-127.93922249433797,-90.0,6.000000000000009,-7.332528484570074,-4.098328614667589,0.17670947497729708,-6.217657613110964,0.22694098699809798,310
-59.28699580897447,82.35576069819419,-32.24587370072914,112.75140123105705,74.9190844027656,74.38659507541604,15.583723362852448,-126.18642444548775,-90.0,6.000000000000009,-8.031514214239431,-4.244072013629909,-0.1107796668952906,-6.127309166320462,0.0409024639847384,311
-61.973687275456044,85.35864545415109,-34.72942075564562,111.02938051329126,75.27894557339648,77.13436518553516,18.452563915387763,-123.69354688871732,-90.0,5.463582038873891,-8.685111403573663,-4.413269389577905,-0.6559984637358515,-5.897364825180459,-0.07208488045284316,312
-62.450837899312255,87.18138555397083,-38.95449696433892,107.1959147309379,72.95559570641545,77.51965061544898,25.107770551994655,-118.39154521927456,-90.0,4.518397779742746,-9.740772389532586,-4.458039173202814,-1.2681428627659181,-5.405846958040657,-0.12721291998657186,313
-64.63548622116998,89.45820045557308,-40.034064310467315,101.08888903708932,73.63302051158166,79.67315070410866,29.676869510310098,-113.66162416245668,-90.0,3.73473243169911,-10.411070244208327,-4.589146316470587,-1.5057778751365432,-5.054356661823343,-0.044393880625277216,314
-66.953841693607,90.34762177445144,-40.06554427662164,94.47671529226045,75.71695025811404,81.0390877223387,32.95101050785436,-109.23621807864713,-90.0,2.8894902925128325,-11.827313693146158,-4.651985205504139,-1.7700259738734916,-4.889407563100589,-0.05977181922104844,315
-69.11554565639423,90.3663230188629,-39.54339734446858,86.67856276746333,76.84409467900996,82.7522677858591,32.9451023898038,-102.59165161788145,-90.0,1.8827858569885811,-13.858333694398622,-4.516617757715812,-2.180414037780766,-4.790024429217661,-0.4107418987081703,316
-70.29594282197299,90.60080783482856,-38.80272685457165,77.53363477570353,76.96604244537335,84.257535007197,32.603852146568556,-93.32912862742042,-90.0,0.9457013869755087,-15.598537580880617,-4.447978557855421,-2.4715290436790807,-4.502440165237886,-0.9227096181278186,317
-73.2401149522659,91.28971330761941,-36.676940154449845,73.52544204267154,76.9778779446848,84.01881362400741,34.16151529630475,-88.33027161343244,-90.0,0.17476650498639187,-16.830782464606354,-4.330188067359915,-2.78001809767201,-4.416106549256402,-1.2854678257217755,318
-73.88397277085733,89.86202919671162,-35.41518393356012,63.270718657911246,76.11609009321056,85.3939946231817,33.40795599928305,-77.85159646962154,-30.351396166756246,0.5984086866497756,-17.468831963320692,-4.193753247236702,-2.9708940235707515,-3.952345704991592,-1.5567429383382316,319
-78.50097446207076,87.8714919101324,-32.656731645863516,52.970607601756974,77.0302432323034,85.78199597738082,36.60404903359212,-66.04909142663804,-40.632006735943314,0.8709361763676685,-16.490847567581643,-4.103150883961677,-3.5903899960812216,-3.9243154187942695,-1.56078048702957,320
-79.87234568725525,87.90331369164589,-30.96603097933328,40.6949494487031,74.35055545214769,87.95099656357245,41.2967038952324,-47.99486045682162,-32.10322741376258,1.4533768261631768,-16.473560954512372,-3.851967334255795,-4.427751552066704,-3.421551887537134,-1.5976799126843486,321
-81.21562217205972,87.00482467545274,-29.693508411110827,35.989331362115365,70.26027246585687,92.32566471693515,42.746055952909025,-29.290969507959645,-31.374893760713075,1.906784071809484,-16.661074353891163,-3.3157492535052278,-5.565968795923958,-3.001991857367573,-1.858717167313997,322
-84.11899495719277,85.6258390852763,-25.627988002390317,36.29013664833532,71.10151975440618,92.11627281777983,41.4126406258251,-28.298822862089697,-31.512912116777894,2.4219046409504927,-17.119974280499328,-2.5898858762334207,-6.915953069308617,-2.6674037985717334,-2.0321187703911603,323
-88.26909359358258,84.90393621829725,-19.24342903785015,40.36582901834068,72.97648596885706,91.75386057337445,40.435571402682726,-28.298822862089697,-31.659493247353996,2.67456695383176,-16.73049584431361,-1.8697796519515257,-7.8769963773053835,-2.6108507885326255,-1.8971563404588732,324
-93.34819963918419,83.22716765970381,-17.163988454582935,49.19494248826745,74.67945876521578,91.98910839615692,39.70052801617197,-28.298822862089594,-35.1396362571343,2.709191069788333,-16.00217261436819,-1.1444722489799564,-8.610577314454256,-2.941727047141932,-1.6872911141731322,325
-98.48541687836448,82.18315696045987,-12.228474663464139,59.353170785635925,74.3860660556726,92.25443686788549,38.8441902002805,-28.2988228620898,-42.46452948555027,2.6030951437655396,-15.838546414759097,-0.6411432444141533,-9.318145898092842,-3.4255342943718268,-1.4223271409393887,326
-103.79765553125343,79.87056755198948,-8.69189621351749,70.75480228523554,77.73530542048464,89.24236392342581,37.99274966215106,-41.84349279806596,-53.80677183948745,2.409205263393147,-15.52740457845116,0.07627056529105623,-9.919273046469424,-4.3935512405520445,-1.1570689176145423,327
-109.5470633002643,79.36887826129171,-2.248764385083252,82.79448634426218,82.20153150936858,86.33994741544471,32.1239871431128,-58.55969493416863,-68.6322865764546,2.520626274773389,-14.845989716826478,0.8922050627337307,-10.16910041849874,-5.388084922946463,-0.876322941394882,328
-115.55037576077801,79.88545837724246,4.760184724386594,90.84065655762014,88.84999411021364,85.49348742083929,24.63152470113248,-71.53545976200641,-78.98654433405706,2.9753671442960092,-13.814369309376044,1.4910434990876138,-10.138938060924803,-6.245994975996541,-0.6021082130407561,329
-119.7902581977765,82.7400738196321,12.870937653961079,101.19084066991161,93.29438665029187,84.74076921337362,19.547100205289095,-84.62218003758139,-87.08480194385383,3.4130038450969997,-12.579585867704036,1.9396889685478491,-10.49508678839922,-7.0654025275552,-0.3259461991911733,330
-122.45345368872604,82.71365950231653,14.490916788711912,110.17782786449135,97.74882544131707,83.75011903216108,16.836481994926178,-95.68151767185769,-90.0,4.0323787151131585,-11.191880292136283,2.3301514819123725,-9.880458954361487,-7.685649721007118,0.019377234105265186,331
-123.14837494919979,82.71610000127781,15.689797395894178,117.65451209235658,100.34896699321206,83.75157609090834,14.823866561406081,-104.45000918022413,-90.0,4.608017415889497,-9.951755903106147,2.6263434866004975,-9.00965755802312,-8.09816941343808,0.4731484221219462,332
-122.8559383930737,82.04741773053009,16.878685902598377,124.20773291194243,102.48849186745517,84.49252121275484,13.336574835708324,-111.12264878344739,-90.0,5.026299284442592,-8.263982772975588,2.720306922603544,-8.269619813421913,-8.364830815697296,0.73457935638822,333
-124.19770523187027,79.65896356794867,16.69622374870418,130.03883558563334,103.13649093452041,83.71430012145977,13.422105877964698,-117.07413260744612,-90.0,5.521006406331606,-7.25831473407849,2.349164121650246,-8.193508427666163,-8.766942958655143,0.38669163918449295,334
-124.04737030219124,79.02526008396624,17.95461106274361,133.97938538631664,102.37845702234716,82.69181135482452,13.488715320485472,-121.06877764642464,-90.0,6.000000000000009,-6.624175730276336,2.108678575658398,-7.772145879037258,-8.911147269176995,0.14026963401180734,335
-121.90964443271939,77.37050641771211,18.935506367055943,136.2665654115676,99.12586206017362,79.7834681650832,14.771705156674043,-122.6595155451947,-90.0,6.000000000000009,-6.160849442713235,2.117821185851545,-7.395679619955333,-8.944867657252273,-0.11881958662558119,336
-119.44499223586247,74.47007122169275,17.725492767366426,137.67761037004715,97.19256662173058,79.52535759595267,15.617896371460413,-123.9401047066603,-90.0,6.000000000000009,-6.186445355589815,2.134485835870603,-6.772697943006743,-8.864466320147926,-0.3205279711703651,337
-116.25015575026919,73.66541776711759,16.56232863698478,138.42645793824644,94.1123639385019,79.58794093844548,16.27688195777309,-123.43338258562503,-90.0,6.000000000000009,-5.898107625969201,2.2316338957273585,-6.595235879592967,-8.598636659490634,-0.6428758892611102,338
-112.63793260706265,71.40783186838988,13.464499119865062,138.5317655857905,90.73366609154502,77.5247587006485,18.540162001939574,-122.86595663345587,-90.0,6.000000000000009,-5.4916240702215315,2.0835908702183557,-6.309687315938261,-8.391633002811338,-0.8675837356454861,339
-106.47246525264508,69.56252203240618,7.917671541296355,136.85957130398683,86.70129504491885,77.89655870023094,19.902515277228144,-119.86162780906143,-90.0,6.000000000000009,-4.885973086567911,1.6481642927160312,-6.2668205241303365,-7.835228147035702,-1.1037441611268777,340
-100.9328878665195,69.56226280830768,4.627312689513568,134.42468936013566,84.04598687430067,77.28455249844707,23.26480090363841,-116.98268932858676,-90.0,6.000000000000009,-4.315981260231964,1.410339428626567,-6.111241876887295,-7.495638112970346,-1.1951493532151576,341
-95.72165791987013,67.37784419814776,0.14383125832905275,130.8453579424248,80.67783877422902,76.81359556982558,26.512967490001426,-112.6199468848918,-90.0,6.000000000000009,-3.8205241308458335,1.1648362449927498,-6.1670100859301975,-7.03084379498119,-1.4479983748143073,342
-93.7949195205266,66.40910416370535,-2.1907787925268383,128.1327342071379,77.9033624261215,76.57891599485107,29.79924313640721,-109.03746201338097,-90.0,6.000000000000009,-3.9577672581703895,0.878284521614662,-6.408172903425419,-6.703679571566778,-1.896197080201029,343
-92.3130518070961,65.41458722744375,-4.878139504302132,125.1867005089216,76.22736424757845,77.80556710278483,30.719768563600674,-104.39512829711514,-90.0,6.000000000000009,-4.285482631291007,0.6808515793647157,-6.706686683264863,-6.443053487145095,-2.315100052944833,344
-90.82156749851178,66.94206180141127,-6.381528142484826,122.4556629578982,75.29845289664048,78.80640258438127,31.69230372152609,-100.86678102548524,-90.0,6.000000000000009,-4.5454129577183435,0.34531134297095356,-6.726073337153587,-6.058021388711176,-2.5722818134347523,345
-89.29136386423967,68.85410248304817,-8.029992097813535,119.32145515314517,75.64277905983494,79.77722756306564,32.778611437242375,-98.72572729191651,-90.0,6.000000000000009,-4.995580981581359,0.06890498574077615,-6.348280280107283,-5.6969769260187535,-2.7142652773022613,346
-89.69266160188924,70.1722983175484,-9.747057264406681,116.00183186405275,76.68919366846207,80.84156374089775,33.29284988536109,-96.01174498082999,-90.0,6.000000000000009,-5.14498401397248,-0.23546562765294282,-6.320029400277388,-5.280090372071263,-2.6582685245709534,347
-91.38516908846559,72.90546697663525,-9.284830018104579,112.51500666616552,77.5284955697438,81.12697428122065,33.46330319203343,-94.01124231910231,-90.0,6.000000000000009,-5.744846372354941,-0.6875563165111822,-6.321119130165153,-5.010928401522077,-2.6718076992104,348
-93.92237824442181,76.07687664525996,-8.953388046110986,109.57149916505593,79.4991383694436,82.06108912048708,31.491476298172966,-92.02802586966398,-90.0,6.000000000000009,-6.511757412732696,-1.2922914533636396,-6.093682382239018,-4.924638050678035,-2.6706998084887332,349
-93.75794967509634,78.42900594034978,-10.218292013852807,106.65299863630312,81.48019843033092,82.96910132207651,30.09067443531619,-91.14190976223782,-89.78764652214619,6.000000000000009,-7.617171705465749,-1.923325993430632,-5.317140842741512,-4.761051618760061,-2.5350597443937084,350
-93.77966399198931,80.0700511475427,-10.890635693426441,103.55460939130074,82.10604966020524,82.50638186831084,30.53211604043903,-90.21928638057928,-86.50293689586121,6.000000000000009,-8.476521077292457,-2.5875832258318776,-4.7800857394254415,-4.608230596651491,-2.432629143542494,351
-95.27747965308357,82.44332418092203,-9.924661003972565,102.00555656562541,83.37516638891286,82.82608556654056,30.70585446675657,-90.40128793848172,-82.20858712829163,6.000000000000009,-9.341485195614315,-2.8980110479353565,-4.666451284444946,-4.524970320123624,-2.131971434875946,352
-96.74032720988906,82.45509077807363,-10.672607694946059,101.158563426141,85.46979476672195,83.48824718372519,30.40318607168331,-90.18277936767646,-78.1654023525872,5.532971059713519,-9.686019105305256,-2.794203523930338,-4.722774551522673,-4.399035541474328,-1.6293713247174648,353
-99.09912919044638,83.4359780292565,-8.919122635365612,99.81698444604646,88.02787748432264,83.20175980062751,29.472567856817715,-88.96873081070711,-75.01162633188456,5.019575148618712,-9.570191666928025,-2.7425716352784155,-4.77511563277772,-4.4479564173576644,-1.2191582558115595,354
-100.9670216785791,84.36863559921356,-6.649213373704653,99.17610523367436,90.73450984234991,82.92092394568775,26.205030952861783,-88.40290705712664,-74.13626566846622,4.7231716695643975,-9.180580279556448,-2.750718425086218,-4.689900210221789,-4.608668961577294,-1.0600104526432848,355
-102.96067491526713,84.69828242684922,-3.5198785904199132,99.56387363478603,93.85666163038977,83.2930871843522,20.899959727115295,-90.3728226765549,-75.8029447865925,4.555415772240594,-8.57471046439635,-2.6790463621235596,-4.312977857577872,-4.921775173092345,-0.766000023217452,356
-105.10063779987875,85.4258163112596,-0.49325968947718957,101.96908784956014,97.85804068632112,82.34181774919747,17.59143872439638,-94.64364099147168,-80.89586458181394,4.330849250609551,-7.611202564302922,-2.532683887888804,-3.838496343917599,-5.424358209577612,-0.5493458188164209,357
-106.04109079839542,85.0196161224815,0.9301677790681591,105.93769195013263,102.51397300337356,81.3841931715526,14.416731659994861,-99.78870662570381,-88.38265126101511,4.148983962385843,-6.4769815442684,-2.418206057162387,-3.080864570306729,-6.055498344886312,-0.3148704077597059,358
-106.02620279054248,83.10311220548995,0.4212853915370356,110.50906641426691,106.06152345043002,82.22489586134776,9.268982216302657,-104.95507549659588,-90.0,4.10544289865134,-5.319305358585836,-2.1972000521443418,-2.387564998264022,-6.536975476463832,-0.05595454346733534,359
