JMW9912/AVATAR/Dynamixel/dynamixel_control/data/csv/poppy/.data/waist_test/3DoF (3O+Pos)/roll_wrong/0429_2114_gymnast_2_3DoF_pos_smpl_motor_degree.csv
theta1,theta2,theta3,theta4,theta5,theta6,theta7,theta8,theta9,theta10,theta11,theta12,theta13,theta14,theta15,frame
-108.1161811532209,83.75795997991355,-3.5761498820259234,51.96071322194142,107.65872025555248,84.97868496237624,4.5743048406333715,-54.88241738807552,-44.3627301938317,0.9703968042285218,0.0,0.0,-0.29221206655353527,-1.1153197806657813,-6.512729030871171,0
-111.15944222249048,84.71889889429434,-2.2610892881094697,46.76905843918695,110.80720217520587,85.59810232117059,4.291618618061245,-50.100705148414725,-40.01409439650989,1.112591584674088,0.0,0.0,-0.3726152030151442,-1.2805977015818057,-5.257193976874803,1
-111.04752813514567,85.9489524060586,-0.35513579073851576,44.14432973381147,110.79491233358976,86.34066691065252,4.503586178789404,-47.30096219756752,-36.171418232095505,1.2118500107869792,0.0,0.0,-0.5216273216164815,-1.3423436615086277,-4.8800182069682085,2
-110.86862308191868,85.64610125544031,-0.2054379448557608,43.23001480114225,110.70423563315055,86.93773974416696,2.2288990143104277,-46.449554309188244,-35.07225193593768,1.2368776538969202,0.0,0.0,-0.4595053971802309,-1.3374723704588183,-4.437358959767441,3
-111.150655883205,85.70822646320649,-0.3294476853979378,41.94761066975907,110.97741605741709,87.09985108028292,2.248237017692564,-45.16325936175773,-34.29902608178134,1.2602238401490806,0.0,0.0,-0.5373725349691156,-1.3432256788980956,-3.8733846835978167,4
-110.85812374752688,85.65395882336271,-0.4035198242352717,41.72150804603688,110.64240725286164,87.16964603515095,2.1901463129599494,-44.92553382689996,-34.711137878251826,1.239896799201964,0.0,0.0,-0.6139764145361165,-1.3577078039211703,-3.3370160025963567,5
-110.40553400102704,86.38836283020984,1.822231072961269,41.26808497708709,110.21653876814392,87.18184748144671,2.1407038102024925,-44.477273146816756,-33.482376253378234,1.2531993202561083,0.0,0.0,-0.6655470104914342,-1.3479326861870864,-3.003427803748529,6
-109.62907998861351,86.33629849035988,1.8591210418946953,41.28383867450821,109.56122121482323,86.97781405150184,2.589129046728424,-44.4078987045173,-32.02015571768486,1.2626094231576954,0.0,0.0,-0.6285241609644237,-1.3366578129717919,-2.578349269520149,7
-108.59488775309603,85.75482007761515,0.28770922805101923,41.777474018856296,108.6961408069024,86.84039843420122,2.6312787127701136,-44.75067969065225,-29.90135141576531,1.295163883272888,0.0,0.0,-0.5884245637827299,-1.3183453266700664,-2.276399776575134,8
-107.37894053717709,85.79795249320999,0.19650628276239357,42.55566711710954,107.57155478955475,86.7031773103404,2.707370246257351,-45.492310533984956,-28.547251580243348,1.3335208020830362,0.0,0.0,-0.5469904406324023,-1.265601606179011,-1.704771245816759,9
-105.16552897378719,84.98451421068634,-2.7596632798098804,44.855801485481365,105.67740498867431,86.03296223679648,4.208396181847138,-47.304264075826964,-25.971679456182848,1.3554271208126074,0.0,0.0,-0.5880228223166042,-1.1326609697578676,-1.2230017377130373,10
-98.65589336184883,83.63638232426989,-7.231824489452043,51.31186704086859,98.99313104015685,84.43050189325605,8.708466748123973,-53.638819489542925,-25.57271106861616,1.3438472667000578,0.0,0.0,-0.4334487234571989,-1.0020799689055306,-0.733515635561343,11
-87.65589336184883,81.09065459609816,-13.231824489452043,62.050155587674915,87.99313104015685,81.88213153622455,14.708466748123973,-63.76865283698792,-33.82262972568637,1.0777954506204455,0.0,0.0,-0.5959986593944424,-0.971149477376085,0.027260815867216962,12
-76.65589336184883,77.90701152615216,-19.231824489452045,58.18935383592942,76.99313104015685,78.73134548860837,20.708466748123975,-59.1341259415766,-44.82262972568637,0.8844775723515669,0.0,0.0,-0.5981465078123178,-0.8083409730710123,0.6506588365597283,13
-65.65589336184883,81.48094617794297,-25.231824489452045,48.398231453699,65.99313104015685,82.64647461005526,26.708466748123975,-48.1341259415766,-40.92480091120647,0.9540388607677668,0.0,0.0,-0.7564806077387068,-0.7025473804896825,1.5624251732671333,14
-54.655893361848825,81.83919445019318,-31.231824489452045,40.745163382432786,54.993131040156854,83.6808476276644,32.708466748123975,-39.23181698479914,-51.92480091120647,0.7101384647684688,0.0,0.0,-0.6784196384177072,-0.6812319189118039,3.1569738862312873,15
-43.655893361848825,82.57093130745845,-37.231824489452045,37.38987601760588,43.993131040156854,85.08590127171227,38.708466748123975,-36.01519896639554,-62.92480091120647,0.6407642092313943,0.0,0.0,-0.48671983205617575,-0.6375391830166861,5.332040286439684,16
-32.655893361848825,86.86818919119582,-39.658675722201835,28.2988228620898,32.993131040156854,89.20955724614045,44.64092503597488,-28.29882286208961,-73.92480091120646,0.6637087484645546,0.0,0.0,-0.3984079606613334,-0.5852033416261929,4.617925283256521,17
-21.655893361848825,88.96955820098947,-33.658675722201835,28.298822862089672,21.993131040156854,91.0381909899478,38.64092503597488,-28.2988228620896,-84.92480091120646,0.618482827234248,0.0,0.0,-0.5091861793806325,-0.5906198220270605,3.720038420759507,18
-10.655893361848825,90.6266775813631,-28.96461656510626,28.298822862089825,10.993131040156854,92.1761553773797,33.19296355498255,-28.298822862089796,-92.81495556187654,0.5918883127259513,0.0,0.0,-0.48568398052557255,-0.5440150481651395,4.189830037656232,19
-0.418030008785317,92.3676425694341,-26.858846755784903,28.298822862089672,-0.006868959843146172,93.34571603473688,30.99580304039043,-28.298822862089683,-103.81495556187654,0.5906409082040055,0.0,0.0,-0.5734407123182419,-0.5744961910764095,4.876478887679485,20
2.0588471203871404,93.88953944279871,-24.802051178367723,28.298822862089697,-1.9996560730582482,94.59587654959391,28.734210643365145,-28.298822862089626,-105.52715038203065,0.5496167835645805,0.0,0.0,-0.2678933455214736,-0.6078199363680481,4.993540926481499,21
3.9867511283995194,94.71292742249236,-22.557931438560637,28.29882286208972,-4.096300396559776,95.28289610310492,26.4175597873523,-28.298822862089676,-107.35936899725196,0.5758986382548882,0.0,0.0,-0.08665405037051624,-0.5992306457705449,5.058604397338705,22
5.770849765266873,94.83716459492729,-22.57465716909695,28.29882286208957,-5.754943605735089,95.26623177278233,26.42382874848715,-28.298822862089757,-112.32817266442473,0.5837100879898699,0.0,0.0,-0.006484347811439784,-0.5722627358040009,5.33911293703141,23
6.754005136391603,94.73399111084564,-22.514361888595165,28.29882286208962,-6.752450608790333,95.07251437184571,26.42333721295977,-28.298822862089715,-115.27405827241809,0.5935488123994365,0.0,0.0,0.016785130432851562,-0.5281453337724448,5.45977366245245,24
6.942596074353545,94.8331919847454,-22.473190701927575,28.29882286208972,-6.9902815358719534,95.05096843627216,26.48114176068378,-28.29882286208968,-114.24144434609023,0.587624487996508,0.0,0.0,-0.007314821783120354,-0.47285783556702715,5.522178728876635,25
6.349043377982221,95.30146975487912,-20.093775052692287,28.29882286208972,-6.438808763856338,95.46642596059064,24.16563376096071,-28.298822862089867,-112.75873679175135,0.5856707230460981,0.0,0.0,0.006260927700822267,-0.43258061312884294,5.603067224252632,26
4.385344602568753,95.00237933916867,-20.001114266334515,28.29882286208972,-4.3844814288025,95.07699625915701,24.11374542886143,-28.298822862089768,-112.09703764522688,0.5639953102950024,0.0,0.0,0.04334583263161996,-0.3883749689921624,5.589318492309062,27
0.174871207038849,95.00619415336979,-17.52988888368383,28.29882286208985,-0.5841840345846078,94.52386827368045,24.02111342876445,-28.2988228620899,-104.8675450292164,0.5385753703966667,0.0,0.0,0.08379786967835913,-0.3544550612636774,5.0993389546948755,28
-3.466309946792939,94.89428298780203,-17.41100537308076,28.29882286208962,2.9359799180767,94.23586110906606,24.05581584806775,-28.2988228620896,-104.03619944728227,0.5505274457276543,0.0,0.0,-0.018869027480472145,-0.2782590056253648,4.548564506098228,29
-5.187208162052339,94.15242141248955,-19.622927172650783,28.2988228620898,4.791353342002718,93.96052346951869,24.079338549879935,-28.2988228620898,-115.03619944728227,0.5810071022006126,0.0,0.0,0.03880479909394734,-0.19043443636351423,4.192402376847054,30
-11.37609149474194,90.67451832609669,-25.622927172650783,28.298822862089825,11.02148862226253,90.53939742842813,30.079338549879935,-28.298822862089686,-126.03619944728227,0.8556234369213898,0.0,0.0,0.290590163823742,-0.20527982631143576,5.772687566922128,31
-17.042135587419292,90.4523571865787,-28.000845629197425,28.29882286208985,16.82494480878422,90.61727152724511,29.0282358906595,-28.298822862089633,-128.40170291927177,0.7187679236685907,0.0,0.0,-0.008376908227960736,-0.1077898367488914,5.424025438983211,32
-25.66529536074456,89.39087200865919,-25.97658649337741,28.298822862089594,25.115710673619752,89.21473716996178,28.032338993740424,-28.298822862089672,-117.40170291927177,0.5996440975081277,0.0,0.0,-0.1784264359214327,-0.1389540041568733,5.083727257034512,33
-36.665295360744565,86.35117135382993,-22.83400849942782,32.920976599826666,36.11571067361975,85.96811933927309,25.104678166768327,-33.43417572508779,-106.40170291927177,0.5666093100921392,0.0,0.0,0.2026647709649851,-0.17584347615387141,5.076041227247493,34
-47.665295360744565,83.20601810369517,-17.012239813695334,40.06695228403341,47.11571067361975,82.89177914559804,19.215622667106796,-41.03460201149912,-95.40170291927177,0.967787386690661,0.0,0.0,0.010037587774515527,-0.16064700245051944,3.734192890290768,35
-58.665295360744565,82.07122714274618,-11.012239813695334,43.059486235967306,58.11571067361975,80.8152703403537,13.215622667106796,-44.907876589756896,-84.40170291927177,1.2647569943592263,0.0,0.0,-0.10143575550517828,-0.18881036454526984,1.4249580014277976,36
-69.66529536074457,83.33275650765981,-5.012239813695334,41.267629895755434,69.11571067361976,82.4587266054679,7.215622667106796,-43.843719315133136,-73.40170291927177,1.441850243948925,0.0,0.0,-0.1641128409615774,-0.23689735899323258,-0.10099085138138642,37
-80.66529536074457,83.80289773145746,0.9877601863046657,38.56135428853682,80.11571067361976,84.02014523255956,1.2156226671067962,-42.02667911563823,-62.40170291927177,1.2901172717629026,0.0,0.0,-0.1315590002463148,-0.22501506941839924,-1.1550286962290843,38
-91.66529536074457,83.2107213853359,6.987760186304666,37.98927956262033,91.11571067361976,84.0613345314042,-4.784377332893204,-41.853380733827606,-51.40170291927177,0.9862600758591398,0.0,0.0,-0.03141689942000037,-0.3309741573941643,-1.7328564533396138,39
-102.66529536074457,80.42525324038156,12.987760186304666,41.69975966232155,102.11571067361976,82.01883588032548,-10.784377332893204,-45.24617224160585,-59.4029999381389,0.6721455166088888,0.0,0.0,0.14618770629501832,-0.3541421046337047,-2.7302700950071626,40
-113.66529536074457,80.22270308426032,18.987760186304666,43.158859920507666,113.11571067361976,82.2526981865509,-16.784377332893204,-47.69307567275205,-70.40299993813889,0.5744745365672553,0.0,0.0,0.2575618445346344,-0.2434144721696254,-4.1891215285231285,41
-124.66529536074457,80.2911707695218,24.987760186304666,45.10097284748752,124.11571067361976,82.29214283691805,-22.784377332893204,-48.82076024821067,-81.40299993813889,0.6371317585087463,0.0,0.0,0.19063819417293149,-0.2626057988999479,-5.146593714121472,42
-135.04386088124804,80.29571882516517,30.987760186304666,43.21027313446769,135.11571067361976,83.25355492425781,-28.784377332893204,-47.21926389543861,-92.40299993813889,0.8146216656697421,0.0,0.0,0.06919212584380806,-0.30345039180439887,-5.985403694606828,43
-136.85899282715974,81.36215551423213,36.98776018630467,42.035360061871515,138.55390641923466,84.40334650211253,-34.7843773328932,-45.65317496838639,-103.40299993813889,0.9263645292298135,0.0,0.0,-0.006016469250909711,-0.30587569678535326,-6.571063909964239,44
-138.02725021892715,82.39638592416317,42.98776018630467,40.78753759511049,139.30597209369057,85.85295270998341,-40.7843773328932,-44.797526193284654,-114.40299993813889,0.9997075144779766,0.0,0.0,-0.0810037096858807,-0.3094067107845318,-6.963107170495311,45
-137.81439120138347,83.97879484064262,48.98776018630467,42.061107205640525,138.6246827722475,87.54825531592567,-46.7843773328932,-45.3664575668862,-125.40299993813889,0.9769354175346008,0.0,0.0,-0.22948507846694338,-0.3193494645761939,-7.033678823527966,46
-134.37270426790514,85.40850858665249,49.602146542651944,42.22706952800097,135.59604809265974,88.10146267514531,-44.7049145441711,-45.334480143031236,-130.0286450550323,0.8354439120684758,0.0,0.0,-0.2989839547495542,-0.28482812890812487,-6.291624905986972,47
-130.4095955610208,84.90063756717923,43.602146542651944,46.00955625427877,130.56303065934904,88.19780070427208,-40.180936653112525,-48.147925815745864,-119.02864505503231,0.66742432835922,0.0,0.0,-0.34019140340147275,-0.3118366441554001,-5.4152856415893496,48
-123.6817647802409,84.25789901475461,37.602146542651944,46.95356719452345,124.18035616483486,86.90535199100782,-34.180936653112525,-48.236727549599706,-108.02864505503231,0.7171741506565164,0.0,0.0,-0.46952799153902136,-0.3099722105153138,-4.216678740922056,49
-116.12441395149234,84.94960581559937,31.602146542651944,42.03096813516412,116.53078331078792,86.75388391598838,-28.180936653112525,-45.127423516877215,-97.02864505503231,1.1737956749947407,0.0,0.0,-0.4561698881159391,-0.3711606452142018,-3.4182055094782315,50
-108.44786982527214,85.30792831462601,25.602146542651944,42.065095676502274,109.48076168392407,85.93983318356625,-22.180936653112525,-44.94111938970658,-86.02864505503231,1.5998219974732002,0.0,0.0,-0.24676972430802738,-0.4253335739789331,-2.51903162757902,51
-101.00182448493254,84.91715924559328,19.602146542651944,44.84477478730003,101.36762644479491,85.07337530970894,-16.180936653112525,-47.456898325163436,-75.02864505503231,1.7340362877456714,0.0,0.0,-0.27221498957806434,-0.44414659771408943,-1.2655253042130301,52
-90.00182448493254,78.7743834524175,13.602146542651944,55.84477478730003,90.36762644479491,78.91171040176054,-10.180936653112525,-58.456898325163436,-64.02864505503231,1.2977264760854863,0.0,0.0,-0.24115611030041184,-0.402692793262203,-0.24856496656302962,53
-79.00182448493254,81.9239243209643,7.602146542651944,66.84477478730003,79.36762644479491,81.70671162326302,-4.180936653112525,-69.45689832516344,-53.028645055032314,0.7924189661055661,0.0,0.0,-0.059888477181567326,-0.3673821399638777,1.2761771340664072,54
-68.00182448493254,78.58365308539578,1.6021465426519441,55.844774787300025,68.36762644479491,77.8801438363646,1.819063346887475,-58.456898325163436,-64.02864505503231,0.750334655434258,0.0,0.0,0.11815848024232065,-0.4721364344480265,2.7306121001049233,55
-57.00182448493254,85.30517031951581,-4.397853457348056,44.844774787300025,57.36762644479491,84.99265357501632,7.819063346887475,-47.456898325163436,-75.02864505503231,0.7488205645943781,0.0,0.0,-0.18636857190543255,-0.31599215049158036,3.9350327541850763,56
-46.00182448493254,89.43897063448912,-10.397853457348056,33.844774787300025,46.36762644479491,88.92097559128669,13.819063346887475,-36.456898325163436,-86.02864505503231,0.641230976921583,0.0,0.0,0.1429855554128872,-0.24496505993499484,4.43124827554227,57
-35.00182448493254,89.53057810258322,-16.397853457348056,28.298822862089697,35.36762644479491,88.76369559132453,19.819063346887475,-28.298822862089878,-97.02864505503231,1.0523025413661349,0.0,0.0,0.09951670320206712,-0.24955236652224305,5.517514750801662,58
-24.00182448493254,90.3695792640681,-22.397853457348056,28.29882286208972,24.367626444794908,89.85915474392144,25.819063346887475,-28.29882286208972,-108.02864505503231,1.1730575408063326,0.0,0.0,0.10323159884800773,-0.24489760732127783,6.141457123723011,59
-13.001824484932541,90.36228129657256,-26.170940810986487,28.29882286208985,13.367626444794908,89.89563108195587,30.615688394748123,-28.298822862089587,-119.02864505503231,1.7560957097591956,0.0,0.0,-0.009160185510315411,-0.2390560056200075,6.511658856326807,60
-2.0018244849325413,91.62810728358252,-23.95816858811033,28.298822862089594,2.367626444794908,91.10380379500529,28.424523957733836,-28.298822862089835,-130.0286450550323,1.9171710774042863,0.0,0.0,-0.04579519013025847,-0.270930124625299,6.5476689766485965,61
8.998175515067459,93.05523994039241,-21.783456397489637,28.298822862089672,-8.632373555205092,92.57992659169577,26.29631990957664,-28.29882286208971,-141.0286450550323,2.057444720530994,0.0,0.0,-0.05865657800553108,-0.26664401107120106,6.559668800623435,62
19.99817551506746,93.8518872381194,-22.00348084830897,28.29882286208985,-19.632373555205092,93.43928018660961,26.41775050198011,-28.298822862089597,-152.0286450550323,2.202203561468126,0.0,0.0,-0.0044988386484479375,-0.2909448382804389,6.827524576826786,63
30.99817551506746,94.54209958211239,-22.13736632254139,28.298822862089697,-30.632373555205092,94.10652627919201,26.564449549709334,-28.298822862089686,-163.0286450550323,2.2717766510644397,0.0,0.0,-0.006639765069366804,-0.2800737498682239,7.029749874400069,64
37.90737346069185,94.73823693634672,-22.192837372830006,28.298822862089697,-38.17680812011196,94.21313871045736,26.572014034572177,-28.298822862089892,-164.84895876015256,2.311507733994836,0.0,0.0,0.048676951182469425,-0.23876721379611748,7.181761960526715,65
38.9212857989965,93.9748951504028,-24.447147849703857,28.298822862089544,-39.14739929491475,93.34880565348176,28.86330549157143,-28.298822862089605,-165.49391730298862,2.3928037323376192,0.0,0.0,0.06799552141878848,-0.17361249575642654,7.453715742752214,66
39.4076104654975,93.58631398798043,-24.34413167231856,28.29882286208957,-39.7316214807306,92.93226183120905,28.803873100954405,-28.29882286208974,-165.4461710495863,2.4206186727618957,0.0,0.0,0.08181251178563904,-0.12247316694132318,7.447846772761562,67
39.63237024467622,93.33802563827523,-24.278344849525933,28.298822862089672,-40.267721113854094,92.15792751727214,31.102643355590686,-28.29882286208955,-165.71183223926835,2.4608301356876017,0.0,0.0,0.1218130964996592,-0.05019028237961638,7.522613083392386,68
39.71342900250051,93.07194473447645,-24.214193181371648,28.29882286208985,-40.30848989594077,91.92451577414873,31.067041183013465,-28.298822862089683,-165.61921858975492,2.4732246087297436,0.0,0.0,0.1529745306609929,0.003308487082854818,7.454184388347472,69
40.19458892227417,92.22128490833212,-26.410936482853362,28.298822862089697,-40.40856449653018,91.52065147000775,31.063573146697088,-28.298822862089633,-166.23558889684202,2.5393357395857907,0.0,0.0,0.09726089012934622,0.050746750380500465,7.327899220285522,70
39.46935670035559,92.04979335952288,-26.39983073376534,28.298822862089594,-39.77484901766865,91.47419855810186,31.031310060490586,-28.29882286208986,-166.0706080543309,2.5728877240703043,0.0,0.0,0.17264037492852144,0.10488723768158378,7.243287572872482,71
37.71169818295325,91.73806586023103,-26.32330001071039,28.29882286208972,-37.922420295853854,91.00133846043403,30.954546121545405,-28.298822862090013,-166.80261297774888,2.6472601715846333,0.0,0.0,0.2188407557281644,0.16962278650645016,7.162481169617412,72
34.83194551287881,91.3130533117459,-26.22787229077952,28.29882286208985,-35.24535534511275,90.65209032994763,30.89606702088863,-28.29882286208971,-166.4856844125664,2.6673016556978366,0.0,0.0,0.2729654274225228,0.21997637110696078,7.001646995802341,73
26.675129490134612,92.44869737927844,-24.06970555762412,28.29882286208962,-27.234223228864284,91.33527277351654,28.5276232116586,-28.298822862089708,-165.431108670692,2.3844802843235575,0.0,0.0,0.38026726459054827,0.17068320368165876,7.323705508589051,74
23.22278945840414,92.12414374376372,-21.529109264916134,28.298822862089697,-24.201683401047575,90.96317845008738,26.02425346138349,-28.298822862089875,-164.77066365636244,2.4047227130523177,0.0,0.0,0.5210627924523297,0.2680174431278469,6.707804990082074,75
12.22278945840414,91.77823374244943,-16.281512260827547,28.29882286208972,-13.201683401047575,89.89640989895152,23.610173933161143,-28.298822862089906,-157.20160017230404,1.6490143462425804,0.0,0.0,0.44617282143809994,0.3035646058865985,6.630435491146683,76
1.22278945840414,88.35642100268213,-22.281512260827547,28.298822862089697,-2.2016834010475748,87.34900697906555,25.782193221537355,-28.298822862089672,-160.11687489497325,1.8701360432051526,0.0,0.0,0.664679939268419,0.35830379888155756,7.372817684199191,77
-9.77721054159586,87.73281327201563,-22.464800457492995,28.29882286208962,8.798316598952425,87.02135196487372,25.838995668761715,-28.29882286208967,-155.44707396518925,1.5292744826905822,0.0,0.0,0.6315915260037239,0.3797926836240277,5.766446351052513,78
-20.77721054159586,85.18596186017898,-16.464800457492995,35.56501291952879,19.798316598952425,83.6800923706867,20.164765372480968,-36.38116125303884,-147.7948266979465,1.1867723424762624,0.0,0.0,0.6280158633710557,0.2842619969100942,4.856680770978635,79
-31.77721054159586,80.8518147914606,-10.464800457492995,44.278218807095335,30.798316598952425,79.08752868777734,14.164765372480968,-46.13468946402176,-136.7948266979465,0.7838402152495804,0.0,0.0,0.3950198235810558,0.21832932987450585,2.9004137304322537,80
-42.77721054159586,81.38065145144239,-4.464800457492995,43.373425106305845,41.798316598952425,80.32504884280094,8.164765372480968,-46.40475543818986,-125.79482669794649,0.6776882042118404,0.0,0.0,0.2858418046299952,0.013979551087452965,0.5230184784875966,81
-53.77721054159586,84.09493132539228,1.535199542507005,39.47469434125453,52.798316598952425,82.7987571887504,2.164765372480968,-43.495198998984044,-114.79482669794649,0.7048790452140395,0.0,0.0,0.1898667960133457,-0.08016261672628192,-1.2710773849516754,82
-64.77721054159586,81.29451171106705,7.535199542507005,39.19474027446566,63.798316598952425,81.94834105743317,-3.835234627519032,-43.56151099808454,-103.79482669794649,0.6253380272947314,0.0,0.0,0.18584296440167297,-0.09643715929245988,-2.019478852465947,83
-75.77721054159586,76.12634648241105,13.535199542507005,48.38392896223194,74.79831659895243,78.20093844909977,-9.835234627519032,-51.21855628468129,-114.79482669794649,0.8318746438260253,0.0,0.0,0.0772314745473947,-0.14130525885619702,-2.9717452805699294,84
-86.77721054159586,74.60138120687026,19.535199542507005,52.81096763341355,85.79831659895243,77.79037702021836,-15.835234627519032,-55.40141025900544,-125.79482669794649,1.0298638274675125,0.0,0.0,0.13339797909980838,-0.06784709316296957,-4.761569411452765,85
-97.77721054159586,73.69810090987148,25.535199542507005,48.54509430396571,96.79831659895243,77.04208844315104,-21.835234627519032,-51.32507613233077,-136.7948266979465,1.243134880265249,0.0,0.0,0.03096542362656997,-0.1731394096129222,-5.771605750394379,86
-108.77721054159586,69.9712423707974,31.535199542507005,45.8798016260885,107.79831659895243,74.32240267006524,-27.835234627519032,-49.10138426729887,-147.7948266979465,1.728188404348527,0.0,0.0,0.004298365012652877,-0.03789994137208666,-6.003436176522187,87
-119.77721054159586,68.52411036128011,37.535199542507,44.269000985077184,118.79831659895243,73.4434802447506,-33.83523462751903,-46.23742283198732,-158.7948266979465,2.0593645498000237,0.0,0.0,-0.049415705826850224,-0.004724678800394611,-6.477057283806945,88
-130.77721054159588,69.56707925995495,43.535199542507,45.82182460134392,129.79831659895243,74.41682403227102,-39.83523462751903,-47.283640235761,-160.7693224888102,2.1465731255834943,0.0,0.0,-0.06093780063080309,0.0656970113259464,-6.933050500353259,89
-141.77721054159588,72.42552441320342,49.535199542507,46.48133967423929,140.79831659895243,77.33618036529332,-45.83523462751903,-46.643139630427356,-160.16862951545517,2.0816681965783324,0.0,0.0,-0.1280729246560162,0.10622556213065186,-7.46516427558777,90
-143.75792634024162,76.24497431004924,55.535199542507,46.215025412910926,142.47626654271366,81.21446984683392,-51.83523462751903,-46.97160704712135,-157.30456732521222,1.8629699440289544,0.0,0.0,-0.1665876468652948,0.12907684624242596,-7.610089202900973,91
-139.5676284117553,78.9877442413931,58.539181718033795,49.233846942853305,138.5703173307477,84.16463905855245,-57.80632709657431,-47.75464480901418,-153.52026664270716,1.5388727714434094,0.0,0.0,-0.2075869732637754,0.20678631832532013,-6.987068092087868,92
-132.3548530183297,80.31819940633291,52.539181718033795,50.839071087505616,132.1796827751916,84.19404713913544,-51.80632709657431,-50.454483353754014,-142.52026664270716,1.0479178584517777,0.0,0.0,-0.3949575513894483,0.32222323804144404,-5.929531853902864,93
-122.56747253299696,80.74169195915447,46.539181718033795,51.91864551903425,122.2948047033078,84.54624216852599,-45.80632709657431,-50.57601789934496,-131.52026664270716,0.7037961265372784,0.0,0.0,-0.6079641659481263,0.1656006920100839,-4.516286529421413,94
-113.22510251772756,83.27140573686061,40.539181718033795,45.053497106271955,113.5602161468711,85.90490079764787,-39.80632709657431,-45.79525870499722,-120.52026664270716,1.0765524020752282,0.0,0.0,-0.6011546975237508,0.0402200789224897,-3.480067290126556,95
-104.66185634838266,85.89918263280991,34.539181718033795,42.627705586616244,104.91139588936495,87.18207024481947,-33.80632709657431,-44.562093109742754,-109.52026664270716,1.5856610577219237,0.0,0.0,-0.29040178002692607,-0.08740769268001047,-2.9760987841907824,96
-97.24590996878445,87.03486010923064,28.539181718033795,44.775982346043286,97.28337028892392,88.03326039087541,-27.806327096574307,-46.81081882967166,-98.52026664270716,1.4674742672244507,0.0,0.0,0.2864927640088343,-0.22123253512733057,-1.7544450044322268,97
-86.24590996878445,81.94411623857162,22.539181718033795,55.275442254913685,86.28337028892392,81.3279135231065,-21.806327096574307,-56.78685867731959,-87.52026664270716,0.8689456753204055,0.0,0.0,0.2833662749451249,-0.31861233298090863,-0.21698170422456098,98
-75.24590996878445,84.23336933006459,16.539181718033795,51.62319775326811,75.28337028892392,84.22262264732066,-15.806327096574307,-50.508349085722465,-98.52026664270716,1.0865794813933047,0.0,0.0,-0.18613532502119903,-0.23101319787288793,1.6978143777239894,99
-64.24590996878445,87.50676246579228,10.539181718033795,40.62319775326811,64.28337028892392,88.16129855579157,-9.806327096574307,-39.508349085722465,-109.52026664270716,1.4975267306121083,0.0,0.0,0.10473270664503305,-0.145743035567217,3.173261609560073,100
-53.245909968784446,90.7650695414535,4.539181718033795,29.62319775326811,53.28337028892392,90.38085192032449,-3.8063270965743072,-28.508349085722465,-120.52026664270716,1.2021881867097064,0.0,0.0,0.03588626893105811,-0.1739285572648836,3.0749805902402088,101
-42.245909968784446,90.13464478400783,-1.4608182819662048,28.29882286208985,42.28337028892392,89.94392884936796,2.1936729034256928,-28.298822862089636,-131.52026664270716,2.1306887148876705,0.0,0.0,0.1375593981238288,-0.21936801233713626,4.08560675552128,102
-31.245909968784446,90.80489624625976,-7.460818281966205,28.29882286208985,31.28337028892392,90.1342030805291,8.193672903425693,-28.298822862089704,-142.52026664270716,1.9319839106047498,0.0,0.0,0.11881136803790289,-0.2268989509214981,4.700977421003368,103
-20.245909968784446,88.40298230845895,-13.460818281966205,28.298822862089697,20.28337028892392,87.52129580025876,14.193672903425693,-28.298822862089807,-153.52026664270716,2.7621583524140996,0.0,0.0,0.04555558795636345,-0.23653709883247404,5.535406657347366,104
-9.245909968784446,88.5532991327054,-19.460818281966205,28.29882286208962,9.28337028892392,87.3787904379615,20.193672903425693,-28.298822862089747,-164.52026664270716,3.120731553178532,0.0,0.0,0.1505381132030509,-0.2115092470118503,5.471529164408995,105
1.7540900312155543,88.51893914806728,-20.95746025705757,28.298822862089875,-1.7166297110760809,87.30587694582972,26.193672903425693,-28.29882286208971,-169.38227643500795,3.3833530714324027,0.0,0.0,0.17446263014392666,-0.19637384625518098,5.761293974322151,106
12.754090031215554,86.80910493674146,-20.65768414181217,28.298822862089697,-12.71662971107608,85.48466345040046,27.152773099974716,-28.298822862089676,-170.23991165755925,3.6224775850427053,0.0,0.0,0.2776120726014401,-0.1565019557437782,6.291811615331528,107
23.754090031215554,83.83281508791754,-20.041644899941115,28.298822862089697,-23.71662971107608,81.9653963826387,28.923301347802052,-28.298822862089956,-170.77468267003758,3.855357170390992,0.0,0.0,0.33573206710210013,-0.09014061042208048,7.023050046447928,108
34.754090031215554,78.72719190930168,-21.356239511880414,28.2988228620899,-34.71662971107608,76.98629220753568,30.53095462705477,-28.298822862089626,-171.26792615844528,4.147469613585473,0.0,0.0,0.2850686964837385,0.0026988757546190035,7.60208861756041,109
45.754090031215554,69.5947112679056,-26.963340395949672,28.29882286208962,-45.71662971107608,68.05022632016872,33.79680389839149,-28.298822862089605,-171.48251233718497,4.516067662453811,0.0,0.0,0.3218035491581882,0.06978101496690911,7.658159841234594,110
49.08505369144435,58.594711267905595,-31.771193045435133,28.298822862089747,-50.50626881908073,57.05022632016872,39.79680389839149,-28.298822862089626,-171.85141960630565,4.824392107483861,0.0,0.0,0.1806373326303755,0.09411878874043011,7.354162539664882,111
53.00788911168223,47.594711267905595,-32.67200819682418,28.298822862089825,-54.451429775537854,46.05022632016872,41.326239548429,-28.298822862089626,-172.487115020669,5.122149303337602,0.0,0.0,0.24691869960735105,0.16455824126770316,6.790616732910594,112
57.83562893007307,36.594711267905595,-37.374888221808376,28.298822862089697,-60.871791054705454,35.05022632016872,47.326239548429,-28.29882286208959,-172.69675895758837,5.3421560575801,0.0,0.0,0.03085158809901419,0.21810182598105265,5.661145306800521,113
68.83562893007307,25.594711267905595,-43.374888221808376,28.298822862089594,-71.87179105470545,24.05022632016872,53.326239548429,-33.417148198412605,-173.09822907597783,5.304169165581684,0.0,0.0,-0.19869189139052054,0.2044802177040875,4.6821018399309775,114
57.83562893007307,14.594711267905595,-37.374888221808376,32.17544034774171,-60.871791054705454,13.050226320168719,47.326239548429,-39.09840498413783,-172.63283145011238,5.10046682677015,0.0,0.0,-0.26671970117105875,0.19678458408442157,3.6880848456790467,115
46.83562893007307,24.7806471951806,-31.374888221808376,40.29837602992017,-49.871791054705454,24.05022632016872,41.326239548429,-45.81376282174904,-172.6764287192957,4.682565690459928,0.0,0.0,-0.09824273577643274,0.15552396356585682,3.258400351971803,116
35.83562893007307,35.7806471951806,-25.374888221808376,46.69387180832221,-38.871791054705454,35.05022632016872,35.326239548429,-50.52456588890321,-172.22002505267534,4.038029750032829,0.0,0.0,0.3081731283407049,0.16495439907382528,2.3947970399316345,117
24.83562893007307,46.7806471951806,-19.374888221808376,46.60814606210478,-27.871791054705454,46.05022632016872,29.326239548429,-50.12184881852182,-169.73152087856863,3.2350953572302292,0.0,0.0,0.3841097032894586,0.2122356816825039,0.8856022475996111,118
13.83562893007307,57.7806471951806,-13.374888221808376,46.31576232852754,-16.871791054705454,57.05022632016872,23.326239548429,-49.26211929494429,-165.34494900997169,2.2126368144483832,0.0,0.0,0.32799274218546176,0.19272721727774336,0.1580394818700681,119
2.835628930073071,68.78064719518059,-7.374888221808376,42.35382261329451,-5.871791054705454,68.05022632016872,17.326239548429,-45.69672286017172,-154.34494900997169,1.2903970598286645,0.0,0.0,0.21602560637109094,0.003487929373354033,-0.7564058589234858,120
-8.16437106992693,79.78064719518059,-1.3748882218083764,39.72823126095362,5.128208945294546,79.05022632016872,11.326239548429001,-42.96958518972838,-143.34494900997169,0.6428417587307063,0.0,0.0,0.12717591384551197,-0.11930414794535972,-0.7302460502061356,121
-19.16437106992693,90.78064719518059,4.625111778191624,40.04341983590856,16.128208945294546,90.05022632016872,5.326239548429001,-42.543566426325185,-132.34494900997169,0.6878286841715803,0.0,0.0,0.6471373029856383,-0.09219400852854853,-0.7961866749374827,122
-30.16437106992693,91.7820230218828,3.62609483151422,43.53682349794804,27.128208945294546,91.1503234691565,-0.4493683637771873,-45.582433447566075,-121.34494900997169,0.5349916258795574,0.0,0.0,0.5549915247686531,-0.2096719509434049,-0.3935214055198822,123
-41.16437106992693,90.82902661014406,-2.37390516848578,42.60080590731263,38.128208945294546,89.88457179676485,5.550631636222812,-43.39394844413792,-132.34494900997169,0.826267403517758,0.0,0.0,0.3615325286708734,-0.2582663634348693,-0.08258537766677593,124
-33.2010471340063,95.03167195950559,-8.37390516848578,31.600805907312633,32.72930202174798,93.33836928560893,11.550631636222812,-32.39394844413792,-140.27789139106804,0.8718656056353623,0.0,0.0,0.24088967631847727,-0.29801684203673684,0.14042693207066653,125
-23.423807867863367,95.20344881641228,-12.494437912991096,28.298822862089697,22.97932259760682,93.20578527231572,17.55063163622281,-28.29882286208971,-151.27789139106804,1.2265850322363037,0.0,0.0,0.4970602207554291,-0.3050668340471594,1.3140013455673676,126
-13.044372193024572,95.57920815508488,-18.494437912991096,28.29882286208972,12.373927249012215,94.12900489401211,23.55063163622281,-28.29882286208962,-162.27789139106804,1.803341248150153,0.0,0.0,0.5969769976388501,-0.3111041997821608,2.0333845947695903,127
-4.056030294503633,97.42202770187382,-17.920199315709493,28.298822862089697,3.353051771478675,95.89950671003888,23.166771360826722,-28.298822862089867,-162.70982803013683,1.9251005340348972,0.0,0.0,0.4860414019548073,-0.2833142527225444,1.3077583441912968,128
-1.1004347294215149,97.9392058820012,-13.177136661037395,28.29882286208962,0.4838439894161108,96.24820861614513,19.59108831251098,-28.298822862089825,-163.2594210936016,1.9815155030599014,0.0,0.0,0.36335691680249765,-0.2060370485048875,1.6738612855136656,129
2.282977343600216,99.37247997902878,-11.067393447093696,28.298822862089672,-2.9416727115762025,97.9666271705632,17.495153084434225,-28.298822862089672,-165.07436919233223,2.2080373622593656,0.0,0.0,0.3164421208665894,-0.22201149737891873,2.158286949492211,130
2.806007658805938,100.00473316850085,-8.743945082735404,28.298822862089697,-3.4856994108606467,98.5700056744031,15.187231519515867,-28.298822862089743,-164.67912740136464,2.216235751956852,0.0,0.0,0.2708227200524268,-0.22498886444685204,2.1814509839212963,131
2.996585685549322,100.47160074868279,-6.44156578577976,28.29882286208985,-3.7018967584581115,98.59031697457229,15.136317683530272,-28.29882286208982,-165.4903112343064,2.2888228666001704,0.0,0.0,0.3364511957082325,-0.26102350794988327,2.468267208503679,132
2.859371863963346,100.28697627169899,-6.358696258659444,28.298822862089697,-3.49048190811409,98.91351448142716,12.79528395805465,-28.29882286208961,-165.50509410168323,2.3524879382174677,0.0,0.0,0.3374052636249273,-0.22167366918057402,2.4935403003180223,133
1.3228897194773301,100.8596796766217,-3.989557927018574,28.298822862089747,-2.1931222632742,99.05517954227246,12.856755079571554,-28.29882286208983,-165.06140324439258,2.275528619763254,0.0,0.0,0.3735499735280798,-0.1888368864023881,2.6595025027707075,134
-0.2592032521279319,100.36478149834288,-6.257143731693416,28.29882286208972,-0.5522629389697183,99.01887041183596,12.936845043383178,-28.298822862089693,-164.19584278915335,2.1868529722762906,0.0,0.0,0.30550973720464897,-0.12655232388150317,2.6834238600778764,135
-3.384917763867496,100.51835036796574,-3.7827379237830767,28.298822862089697,2.8135631331438153,98.89138614097746,10.48925165531959,-28.298822862089686,-162.90876280779162,1.9685638557278269,0.0,0.0,0.37696636325048544,-0.09212299573503364,2.240438937976208,136
-10.726180926915754,96.9285210420898,-9.782737923783078,28.29882286208962,9.763463129176072,95.80493157582288,16.489251655319592,-28.2988228620896,-163.82125720571975,2.1140935745461578,0.0,0.0,0.21113708194594422,-0.02592372259048196,3.103083943969359,137
-18.610367865127227,95.36311784866021,-12.094525299675185,28.298822862089594,17.407690146885507,93.78472578272797,20.304962028437636,-28.298822862089686,-162.99353063924133,2.0212576187453215,0.0,0.0,0.3971023819874402,0.0005431679356504829,3.17482240650314,138
-28.76652494983265,94.32711184602113,-9.50571022722,28.298822862089825,27.80883582465849,92.9158327554352,16.8171482796929,-28.29882286208974,-157.80526723473764,1.5121214193663866,0.0,0.0,0.38818374875764894,0.006832914490312379,3.1545665699905827,139
-39.76652494983265,90.89570037174052,-6.274023800774736,32.694253304948454,38.80883582465849,89.09428565921993,13.686789248892154,-32.97494056982303,-146.80526723473764,1.004620048966204,0.0,0.0,0.3441352759406116,0.016512939875445165,3.193125707171817,140
-50.76652494983265,87.1348301604839,-0.274023800774736,40.56940588645742,49.80883582465849,85.6548166566776,7.686789248892154,-41.71635226005858,-135.80526723473764,0.610463093383438,0.0,0.0,0.25104132754565883,0.02501842414681944,2.022266356611365,141
-61.76652494983265,84.50299958419853,5.725976199225264,44.730929903047134,60.80883582465849,83.44021579549614,1.686789248892154,-46.58523659528834,-124.80526723473764,0.5890339990480585,0.0,0.0,0.1661411349824418,0.03225776258559547,0.6532855939839658,142
-72.76652494983264,78.0899633315955,11.725976199225265,47.69894436278677,71.80883582465849,77.75587670111469,-4.313210751107846,-50.2388689893702,-133.40835897822072,0.813416125585063,0.0,0.0,0.28400953377113386,0.1080043158574646,-0.4426432873682396,143
-83.76652494983264,67.0899633315955,17.725976199225265,49.46882325810965,82.80883582465849,68.05518756685318,-10.313210751107846,-52.69203996741184,-144.40835897822072,1.4403817631065075,0.0,0.0,0.3472447096672811,0.1344688779296028,-0.2691695673725144,144
-94.76652494983264,56.0899633315955,23.725976199225265,46.568534427413866,93.80883582465849,58.395932739777045,-16.313210751107846,-50.492247821240355,-155.40835897822072,1.991891346960298,0.0,0.0,0.3778794654698488,0.08214881727940457,-0.3288501471406217,145
-105.76652494983264,45.0899633315955,29.725976199225265,44.334906650157464,104.80883582465849,47.395932739777045,-22.313210751107846,-48.820983416409426,-163.471155613099,2.3373984297781747,0.0,0.0,0.37448993639907946,0.11001280537513539,0.34597303711821814,146
-116.76652494983264,34.0899633315955,35.725976199225265,38.51560584881953,115.80883582465849,36.395932739777045,-28.313210751107846,-43.6116080093846,-165.34484736936443,2.6788059517387186,0.0,0.0,0.442384108532973,0.16641280045574403,0.9600427011970748,147
-127.76652494983264,23.0899633315955,41.725976199225265,30.536754797893003,126.80883582465849,25.395932739777045,-34.313210751107846,-36.88957109914378,-166.71627985214354,3.0888790630785223,0.0,0.0,0.26632066106193863,0.21590875267855988,1.2660992900881658,148
-116.76652494983264,17.642293671285596,35.725976199225265,28.298822862089697,115.80883582465849,19.566018416868722,-40.313210751107846,-28.75108793387665,-168.44639060208937,3.686010276331907,0.0,0.0,0.19838613201603666,0.3170688593755977,2.025802307869387,149
-105.76652494983264,19.24323262027382,29.725976199225265,28.29882286208985,104.80883582465849,20.493780717379714,-34.313210751107846,-28.29882286208985,-169.86386879708684,4.163902838824408,0.0,0.0,0.2182989143210294,0.37351283247328965,2.643049350875624,150
-94.76652494983264,26.90298206363077,23.725976199225265,28.298822862089594,93.80883582465849,25.948390699770968,-28.313210751107846,-28.298822862089594,-170.75753363118994,4.462330684151744,0.0,0.0,0.13692102868356726,0.5019281647149573,3.799697088220731,151
-83.76652494983264,37.685498983685456,17.725976199225265,28.298822862089466,82.80883582465849,35.68201966122565,-22.313210751107846,-28.29882286208967,-171.65967859037224,4.79031199235875,0.0,0.0,0.31217469717222573,0.5643968965246079,4.419744127503554,152
-72.76652494983264,48.685498983685456,11.725976199225265,28.298822862089953,71.80883582465849,46.68201966122565,-16.313210751107846,-28.298822862089686,-171.75378362226803,5.063954035406395,0.0,0.0,0.217388666552936,0.6700877018467774,5.143832414184208,153
-61.76652494983264,59.685498983685456,5.725976199225265,28.298822862089747,60.80883582465849,57.68201966122565,-10.313210751107846,-28.298822862089647,-171.8094671095173,5.25502901521518,0.0,0.0,-0.12032492244001708,0.744818299881547,5.485933318312701,154
-50.76652494983264,67.76121550590342,-0.2740238007747351,28.298822862089825,49.80883582465849,66.12166456289845,-4.313210751107846,-28.29882286208974,-171.91250520609745,5.3672258718921375,0.0,0.0,-0.14548732428182487,0.7909724040299734,5.465115340959764,155
-39.76652494983264,73.68757574965163,-6.274023800774735,28.298822862089647,38.80883582465849,72.14705094779286,1.686789248892154,-28.29882286208973,-171.8160555833293,5.404406292432525,0.0,0.0,0.05198656789297691,0.8050794986785276,5.2850611692098415,156
-28.766524949832643,77.33061285787085,-12.274023800774735,28.29882286208972,27.808835824658487,75.33128732110843,7.686789248892154,-28.29882286208986,-172.1335061914015,5.477921528825726,0.0,0.0,0.030783577946177424,0.798182749227059,5.285103211731051,157
-17.766524949832643,80.92357142478308,-18.274023800774735,28.29882286208972,16.808835824658487,79.52421229534357,13.686789248892154,-28.298822862089715,-172.16348914765132,5.479038166813124,0.0,0.0,0.18093946207295553,0.7776360451638824,5.185286028124525,158
-6.766524949832643,86.74189763585235,-24.274023800774735,28.29882286208957,5.8088358246584875,85.11292109066177,19.686789248892154,-28.298822862089587,-172.1288441621824,5.261350627474125,0.0,0.0,0.22332614160137404,0.7858135174958877,4.807768438702121,159
4.233475050167357,93.12271863115387,-21.278146944621735,28.298822862089697,-5.1911641753415125,91.94757323942635,25.686789248892154,-28.298822862089708,-171.17062288737517,4.586134287657253,0.0,0.0,0.20549713056763455,0.681035018065695,4.746436034532394,160
15.233475050167357,96.91791840431068,-15.278146944621735,28.2988228620899,-16.191164175341513,95.11655543890394,20.023533043652144,-28.29882286208969,-170.5122333919011,4.263164341776357,0.0,0.0,0.24573689102958957,0.6137690091596337,3.3678536287150833,161
9.68050680257501,99.25752408600027,-10.396518879748028,28.298822862089825,-9.572549995271224,97.3127501973254,17.99890266163756,-28.298822862089875,-169.55169000526502,3.5368355756295213,0.0,0.0,0.5587504324418281,0.5795752839296059,2.4739351752852583,162
-1.3194931974249897,96.80862127079303,-16.39651887974803,28.298822862089697,1.427450004728776,95.2134832601952,22.574639280985622,-28.298822862089594,-169.1840868734253,3.4781624678897676,0.0,0.0,0.37366401231482993,0.5281625272420147,1.511544559974126,163
-12.31949319742499,94.47479801700995,-16.04489987706699,28.29882286208972,12.427450004728776,93.05900025946127,20.531054902537228,-28.298822862089708,-170.04282393195473,3.588207213275748,0.0,0.0,0.5393273140886331,0.5170978304188105,1.7953800735402674,164
-23.31949319742499,95.08520708651163,-10.044899877066989,28.298822862089594,23.427450004728776,93.17599641819888,14.915121558970293,-28.29882286208982,-167.99293753879215,2.810408201746948,0.0,0.0,0.7497410944581049,0.3856736443779394,1.0981688253337911,165
-34.31949319742499,92.91603588612877,-4.044899877066989,33.39080043567851,34.427450004728776,91.03446677841616,8.915121558970293,-33.956340425496414,-163.23508347943127,1.9801792665218052,0.0,0.0,0.47456871075828205,0.18767252047105112,0.22820095267435986,166
-45.31949319742499,90.77298471776946,1.9551001229330112,39.30873617499482,45.427450004728776,89.48352339738149,2.9151215589702932,-40.95776868691227,-152.23508347943127,0.9033792426998555,0.0,0.0,0.44143668447913714,0.09740018409286422,-1.6935521518816414,167
-56.31949319742499,91.43065014634401,7.955100122933011,37.014250805285705,56.427450004728776,90.45212155883978,-3.0848784410297068,-39.387683335069255,-141.23508347943127,0.5650336804383459,0.0,0.0,0.5448066521067016,-0.007278475048626412,-3.2126419133195148,168
-67.31949319742499,88.0705193138868,13.955100122933011,36.276783840647354,67.42745000472877,89.02381897118653,-9.084878441029707,-39.2746734740722,-130.23508347943127,0.5935745876589756,0.0,0.0,0.5518402574052637,-0.002397400301227792,-3.8046559756161074,169
-78.31949319742499,80.82845154099424,19.95510012293301,38.88930856410673,78.42745000472877,83.03430666245816,-15.084878441029707,-42.58248135470523,-133.994714766536,0.8046295229638836,0.0,0.0,0.5919917724805202,0.017693377697800734,-4.25200948437028,170
-89.31949319742499,74.97555380875161,25.95510012293301,46.45915954458706,89.42745000472877,78.13139188670347,-21.08487844102971,-49.590310707086466,-144.994714766536,1.341557453785809,0.0,0.0,0.5059787570113273,0.051240479053901146,-4.926732429523671,171
-100.31949319742499,72.93455336800136,31.95510012293301,43.6347511847017,100.42745000472877,76.0780400564086,-27.08487844102971,-48.58940204799655,-155.994714766536,1.65934139869496,0.0,0.0,0.46704417919044133,0.026145595404527537,-6.445661347932999,172
-111.31949319742499,69.53827898904152,37.95510012293301,41.263565279409164,111.42745000472877,73.32884565164402,-33.08487844102971,-46.98238230390033,-163.25687473858721,2.081403280285413,0.0,0.0,0.4191359514368804,0.1170254072454705,-6.648025444997947,173
-122.31949319742499,66.4000764467435,43.95510012293301,34.952930000217314,122.42745000472877,70.59648252986291,-39.08487844102971,-40.25100593038804,-165.88929184230628,2.4988593826733365,0.0,0.0,0.38744029386111256,0.05508891782252518,-7.085489782285972,174
-133.319493197425,65.10105386416323,49.95510012293301,30.18200350881477,133.42745000472877,69.38677495271062,-45.08487844102971,-36.69885745904453,-166.18023846213646,2.6600750007652962,0.0,0.0,0.4184183889653327,0.04829361186670314,-7.3779350819194764,175
-142.79452747493727,66.02191742658586,55.95510012293301,29.661046830093017,143.0826184022352,70.4596384576613,-51.08487844102971,-35.61272510697235,-167.0264062682694,2.744040504098582,0.0,0.0,0.40509727530997786,0.05480081976639954,-7.485522613278212,176
-140.53647902679853,69.09104105950234,61.95510012293301,29.031065303799547,140.88884994392816,73.42300068689934,-57.08487844102971,-34.38062456366256,-166.94170256761538,2.628627134516451,0.0,0.0,0.41328097306682476,0.08330964361808894,-7.617388532808434,177
-137.16976721360973,73.76243777497123,67.955100122933,34.82788674314892,138.77864795524474,77.36338844065807,-63.08487844102971,-39.896850341869836,-165.34752282648273,2.3754354538418916,0.0,0.0,0.39461107654486155,0.17536334124933192,-7.280851281622746,178
-131.98458906746941,76.49358265856556,69.33247188387482,39.30005068946766,133.38907100231262,79.91417904363544,-68.6974362368011,-42.6500943513472,-163.56993787517035,2.0058666018628424,0.0,0.0,0.42097691356703426,0.19423371499303915,-6.455727920919747,179
-125.05645823544387,79.27372402899738,63.33247188387482,41.2583321582588,127.00457063263471,81.58076670939695,-62.697436236801096,-45.468709996902234,-155.52492051748825,1.457789755522797,0.0,0.0,0.39627077678832257,0.18653906162598743,-5.524783210047253,180
-117.28917092664673,81.24591587872969,57.33247188387482,42.25499238241965,118.79040513870082,82.91316114163023,-56.697436236801096,-46.11459395876592,-144.52492051748825,0.8986220965390369,0.0,0.0,0.29540945111695127,0.10532554409735571,-4.326586246273056,181
-108.62956400058438,83.62532451415309,51.33247188387482,43.02091008460449,110.3059244052397,84.06697955104424,-50.697436236801096,-46.64146131798852,-133.52492051748825,0.6174481475807119,0.0,0.0,0.3187918932614853,0.08351419731800878,-3.2520717377147283,182
-115.37380670214542,79.07475541594599,45.33247188387482,52.88077019683365,116.01404531646367,82.73269114459023,-44.697436236801096,-51.261978289784274,-122.52492051748825,0.75170568134204,0.0,0.0,-0.00843939182530535,0.6082927810547694,-5.525551002486271,183
-118.64880399307708,74.1094299033653,39.33247188387482,57.046863170933364,117.94166778359273,81.07125950513263,-38.697436236801096,-52.656456970401784,-123.57156285271304,1.0703201808180478,0.0,0.0,0.09580391830113613,1.5554681420171588,-7.879832735906227,184
-117.81256276924191,68.53964243187566,33.33247188387482,57.5062484585131,116.88020412456574,80.5210564384005,-32.697436236801096,-53.451593590792534,-134.57156285271304,1.605132493830517,0.0,0.0,-0.02852189812785926,2.849290571256429,-8.379391888606193,185
-114.8950662119791,60.90816547552836,39.33247188387482,58.047715733527866,117.94960449087445,80.6006328135459,-26.697436236801096,-51.510879284945304,-137.26860189793123,1.8806825570999883,0.0,0.0,-0.6481552420649123,4.601507726679875,-7.71048524984913,186
-114.94952060810628,56.37473698343328,45.33247188387482,53.52912884533769,117.92666843813423,81.77729066077525,-32.106760881472056,-48.96423622924157,-135.52498245117408,2.0091791214998986,0.0,0.0,-1.0187907148572752,7.020737328395193,-7.3350314164739325,187
-114.56787882655664,48.32636139768222,51.33247188387482,51.199824142699825,117.1440258530151,81.51598121564594,-35.106086475726926,-48.29945495072661,-135.41486621533986,2.1260589090052306,0.0,0.0,-1.2300126223113246,9.471050714510287,-6.967139983852717,188
-118.21499506458504,39.18598207661899,57.33247188387482,47.109271942653905,117.86579871587693,80.8612814859567,-38.82538729863954,-47.8026456981854,-139.09511745006367,2.3576037387302033,0.0,0.0,-1.689393594676304,12.233330653837976,-6.765756940280919,189
-115.99891443147521,28.18598207661899,63.33247188387482,45.459131186328825,117.5005000231424,80.02146317419113,-39.672825113983656,-48.2894352042139,-148.17071168192138,2.553541154814009,0.0,0.0,-1.790283694628604,15.615604209290145,-6.227667267634887,190
-123.90094798573782,17.18598207661899,69.33247188387482,41.46543649213337,116.59729465403696,78.4568047576428,-39.109387391965534,-48.930341773803335,-148.38137997469144,2.758210589958851,0.0,0.0,-3.01859705523372,19.251417085595637,-6.70809195979282,191
-134.90094798573782,6.185982076618991,75.33247188387482,35.95667716579964,116.08281207088461,78.12046010463266,-43.50758342642467,-48.390361416130986,-151.99673274282003,2.8812656812657935,0.0,0.0,-4.5322068571051926,23.251417085595637,-6.653441929344129,192
-123.90094798573782,9.594035943067547,69.33247188387482,30.527739632899568,115.41647600717992,75.12552039020403,-45.22675234232947,-49.85954392576289,-151.62234353442153,3.1923827105133302,0.0,0.0,-5.1679195246618,27.251417085595637,-7.070963443387771,193
-112.90094798573782,15.290610609438005,63.33247188387482,28.298822862089875,113.9768109786393,70.79235154277147,-45.20853587389359,-51.44874226505719,-149.9171179931817,3.326804978636732,0.0,0.0,-7.2238784056054595,31.251417085595637,-8.890274586671781,194
-101.90094798573782,19.518082787877606,57.33247188387482,28.298822862089647,114.15958743451715,67.7219858332564,-49.51489988459888,-51.81487679940511,-149.55529622010891,3.4081852458945248,0.0,0.0,-8.079325890291408,35.25141708559564,-10.409198533152693,195
-90.90094798573782,22.30417808223619,51.33247188387482,28.298822862089953,114.61859647332113,64.43737838914726,-54.24614327050956,-51.90934830207289,-147.74273963323535,3.483960397955655,0.0,0.0,-9.351131807332823,39.25141708559564,-12.152387230332451,196
-79.90094798573782,25.060589553881474,45.33247188387482,28.298822862089953,114.46713471853353,60.29677328276877,-56.00419580624703,-52.58121659267574,-145.71717144539127,3.5634058567781617,0.0,0.0,-10.832202421516243,43.25141708559564,-14.201060324901762,197
-68.90094798573782,29.510408223319963,39.33247188387482,28.298822862089825,113.72857112391276,57.25212375240059,-56.56439425973081,-53.326563006873926,-146.18948263616622,3.5911434489646012,0.0,0.0,-11.96908116082454,47.25141708559564,-15.371142786193179,198
-57.900947985737815,33.18240128483976,33.33247188387482,28.29882286208985,113.61276556980133,54.712371855984685,-56.74087223704523,-54.10967680097379,-147.57453460864957,3.658713389307782,0.0,0.0,-11.978328650785125,51.25141708559564,-16.266821597095966,199
-46.900947985737815,35.89309036855781,27.332471883874817,28.298822862089594,113.73679984555757,52.36391965786586,-54.60175356825201,-54.82283276366705,-148.6994216894888,3.7377549807853527,0.0,0.0,-12.060963591206136,54.651366606152735,-16.997947922110974,200
-35.900947985737815,36.588221145502196,21.332471883874817,28.298822862089825,113.460917239197,51.49818667082937,-54.4111963446847,-55.35702972802342,-148.8973048430235,3.8430049569736746,0.0,0.0,-11.966373031183068,55.19201250541759,-17.396524898950467,201
-24.900947985737815,36.32949558180128,15.332471883874817,28.298822862089647,113.01375201703401,51.19248831752631,-53.9544303455328,-55.82235379784943,-149.06589524556213,3.931646319959302,0.0,0.0,-11.677113670890622,54.992691551333486,-17.410053500839457,202
-13.900947985737815,34.79802469214695,9.332471883874817,28.298822862089697,112.97306366217771,51.21728491502296,-54.073698502991974,-56.03878980042022,-148.7470353574236,4.046313703204995,0.0,0.0,-11.707751251140444,54.34884501633108,-17.101770191498368,203
-2.9009479857378153,32.05589046631406,3.332471883874817,28.298822862089594,113.10008537403083,51.932823421914335,-53.970598727716556,-56.099066053596445,-148.36086703124062,4.139988310017774,0.0,0.0,-11.241463539287485,53.03259448816913,-16.35503452556823,204
8.099052014262185,29.346002095293684,-2.667528116125183,28.29882286208952,113.00553723276346,52.87863127797247,-53.66294502749565,-56.09654784452647,-148.8765619655323,4.13223819607727,0.0,0.0,-10.706415822785466,51.02308180732561,-15.541842743098364,205
19.099052014262185,24.444952681819228,-8.667528116125183,28.298822862089594,113.60757404863097,54.14915108120614,-53.76836460234429,-55.65230591093368,-148.97448131422067,4.13271307377079,0.0,0.0,-9.959937008062758,48.11398908596481,-14.631951261051581,206
30.099052014262185,19.462913285516315,-14.667528116125183,28.29882286208972,113.04800021588264,57.45987466673255,-54.54520371974862,-55.19747650626438,-150.98874858782276,4.062830352756156,0.0,0.0,-8.675262876324089,44.11398908596481,-13.38229708757064,207
41.099052014262185,15.715278300926945,-20.667528116125183,28.298822862089594,113.541574237778,60.68746291573648,-53.22515400415179,-54.63576700928217,-155.34725528066764,3.9582541539407803,0.0,0.0,-7.3249427253414146,40.11398908596481,-12.176312190268336,208
52.099052014262185,9.842191900456118,-26.667528116125183,31.316541830041057,112.64951917985047,64.48710893871662,-52.015302390399114,-53.924861946097934,-157.06642959306598,3.8587601843817643,0.0,0.0,-6.786310757267797,36.11398908596481,-11.156602823566,209
63.099052014262185,2.8088562195449334,-32.66752811612518,35.374818405371876,112.64389951009694,67.57762314069312,-50.32142236850867,-53.117836551014605,-159.52078995744424,3.754852794456195,0.0,0.0,-5.629383575188101,32.11398908596481,-9.953421465058723,210
52.099052014262185,4.17073356049822,-26.667528116125183,39.266498536100094,113.37051594024834,71.21622796783691,-49.74919261108518,-51.44287400137041,-165.8877058808101,3.5747592199880724,0.0,0.0,-4.440297146205952,28.11398908596481,-9.232834383656712,211
41.099052014262185,15.17073356049822,-20.667528116125183,43.97678658308094,112.95925848206315,74.25601598340347,-48.21305768204397,-50.389856306764365,-165.30886956055716,3.487515185798445,0.0,0.0,-4.254747544781964,24.11398908596481,-8.835573568467153,212
30.099052014262185,26.17073356049822,-14.667528116125183,47.56612688284467,112.6252386684323,77.41111458958235,-46.57402290317797,-49.036662980285584,-164.45441547648502,3.2749951651081712,0.0,0.0,-4.020584991216534,20.11398908596481,-8.074903419301968,213
19.099052014262185,37.17073356049822,-8.667528116125183,50.10710458220475,112.89014766490091,80.55859137606966,-46.017573782728675,-47.094483931975276,-160.93172246922765,2.996875932904525,0.0,0.0,-4.7654624309614775,16.11398908596481,-7.357615983891487,214
8.099052014262185,48.17073356049822,-2.667528116125183,52.79961871962939,111.84972251882672,83.57742437569937,-40.086619368296134,-45.64172682867062,-161.04190172195845,2.341229156597924,0.0,0.0,-2.9215835526780416,12.11398908596481,-7.193816266339241,215
-2.9009479857378153,59.17073356049822,3.332471883874817,52.41219860145919,109.1678859696702,85.38513158917036,-34.086619368296134,-45.74757363327096,-150.04190172195845,1.9223935202500255,0.0,0.0,-2.5969801327313164,8.11398908596481,-6.976323814438566,216
-13.900947985737815,70.17073356049822,9.332471883874817,50.50133982790463,108.38278801234515,86.84187184470733,-28.086619368296134,-45.32004092901347,-139.04190172195845,1.677649855829978,0.0,0.0,-2.459034183595616,4.11398908596481,-6.383807854029404,217
-24.900947985737815,78.93322189944982,15.332471883874817,47.74213798155358,107.06724564468834,88.03741396082448,-22.086619368296134,-45.27361054460214,-128.04190172195845,1.5642634630143786,0.0,0.0,-2.1159942915563366,0.11398908596480872,-6.121165996543111,218
-35.900947985737815,83.7371684267545,21.332471883874817,44.19812806533832,106.963332789922,89.72447618751815,-17.088253958028876,-44.11709940526691,-117.04190172195845,1.681472660328561,0.0,0.0,-2.484025630988171,-3.886010914035192,-6.309360475401632,219
-46.900947985737815,88.18410027694733,27.332471883874817,40.09059166353324,106.69921252065971,91.66820834226684,-16.334360312230082,-43.016458726453536,-106.04190172195845,1.8215612786039983,0.0,0.0,-2.4202632538850732,-5.704354624147233,-6.227831694178866,220
-57.900947985737815,89.72743310297473,31.859376048164364,38.74216114566498,106.38400167130911,91.77516885321714,-13.570721097514518,-42.94802018196674,-102.01497135991794,1.8535781057993066,0.0,0.0,-2.1382942483432106,-7.144426884989018,-6.549312739668921,221
-68.90094798573782,88.61049002117083,29.52830205839343,40.99238307667679,105.87446117348006,90.7010266651298,-11.512848962493239,-44.480720598959344,-102.62017275557247,1.7457689851540672,0.0,0.0,-2.1834662617669656,-7.468802607247341,-6.801970725955622,222
-79.90094798573782,86.02356131477092,31.43058773990573,42.928073622998056,105.83186087947442,89.63371977655999,-12.296040104079418,-45.40644228363397,-103.20554529983802,1.7400856104196611,0.0,0.0,-2.519537635432257,-7.031024810849897,-6.97858558217938,223
-90.90094798573782,82.27022589864958,35.54643534368794,45.84541665934442,105.59175391476828,87.96736030619508,-12.862514633971598,-46.985201681438134,-106.22731184675875,1.7125584906721685,0.0,0.0,-2.611104466826263,-5.8700341542836805,-6.787825474491921,224
-101.90094798573782,76.53308849144669,39.75609599808205,49.34564786513288,105.77279561680778,85.8507052605157,-13.414939051343435,-47.969854109348965,-112.03757387805553,1.5862833838290973,0.0,0.0,-2.533007642119913,-4.057886331012185,-6.716623231465129,225
-100.08232892177232,69.23950449234773,45.75609599808205,52.12617023677722,105.79716433888497,84.01497011850478,-13.867057591004519,-48.7115697289916,-117.12625796149422,1.5091858700440832,0.0,0.0,-2.5260733714811745,-1.969553258786715,-6.626800296941962,226
-97.52044067522432,61.209778902362636,51.67232898556732,53.70775306486412,107.24093887738938,82.22611232678274,-14.159364510249842,-48.74176807630869,-126.78518702094395,1.4364376831551007,0.0,0.0,-2.1756040652449644,0.6457565436804525,-6.333026387934346,227
-97.1130224205946,53.47233835160306,57.67232898556732,53.563780915452504,108.9366777372332,81.71576931954392,-16.761710944843017,-48.450109983453245,-134.6436528677143,1.547558501528557,0.0,0.0,-1.9200563290842223,3.783855402266501,-6.101192590877147,228
-96.26355034087412,44.930257390938586,63.57752172833874,52.833531541503596,110.24405525037035,80.79177457048658,-19.916450776594672,-48.41865412152208,-140.8712085220983,1.737148565920536,0.0,0.0,-2.0673304559591377,7.463982215199639,-5.850272588727148,229
-96.6219107802988,37.22416869498654,69.57752172833874,50.576040311326786,111.14022432510855,79.37633925175786,-23.401713900777068,-48.5428546337189,-144.58683720977382,1.9328456551992614,0.0,0.0,-2.338824450808868,11.46398221519964,-5.970363142190487,230
-98.71305560016701,30.07156035195904,75.57752172833874,48.07395133324935,112.4643340650875,77.71983010391355,-27.972848958419814,-48.75442567366378,-143.7711872957517,2.2457048914178497,0.0,0.0,-3.3866720107262727,15.46398221519964,-6.2062384508551025,231
-98.39819583272798,20.262461923951502,80.97019445781979,45.03576702638741,112.5124195898304,76.13440723979659,-31.862646362405723,-49.51719049499759,-145.62447605933312,2.526893504253943,0.0,0.0,-4.043962581938265,19.46398221519964,-6.4765786285728355,232
-101.99191529591567,12.414623655849143,85.41980372184896,41.93963893149234,112.83682871646954,73.67214026294842,-34.09345457639138,-50.29093883442165,-144.0792672508118,2.7810249254573267,0.0,0.0,-5.273254984872536,23.46398221519964,-7.119145988399703,233
-97.89510947596264,3.7955643872405336,86.6438078345253,37.69808789277212,113.66340096430949,71.49968419877621,-38.804222536291086,-50.23117286339748,-147.38929837721633,2.8721491670732124,0.0,0.0,-6.339642619040692,27.46398221519964,-7.8065991558088035,234
-86.89510947596264,4.857167607202328,80.6438078345253,32.40172790284019,113.08599900768628,68.11664947566585,-41.19529962510486,-51.450275132884705,-145.8200937057335,3.0711862966821863,0.0,0.0,-8.24867765846622,31.46398221519964,-8.84299157196978,235
-75.89510947596264,12.034756286816584,74.6438078345253,28.29882286208972,112.78522964438913,64.8575915234907,-45.385119038961506,-51.950259265484895,-144.55986311819777,3.192177543581056,0.0,0.0,-9.538235446748363,35.46398221519964,-10.264408072510115,236
-64.89510947596264,16.051147602421924,68.6438078345253,28.298822862089594,113.27449417389572,61.88775932336255,-49.70598273934658,-52.147116142515316,-143.5237224778545,3.270697663242348,0.0,0.0,-10.688947553373545,39.46398221519964,-11.901525736899668,237
-53.89510947596264,19.720487046427962,62.643807834525305,28.29882286208985,115.24443714100597,58.4232685496845,-52.322407604762766,-52.142270319841444,-142.6792101507287,3.4018208763971227,0.0,0.0,-11.48991065245708,43.46398221519964,-13.052438215503853,238
-42.89510947596264,23.38999906353265,56.643807834525305,28.29882286208972,114.74078754959565,55.15994250666809,-55.18437468811956,-52.65022931868166,-142.3914930168821,3.3780601714467635,0.0,0.0,-11.957947062287282,47.46398221519964,-14.75881796240169,239
-31.89510947596264,27.496669185615815,50.643807834525305,28.298822862089924,113.31553532563252,51.66485195720123,-54.77813990299441,-53.530102113058156,-142.65396771334363,3.3484257111399685,0.0,0.0,-12.718568010849724,51.46398221519964,-17.01191232422368,240
-20.89510947596264,31.77128000098528,44.643807834525305,28.29882286208985,112.02468118004373,48.740085677466084,-54.19319365879298,-54.30626387003405,-144.08203235692488,3.3709159290611654,0.0,0.0,-13.40042320204557,55.46398221519964,-18.636413000024184,241
-9.895109475962641,36.673648161012586,38.643807834525305,28.298822862089875,111.22362000371245,46.239134110264395,-53.431329879099366,-55.001318760619725,-147.7376454390575,3.4717704839299333,0.0,0.0,-12.976870564595725,58.80579600571454,-19.326973866385195,242
1.1048905240373585,40.296917534603445,32.643807834525305,28.298822862089697,110.67961787929718,43.52193067481766,-50.595213083591865,-55.93915512538368,-149.30300104051784,3.617867127318817,0.0,0.0,-12.899411027843316,60.12952804763927,-20.423087174255777,243
12.104890524037359,42.185755465243666,26.643807834525305,28.29882286208962,108.4364407078445,41.76142223734655,-48.857560150282154,-56.76773046641836,-149.25436159777985,3.7648723304059666,0.0,0.0,-13.395094269080284,61.17637240592787,-22.021530501025442,244
23.10489052403736,42.54793030730248,20.643807834525305,28.29882286208972,107.50084493949241,40.72295273819631,-47.83426375527465,-57.2510217713487,-149.0836470361725,3.9635822786239676,0.0,0.0,-14.247428706835423,61.71905965359485,-23.20301466324301,245
34.10489052403736,41.68230135506952,14.643807834525305,28.298822862089672,107.94345832921289,39.743618915742836,-46.07351795140408,-57.53415378241927,-148.86855285268476,4.126124602682711,0.0,0.0,-14.478618402614776,61.62114008316516,-23.546186974491487,246
45.10489052403736,39.91591621329633,8.643807834525305,28.29882286208972,107.93906328686379,39.827835541902324,-46.19152986005595,-57.76362280398995,-149.0117380382016,4.257851682565905,0.0,0.0,-14.270564443192052,61.050646243619504,-23.36556761472962,247
56.10489052403736,37.83676519062602,2.6438078345253047,28.298822862089647,108.40819812992552,40.15126610669795,-46.607834714758766,-57.79856647122197,-149.00662875866004,4.37049615403552,0.0,0.0,-13.56255181128269,60.055252953347214,-22.444988413216553,248
67.10489052403736,34.55427042557977,-3.3561921654746953,28.298822862089697,109.93073921110714,40.86381939170306,-47.985181752104026,-57.71636374705224,-149.46191288589745,4.480779166468199,0.0,0.0,-12.602335836204436,58.47190232676512,-21.055168497435844,249
78.10489052403736,30.721721493406097,-9.356192165474695,28.298822862089953,111.01103602920756,42.33013032022157,-48.70088460889497,-57.50713820007061,-149.63575877550878,4.513137451458375,0.0,0.0,-11.39695241104932,56.13367029765342,-19.276149231615943,250
84.58300634636693,26.33665817497903,-15.356192165474695,28.298822862089697,112.10177667899478,44.65357080751489,-49.218233748301024,-57.43812219942818,-150.66542942888387,4.493667339939411,0.0,0.0,-9.859088156752836,52.42623234297693,-17.30369316265726,251
84.94851062249545,21.485696744605495,-21.356192165474695,28.29882286208972,111.834179617066,48.657245854230986,-50.9468216800027,-57.00413510263171,-153.54597448655755,4.39585647147635,0.0,0.0,-9.06374231559301,48.42623234297693,-15.249392772201455,252
83.48877306018042,17.605294771538095,-27.356192165474695,28.29882286208972,112.84538378362673,52.449095945208235,-50.68069392546221,-56.32399084920687,-158.1864793139904,4.178536633621866,0.0,0.0,-7.623991641785593,44.42623234297693,-13.806951548431433,253
81.03381195646597,14.415080360990547,-33.356192165474695,28.29882286208962,113.14274201391214,56.30029835312087,-49.625936023909084,-55.439634953866985,-165.16498553913164,3.9328208072525026,0.0,0.0,-6.652764835407808,40.42623234297693,-12.538945496191937,254
74.48448672651152,9.874730091013546,-39.356192165474695,32.2890231665424,113.43706701962203,60.13990847726133,-48.239579669116544,-54.42374461803982,-169.18972715672453,3.74122039217795,0.0,0.0,-5.7483745267820225,36.42623234297693,-11.196868645868593,255
85.48448672651152,4.107720417397947,-45.356192165474695,34.98468571190688,113.52190632783638,63.764680690060175,-47.273019019344034,-53.436114587333364,-173.2037388045717,3.633302370731083,0.0,0.0,-5.598281771988236,32.42623234297693,-10.319099858227306,256
74.48448672651152,1.4354062536581915,-39.356192165474695,38.22557687452524,114.55281054228591,68.09433171178125,-45.818832013426366,-51.245887842047374,-162.2037388045717,3.4932433038101816,0.0,0.0,-4.87706262629459,28.42623234297693,-9.318176870829351,257
63.48448672651152,11.063650751450167,-33.356192165474695,41.64439323322913,113.0679541158474,71.49931397376247,-43.907129531529236,-50.56589512456551,-151.2037388045717,3.348100225922599,0.0,0.0,-5.019150855710509,24.42623234297693,-9.10695894624389,258
52.48448672651152,21.360078740357636,-27.356192165474695,45.63355824889083,112.5684577182693,74.35190794807271,-39.444923367826,-49.329377371646586,-140.2037388045717,3.1076051506565454,0.0,0.0,-4.478434792103677,20.42623234297693,-8.713832686922604,259
41.48448672651152,32.360078740357636,-21.356192165474695,48.08324104398298,112.08225205591054,77.20638125239562,-36.477989066730665,-47.8046012001576,-151.2037388045717,2.793188477252652,0.0,0.0,-5.460717765677792,16.42623234297693,-8.147339955108283,260
30.48448672651152,43.360078740357636,-15.356192165474695,50.313627164568146,110.91791861914345,80.84654168014453,-34.17733347347802,-45.9165362894351,-162.2037388045717,2.279546271774247,0.0,0.0,-5.013891184490222,12.426232342976931,-7.856288823854765,261
19.48448672651152,53.857499281256196,-9.356192165474695,51.83891037568582,109.15974926678572,83.18468276787678,-29.600571934203906,-45.10930565644469,-165.93311234709654,1.8262717706004632,0.0,0.0,-4.503038337117447,8.426232342976931,-7.810956523719896,262
8.48448672651152,64.02736913402981,-3.3561921654746953,51.54149996818736,107.51039188771517,84.76038918911075,-23.600571934203906,-44.25101980507708,-155.41278775870856,1.4624556641659203,0.0,0.0,-3.6681332892245484,4.42623234297693,-7.781957851891512,263
-2.51551327348848,71.59344905216284,2.6438078345253047,49.022611399225234,106.83158778629526,86.4087394195517,-19.49161695403374,-43.19176117321434,-144.41278775870856,1.3579601869175515,0.0,0.0,-3.9201027998064966,1.12508384159037,-7.116459224545573,264
-13.51551327348848,77.99870838677093,8.643807834525305,46.32668619672109,105.61001170204172,87.55081643104964,-16.14362268618995,-43.065427988728686,-133.41278775870856,1.2499372534606965,0.0,0.0,-3.74060676068486,-0.3874216123992466,-6.777915530849724,265
-24.51551327348848,82.28114618057927,14.643807834525305,42.966302852469674,105.37833147939936,88.88262677534377,-16.298561388952734,-41.68797210861775,-125.16976995855259,1.2352387960808262,0.0,0.0,-4.280195948524025,-1.394261170707246,-6.9259634686827285,266
-35.51551327348848,85.78116486927739,20.643807834525305,39.39275703757367,106.32565479835853,89.61295300095415,-15.886240950227128,-40.369372316187416,-120.69693908597407,1.1684305938571697,0.0,0.0,-3.9605326477744134,-2.391892640609924,-6.9329176092697,267
-46.51551327348848,87.45339513486037,26.387093035564522,37.50915350086626,105.99622578333482,89.66078785619217,-15.007416318511853,-40.89885742433041,-119.6868490138303,1.0631869857836498,0.0,0.0,-3.059600439763953,-3.338721561878433,-7.046967579490341,268
-57.51551327348848,87.22669652577552,26.83356472143082,37.231338257399976,106.33606617645043,88.76060676683106,-15.361914673696445,-42.08987077309898,-120.95615631884584,1.0113159761811068,0.0,0.0,-2.7754361807184247,-4.767807758358318,-7.275952892685443,269
-68.51551327348848,85.75368136169871,29.957874173185182,38.018315079839354,105.73212934860786,86.44157131165663,-16.50496762330056,-44.80527472247389,-122.42770616134064,1.0532051129993696,0.0,0.0,-2.712458881538266,-6.6857327884572255,-7.465443853865194,270
-79.51551327348848,83.50634437372985,33.027500370697254,39.70238975777614,104.90797165972752,83.23694933447533,-22.50496762330056,-47.98477823054689,-123.38781662946869,1.1162549374754933,0.0,0.0,-2.9429037235447466,-8.899080989575564,-7.613545878733855,271
-90.51551327348848,80.44814049367938,36.41647743808379,41.837997499407834,103.37412350116277,76.72146032861004,-28.50496762330056,-52.18443510926127,-126.95112445189383,1.1449472402502705,0.0,0.0,-3.1753800768359546,-12.062513404046955,-8.049160290522508,272
-101.51551327348848,77.21050979375099,40.70607994706565,43.50040560637068,103.2871275195199,68.07863586141733,-34.50496762330056,-54.96374287466307,-135.38781720128338,1.1848624927877294,0.0,0.0,-2.6358940188208586,-16.062513404046957,-8.577322343145088,273
-108.48606757430045,74.03445353210768,42.70087276678095,44.661943757116504,102.24801886868917,58.28460371882459,-40.50496762330056,-56.326687964825055,-144.12207437458176,1.2811999631751905,0.0,0.0,-1.9626073391149899,-20.062513404046957,-8.941006308878636,274
-109.3582929846278,71.395272760998,45.97495787482711,44.9694329509591,106.18378467581485,50.70916054709351,-46.50496762330056,-55.14959637802921,-155.12207437458176,1.48267882814101,0.0,0.0,0.10030566786235313,-24.062513404046957,-9.256447616651513,275
-109.47453572673409,67.9937599523504,46.567727027401396,45.90325624551103,106.78207448691944,39.70916054709351,-52.50496762330056,-54.14770892921716,-166.12207437458176,1.806994174977871,0.0,0.0,2.2432963869923355,-28.062513404046957,-10.220572713255615,276
-110.37465734135891,65.69927607904731,52.10734023164334,45.28839148089318,108.05549918668129,29.590684476796927,-58.50496762330056,-51.282067348211754,-177.12207437458176,2.1330911716432928,0.0,0.0,4.366902670506731,-32.06251340404696,-11.279309973559144,277
-111.22252031284803,62.986015249467414,55.13120144180014,45.76845714006678,117.61467732891221,18.590684476796927,-64.50496762330056,-46.408885209465815,-166.12207437458176,2.498602902005146,0.0,0.0,6.540918562451504,-36.06251340404696,-12.003204219443504,278
-112.47041206001265,59.72425872775075,58.04494039008541,45.966114337371934,128.6146773289122,8.872053318486557,-70.50496762330056,-41.19211258970242,-155.12207437458176,2.816230191320981,0.0,0.0,8.29336742942748,-40.06251340404696,-13.024392872608791,279
-112.55259998096454,57.12491640377532,62.43027391118848,45.906978331935896,117.6146773289122,7.232713525983465,-64.50496762330056,-35.54703071587804,-144.12207437458176,3.023739912031934,0.0,0.0,10.202235575523275,-44.06251340404696,-14.881348096274191,280
-113.71191326996974,54.42143673459096,64.53154583951589,46.079760312129615,106.6146773289122,13.515861816748751,-58.50496762330056,-29.179984489829305,-133.12207437458176,3.291674508491233,0.0,0.0,11.514088220909619,-48.06251340404696,-16.152300737957784,281
-114.29171602172411,52.038382447363745,65.42524437659826,46.633958468592574,95.6146773289122,19.30763544978802,-52.50496762330056,-28.29882286208983,-122.12207437458176,3.5214283494746996,0.0,0.0,11.924632311196943,-52.06251340404696,-16.928058121954606,282
-114.54686929648916,49.445165285169075,65.99921547973507,47.19379991949749,84.6146773289122,24.09627827126912,-46.50496762330056,-28.29882286208983,-111.12207437458176,3.7176721689616787,0.0,0.0,12.24656007848491,-56.06251340404696,-18.088948131713632,283
-114.37786579501746,46.88633141668562,66.01210452500514,47.97002760416041,73.6146773289122,28.395129914364908,-40.50496762330056,-28.298822862089914,-100.12207437458176,3.856406927297869,0.0,0.0,12.270093006941796,-59.79104440429023,-19.31187929023968,284
-115.3320564681893,44.30337457463674,64.19313472844325,48.58845093399829,62.614677328912194,33.11061196381664,-34.50496762330056,-28.298822862089605,-89.12207437458176,3.9902334262863968,0.0,0.0,11.48169931686767,-61.101893578922066,-19.599233297315838,285
-114.7433491083214,42.60401485571702,63.143391145796976,49.38244840781916,51.614677328912194,37.03374218107025,-28.50496762330056,-28.298822862089498,-78.12207437458176,4.079057152027829,0.0,0.0,10.035474190630145,-61.85596011574786,-19.49488589761923,286
-114.14911869094824,40.73592866551238,59.80653678438742,50.37757407149754,40.614677328912194,39.901800227230666,-22.50496762330056,-28.29882286208958,-67.12207437458176,4.150599338637065,0.0,0.0,8.873292890295655,-62.21780121396956,-19.728289619677522,287
-112.6384552959561,39.69046574673268,58.26871734257025,51.06987681748718,29.614677328912194,42.04620118007575,-16.50496762330056,-28.29882286208966,-56.12207437458176,4.212276770791433,0.0,0.0,8.137105394917278,-62.308607501486996,-19.95140604397362,288
-111.55174649316848,39.436112659820175,57.269293199067896,51.502364725734346,18.614677328912194,42.64051225274971,-10.504967623300558,-28.298822862089803,-45.12207437458176,4.310565525216833,0.0,0.0,7.919621191797561,-62.02889221470119,-20.053808873751994,289
-112.93886045521391,39.288959616440856,56.018637502958214,51.5846958754883,7.614677328912194,41.79086504685876,-4.504967623300558,-28.298822862089885,-56.12207437458176,4.432654448661729,0.0,0.0,7.549619253319332,-61.27702087074122,-19.54583536660636,290
-113.21261132570342,39.97026399876464,55.9536795817751,51.65900900124351,-3.385322671087806,40.91239031140667,1.4950323766994416,-28.298822862089814,-67.12207437458176,4.570231317335053,0.0,0.0,6.804168780670204,-60.00401241841494,-18.431988845734306,291
-113.31686728976152,40.988560024237884,56.08440138155333,51.561169856609595,-14.385322671087806,38.786196575148914,7.495032376699442,-28.298822862089683,-78.12207437458176,4.62268381746814,0.0,0.0,6.831446395503898,-58.2926276785222,-17.932933983842435,292
-113.9082308271972,42.456084080059725,56.38812533089686,51.23114248791969,-25.385322671087806,35.119443927472204,13.495032376699442,-28.29882286208963,-89.12207437458176,4.627633380217701,0.0,0.0,6.463109236268157,-55.7235936463864,-17.177031616935306,293
-114.24802912267725,44.6787365728743,56.14162825561237,51.02305230676632,-36.385322671087806,30.72064933894069,19.49503237669944,-28.298822862089555,-100.12207437458176,4.6258027083733,0.0,0.0,6.271163472458592,-51.95461852628406,-16.13366460902863,294
-113.31343211317579,48.368409457443455,57.03556706142228,50.629201100289634,-47.385322671087806,26.700883094197316,25.49503237669944,-28.29882286208974,-111.12207437458176,4.5910104820403825,0.0,0.0,5.204125486867243,-47.95461852628406,-15.11640556860651,295
-113.13585541749842,52.99170799269054,55.756896916700725,49.94673683155818,-58.385322671087806,23.069850133174793,31.49503237669944,-28.298822862089708,-122.12207437458176,4.49855062362262,0.0,0.0,4.979383814837388,-43.95461852628406,-13.622810173981769,296
-113.18547651867829,56.45696654546541,52.36330398161236,49.412452011230975,-69.3853226710878,20.391820341439796,37.49503237669944,-28.298822862089708,-133.12207437458176,4.428061620694199,0.0,0.0,4.922804430693509,-39.95461852628406,-12.332749669722427,297
-112.48336628319667,60.63881788714535,49.641845102054084,48.86641623959303,-78.62802088684057,14.965708351702517,43.49503237669944,-32.62292873262707,-144.12207437458176,4.328419075618927,0.0,0.0,3.7876402931168025,-35.95461852628406,-10.933921596003321,298
-111.74809347655295,64.31944246132548,50.40996440089847,47.826267075606516,-77.66069532529184,9.29819170935428,49.49503237669944,-36.48248810779851,-153.90055284774112,4.2223547928511005,0.0,0.0,3.409383788883783,-31.954618526284058,-10.049689973880435,299
-112.23753953528845,68.60632899401912,50.3484086069631,45.43698938951551,-66.66069532529184,1.2489576438868548,55.49503237669944,-41.422648402749374,-148.92433988914627,4.118352199309658,0.0,0.0,2.6217487254133265,-27.954618526284058,-8.703457412214016,300
-111.67197844442701,71.87959649855532,48.00198331532113,44.04095514823272,-55.66069532529184,10.908435399068754,49.49503237669944,-46.16445694278476,-147.6382745512836,3.8845724917956845,0.0,0.0,1.777279229459689,-23.954618526284058,-8.371322274091714,301
-111.13860855146147,74.93061061029393,43.976960648487164,42.686148194064316,-44.66069532529184,21.908435399068754,43.49503237669944,-51.13025571486069,-146.38064169327518,3.5525766916324706,0.0,0.0,1.6408709728232864,-19.954618526284058,-8.152873384583353,302
-110.96525696394468,78.0611557645697,42.66832951851677,40.33311290893362,-33.66069532529184,32.90843539906875,37.49503237669944,-53.76477324525555,-146.36525814407585,3.176100657053163,0.0,0.0,1.7441774840083484,-15.954618526284058,-7.168545821436155,303
-110.08510314816374,81.00451023558202,40.73485197008348,38.70518314982939,-22.66069532529184,43.90843539906875,31.49503237669944,-54.80184638903702,-143.41106702992548,2.645576876529753,0.0,0.0,1.251704318577302,-11.954618526284058,-7.015066166760821,304
-108.80705973109623,83.0547936527108,34.73485197008348,38.295532155008,-11.66069532529184,54.90843539906875,25.49503237669944,-54.59428475835169,-142.27045438015696,2.058139258693666,0.0,0.0,0.6749739385763328,-7.954618526284057,-6.858955280928663,305
-107.06330438467809,85.21363856197345,29.167236402228344,38.44688566344358,-0.6606953252918402,63.77007088512094,19.49503237669944,-53.1825955058859,-147.45519583435367,1.415742978451971,0.0,0.0,1.5252461484015654,-3.9546185262840563,-6.3717377377389095,306
-106.49370343047566,86.84270989901015,23.167236402228344,37.746798573135116,10.33930467470816,69.83849173137544,13.495032376699442,-50.1347280027868,-144.70706445780516,1.019158868977147,0.0,0.0,1.111336852292722,0.04538147371594459,-6.434975023551828,307
-105.76383615145136,88.01480847722559,17.98554136965679,36.59093130717052,21.33930467470816,75.86816389381146,7.495032376699442,-47.8356547192505,-143.07017862414,0.6945007626645863,0.0,0.0,1.6166679665322798,4.0453814737159455,-6.341100463523464,308
-104.91041274017354,89.21854381046592,15.862399646877648,35.72131344427455,32.33930467470816,79.90613454285602,1.4950323766994416,-45.881580695110266,-142.4550263611955,0.4281688205497313,0.0,0.0,2.464333379584514,5.550806965579066,-6.426946504720027,309
-104.86339541581235,90.81816372233953,18.5078804866506,33.64626084678372,43.33930467470816,84.18209590813987,-4.504967623300558,-41.9470377578842,-153.4550263611955,0.18247749101747893,0.0,0.0,3.049811503551208,5.895412223779428,-6.645996403218367,310
-105.03998044083501,90.19707842755123,16.265097069844785,34.160859931201195,54.33930467470816,84.39184976451182,-10.504967623300558,-42.320698063335605,-142.4550263611955,0.17412006695433552,0.0,0.0,3.1331074573748796,5.643597240178141,-6.75705835689434,311
-105.07743710472162,89.43933278077577,18.16322810346592,35.443114646473646,65.33930467470816,82.9201355135615,-16.50496762330056,-45.33152487573781,-131.4550263611955,0.29387843949828024,0.0,0.0,2.2862938920595357,4.386627802403328,-7.042289652356462,312
-105.93012243308007,87.69889876534256,21.01117637744562,36.583679508180055,76.33930467470816,79.54951151049525,-22.50496762330056,-46.60238002075547,-140.88117599436504,0.3315526136979331,0.0,0.0,1.9256974492933732,2.236180515646751,-7.412919506497697,313
-106.33238266634874,85.19506063726938,23.53988722718712,38.23513991915634,87.33930467470816,72.99537985322203,-28.50496762330056,-50.555117143171394,-129.88117599436504,0.5431145223497874,0.0,0.0,1.0941788854045928,-0.6817294603974404,-7.549591352509005,314
-107.24066974039546,82.15291393015822,24.15871587690766,39.50155778870009,98.33930467470816,62.772408178139095,-34.50496762330056,-54.31747484074716,-120.90244271119975,0.7596477330839185,0.0,0.0,0.6267701282019912,-4.545184218878216,-7.92220591955834,315
-108.13880251848518,80.35206132059531,27.38819251109514,40.06685119058822,97.96379629005881,54.99246450726828,-40.50496762330056,-54.812600038730416,-131.07655060945854,0.9354691770221063,0.0,0.0,0.2838962556065037,-8.545184218878216,-8.124666564875662,316
-108.66430164339025,78.35336627213935,31.256167083746902,40.948097236081104,97.87891507145422,46.0261523869723,-46.50496762330056,-54.41840240854862,-141.20089599427658,1.2361525748039637,0.0,0.0,0.7598466597895185,-12.545184218878216,-8.730536874545109,317
-108.76391001131212,76.28378463867043,35.69351197709335,41.850696574849685,98.29106707628706,36.911556164406015,-52.50496762330056,-53.22520381545369,-147.9305001458012,1.5351847282062085,0.0,0.0,1.8844468125379064,-16.545184218878216,-9.698867623092747,318
-108.97164670195332,73.51006897168901,37.987217029804484,42.80810259306064,96.59889715303744,25.911556164406015,-58.50496762330056,-50.878625007371525,-153.20975967310946,1.8313193142889916,0.0,0.0,3.240923228332227,-20.545184218878216,-10.484241352358241,319
-109.08679424964276,70.05422538722502,38.854141347393735,44.035865794584716,101.9260215505163,16.906759518207878,-64.50496762330056,-48.004847835253955,-164.20975967310946,2.1657628325374674,0.0,0.0,5.80662820430119,-24.545184218878216,-11.250808524675676,320
-109.79074921647259,67.21417555030145,41.80463192782939,44.45908976468821,112.9260215505163,6.54147949237556,-70.50496762330056,-43.01923471206732,-173.72405891007563,2.488437534638444,0.0,0.0,7.981979144690605,-28.545184218878216,-12.115149113698413,321
-110.83266384132834,64.40279575890928,46.7064273253988,44.65241691922634,101.9260215505163,3.683962615477678,-64.50496762330056,-37.72544981733921,-178.06940577449075,2.759589166882493,0.0,0.0,9.408722129644834,-32.54518421887822,-13.066404518171797,322
-111.4243308084701,61.63671048160217,50.57702772859178,45.11492799819399,90.9260215505163,10.32746492806618,-58.50496762330056,-31.968347611732742,-167.06940577449075,2.8782227430340264,0.0,0.0,10.057045629392253,-36.54518421887822,-14.142864233112762,323
-112.5704553652949,58.681874187047754,54.853743478700615,45.472647446377444,79.9260215505163,15.82076253157574,-52.50496762330056,-28.29882286208982,-156.06940577449075,3.0842981824677698,0.0,0.0,10.67625585027211,-40.54518421887822,-15.777040010540757,324
-113.4095678522465,55.76852349732996,56.64727594111837,45.905502889880644,68.9260215505163,19.05217487433841,-46.50496762330056,-28.298822862089633,-145.06940577449075,3.2934241768519708,0.0,0.0,11.789148928118273,-44.54518421887822,-17.073055830269734,325
-114.18495974165471,52.8503986520847,57.98527435690464,46.26493277426546,57.926021550516296,23.21870628653353,-40.50496762330056,-28.298822862089686,-134.06940577449075,3.4816747335263805,0.0,0.0,12.449677103821314,-48.54518421887822,-18.20895452985082,326
-114.29578006710996,49.716309987571165,58.77340946727343,46.912306777988626,46.926021550516296,26.969138250107473,-34.50496762330056,-28.29882286208962,-123.06940577449075,3.6592735987135185,0.0,0.0,13.180279485749313,-52.54518421887822,-19.771116944616786,327
-113.3739846409364,46.662061893009664,58.59246079616909,47.680685497742786,35.926021550516296,31.239447631011785,-28.50496762330056,-28.298822862089693,-112.06940577449075,3.7812662275006614,0.0,0.0,13.929937791828912,-56.54518421887822,-21.40805355928041,328
-112.58984921185615,44.03522317171941,57.976858320020845,48.2853642743225,24.926021550516296,34.101568637665444,-22.50496762330056,-28.298822862089615,-101.06940577449075,3.8332236380062286,0.0,0.0,13.741962451742074,-59.72518431985497,-22.541475804431734,329
-111.93493851693647,42.002903798361615,57.509989928112184,48.797315765489955,13.926021550516296,37.309342640722626,-16.50496762330056,-28.29882286208962,-90.06940577449075,3.951111466046423,0.0,0.0,13.649920122634294,-60.80112883938608,-22.99662577303587,330
-112.19929410799283,40.19732800582055,55.271228073517264,49.401058309382414,2.926021550516296,39.169208437288084,-10.504967623300558,-28.298822862089633,-79.06940577449075,4.041581699442187,0.0,0.0,13.18083358796866,-61.24884451180338,-23.05183753043728,331
-110.72569470308522,38.96294510150865,53.82819082892107,49.94810123738652,-8.073978449483704,41.08266839012402,-4.504967623300558,-28.2988228620896,-68.06940577449075,4.0789741581796095,0.0,0.0,12.54963773149818,-61.49793117838225,-23.312497080369354,332
-109.77743125729991,38.24254588344835,52.869333911993984,50.34780119063818,-19.073978449483704,42.255084612701665,1.4950323766994416,-28.29882286208982,-57.06940577449075,4.143876598311448,0.0,0.0,11.97174529737205,-61.45802032013275,-23.15229862904735,333
-109.48405542766743,38.11477678083222,52.48412628235394,50.61160812148594,-30.073978449483704,42.15583953236962,7.495032376699442,-28.298822862089807,-46.06940577449075,4.243352753038776,0.0,0.0,11.406614378646163,-61.055546615065985,-22.494765875692348,334
-109.20644674715547,38.596053521948505,51.89539431120011,50.89732697760048,-41.073978449483704,42.00866991651781,13.495032376699442,-28.29882286208968,-57.06940577449075,4.306780459825693,0.0,0.0,10.466986017788203,-60.1587249612544,-21.460755532602946,335
-109.89345140024268,39.36690308043475,52.02388052193772,50.92363895187017,-52.073978449483704,40.62874354248778,19.49503237669944,-28.29882286208956,-68.06940577449075,4.364397256301758,0.0,0.0,9.218135374351817,-58.83018874414144,-20.297987973030803,336
-110.927699819525,39.964746424755795,51.52213745258085,50.833970454541685,-63.073978449483704,38.54738988775927,25.49503237669944,-28.29882286208972,-79.06940577449075,4.349523143610523,0.0,0.0,8.253425607529444,-57.214473190985395,-19.12688176073709,337
-112.2002422122156,42.25392226324668,51.97524275012948,50.799253061525356,-74.0739784494837,35.10538295391536,31.49503237669944,-28.298822862089697,-90.06940577449075,4.370713569156777,0.0,0.0,6.787348211301547,-54.20950353621033,-17.106299754048763,338
-113.34550671312675,45.3188438804519,52.27011281118774,50.47840449252832,-84.38599846451258,30.120170856093946,37.49503237669944,-28.298822862089843,-101.06940577449075,4.363915199394284,0.0,0.0,5.486788487515668,-50.20950353621033,-15.501069789058445,339
-114.06795058821896,50.21615171596717,53.39578627667947,49.588461006500154,-81.17128474868942,25.030004300572404,43.49503237669944,-28.298822862089846,-112.06940577449075,4.340570188539184,0.0,0.0,3.8023377929609277,-46.20950353621033,-13.672092480964807,340
-114.32573983372642,53.99901486195933,51.75833292718803,48.79722254893974,-77.0664321497064,21.928690115966962,49.49503237669944,-28.2988228620897,-123.06940577449075,4.284985336044715,0.0,0.0,2.843588817997165,-42.20950353621033,-12.172264397462085,341
-113.88133204618741,58.14264159678147,49.28957019768284,48.24293095250306,-66.80092688932814,16.237871305687907,55.49503237669944,-33.59363422186098,-134.06940577449075,4.257694646375585,0.0,0.0,1.8417196213594762,-38.20950353621033,-10.675686203115049,342
-113.43949702919473,61.83852585785657,49.84218265081699,47.114159712413105,-59.042025530159925,9.630241367758707,61.49503237669944,-37.98796194536124,-145.06940577449075,4.221962201384977,0.0,0.0,1.4805807430178493,-34.20950353621033,-9.700300392833025,343
-113.88068910781146,65.87614473253007,47.86672217523491,44.95318705370711,-48.042025530159925,4.219017033930842,55.49503237669944,-42.82457193916304,-147.95943430013068,4.115554545300579,0.0,0.0,0.8810322830045779,-30.209503536210327,-8.867048657058941,344
-114.05419149480214,68.91579924713164,46.796613869361835,43.20302990132167,-37.042025530159925,11.3065323540102,49.49503237669944,-47.18983265273541,-146.03151329589227,3.927313460146795,0.0,0.0,1.181136415741031,-26.209503536210327,-8.236434176965963,345
-112.79377347315068,72.55031923564782,44.19318054653767,41.88296612984804,-26.042025530159925,22.3065323540102,43.49503237669944,-51.784880410628816,-142.2422640376417,3.632594529501497,0.0,0.0,0.5742656460995764,-22.209503536210327,-7.605094891045411,346
-111.9530743962112,75.93154498244334,42.84527677186373,40.21373997347526,-15.042025530159925,33.3065323540102,37.49503237669944,-54.26467462113786,-140.23028601863368,3.215465426553842,0.0,0.0,0.945297919126315,-18.209503536210327,-7.248880998696377,347
-111.63620049643889,78.57684823083008,39.250820609114506,38.55971590538694,-4.0420255301599255,44.3065323540102,31.49503237669944,-54.15601548940391,-136.82315548701897,2.762473832873472,0.0,0.0,1.1537808710384496,-14.209503536210327,-6.928177389844415,348
-110.18652387199583,80.5685098581952,33.3172666488163,38.71812384636931,6.9579744698400745,55.3065323540102,25.49503237669944,-53.33597251881869,-132.46706048988142,2.20518091172609,0.0,0.0,0.6701453669181083,-10.209503536210327,-6.595320560047097,349
-109.05570498211738,82.97355134985168,29.82359794895643,38.720576722208754,17.957974469840075,65.93273825104232,19.49503237669944,-52.05567317085252,-132.35436086602016,1.6822234526254833,0.0,0.0,0.8998386428835374,-6.209503536210327,-6.6302683264940825,350
-107.43644398233297,84.67856508478656,24.384404080210455,38.15537380565605,28.957974469840075,71.5603803052501,13.495032376699442,-49.54017647430315,-130.12328625850984,1.1637262857596624,0.0,0.0,1.637590745276776,-2.2095035362103257,-6.205885341120522,351
-106.32741364444234,85.69731180593199,18.970519600950063,38.26629837917174,39.957974469840075,76.0485585023089,7.495032376699442,-47.89272453909053,-125.51435785132892,0.8151092153786632,0.0,0.0,1.9009125015685426,1.7904964637896752,-6.027324261145497,352
-106.3085213802921,86.98082352927948,16.96665497557308,36.665756885438505,50.957974469840075,79.68173259632785,1.4950323766994416,-45.69978041308929,-127.89156495406321,0.6059040916174552,0.0,0.0,2.8498877780235587,3.3873817316625527,-5.844712508852376,353
-106.57358406120719,88.33476491921729,16.883844773811298,34.147851050912806,61.957974469840075,83.75924502264965,-4.504967623300558,-42.03270011753189,-126.26730725950736,0.41323748359326384,0.0,0.0,3.1191982535470077,4.32087558538026,-6.153039959521779,354
-106.28399295245612,89.26318254686949,18.69415197884925,33.627420962767765,72.95797446984008,85.16880715952861,-10.504967623300558,-40.563500151745,-115.26730725950736,0.39439304067155184,0.0,0.0,2.6575437209274093,5.063431331949627,-6.374027918260159,355
-105.15614014492964,88.29277705704537,16.279646474172925,35.53035643566501,83.95797446984008,85.66093049797723,-16.50496762330056,-41.06417541724751,-104.26730725950736,0.4425902377735965,0.0,0.0,2.427474972718845,6.115688388748206,-6.4609901820977,356
-103.19422875258269,88.11191340107557,11.530411756558916,36.78472502485849,94.95797446984008,86.24459887319811,-10.926466909287743,-41.54218932758091,-93.26730725950736,0.5806575325659603,0.0,0.0,0.798910138224355,4.047486733610622,-6.026894081679517,357
-102.56412937475667,89.34271527312306,10.551918818583335,35.72858976214272,102.91420472246324,88.57785758865464,-8.025526391471386,-39.8876476446895,-82.26730725950736,0.5093469962075646,0.0,0.0,0.48252192434440316,2.3562883983444083,-6.146783094348884,358
-101.2757941580212,88.71737671938492,7.955421399679874,37.35739605211799,101.92529937510116,88.89387188360527,-5.490481762053384,-41.08959352261509,-71.26730725950736,0.4336603339587429,0.0,0.0,0.47144381053638074,0.8649157008998065,-6.160260940697422,359
-102.08654490682176,87.3625819835324,11.577306400937035,38.878781942166924,103.75632989767173,88.04396414738925,-10.375427397180978,-42.89684726168599,-60.26730725950736,0.3110119828290632,0.0,0.0,1.130271235327356,0.2774629208833225,-5.777890153274267,360
-104.1762248183527,84.4956013033732,17.577306400937033,40.462488588555324,107.26402407084441,85.37254997751123,-16.375427397180978,-43.8484434862552,-71.26730725950736,0.2896746374541388,0.0,0.0,1.567002553699647,0.09137326031070765,-5.603976496044033,361
-105.57467219423853,78.67639085227368,23.577306400937033,43.67535064883994,110.3547184862841,79.80605624167109,-22.375427397180978,-47.221656839445885,-82.26730725950736,0.3691301112177862,0.0,0.0,2.6029131867744497,0.6724911705535034,-5.807250032400141,362
-105.93362612344507,73.08950611490326,29.577306400937033,45.57122230802755,111.83915429710078,75.33391825405779,-28.375427397180978,-49.131326115671314,-93.26730725950736,0.5186652549213884,0.0,0.0,3.543367164958972,1.58375692404759,-6.151044137229866,363
-106.96371891646687,68.22827716830669,35.57730640093703,46.457659804040624,113.90728418715018,71.82225931762005,-34.37542739718098,-49.41085413093892,-104.26730725950736,0.7679574688048962,0.0,0.0,4.303132350296405,2.4856608382149705,-6.413860357986603,364
-107.15540450745176,63.83998073733516,41.57730640093703,47.337902016127735,115.47605637086959,68.90184274030152,-40.37542739718098,-49.63714111044031,-115.26730725950736,1.0215194556121823,0.0,0.0,4.896742970871374,3.2666544591613373,-6.452010013338985,365
-108.63644704667884,60.62514936988304,47.57730640093703,47.46709838162969,117.79847251464724,67.30228344023224,-46.37542739718098,-49.001931908790965,-126.26730725950736,1.4256023296759952,0.0,0.0,5.519138906604211,4.002432806920899,-6.769806431025078,366
-111.15685712950493,57.99610613788571,53.57730640093703,46.64588711907986,120.13002191172764,67.09654733852179,-52.37542739718098,-47.48946085807079,-137.26730725950736,1.847848745582195,0.0,0.0,6.671728665824984,4.652383336677271,-7.402077892541395,367
-116.73771722419391,56.29293220387243,59.57730640093703,44.0209794399634,125.0454097915141,67.12027050585696,-58.37542739718098,-43.953329169867644,-148.26730725950736,2.292227997630935,0.0,0.0,8.336305688503396,5.449383855746526,-8.110811792559428,368
-122.06427715697896,55.44529625917009,65.57730640093703,40.61427381318506,130.3940098762449,67.46072812543593,-64.37542739718097,-37.540569093876535,-159.26730725950736,2.6016363252065733,0.0,0.0,9.9143334689784,6.445551755731404,-9.339987232943761,369
-128.81456006608175,57.45403977556795,71.57730640093703,33.81288021517007,135.57790218277972,68.20477245114829,-70.37542739718097,-28.29882286208968,-161.54698044447136,2.866470254418941,0.0,0.0,10.18367719723718,7.280446081686593,-10.98877822030984,370
-131.66714270310172,58.78157126767125,77.57730640093703,28.298822862089594,139.16760753633534,73.10703967071798,-76.37542739718097,-28.298822862089636,-164.77097132084737,2.8134097307365824,0.0,0.0,10.907098731960149,8.456236146678961,-12.659615351616717,371
-133.3061098830255,64.47627577545366,83.57730640093703,28.29882286208972,139.43748458202666,79.55662412694599,-82.37542739718097,-28.298822862089665,-167.11341051084912,2.6456227484102204,0.0,0.0,11.319435970913666,9.86061729811294,-13.487809285204932,372
-129.8534341520391,68.43296260162704,89.57730640093703,28.29882286208985,134.830468536147,86.07411565703516,-88.37542739718097,-28.298822862089715,-168.14598968560557,2.255293740949983,0.0,0.0,10.970107666365282,11.560860364776019,-13.4225947070823,373
-127.22850215810156,72.0664525745801,92.07891495856983,28.298822862089697,132.32957562518945,91.02600336683976,-94.37542739718097,-28.298822862089896,-169.46596146038826,1.8443110159044633,0.0,0.0,11.065124907416795,12.80985691740004,-13.386602958159807,374
-123.20244625645074,75.9168448376149,86.07891495856983,28.29882286208985,129.44966695073782,93.10841646940953,-90.55510882358375,-28.298822862089832,-162.6574777436189,1.165944015436322,0.0,0.0,10.950192164088907,12.880297753530773,-13.779596767352588,375
-118.03635622311353,79.2434260783493,80.07891495856983,28.298822862089825,126.19281303980421,93.23966634006827,-84.55510882358375,-28.29882286208982,-151.6574777436189,0.511206037268777,0.0,0.0,11.412456393817838,12.001478296177167,-13.647363251737312,376
-112.67299608983728,82.07552332330849,74.07891495856983,28.29882286208972,122.95398271892816,92.7920201214639,-78.55510882358375,-28.29882286208963,-140.6574777436189,0.8744976965948245,0.0,0.0,12.498651602223761,10.567207409667901,-14.409428329882136,377
-104.03976842584787,84.16616215587007,68.07891495856983,30.01104840893347,116.08756700675309,90.82459853700337,-72.55510882358375,-28.298822862089718,-129.6574777436189,1.9544007232322826,0.0,0.0,14.110745975511,9.091242312463068,-15.636529416775755,378
-93.03976842584787,86.68567256608407,62.078914958569825,31.771007171374695,105.10790851337735,87.49393746026682,-66.55510882358375,-31.58238403287186,-118.6574777436189,2.9507599692775948,0.0,0.0,15.671490425083995,8.716634886746764,-17.552628252469365,379
-82.03976842584787,90.33891405932032,56.078914958569825,28.298822862089594,94.10790851337735,83.48147475594526,-60.55510882358375,-39.86049357036988,-107.6574777436189,3.514608591706385,0.0,0.0,17.78601515356638,8.883289692882295,-19.61683623416884,380
-71.03976842584787,95.44301277858222,50.078914958569825,28.298822862089697,83.10790851337735,79.01288093376425,-54.55510882358375,-42.74932411103358,-96.6574777436189,3.354237178327066,0.0,0.0,18.968639406403426,8.96326333233942,-19.073605539762866,381
-60.03976842584787,99.75198700304134,44.078914958569825,28.29882286208985,72.10790851337735,73.1881066474674,-48.55510882358375,-43.207690077566774,-85.6574777436189,2.8926581120970973,0.0,0.0,19.39927614361377,9.008151567191895,-16.768605286821295,382
-49.03976842584787,100.24650624021572,38.078914958569825,28.29882286208972,61.10790851337735,68.0614160113995,-42.55510882358375,-41.55778957573641,-74.6574777436189,2.5271434721494965,0.0,0.0,20.28698053253281,8.579328406692454,-14.989027454953183,383
-38.03976842584787,101.23453499817732,32.078914958569825,28.298822862089647,50.10790851337735,66.38079505183251,-36.55510882358375,-36.40550427904639,-63.6574777436189,2.092613327579854,0.0,0.0,20.87470272905721,7.826723978755047,-12.970027955077274,384
-27.039768425847868,101.25394623440856,26.078914958569825,28.298822862089924,39.10790851337735,65.95138112018631,-30.55510882358375,-29.60496817343978,-52.6574777436189,1.6802844526996459,0.0,0.0,21.752447477177462,6.983549294158687,-11.374786657417953,385
-16.039768425847868,96.79261475319409,20.078914958569825,28.29882286208957,28.107908513377353,60.5320200337251,-24.55510882358375,-28.2988228620897,-41.6574777436189,1.0612296592126635,0.0,0.0,21.945968000018492,6.432602736122566,-9.48522229960922,386
-5.039768425847868,95.79644737482859,14.078914958569825,28.298822862089697,17.107908513377353,60.84601575631952,-18.55510882358375,-28.298822862089693,-30.657477743618898,0.6649671426979838,0.0,0.0,21.954228201762653,6.071875662037521,-7.96577971869636,387
