JMW9912/AVATAR/Dynamixel/dynamixel_control/data/csv/poppy/.data/waist_test/3DoF (3O+Pos)/roll_wrong/0429_2114_13_29_3DoF_pos_bvh_motor_degree.csv
theta1,theta2,theta3,theta4,theta5,theta6,theta7,theta8,theta9,theta10,theta11,theta12,theta13,theta14,theta15,frame
-94.43494790221065,24.917594212411387,94.45756007044649,28.298822862089825,-113.04071324074401,3.9747615163935133,-66.61159636734803,-28.29882286208982,9.061519176957306,4.529334041110131,0.0,0.0,0.16486564300239123,1.380775650506828,1.249808812688048,0
-97.18494790221065,27.667594212411387,92.95756007044649,28.298822862089594,-110.29071324074401,6.724761516393514,-65.11159636734803,-28.29882286208983,6.311519176957306,5.19149795823965,0.0,0.0,0.16486564300239234,1.380775650506828,1.2498088126880487,1
-94.43494790221065,30.417594212411387,91.45756007044649,28.29882286208972,-107.54071324074401,9.474761516393514,-63.61159636734803,-28.29882286208983,3.5615191769573062,7.94149795823965,0.0,0.0,-0.8351343569976079,0.3807756505068278,0.24980881268804844,2
-91.68494790221065,33.16759421241139,89.95756007044649,28.29882286208985,-104.79071324074401,12.224761516393514,-62.11159636734803,-28.298822862089622,0.8115191769573062,9.743604290666065,0.0,0.0,-1.835134356997608,0.4128864117127269,-0.7501911873119518,3
-88.93494790221065,35.91759421241139,88.45756007044649,28.298822862089697,-102.04071324074401,14.974761516393514,-60.61159636734803,-28.298822862089835,-1.9384808230426938,9.701643349212247,0.0,0.0,-2.8351343569976084,0.46681000796194955,-1.750191187311952,4
-86.18494790221065,38.66759421241139,86.95756007044649,28.298822862089697,-99.29071324074401,17.724761516393514,-59.11159636734803,-28.29882286208983,-4.688480823042694,9.795459397560643,0.0,0.0,-3.8351343569976084,0.4699613746371235,-2.7501911873119522,5
-85.38891297560971,41.41759421241139,85.45756007044649,28.29882286208962,-96.54071324074401,20.474761516393514,-57.61159636734803,-28.29882286208962,-7.438480823042694,9.922600492262864,0.0,0.0,-4.835134356997608,0.4479951013751254,-3.7501911873119527,6
-85.00354742800809,44.16759421241139,83.95756007044649,28.29882286208972,-93.79071324074401,23.224761516393514,-56.11159636734803,-28.469717240746622,-10.188480823042694,9.994165413804001,0.0,0.0,-5.496011497709725,0.4747156634207958,-4.750191187311953,7
-84.2288681673901,46.91759421241139,82.45756007044649,28.298822862089953,-91.04071324074401,25.974761516393514,-54.61159636734803,-30.587231840729235,-12.46918757175682,10.06419742823028,0.0,0.0,-5.492580320882547,0.510771853951759,-5.750191187311953,8
-83.8612114072638,49.66759421241139,80.95756007044649,28.29882286208962,-88.29071324074401,28.724761516393514,-53.11159636734803,-32.66782708422009,-12.470813694971474,10.11896595445582,0.0,0.0,-5.467966318122344,0.5259927207688638,-6.750191187311953,9
-83.56025553193507,52.41759421241139,79.45756007044649,28.29882286208972,-85.54071324074401,31.474761516393514,-51.61159636734803,-34.63016731587675,-12.583089295342447,10.088627337603004,0.0,0.0,-5.438365266341088,0.5229009433986972,-7.750191187311953,10
-82.8619868384435,55.16759421241139,77.95756007044649,28.29882286208972,-82.79071324074401,34.224761516393514,-50.11159636734803,-36.27254082410026,-12.94389766327707,10.103037017574938,0.0,0.0,-5.385398969191911,0.49784823923504756,-8.750191187311954,11
-82.61042678875144,56.72602804714652,76.45756007044649,28.298822862089697,-80.04071324074401,36.974761516393514,-48.61159636734803,-37.590393642282514,-13.353562734721894,10.222575434482094,0.0,0.0,-5.236871509970058,0.48121501721263105,-9.750191187311954,12
-82.35574976352062,55.104611627228806,74.95756007044649,28.298822862089697,-77.29071324074401,39.724761516393514,-47.11159636734803,-39.11975406439117,-13.305169242796566,10.245271184427544,0.0,0.0,-5.083934650094524,0.49923446871590693,-10.750191187311954,13
-82.1293100308635,53.51476555774391,73.45756007044649,28.29882286208985,-74.54071324074401,42.474761516393514,-45.61159636734803,-40.73568519633576,-13.38535543966503,10.099442281555591,0.0,0.0,-4.965321775675601,0.5047138341003296,-10.775571603079001,14
-81.43186955840612,52.27880829084399,71.95756007044649,28.298822862089594,-71.79071324074401,43.88914574993128,-44.11159636734803,-42.277709823831145,-13.620928906933155,9.933794408707366,0.0,0.0,-4.823200057993655,0.49949635031001915,-10.503410509514778,15
-81.23489252953628,50.715527745574605,70.45756007044649,28.29882286208962,-69.04071324074401,43.27398678526179,-42.61159636734803,-43.68102026161358,-13.8521014774757,9.850194407769223,0.0,0.0,-4.653575559084473,0.4952361815011127,-10.261851841426882,16
-81.04208801895767,49.186224484857675,68.95756007044649,28.298822862089594,-66.29071324074401,41.97338021207838,-41.11159636734803,-44.889819701196195,-14.092557942912531,9.784791555406565,0.0,0.0,-4.49044303727222,0.5004749600405947,-10.040988084984017,17
-80.27223271290818,48.03950581138909,67.45756007044649,28.298822862089875,-63.54071324074401,41.427812296029124,-39.61159636734803,-46.28935353597485,-14.56366972370671,9.587611532452138,0.0,0.0,-4.345258216935549,0.522066979096108,-9.736185623553055,18
-80.01296473403221,46.53935357931314,65.95756007044649,28.298822862089697,-60.79071324074401,40.34884078163241,-38.11159636734803,-47.71119520639471,-14.88392301889123,9.414923504007565,0.0,0.0,-4.183073599556079,0.5106142877587553,-9.435690818355594,19
-79.68072206756624,45.04735740659189,64.45756007044649,28.298822862089825,-58.04071324074401,39.23247083607994,-37.71872828979221,-49.030164851942715,-15.022575887737096,9.32425644720506,0.0,0.0,-4.062239287264986,0.4880962140203623,-9.233339516238141,20
-78.80011107202928,43.94427907821173,62.95756007044649,28.29882286208962,-55.29071324074401,38.79682435614263,-38.88269404664537,-50.36876476313468,-15.367566637842282,9.14319997316062,0.0,0.0,-3.9330975154227095,0.5038305911472936,-9.012616771330297,21
-78.74333926933572,42.859855579828526,61.45756007044649,29.196044309465805,-52.54071324074401,37.69198062369139,-38.541265697117744,-51.718972172109666,-15.951319075096533,8.957341180419709,0.0,0.0,-3.837073374128013,0.5063047038249557,-8.781819494650385,22
-79.07568630116052,42.171106702023174,59.95756007044649,31.139747488186607,-49.79071324074401,37.295131006256995,-39.61270514483554,-52.998531060988576,-16.497442302596756,8.763653077504552,0.0,0.0,-3.7656279060644247,0.5054969095238296,-8.527412725514624,23
-79.2191112703784,41.3561519360726,58.45756007044649,32.653655554060464,-47.04071324074401,36.13941548820694,-39.269774768317085,-54.43412549292984,-16.627424346511333,8.59121551666721,0.0,0.0,-3.696546689414901,0.5498708289922515,-8.286673172221503,24
-78.48537014451844,40.80076325513988,56.95756007044649,34.16446872747984,-44.29071324074401,35.7873230117671,-40.17754183290303,-55.71333715586829,-17.053707349205805,8.502599890397354,0.0,0.0,-3.607040844188967,0.5336715905889718,-8.117872294536866,25
-78.60818222643289,39.906684762489064,55.45756007044649,35.82387203236856,-41.54071324074401,34.67951649876372,-39.7661679653428,-56.903789806864886,-17.319085964706876,8.399509210985203,0.0,0.0,-3.489581168811955,0.5293708764811605,-7.950010847410566,26
-78.72751148432022,39.00454970137375,54.06878689685381,37.19759795374285,-38.79071324074401,33.521495155172225,-39.49746973402221,-58.31350388605518,-17.195692018651904,8.218975056476719,0.0,0.0,-3.3521355325807916,0.6214185503028492,-7.775333851059413,27
-78.87414663594976,37.9848681067823,54.00362123996577,38.50653620215416,-36.04071324074401,32.36527106599193,-39.13875663574393,-59.626265553921584,-17.61942955198906,8.008294940677425,0.0,0.0,-3.230882380205902,0.672447690440233,-7.557336721727362,28
-77.92018023593874,37.269204580214435,55.27968764025129,39.70977598758434,-33.29071324074401,32.098701714568165,-39.96406814253404,-60.909794145331375,-18.522027300190285,7.778290882100003,0.0,0.0,-3.1798529102773845,0.6916727805692272,-7.2992409423110445,29
-77.74535138734785,36.07757578850357,54.758592591278536,41.0227031980097,-30.54071324074401,31.065174220541167,-39.918988156667446,-62.21547705840759,-19.88032340388695,7.544376331085351,0.0,0.0,-3.1823407170863676,0.6787976077999386,-7.004077958577763,30
-77.7248837668587,34.89312947576349,54.45960582480069,42.283353340214056,-27.79071324074401,29.825949519815445,-39.54024091051385,-63.531933558370575,-20.96569020048667,7.2893751860130624,0.0,0.0,-3.0754137869472404,0.7616736694900338,-6.746093484685501,31
-76.69637960089027,34.08189154347463,55.66180348014725,43.38014945744183,-25.04071324074401,29.2408783815529,-39.2671915409339,-64.63130442916392,-21.64236302531435,7.075610023177452,0.0,0.0,-2.887665196249864,0.8964946818828324,-6.489794350987763,32
-76.5350304336186,32.67809689331346,55.15926002148442,44.40947459143828,-22.29071324074401,27.797396494874015,-38.16187485526739,-65.6409780843781,-22.591014198024652,6.889924112519764,0.0,0.0,-2.757654572776077,0.9686689252665904,-6.176596848333792,33
-76.39538133335422,31.210152698714083,54.68509783903596,45.473009244992056,-19.54071324074401,26.37002215259991,-37.134823161656385,-66.7491137328871,-23.488520102820427,6.68372725425486,0.0,0.0,-2.6186275776675965,1.046020907354287,-5.88111646616247,34
-75.2789943883675,29.925064535537064,54.38567266888654,46.508305735183534,-16.79071324074401,24.895282739420594,-36.261310496880974,-67.92992979865004,-24.52638076850505,6.492962600831751,0.0,0.0,-2.574669035564929,1.1154599479513996,-5.598183020718031,35
-74.48792086137392,28.38980754100713,53.57749103237499,47.617052031958636,-14.040713240744012,23.364951736093843,-34.761310496880974,-68.89636891243087,-26.065957668937646,6.3600932067991796,0.0,0.0,-2.5430178260284753,1.1428229821116929,-5.307776395098347,36
-71.90541517999338,27.37537893469765,53.40607564524601,48.65330931593097,-11.290713240744012,22.824617500411495,-33.473597062712706,-69.79519539710925,-27.20201731237184,6.24470046394095,0.0,0.0,-2.5015398242747677,1.1834037662684431,-5.01215023277531,37
-70.55168233641642,25.7863815568153,52.068151030085666,49.70539932633118,-8.540713240744012,21.299855035742347,-31.973597062712706,-70.69236826789474,-28.72235705181391,6.124812814309064,0.0,0.0,-2.451505942348879,1.213455400092544,-4.726075079680743,38
-69.32486459177849,24.20078358422172,50.92736971598885,50.86568517727649,-5.790713240744012,19.805948560525763,-30.473597062712706,-71.47784653081256,-30.44497591329235,5.976909961191692,0.0,0.0,-2.333747678965511,1.2693318632658193,-4.465777094957711,39
-68.07385372492972,22.668040328433317,49.811483220616495,52.1203526342549,-3.0407132407440116,19.555741006910083,-28.973597062712706,-72.22352824517658,-31.095918434537346,5.874888455549683,0.0,0.0,-2.1839775191300967,1.3541909720068817,-4.2369269802183815,40
-65.32385372492972,21.818622614122873,48.55793829536335,53.36598424072635,-0.2907132407440116,18.308333787040347,-27.473597062712706,-73.12718959280728,-31.622142840252714,5.806171541579858,0.0,0.0,-2.0814664208500604,1.4302366930122472,-4.014720633814525,41
-62.57385372492972,20.3853327199619,47.05793829536335,54.599022890700205,2.4592867592559884,17.148962313946008,-25.973597062712706,-74.08044553050888,-33.42435969305968,5.706484978921976,0.0,0.0,-2.0431008546927525,1.4653732098549415,-3.788963662273961,42
-59.82385372492972,18.964973793580754,45.55793829536335,55.86573134867324,5.209286759255988,17.421821258696557,-24.473597062712706,-74.9413774374023,-35.31498198278093,5.619895754373143,0.0,0.0,-2.003383152478194,1.5004853785414938,-3.5842491659655664,43
-57.07385372492972,17.69680711887805,44.05793829536335,57.227121579393035,7.959286759255988,16.512810597143144,-22.973597062712706,-75.91643227753099,-35.56006241352098,5.649359069019884,0.0,0.0,-2.022158590071129,1.5467201572647782,-3.456336799165637,44
-54.32385372492972,16.565568311448178,42.55793829536335,58.60715522649551,10.709286759255988,15.784444816178702,-21.473597062712706,-76.89282108914443,-35.50967686643462,5.68183412489807,0.0,0.0,-2.0268847884324868,1.6058961103357907,-3.303358589407168,45
-51.57385372492972,16.432440614246502,41.05793829536335,60.098327456418254,13.459286759255988,16.69479921330316,-19.973597062712706,-77.86087080676307,-35.50508260337109,5.674344117300108,0.0,0.0,-2.0219888925851164,1.6434573585226246,-3.155455151854958,46
-48.82385372492972,15.253169671079151,39.55793829536335,61.62696256105944,16.20928675925599,16.431678383522062,-18.473597062712706,-78.84203761962918,-34.92319105696306,5.7466650507738075,0.0,0.0,-2.052329976372815,1.6957632115363872,-3.0892147611357,47
-46.07385372492972,15.319169254114323,38.05793829536335,63.09858636900192,14.242325082309891,16.31590723494852,-16.973597062712706,-79.92352832201688,-34.69695384835532,5.742216319188644,0.0,0.0,-2.0880580083601314,1.7865523512245012,-3.0130894382575164,48
-43.32385372492972,14.475885713143176,36.55793829536335,64.58928472711278,11.492325082309891,17.850975668395854,-15.473597062712706,-80.97654686603273,-34.715273091241606,5.654737426515368,0.0,0.0,-2.089356694734809,1.8900160401017405,-2.9041471179772276,49
-40.57385372492972,13.837718944482313,35.05793829536335,66.14897307649788,8.742325082309891,18.233489826629537,-13.973597062712706,-82.04356782049904,-34.6889718783683,5.6867745087253905,0.0,0.0,-2.145217388517968,1.9343997468357486,-2.7895213505006833,50
-37.82385372492972,14.577018511575298,33.55793829536335,67.76561079038419,5.9923250823098915,18.76317195940971,-12.473597062712706,-83.17855411270224,-33.66206580024317,5.769878391951227,0.0,0.0,-2.1977965580674494,1.984239437640683,-2.677217403198256,51
-35.07385372492972,14.300974304282947,32.05793829536335,69.40157196949195,3.2423250823098915,19.83480622429461,-10.973597062712706,-84.2475396234781,-32.70028146157509,5.795975259321497,0.0,0.0,-2.2355586435583366,2.079092773431024,-2.551678048478007,52
-32.32385372492972,15.425965983386844,30.55793829536335,71.15204795794784,0.49232508230989147,21.12470954698727,-9.473597062712706,-85.10684992498624,-32.54913845203668,5.706773639183316,0.0,0.0,-2.2704118415328813,2.2179390771320207,-2.4074270311152004,53
-29.57385372492972,15.609548420828077,29.05793829536335,72.7590799307233,-2.2576749176901085,22.374129362338635,-7.973597062712706,-86.06660743715366,-32.992758099909516,5.698695644058819,0.0,0.0,-2.3699249148432067,2.268114821477591,-2.306218139668686,54
-26.82385372492972,17.217698494295337,27.55793829536335,74.21809029730017,-5.0076749176901085,23.70608707365475,-6.473597062712706,-87.07352942384381,-33.1999187163915,5.77822751450203,0.0,0.0,-2.4464685843980485,2.276536115587429,-2.230846044978169,55
-24.07385372492972,17.694036588693056,26.05793829536335,75.62283266569747,-7.7576749176901085,25.187435413957203,-4.973597062712706,-88.06467697054275,-32.77129311578598,5.867029689858442,0.0,0.0,-2.4863446919360723,2.2996903644040554,-2.150695384213229,56
-21.32385372492972,18.298585232945005,24.55793829536335,77.11704112835544,-10.507674917690109,26.77139793039913,-3.473597062712706,-89.01529183902989,-32.09949541308454,5.8898665949474545,0.0,0.0,-2.547413027406015,2.369444653968041,-2.0979659785143565,57
-18.57385372492972,20.225564610271658,23.05793829536335,78.69273861357348,-13.257674917690109,28.426398280376755,-1.973597062712706,-89.92404442383734,-32.281903882579954,5.921522276606633,0.0,0.0,-2.638969134195844,2.3809118137807217,-2.087617037254519,58
-15.82385372492972,21.19805938070738,21.55793829536335,80.23138335308182,-16.00767491769011,29.417860936629502,-0.47359706271270596,-90.96339391603051,-33.27376067631572,5.9958741487778795,0.0,0.0,-2.7638830635847618,2.3265821063162018,-2.1052089396766425,59
-13.07385372492972,22.138649002005444,20.05793829536335,81.81697794814708,-18.75767491769011,30.601426493001032,1.026402937287294,-92.10593513176362,-33.585014424443116,6.135545257879798,0.0,0.0,-2.826574848457116,2.281988507229094,-2.222430398155502,60
-10.32385372492972,24.034767986634566,18.55793829536335,83.48698556914718,-21.50767491769011,31.79440958910787,2.526402937287294,-93.22055759752173,-32.42187820834085,6.251612723754001,0.0,0.0,-2.8539716330129727,2.3209026050700583,-2.4034157819961037,61
-7.5738537249297195,24.98997124501595,17.05793829536335,85.14950029094359,-24.25767491769011,32.82684032328722,4.026402937287294,-94.43427865327513,-30.554977529039313,6.386136360908377,0.0,0.0,-3.00955319188926,2.3970829885682554,-2.583189913287288,62
-4.8238537249297195,25.899848613994173,15.55793829536335,86.89519774835155,-27.00767491769011,33.816835512396835,5.526402937287294,-95.61206245946214,-29.908011393700477,6.5273728219838665,0.0,0.0,-3.1406692687346682,2.4436929682134965,-2.7745392728482896,63
-2.0738537249297195,26.83962614258565,14.05793829536335,88.6278626512939,-29.75767491769011,34.6832990492273,7.026402937287294,-96.7564493343243,-30.17457306020464,6.636740677013612,0.0,0.0,-3.2767386348257532,2.4246050810495325,-2.964576436331387,64
0.6761462750702805,27.8452723160125,12.55793829536335,90.18092059664579,-32.50767491769011,35.397533775815,8.526402937287294,-97.94115676179312,-30.15607695542541,6.674855127558109,0.0,0.0,-3.4251664950757386,2.3774477699302032,-3.1240211400647295,65
3.4261462750702805,29.745446874576327,11.05793829536335,91.6425478949302,-35.25767491769011,36.00477523442273,10.026402937287294,-99.20545539993552,-29.946035135945294,6.707662007159156,0.0,0.0,-3.541673267963136,2.3635159364675578,-3.242362855391785,66
6.1761462750702805,30.470191899527045,9.55793829536335,93.06463112685975,-37.99363040289463,36.66732260410105,11.526402937287294,-100.29134560923328,-29.55344447533611,6.69090650109518,0.0,0.0,-3.5996188721846987,2.457680341476983,-3.278051947639545,67
8.92614627507028,30.468075170591636,8.05793829536335,94.30955178224373,-38.177935014700644,37.257827185271104,13.026402937287294,-101.24621965583752,-29.593611502931793,6.486534345358304,0.0,0.0,-3.643975938067856,2.598295102309658,-3.216605357017547,68
11.67614627507028,31.1630178058231,6.55793829536335,95.37097062999203,-38.2548799873378,37.796244904993955,14.526402937287294,-101.95480808530469,-30.43846997903668,6.107972985859892,0.0,0.0,-3.69754629498404,2.7796595888904676,-3.04981103205172,69
14.42614627507028,31.819293335663257,5.05793829536335,96.2183345585317,-38.09108394503018,38.12039365460408,16.026402937287294,-102.54282009990789,-32.004264938259674,5.783593229994871,0.0,0.0,-3.7855184572812197,2.916426453505902,-2.809209407070834,70
17.17614627507028,32.363785607764854,3.55793829536335,96.85155243720773,-37.80876439099708,38.26608325324456,17.526402937287294,-103.00679339840976,-33.55363253715387,5.507295097465584,0.0,0.0,-3.9167778278997307,3.082762501987637,-2.5026792817749293,71
19.92614627507028,32.71921598083516,2.05793829536335,97.31415378172798,-37.61598133054987,38.283909621918944,19.026402937287294,-103.22539882355804,-33.81994096378939,5.210277408152499,0.0,0.0,-4.120463113461227,3.3003566978696557,-2.209583668129184,72
22.67614627507028,32.96578774197174,0.5579382953633498,97.45824968853063,-39.38077165062517,37.17192033603445,20.526402937287294,-103.33220498081738,-35.101336722643644,4.805179488939548,0.0,0.0,-4.283792419154348,3.4931658577003413,-1.8807077998219037,73
25.42614627507028,32.036406237808194,-0.9420617046366502,97.45488195777291,-38.71212674785272,36.9005157604867,22.026402937287294,-103.36721879159076,-37.54432624674953,4.291289815876493,0.0,0.0,-4.412539228766237,3.716181640477951,-1.5159324525610691,74
28.17614627507028,31.75990518520472,-2.44206170463665,97.34808278128165,-37.89510843223298,36.463765817847424,23.526402937287294,-103.1889773902217,-40.24968787295936,3.8355045680827633,0.0,0.0,-4.529583275062966,3.956157672311046,-1.108097383407759,75
30.92614627507028,31.4023408173808,-3.94206170463665,96.92640220327597,-37.10031568385954,35.77712454433218,25.026402937287294,-102.95745623548592,-42.99968787295936,3.4625655373943083,0.0,0.0,-4.701187582181727,4.19837993351469,-0.6822258536142691,76
33.67614627507028,30.775900851164888,-5.44206170463665,96.3809177044048,-36.26263569573249,35.01470418544902,26.526402937287294,-102.54894264887646,-45.74968787295936,3.1087139206149215,0.0,0.0,-4.838717356336253,4.463815875100434,-0.2775519571361089,77
32.32918005079882,29.9316107832136,-6.94206170463665,95.78258220618963,-35.14190838749137,34.061721114873876,28.026402937287294,-101.96218466089987,-48.49968787295936,2.774628973023822,0.0,0.0,-4.943067926861673,4.66422584363936,0.09153380743651972,78
30.2690059273798,28.979183593035334,-8.44206170463665,94.93773658525734,-36.53028940963714,31.92149307793781,29.526402937287294,-101.3877826525022,-51.24968787295936,2.4954479887319696,0.0,0.0,-5.085215084506989,4.82772965887112,0.4171764091469865,79
28.049990958722436,27.834113668482036,-9.94206170463665,93.92173316343639,-35.428583863916316,30.58945573752899,31.026402937287294,-100.75557381784296,-53.99968787295936,2.3479244082635726,0.0,0.0,-5.165137542031246,5.040347243825739,0.6666129560312618,80
25.49709884253408,26.4455942939811,-11.44206170463665,92.74344644816482,-34.29226765492281,29.3226679692678,32.526402937287294,-99.87267185204573,-55.01410747971443,2.1996543519198477,0.0,0.0,-5.144038980143052,5.300978096301586,0.894893264447351,81
24.564456926372657,24.26589774524402,-12.94206170463665,91.3813539983163,-32.65369521010707,27.910965260664796,34.026402937287294,-98.9091622846136,-57.76410747971443,2.0741866607225883,0.0,0.0,-5.0461758752911265,5.469393444222597,1.1623938485670207,82
21.814456926372657,23.283456443927587,-14.44206170463665,89.86761170893806,-30.579524946777422,26.153800665729804,35.526402937287294,-98.07989043800987,-60.51410747971443,2.040633582161563,0.0,0.0,-4.9689767525472615,5.50469520177382,1.396504252678207,83
19.064456926372657,21.237507492852856,-15.94206170463665,88.1798623221324,-28.26268061933652,24.286465193504498,37.026402937287294,-97.24434181165748,-63.26410747971443,2.0070847571395642,0.0,0.0,-4.874425766961673,5.537595558134339,1.592629272522875,84
16.314456926372657,20.30628027100879,-17.44206170463665,86.37012287820835,-25.717615295105183,22.47565855112128,38.526402937287294,-96.20402180925622,-66.01410747971443,1.9587770654764547,0.0,0.0,-4.757919410897581,5.605495969941198,1.7872974687439593,85
13.564456926372657,19.527881691784735,-18.94206170463665,84.44271166363653,-22.967615295105183,20.54305439347411,40.026402937287294,-95.16611735827087,-68.76410747971443,1.9302844659568437,0.0,0.0,-4.698274665180995,5.659030344983467,1.9409220086314674,86
10.814456926372657,17.446580079512938,-20.44206170463665,82.55351195685766,-20.58406094730039,18.364709951695517,41.526402937287294,-94.00914115835991,-71.51410747971443,1.9082411809025965,0.0,0.0,-4.552764635263817,5.692648698842138,2.057675846513865,87
8.064456926372657,16.706628785863714,-21.94206170463665,80.6077601890559,-17.83406094730039,16.67532456840852,43.026402937287294,-92.69567519285907,-70.88846471703825,1.9318565229627975,0.0,0.0,-4.3810211559522765,5.721857753043561,2.1797495826008255,88
5.314456926372657,16.232797720237404,-20.44206170463665,78.41403221445479,-15.08406094730039,15.316512393797108,41.526402937287294,-91.35377323271803,-69.56870158843338,1.9438855205269832,0.0,0.0,-4.256161072256877,5.718928046107405,2.2886666019234214,89
2.5644569263726567,14.651065896350477,-18.94206170463665,76.24764318098185,-12.33406094730039,15.010943058479354,40.026402937287294,-89.84437682659369,-68.01850742170926,1.9585640829387407,0.0,0.0,-4.178500469272768,5.696005041995529,2.359825230914022,90
-0.18554307362734335,14.585205471179032,-17.44206170463665,74.2169219986451,-9.58406094730039,13.564949719533372,38.526402937287294,-88.31763302813937,-65.26850742170926,2.096429057309828,0.0,0.0,-4.1648187629061395,5.6573019775862345,2.3446172617709893,91
-2.9355430736273433,14.774865439033862,-15.94206170463665,72.27591313984834,-6.83406094730039,12.435569504757183,37.026402937287294,-86.80400491122658,-62.51850742170926,2.2068216687461395,0.0,0.0,-4.146242909473633,5.659887361851416,2.272812769379724,92
-5.685543073627343,13.96179779341312,-14.44206170463665,70.40753828517809,-4.08406094730039,11.874508357235106,35.526402937287294,-85.23129289992877,-59.76850742170926,2.277511507181851,0.0,0.0,-4.079341247769591,5.626907358776315,2.1962169430105214,93
-8.435543073627343,14.696304609536469,-12.94206170463665,68.7344105720963,-1.3340609473003902,11.815443023074822,34.026402937287294,-83.56904631054456,-57.01850742170926,2.38896176675809,0.0,0.0,-4.019202179994913,5.598109962020656,2.1501034982080025,94
-11.185543073627343,15.78408180213819,-11.44206170463665,67.12877790504432,1.4159390526996098,12.18690946745711,32.526402937287294,-81.88959339879911,-54.26850742170926,2.629762138835883,0.0,0.0,-4.066559118820032,5.567157226946777,2.0644893853371244,95
-13.935543073627343,16.181016252018413,-9.94206170463665,65.567513110665,4.16593905269961,13.018034265537098,31.026402937287294,-80.22838463296776,-51.51850742170926,2.9815791433622576,0.0,0.0,-4.1689221179971865,5.525613794517705,1.8462534951856437,96
-16.685543073627343,17.761532392144943,-8.44206170463665,64.142186773428,6.91593905269961,14.305287852052142,29.526402937287294,-78.50673129771363,-48.76850742170926,3.3172744088803103,0.0,0.0,-4.2140188453160805,5.4632668314021124,1.587825793157812,97
-19.435543073627343,19.560945456577233,-6.94206170463665,62.97700450143196,9.66593905269961,15.953200331026592,28.026402937287294,-76.70631172687109,-46.01850742170926,3.634911433574239,0.0,0.0,-4.1612803900059205,5.402803639836749,1.2991791308119136,98
-22.185543073627343,20.970109742340888,-5.44206170463665,61.91466663883969,12.41593905269961,17.787754271566076,26.526402937287294,-74.9523107317609,-43.26850742170926,3.926402901625989,0.0,0.0,-4.150143841456138,5.367257833456113,1.0036202267901446,99
-24.935543073627343,23.01018640442712,-3.94206170463665,60.87588411955643,15.16593905269961,19.76395813058606,25.026402937287294,-73.19279947797699,-40.51850742170926,4.293503070687264,0.0,0.0,-4.141083683596558,5.3493035795709565,0.6806664470550884,100
-27.685543073627343,25.22199772727687,-2.44206170463665,59.89495220126843,17.91593905269961,21.828091698485327,23.526402937287294,-71.33176393421678,-37.76850742170926,4.754619382449568,0.0,0.0,-4.038035159612735,5.325784162106468,0.2538639610221716,101
-30.435543073627343,27.464385753181805,-0.9420617046366502,58.87992581507101,20.66593905269961,23.935183329384397,22.026402937287294,-69.35681559672592,-35.01850742170926,5.1809945203635746,0.0,0.0,-3.954292240106663,5.23058187522949,-0.19958686166607156,102
-33.18554307362734,29.663920729920314,0.5579382953633498,57.784562706290835,23.41593905269961,26.082800305602714,20.526402937287294,-67.29057591301864,-32.26850742170926,5.646013272989772,0.0,0.0,-3.9247985862323125,5.085448401550147,-0.595913116156963,103
-35.93554307362734,31.443822880866534,2.05793829536335,56.7767231571667,26.16593905269961,28.832800305602714,19.026402937287294,-65.16113651446469,-29.51850742170926,6.241577840356306,0.0,0.0,-3.885046346237748,4.904579234667052,-1.0197425208032875,104
-38.68554307362734,33.656325537126776,3.55793829536335,55.77317649370191,28.91593905269961,31.35330563626411,17.526402937287294,-63.099172630734195,-26.76850742170926,6.810089426211609,0.0,0.0,-3.892279326784967,4.669877257450151,-1.4864254002854453,105
-41.43554307362734,35.933548015352414,5.05793829536335,54.67269387318263,31.66593905269961,32.992677844224104,16.026402937287294,-60.96323156052339,-24.01850742170926,7.2614402092551815,0.0,0.0,-3.8745410377115994,4.479594638117305,-1.9078189053162746,106
-44.18554307362734,38.23140257485212,6.55793829536335,53.53707944309649,34.41593905269961,35.273627225427624,14.526402937287294,-58.84384835587837,-21.921659872173873,7.645521794439057,0.0,0.0,-3.881191814940574,4.321114847506123,-2.3344301926116975,107
-46.93554307362734,40.03400468591126,8.05793829536335,52.264584304777074,37.16593905269961,37.65659762682835,13.026402937287294,-56.745214236632556,-21.085472153904313,8.011322399275356,0.0,0.0,-3.9471667833400006,4.14140926742602,-2.750836386401418,108
-49.68554307362734,42.16070489141538,9.55793829536335,50.932267505885946,39.91593905269961,40.06020082043085,11.526402937287294,-54.66281453338614,-20.45384653488797,8.390469041953562,0.0,0.0,-4.037099789679129,3.9187711681591813,-3.1739630169889046,109
-52.43554307362734,44.26170535303887,11.05793829536335,49.652154647383696,42.66593905269961,41.97987158579864,10.026402937287294,-52.70494480729418,-19.67466922133685,8.71183410861367,0.0,0.0,-4.076172153399784,3.6775686375876697,-3.6100271167766658,110
-55.18554307362734,46.36540615711603,12.55793829536335,48.47452627069853,45.41593905269961,44.406525113124374,8.526402937287294,-50.73043222882215,-19.359989865790595,8.939830106649284,0.0,0.0,-4.167937501472399,3.432548410478534,-3.9565522034525817,111
-57.93554307362734,48.485360643211685,14.05793829536335,47.09718081987732,48.16593905269961,46.61992815092477,7.026402937287294,-48.78680281784045,-18.73081720765404,9.102580242188443,0.0,0.0,-4.25318262188354,3.2832407908568415,-4.298324707668575,112
-60.68554307362734,50.15147663692004,15.55793829536335,45.540199335376606,50.91593905269961,48.33766318196627,5.526402937287294,-46.995840566858,-17.61092174323184,9.352327139365514,0.0,0.0,-4.3613431336652155,3.143939893943452,-4.709116894594411,113
-63.43554307362734,52.15344750446239,17.05793829536335,44.06290065240105,53.66593905269961,50.652570240458495,4.026402937287294,-45.38759733060597,-16.56423658299287,9.65949260022704,0.0,0.0,-4.483895851387756,2.9577778440240836,-5.093403334680569,114
-66.18554307362734,54.11784214295801,18.55793829536335,42.584724172009025,56.41593905269961,53.06661366308756,2.526402937287294,-43.97559276208091,-15.732788996810793,9.85784667555333,0.0,0.0,-4.623136595561867,2.7566529142049863,-5.443929115868061,115
-68.93554307362734,56.08870049391964,20.05793829536335,41.18290326847076,59.16593905269961,55.013527697400825,1.026402937287294,-42.53303073478315,-15.16233469265091,9.942673186471241,0.0,0.0,-4.720463229376977,2.5769481775280263,-5.75064589094028,116
-71.68554307362734,58.14420186095239,21.55793829536335,39.79075127082172,61.91593905269961,57.289275940711875,-0.47359706271270596,-41.15412571941667,-14.299646115548077,10.066837186178752,0.0,0.0,-4.7591512727344085,2.4754647941593024,-6.061624658947304,117
-74.43554307362734,59.85285548055942,23.05793829536335,38.34584806913437,64.66593905269961,59.040741995032356,-1.973597062712706,-39.786126110051214,-13.291329379462846,10.279002242917555,0.0,0.0,-4.7971149166305675,2.4063357599076554,-6.4085132109749035,118
-77.18554307362734,61.92193873912958,24.55793829536335,36.96352540082781,67.41593905269961,61.16774310112858,-3.473597062712706,-38.296067690376084,-12.520296356431466,10.541715998409135,0.0,0.0,-4.892989325787821,2.318789194136787,-6.816561154928544,119
-79.93554307362734,64.02388257840904,26.05793829536335,35.44416603919651,70.16593905269961,62.79583409166407,-4.973597062712706,-36.86316534233568,-11.772925622515025,10.82213897527345,0.0,0.0,-4.950440264117889,2.2871842414885837,-7.291087454906073,120
-82.68554307362734,66.08681816334428,27.55793829536335,33.70298711387973,72.91593905269961,64.8499402169795,-6.473597062712706,-35.59961674202852,-11.018159105155956,11.051173090537727,0.0,0.0,-5.044061895913495,2.296057778901243,-7.719022878588236,121
-85.43554307362734,68.09450731893199,29.05793829536335,31.861987813605936,75.66593905269961,66.93231071154008,-7.973597062712706,-34.462759744214836,-10.346033778809428,11.289840916844161,0.0,0.0,-5.21610226613123,2.301535471430286,-8.1371646209338,122
-87.4539110887946,70.05082000050872,30.55793829536335,29.744449070205647,78.41593905269961,68.55797424651523,-9.473597062712706,-33.43996593502273,-9.568112126953933,11.645033024800888,0.0,0.0,-5.320795138139448,2.3448931152461427,-8.635393028783371,123
-87.13212184801333,72.02207850038013,32.05793829536335,28.29882286208972,81.16593905269961,70.53002119847224,-10.973597062712706,-32.49732904876015,-9.15297009995499,11.959783065082954,0.0,0.0,-5.37831983963002,2.4189456559080607,-9.169881002431683,124
-86.79982955486686,74.77207850038013,33.55793829536335,28.298822862089594,83.91593905269961,72.38967518286121,-12.473597062712706,-31.386879822915983,-8.862022920309084,12.172314327819233,0.0,0.0,-5.460868636864795,2.493619892216891,-9.65084704156876,125
-86.45766393348813,77.52207850038013,35.05793829536335,28.29882286208972,86.66593905269961,74.09175008356112,-13.973597062712706,-30.257177264390346,-8.012908324245547,12.410949706893216,0.0,0.0,-5.614523550182462,2.626865957336041,-10.094913647377819,126
-86.52590755800037,79.99679763728824,36.55793829536335,28.298822862089825,89.41593905269961,75.29146329399192,-15.473597062712706,-29.098824299131405,-7.085046367811578,12.687568663662557,0.0,0.0,-5.781398135844423,2.7843512141257127,-10.50342526802692,127
-86.18750801630412,82.58218837644625,38.05793829536335,28.29882286208985,91.26601639202133,76.903632976373,-16.973597062712706,-28.298822862089825,-6.307254183158166,12.951331699543617,0.0,0.0,-5.93593510589591,2.942424989252566,-10.891802099507558,128
-86.28744519178994,84.66345592629187,39.55793829536335,28.298822862089697,91.08398690370583,78.6594466001871,-18.473597062712706,-28.29882286208961,-5.762069259089879,13.242405238886434,0.0,0.0,-6.08059536652711,3.0605929063932393,-11.289931670616147,129
-86.04747596558919,86.95878532928133,41.05793829536335,28.29882286208985,90.88808424854804,80.24933347342254,-19.973597062712706,-28.2988228620896,-5.5171416576449,13.45034506098802,0.0,0.0,-6.196273237593638,3.1784522599418406,-11.599674501546685,130
-86.39460529073976,88.72929105555232,42.55793829536335,28.29882286208985,90.73411389315355,81.66388310230849,-21.473597062712706,-28.298822862089803,-5.13315759435374,13.478704342222052,0.0,0.0,-6.274414486743651,3.322825355162844,-11.770708210407161,131
-86.85897996617946,90.18451801643093,41.05793829536335,28.298822862089697,90.64379746832043,82.97477532173006,-22.973597062712706,-28.298822862089956,-5.739918224731155,13.593306458370893,0.0,0.0,-6.323281018325085,3.4002211408422265,-11.88073720985281,132
-87.14344576840465,91.22754576002465,39.55793829536335,28.298822862089594,90.14494201547697,84.5838604555822,-24.473597062712706,-28.29882286208974,-5.554670477024786,13.566227775488912,0.0,0.0,-6.348303797578507,3.366577277186112,-11.977071940446393,133
-86.91358065018592,92.38677865939191,38.05793829536335,28.298822862089825,89.98384400290385,85.68829768393351,-25.973597062712706,-28.298822862089587,-5.951502079695308,13.707542300102904,0.0,0.0,-6.3200267853139,3.3398994413541523,-12.078326673156425,134
-86.5409051097114,93.31133532064791,37.50232910889604,28.29882286208985,89.23889505091887,85.82686282877629,-27.473597062712706,-28.29882286208992,-6.451351227008074,13.950691817452329,0.0,0.0,-6.253290903079617,3.3737840950863407,-12.20840092589687,135
-85.90273944242257,94.40258411633671,39.00232910889604,28.298822862089697,88.79860951889354,86.32982970722563,-28.973597062712706,-28.298822862089867,-6.455123785468851,14.005690307369058,0.0,0.0,-6.139050953316202,3.3689577855856756,-12.251473611825697,136
-85.76204741197127,94.78109496172755,39.89251487687603,28.298822862089825,88.43510997401049,86.71810762887881,-30.473597062712706,-28.298822862089654,-6.655226827251989,14.009886711823228,0.0,0.0,-6.013981560896615,3.2895156314603313,-12.102688252674765,137
-85.54378157916007,94.80997063156252,39.93063700215256,28.29882286208972,88.08403449308443,86.93823373867096,-31.973597062712706,-28.298822862089594,-6.447295809056546,13.941343864439258,0.0,0.0,-5.903311188276687,3.1537703742245258,-11.91892857279923,138
-85.27775594408612,94.56824920918079,40.034878955099074,28.298822862089697,87.67593339773673,86.94869089468436,-33.473597062712706,-28.298822862089697,-6.688922554709808,13.985126718048141,0.0,0.0,-5.763564625847322,3.0079109507639963,-11.776731842264734,139
-85.0893648840728,94.13605985517255,40.17015827908987,28.29882286208985,86.92770152449488,87.0028091024082,-34.973597062712706,-28.29882286208962,-6.516201589043427,13.922321976993592,0.0,0.0,-5.61714251154673,2.894720636025797,-11.574025984555616,140
-84.93761592382877,93.43334460225783,40.362775205016966,28.298822862089875,86.41945481904942,86.54118433197478,-36.473597062712706,-28.298822862089693,-6.354724504690533,13.871237308446105,0.0,0.0,-5.430404790522324,2.7691322005723134,-11.304729128454442,141
-84.39302866303191,92.82857941325904,41.862775205016966,28.298822862089697,86.06351921506675,85.89862096080182,-37.973597062712706,-28.298822862089708,-6.635389443138446,13.791282549988347,0.0,0.0,-5.288354622890648,2.57311312926124,-10.984633981391811,142
-84.24376702722027,91.60225757485098,42.99769230245226,28.298822862089697,85.7494323569993,85.06346592889878,-39.473597062712706,-28.298822862089708,-7.206203686899543,13.636279388557867,0.0,0.0,-5.1733145741221875,2.362640756637763,-10.623562227516723,143
-84.20488375500624,90.23261851143155,43.12015920809393,28.298822862089697,85.35999390285549,83.93238387629161,-40.973597062712706,-28.29882286208985,-7.276834085925463,13.394587657784129,0.0,0.0,-5.066868580359587,2.225066626270868,-10.218133061484002,144
-84.04920262356441,88.7145009869131,43.10118520237548,28.298822862089825,84.91628255836608,82.61393227738192,-42.473597062712706,-28.298822862089846,-6.979357452833382,13.19759624450466,0.0,0.0,-5.0879152476937595,2.0873899555057145,-9.855243018221943,145
-83.36945936042365,87.37405475510747,44.60118520237548,28.29882286208985,84.56981473779649,81.19375981372718,-43.973597062712706,-28.298822862089853,-7.091417767162101,13.063910035465645,0.0,0.0,-5.152540199653116,1.893231997909361,-9.567449790626386,146
-83.11000790903553,85.54072449002584,45.29451751249301,28.298822862089647,84.33446091796286,79.63034151357631,-44.33571548916624,-28.40263191714983,-7.327001402973455,12.899443583360748,0.0,0.0,-5.158078199728333,1.738352715679818,-9.254258675114052,147
-82.91933387167373,83.61301850098805,45.20616167276334,28.29882286208972,84.44029630187849,78.23753159827841,-44.28802854061215,-29.58058768063232,-7.453680297159979,12.592027900558238,0.0,0.0,-5.174559299857977,1.6193655743008855,-8.869837125435287,148
-82.28251445763127,81.98406958679173,46.70616167276334,28.298822862089697,84.6311351105848,76.74583127537642,-44.37188462796486,-30.896318561746234,-7.475458996216948,12.216070494664047,0.0,0.0,-5.325797508251875,1.5178314391056804,-8.503333414164908,149
-82.0142575087626,79.92531815341881,46.96144722258273,28.29882286208985,84.90009264174029,75.22781554984104,-44.47962689982109,-32.47144897855371,-7.894315605236103,11.939097693771606,0.0,0.0,-5.487363945969083,1.411975183103794,-8.185702337537649,150
-81.2814598715213,78.08835994722592,48.46144722258273,28.298822862089697,85.02693987357021,73.50163418096567,-44.52895154880667,-33.5985111635027,-8.540153896528187,11.768446452638292,0.0,0.0,-5.631527389715012,1.2492384904787452,-7.889513101167441,151
-80.8620614131192,75.90196318991947,48.44402227415518,28.298822862089647,85.23130055376626,71.59810868202837,-44.6466918838996,-34.78611089841446,-8.788123688438182,11.545882781133182,0.0,0.0,-5.855695257766996,1.1728209193211343,-7.597034978595593,152
-80.46131921848587,73.68542956312562,47.95383749583998,28.298822862089697,85.55795864598042,69.59965290241173,-44.780170320795364,-36.18145573705823,-8.945575312313307,11.199466521730445,0.0,0.0,-6.083606607167215,1.1626534188111515,-7.29899981467267,153
-79.67112712112272,71.72817008443411,49.45383749583998,28.298822862089697,85.37905926702436,68.02957179857964,-46.280170320795364,-37.54574143707995,-9.343495440141474,10.86867092871359,0.0,0.0,-6.2789064467959586,1.1244275044785845,-6.993884342951089,154
-79.24258384196523,69.3151569329932,49.22087910505116,28.298822862089697,85.56107299419884,65.89820308604715,-46.94012531990447,-38.69435141632951,-9.776812255757733,10.710739182759065,0.0,0.0,-6.406216743337104,1.0509634071048692,-6.744407282630789,155
-78.72958783896412,66.83889055439639,48.7033220829034,28.298822862089594,85.7912723585769,63.69583971329101,-46.89404122300007,-39.94040002334836,-10.091710414886032,10.543162776581829,0.0,0.0,-6.52497924985131,1.0146666051726916,-6.533378790955223,156
-77.8476378829112,64.64075104363246,50.2033220829034,28.298822862089953,86.03705422651926,61.392015703228125,-46.774902180424725,-41.25559562496623,-10.276471049882993,10.31350185989705,0.0,0.0,-6.596267127383369,1.0083111778026899,-6.302781511324599,157
-77.3984254526037,62.01569484588969,49.79310983997646,28.298822862089594,85.68538452595675,59.49686460253215,-48.274902180424725,-42.359387037636935,-10.494332809547284,10.020980797927198,0.0,0.0,-6.704532024377177,0.9762130420382974,-6.009805182985293,158
-76.95338482653501,59.370098647827454,49.209700906857336,28.29882286208972,86.08647613414195,57.06680732482533,-48.48235075086881,-43.73253920673716,-10.445643867506732,9.66832096602123,0.0,0.0,-6.76161685804386,1.0105411060309046,-5.714861213258115,159
-76.54344296264345,56.620098647827454,48.740408398742126,28.298822862089697,86.31123315879329,54.58011281261732,-48.130555188299105,-45.03739829937061,-10.909194877417333,9.26843920939143,0.0,0.0,-6.689750128835533,1.0191512938671607,-5.4582299329230946,160
-76.82664323408868,54.29728461601133,48.71396632293366,30.061129343575374,85.52892990742318,52.49300513978924,-49.30854009940772,-46.135837431057745,-11.481597599171595,8.863319958522368,0.0,0.0,-6.524535385067521,1.0351762499079067,-5.191544520395893,161
-76.7472201027792,52.59400545402778,50.21396632293366,32.534711292628806,85.51802216552653,49.76458773394831,-48.66730433448087,-47.22802298656707,-11.521248094625873,8.611191909252444,0.0,0.0,-6.380458716759514,1.0616182919287087,-4.951997173044184,162
-76.96187483696,50.412881281762296,50.74978560186017,34.79990816698219,84.67417340435125,47.573211373193935,-49.81329398396412,-48.335328404412465,-11.447880918654839,8.516639854143605,0.0,0.0,-6.3067653494978355,1.0703405600842477,-4.797087576350386,163
-77.08181586313673,48.08471889950086,50.6400922971971,36.75029000472076,84.74053587335484,44.823211373193935,-49.28522229033272,-49.497425752484936,-11.498040881845968,8.378652700936621,0.0,0.0,-6.242031561912816,1.0903588706655076,-4.646542203793043,164
-76.49369651841451,46.04913293624746,52.1400922971971,38.49873432551955,83.49328830209816,42.46705833459333,-49.89983999351474,-50.434075716184125,-12.069842489981648,8.123211183771893,0.0,0.0,-6.143667655215497,1.0659203803794897,-4.4399998159585525,165
-76.53809508604773,43.41311315356258,52.19047996469902,40.25883216132799,82.91440305732841,39.71705833459333,-48.72945460253824,-51.07890650280751,-13.039175626281672,7.955003082582288,0.0,0.0,-6.073471019863394,0.9317327163977512,-4.274036252028469,166
-76.49518838257231,40.74364967381176,52.04082945222166,42.095161223510274,81.34167571972742,37.35400818110062,-49.09883891026905,-51.813834307971824,-13.655971835708135,7.8897963561018996,0.0,0.0,-6.007817875030591,0.7745606198289321,-4.1976364911230295,167
-76.34169815039675,38.061617969653184,51.85869562225205,43.64126629775717,80.53832779680819,34.85438993353994,-48.975928318138834,-52.82547660244457,-13.701366171452884,7.7731649297977246,0.0,0.0,-5.941993456958387,0.7032792750081321,-4.1537279608059325,168
-74.91420847640089,35.833675613973256,52.908716055316034,45.079040918841706,79.51881539115038,32.26200147525881,-48.670047051557006,-53.66617889291185,-14.031160929425454,7.6492461093766835,0.0,0.0,-5.901421496484584,0.62640757852117,-4.116768132361888,169
-74.42524383146146,33.083675613973256,52.450935073461146,46.363826726222136,78.2167039978695,29.614228351925846,-48.09717073102015,-54.50072949888641,-14.337054560962855,7.514114114763826,0.0,0.0,-5.848794452653356,0.5760882635519862,-4.102843455434209,170
-73.1966660887207,30.654984606098513,52.6987193237465,47.65349447185486,76.70537537159349,27.018530704261916,-47.25736123206741,-55.31729797095675,-14.54330236105849,7.341641045692461,0.0,0.0,-5.762298017794078,0.5302984940387014,-4.044296414363792,171
-72.15237018594684,28.098671185904813,52.221493640451286,48.88361809837852,75.0384270374696,24.43389042419393,-46.2969771879981,-56.21060866716867,-14.392353986086336,7.213772483651214,0.0,0.0,-5.712023527533276,0.4958416584506684,-4.008827948308111,172
-70.69621555184825,25.5065987943103,51.398957604303135,49.990316152204755,73.06739846921779,21.848645594722964,-45.12238710310483,-57.10728291315062,-14.282113531877199,7.189792781457861,0.0,0.0,-5.718138589738216,0.45091772867118163,-4.044136126749629,173
-69.01359680795318,22.826276761554126,50.348529799795344,51.00757910540394,70.31739846921779,20.08179566875869,-43.62238710310483,-57.980377347458266,-14.281480253113607,7.1222244494719975,0.0,0.0,-5.697046516891012,0.39836139085755884,-4.0562368902848585,174
-66.88974774033129,20.16743737572575,48.848529799795344,52.046977707781146,67.56739846921779,17.728212937685758,-42.12238710310483,-58.88554600744283,-14.729757225253783,6.983583814133597,0.0,0.0,-5.685995658732219,0.34091005280682773,-3.9981471438862872,175
-64.13974774033129,17.70224632324493,47.348529799795344,52.978945124381255,64.81739846921779,15.373342727732737,-40.62238710310483,-59.9042489842309,-14.394363206768976,6.872217794419349,0.0,0.0,-5.726710873144406,0.36730681755019334,-3.9536821454401703,176
-61.38974774033129,15.409612193133084,45.848529799795344,53.90714541031114,62.06739846921779,14.055147602710951,-39.12238710310483,-60.96924440218231,-13.284409850940655,6.8267565397952215,0.0,0.0,-5.7359276701101995,0.4188922939900376,-3.9802100253109605,177
-58.63974774033129,13.797114164582121,44.348529799795344,54.756273287594176,59.31739846921779,11.996591687580452,-37.62238710310483,-62.15323521150174,-11.411770143231298,6.894044936913819,0.0,0.0,-5.7857121675646574,0.4953675892979631,-4.023616965822501,178
-55.88974774033129,11.562386743918793,42.848529799795344,55.585198470356886,56.56739846921779,11.306549794084356,-36.12238710310483,-63.38819726489603,-10.216894940765387,6.96246187014588,0.0,0.0,-5.87617216259029,0.536581354097447,-4.048378943803969,179
-53.13974774033129,10.500795512681592,41.348529799795344,56.37942324282669,53.81739846921779,10.059510578973093,-34.62238710310483,-64.57206122603033,-10.095493123384095,6.950438975119595,0.0,0.0,-5.945075995999359,0.5564249056104391,-4.076223090475521,180
-50.38974774033129,9.059580292454324,39.848529799795344,57.1443005526177,51.06739846921779,9.552290134957971,-33.12238710310483,-65.74716030129963,-10.91206223810675,6.904006205542091,0.0,0.0,-6.059468186140333,0.5207971006026005,-4.095316718895688,181
-47.63974774033129,8.433516985976782,38.348529799795344,57.82914097854281,48.31739846921779,9.827189961604276,-31.622387103104828,-66.93614684835453,-11.126037178666614,6.83809553231807,0.0,0.0,-6.217436607530759,0.5000694703936942,-4.065300314989243,182
-44.88974774033129,9.576387401697305,36.848529799795344,58.49719174909827,45.56739846921779,10.726538058588993,-30.122387103104828,-68.15454037928166,-11.22057467034581,6.726434987045284,0.0,0.0,-6.345935587649466,0.4942519834976043,-4.055501313487196,183
-42.13974774033129,10.27133675084818,35.348529799795344,59.277112983547305,42.81739846921779,12.094189019994403,-28.622387103104828,-69.43579276382096,-11.766654944083163,6.661840908959976,0.0,0.0,-6.406650506571919,0.4426541111180682,-4.0402670583004365,184
-39.38974774033129,12.321951274231044,33.848529799795344,60.09705412785309,40.06739846921779,14.635358570588199,-27.122387103104828,-70.8399212344972,-12.588523082355062,6.61643191247117,0.0,0.0,-6.47616807243795,0.35003683213142806,-4.014081392543525,185
-36.63974774033129,13.91899179587629,32.348529799795344,60.990356112718814,37.31739846921779,16.239765277325535,-25.622387103104828,-72.40624348209967,-13.710313640956578,6.523378393557612,0.0,0.0,-6.544946721793909,0.22440364930440324,-4.004237629301754,186
-33.88974774033129,16.22239756479421,30.848529799795344,62.00441752544351,34.56739846921779,17.10320453002944,-24.122387103104828,-73.9704186529935,-14.454072800307541,6.412951133345516,0.0,0.0,-6.549056187773908,0.12704892521611658,-3.9828173264971634,187
-31.139747740331288,17.972585115692763,29.348529799795344,63.095480439901635,31.817398469217792,18.9892055987155,-22.622387103104828,-75.51964453300853,-15.554877811678086,6.502225469442464,0.0,0.0,-6.547709823673636,0.029083216003272783,-3.9960783536531266,188
-28.389747740331288,19.746227224206656,27.848529799795344,64.30358188507518,29.067398469217792,20.860754269554125,-21.122387103104828,-77.07541932399445,-16.285159020535872,6.40608382477194,0.0,0.0,-6.605516357928881,-0.047538301213929574,-4.084021287926225,189
-25.639747740331288,22.010801198404295,26.348529799795344,65.60365508203661,26.317398469217792,22.758688740012495,-19.622387103104828,-78.65479442927953,-16.75650441738627,6.452835636254692,0.0,0.0,-6.654831511416648,-0.14621275363259684,-4.230907266092343,190
-22.889747740331288,23.714417858859672,24.848529799795344,67.02466401649583,23.567398469217792,23.769051181817563,-18.122387103104828,-80.26663704058869,-17.247785889262087,6.535161974837568,0.0,0.0,-6.697958196859344,-0.2522225142739925,-4.439293749758476,191
-20.139747740331288,25.759129923315314,23.348529799795344,68.57039777756083,20.817398469217792,25.694401680688983,-16.622387103104828,-81.81968947986284,-18.014050893958995,6.576397680417819,0.0,0.0,-6.795190877644713,-0.31260024800330033,-4.701236398046104,192
-17.389747740331288,27.257520458563587,21.848529799795344,70.20752673293612,18.067398469217792,27.501913390717583,-15.122387103104828,-83.47412047443744,-19.076567893991147,6.672789503522596,0.0,0.0,-6.8574505064901,-0.4335393516479498,-4.967248062046388,193
-14.639747740331288,28.627518555555145,20.348529799795344,71.96287348391982,15.317398469217792,28.375371472754704,-13.622387103104828,-85.2713322823417,-18.980520590008222,6.926759974275586,0.0,0.0,-6.853573865258755,-0.5487580389349676,-5.305093374721388,194
-11.889747740331288,30.294854949503634,18.848529799795344,73.78532738072683,12.567398469217792,30.24009855407724,-12.122387103104828,-87.12035080355038,-18.237346420726546,7.170532916715682,0.0,0.0,-6.820774809461859,-0.5887020304430824,-5.723731889790151,195
-9.139747740331288,31.22215574040812,17.348529799795344,75.77463435402788,9.817398469217792,31.156088411090455,-10.622387103104828,-88.93705360411735,-17.731831353712085,7.294668475786797,0.0,0.0,-6.776974796880769,-0.5924523837531098,-6.129248955758644,196
-6.389747740331288,32.05544250444704,15.848529799795344,77.8338022819693,7.0673984692177925,31.94300209328367,-9.122387103104828,-90.77510521364857,-18.178888453738917,7.365690722518598,0.0,0.0,-6.691810348561543,-0.6746386402754679,-6.427829334130293,197
-3.6397477403312877,32.93891269129475,14.348529799795344,79.67230876923153,4.3173984692177925,33.19390003363279,-7.622387103104828,-92.53245220747552,-19.33652956448241,7.346913755815725,0.0,0.0,-6.602133062992506,-0.8219278672951498,-6.54884322991599,198
-0.8897477403312877,33.792742232701585,12.848529799795344,81.29673194635285,1.5673984692177925,33.82546604114233,-6.122387103104828,-94.18054323101785,-20.321244830826725,7.2020646126918795,0.0,0.0,-6.51500270129256,-0.9574307258419226,-6.536244411154525,199
1.8602522596687123,34.971264204332776,11.348529799795344,82.80956792804366,-1.1826015307822075,34.39070251623257,-4.622387103104828,-95.60399464382903,-21.60198834679924,6.979454084283022,0.0,0.0,-6.474160423582428,-1.0376106107834302,-6.444589820117036,200
4.610252259668712,35.51129615314837,9.848529799795344,84.12455129116373,-3.9326015307822075,33.87069499045201,-3.1223871031048276,-96.74152651558538,-23.88386361354271,6.693543239157031,0.0,0.0,-6.504773303043288,-1.1279415295130502,-6.2619291553833705,201
7.360252259668712,36.15386568823745,8.348529799795344,85.02041970820079,-6.6826015307822075,33.980327001524316,-1.6223871031048276,-97.78841145704878,-26.62337243785528,6.38698891653157,0.0,0.0,-6.62511539710644,-1.267216353625717,-6.011613212473607,202
10.110252259668712,36.54960001845533,6.848529799795344,85.70389771552865,-9.432601530782208,34.17033154523445,-0.12238710310482759,-98.43225904353578,-27.770673943652195,6.103884935193395,0.0,0.0,-6.789374084888066,-1.311047555657597,-5.717753292870168,203
12.860252259668712,36.95190582272293,5.348529799795344,86.01144002048926,-12.182601530782208,33.233297679552635,1.3776128968951724,-98.85549991142447,-28.296634975873708,5.869141803546,0.0,0.0,-7.093765350475085,-1.422531515306201,-5.389017933589007,204
15.610252259668712,37.57426776582048,3.848529799795344,85.70036833347704,-14.932601530782208,32.67165003478294,2.8776128968951724,-99.3449724622977,-30.968710616514134,5.69401615133413,0.0,0.0,-7.507672039970152,-1.6242839080195484,-5.03773417344796,205
18.360252259668712,37.831219363941955,2.348529799795344,85.13212077076382,-17.682601530782208,31.35093225942126,4.377612896895172,-99.63530682399113,-33.678857262664025,5.41053860881049,0.0,0.0,-7.805377563741853,-1.6366559245639054,-4.674048640360569,206
21.110252259668712,37.56450312755944,0.8485297997953438,84.5840084026745,-20.432601530782208,31.05125654331574,5.877612896895172,-99.5128481900672,-34.23316802160697,5.073843862243967,0.0,0.0,-7.938861383531851,-1.4635253163926667,-4.3459269027990395,207
23.860252259668712,37.2946079686123,-0.6514702002046562,83.75135460543709,-23.182601530782208,30.569858566233826,7.377612896895172,-99.13452174080331,-35.4417725981907,4.773011412529296,0.0,0.0,-8.05512338212277,-1.3119982871113118,-3.9816309509364065,208
26.610252259668712,36.20393483770621,-2.151470200204656,82.74552289752927,-25.932601530782208,29.16735978282548,8.877612896895172,-98.61589213850563,-37.87617777526311,4.47251576492925,0.0,0.0,-8.190685019381672,-1.1729515554550902,-3.598944525651132,209
29.360252259668712,35.50515663011316,-3.651470200204656,81.71904943818765,-28.682601530782208,28.255436777421625,10.377612896895172,-97.91872615531521,-40.31891762186623,4.064034640495902,0.0,0.0,-8.325455852770531,-1.023392619060062,-3.277833945736479,210
32.11025225966871,34.638532759586184,-5.151470200204656,80.66790347336482,-31.432601530782208,27.150047287436827,11.877612896895172,-97.20587405323484,-42.218015828101365,3.931206909423552,0.0,0.0,-8.413269652049799,-0.881204760938788,-3.0050992872790907,211
34.86025225966871,32.843529571334656,-6.651470200204656,79.65397632288048,-34.18260153078221,25.950752126111677,13.377612896895172,-96.42294913460776,-44.968015828101365,3.837252063307302,0.0,0.0,-8.399312048125413,-0.7494597090151425,-2.728244133659244,212
37.61025225966871,31.752706435016528,-8.151470200204656,78.45587727318551,-36.93260153078221,24.481175983534545,14.877612896895172,-95.59746261307441,-47.718015828101365,3.778004010252927,0.0,0.0,-8.426986976908607,-0.6712937860223048,-2.42798543997634,213
40.36025225966871,29.87671342460857,-9.651470200204656,77.23589920256794,-39.68260153078221,22.270565573428726,16.377612896895172,-94.66595826077472,-50.468015828101365,3.7114348125968566,0.0,0.0,-8.389369036963785,-0.5928134965680102,-2.094353148104164,214
43.11025225966871,28.513197300906388,-11.151470200204656,75.98437156261457,-39.17843322481829,21.224041035202507,17.877612896895172,-93.69461744145633,-53.218015828101365,3.696748729716991,0.0,0.0,-8.263813596947285,-0.5088615395085916,-1.7709176320867928,215
45.86025225966871,26.360331153199358,-12.651470200204656,74.74163568964214,-36.42843322481829,19.511698094651557,19.377612896895172,-92.6396428229603,-55.968015828101365,3.691358776966559,0.0,0.0,-8.10856839470334,-0.4352467446350666,-1.4908580030515912,216
47.64333870654162,24.137437151013167,-14.151470200204656,73.47519260468583,-33.67843322481829,17.808737123717425,20.877612896895172,-91.41157211604072,-58.718015828101365,3.669094359272893,0.0,0.0,-7.9809119529209624,-0.34997925419145376,-1.2262661465628744,217
44.89333870654162,22.619440874332163,-15.651470200204656,72.08281263184026,-30.928433224818292,15.976017008928885,22.377612896895172,-90.12956416454415,-61.468015828101365,3.739517709837003,0.0,0.0,-7.875394685376956,-0.3296717474576919,-0.9340271619059217,218
42.860677317860684,20.460542015206116,-17.151470200204656,70.54503420372689,-28.178433224818292,14.91341610598024,23.877612896895172,-88.73467951567136,-64.21801582810136,3.8463987014577437,0.0,0.0,-7.705773730086486,-0.3382126507055811,-0.6743564474270133,219
40.110677317860684,18.819628480048955,-18.651470200204656,69.02297030352072,-25.428433224818292,13.825214457933807,25.377612896895172,-87.1709652701424,-66.96801582810136,3.8547539427186517,0.0,0.0,-7.46410853068459,-0.2706753774813649,-0.49471187758669466,220
37.360677317860684,16.513747021330367,-20.151470200204656,67.55315857653748,-22.678433224818292,13.80744852624915,26.877612896895172,-85.5126551301341,-69.71801582810136,3.896463364321186,0.0,0.0,-7.240912266341561,-0.2148552202619341,-0.42534886960384755,221
34.610677317860684,15.039077925007819,-21.651470200204656,66.08730587341391,-19.928433224818292,12.994833707198554,25.377612896895172,-83.8202424806244,-72.46801582810136,4.021510756108858,0.0,0.0,-7.05911394762042,-0.21961326316407695,-0.3603432063963237,222
31.860677317860684,12.946330700326842,-23.151470200204656,64.54046112294301,-17.178433224818292,12.521510125369936,23.877612896895172,-82.0731519558663,-75.21801582810136,4.101544109700229,0.0,0.0,-6.905814095702728,-0.24572357922492843,-0.2987799401078859,223
29.110677317860684,11.874218626525161,-24.651470200204656,62.89981472615884,-14.428433224818292,13.784948964760762,22.377612896895172,-80.26626977859021,-75.63786899253326,4.115091288561296,0.0,0.0,-6.812752691313388,-0.20175087552491155,-0.2516263515029072,224
26.360677317860684,11.136847531442925,-26.151470200204656,61.17881767347476,-11.678433224818292,14.063903095943115,20.877612896895172,-78.40254904302577,-73.55082912821915,4.223920216084922,0.0,0.0,-6.707281144108366,-0.19249384364511749,-0.2572507477065266,225
23.610677317860684,9.674752577922666,-24.651470200204656,59.501853800785035,-8.928433224818292,16.039082114204767,19.377612896895172,-76.37992791683341,-71.72980779230491,4.312300433097654,0.0,0.0,-6.560182852835592,-0.1405785761475312,-0.31848552392657403,226
20.860677317860684,9.719419281234398,-23.151470200204656,57.777420010584834,-6.178433224818292,16.799029599372147,17.877612896895172,-74.38565583356247,-69.0849135688478,4.336358924927932,0.0,0.0,-6.472631541050118,-0.0636518353483421,-0.380151675716365,227
18.110677317860684,9.153513285310463,-21.651470200204656,56.024962648543195,-3.428433224818292,17.84437562969271,16.377612896895172,-72.32385657452514,-66.3349135688478,4.477241143987433,0.0,0.0,-6.344381334807496,-0.025596766238905173,-0.4391124620044857,228
15.360677317860684,10.081384650106003,-20.151470200204656,54.18878958173369,-0.678433224818292,18.99778259600088,14.877612896895172,-70.18834532561907,-63.584913568847796,4.58331905338878,0.0,0.0,-6.126880539230814,0.10628015007535435,-0.5203775094946773,229
12.610677317860684,10.601693987580992,-18.651470200204656,52.684696607351924,2.071566775181708,20.01149124356537,13.377612896895172,-67.98417978658323,-60.834913568847796,4.211312891681166,0.0,0.0,-5.705733213556701,0.4525895365979761,-0.5998324862671005,230
9.860677317860684,12.136290994731212,-17.151470200204656,50.991823876990516,4.821566775181708,21.584356475173678,11.877612896895172,-66.05137283904222,-58.084913568847796,4.433055780129351,0.0,0.0,-5.927700053563384,0.23842744581637706,-0.7476478598920173,231
7.110677317860684,13.813458628415676,-15.651470200204656,49.45440279003668,7.571566775181708,22.94727906664845,10.377612896895172,-64.08971460775717,-55.334913568847796,4.504506288538502,0.0,0.0,-5.765466848234114,0.4164467840486917,-0.9900008843131288,232
4.360677317860684,15.817331261942496,-14.151470200204656,48.0231724870225,10.321566775181708,24.25258818306677,8.877612896895172,-62.1857739907589,-52.584913568847796,4.640901039737613,0.0,0.0,-5.5653824666634995,0.6687379877657611,-1.297661723284465,233
1.6106773178606844,17.249107201864586,-12.651470200204656,46.53294328121375,13.071566775181708,25.813231797266283,7.377612896895172,-60.357169566754884,-49.834913568847796,4.939472676822466,0.0,0.0,-5.512183186389,0.7726350010266854,-1.5836440648809715,234
-1.1393226821393156,19.241841982350184,-11.151470200204656,44.93276693853105,15.821566775181708,27.424015552092232,5.877612896895172,-58.570024432469395,-47.084913568847796,5.331958701596757,0.0,0.0,-5.45011701380819,0.8574260967335275,-1.9045752886481069,235
-3.8893226821393156,21.287723039845968,-9.651470200204656,43.47037893695684,18.571566775181708,29.130776468900002,4.377612896895172,-56.84487164799851,-44.334913568847796,5.855448099196139,0.0,0.0,-5.445142442380463,0.89637944500969,-2.2387348956731485,236
-6.639322682139316,23.45738981652238,-8.151470200204656,42.20791021803753,21.321566775181708,30.917226873751535,2.8776128968951724,-55.27089379292958,-41.584913568847796,6.389377406169417,0.0,0.0,-5.525704269565174,0.9235558127496609,-2.5426456237694315,237
-9.389322682139316,25.715446783449302,-6.651470200204656,40.941473126479586,24.071566775181708,32.74440707791969,1.3776128968951724,-53.824311285351854,-38.834913568847796,6.909816268319876,0.0,0.0,-5.654818071689382,0.9566004637804254,-2.860344205579541,238
-12.139322682139316,27.510885189586773,-5.151470200204656,39.61581899345489,26.821566775181708,34.608887976696955,-0.12238710310482759,-52.41238106632882,-36.084913568847796,7.372899832354429,0.0,0.0,-5.756565537281831,0.9723151106050072,-3.1568844142176933,239
-14.889322682139316,29.651140032644715,-3.651470200204656,38.269855195442084,29.571566775181708,36.30001853315888,-1.6223871031048276,-51.05981145037505,-33.334913568847796,7.796336673566715,0.0,0.0,-5.882712829953894,0.9454889247403202,-3.4012111497281112,240
-17.639322682139316,31.76930827927013,-2.151470200204656,36.91234996149994,32.32156677518171,37.85790451774516,-3.1223871031048276,-49.72365162572913,-30.584913568847796,8.152244561848388,0.0,0.0,-6.065918126809993,0.9120920170738376,-3.649520822964683,241
-20.389322682139316,33.918889112361306,-0.6514702002046562,35.58170406184362,35.07156677518171,39.87523078604122,-4.622387103104828,-48.247322796888795,-27.834913568847796,8.438508078009809,0.0,0.0,-6.201351258182328,0.9078075661823066,-3.844352734519876,242
-23.139322682139316,36.02024443288158,0.8485297997953438,33.98636554507853,37.82156677518171,41.34886937327018,-6.122387103104828,-46.93287320831449,-25.084913568847796,8.718040029978003,0.0,0.0,-6.293676251700897,0.9432692935876568,-3.9658177032563176,243
-25.889322682139316,38.02867093241302,2.348529799795344,32.33361349268289,40.57156677518171,43.449494005161384,-7.622387103104828,-45.74754564772085,-22.334913568847796,9.040180392208036,0.0,0.0,-6.3671162871455085,0.9369408951830734,-4.118134342657909,244
-28.639322682139316,39.74330147195379,3.848529799795344,30.907905508038827,43.32156677518171,45.403606994498624,-9.122387103104828,-44.267414495662834,-19.584913568847796,9.323410571179407,0.0,0.0,-6.369837896206753,0.9318874062083823,-4.311029038505525,245
-31.389322682139316,41.76319804220533,5.348529799795344,29.065419882559144,46.07156677518171,47.23565320226241,-10.622387103104828,-42.896712254686776,-16.834913568847796,9.54889321322692,0.0,0.0,-6.359220098581625,1.0156414541135195,-4.4437298750586525,246
-34.139322682139316,44.09238043910129,6.848529799795344,28.29882286208962,48.82156677518171,48.766041758843265,-12.122387103104828,-41.77872524260444,-14.084913568847796,9.799617897533258,0.0,0.0,-6.387674714860676,1.057018448989096,-4.574944846383479,247
-36.889322682139316,46.61697138287577,8.348529799795344,28.29882286208962,51.57156677518171,50.8495485400096,-13.622387103104828,-40.623013116196475,-13.455447085888425,10.030339011628875,0.0,0.0,-6.401846248297317,1.0250456645172967,-4.7128241832142255,248
-39.639322682139316,49.1425502875705,9.848529799795344,28.29882286208972,54.32156677518171,52.93007653250802,-15.122387103104828,-39.518270436421886,-13.098282374446729,10.25497162035654,0.0,0.0,-6.4187818526715805,0.9892022369281203,-4.837645070774631,249
-42.389322682139316,51.33960847029452,11.348529799795344,28.298822862089697,57.07156677518171,54.96678025125245,-16.622387103104828,-38.424550041859604,-13.07091022195614,10.427715062785865,0.0,0.0,-6.322006537225985,0.9697635091614193,-4.913608905940647,250
-45.139322682139316,53.822864151798505,12.848529799795344,28.298822862089672,59.82156677518171,56.98299172355834,-18.122387103104828,-37.103131285134346,-12.991295753492347,10.566520680802014,0.0,0.0,-6.23082611092457,0.9218957934333772,-4.98613405305594,251
-47.889322682139316,56.43772960844647,14.348529799795344,28.298822862089594,62.57156677518171,58.608750317851516,-19.622387103104828,-36.236652584150946,-12.591181873712868,10.55234901776755,0.0,0.0,-6.112294317918022,0.9947850628779543,-5.092108016572526,252
-50.639322682139316,59.02545016664481,15.848529799795344,28.298822862089697,65.32156677518171,60.694047129085725,-21.122387103104828,-35.58553332659209,-12.215110078959999,10.422865771093111,0.0,0.0,-6.012530513954436,1.0831731007153538,-5.172242713484344,253
-53.389322682139316,61.56393054166586,17.348529799795344,28.298822862089697,68.07156677518171,62.72512635378809,-22.622387103104828,-34.75125687164543,-11.997832754310876,10.553075618469597,0.0,0.0,-5.876995891341125,1.123112479894669,-5.242249816560872,254
-56.139322682139316,63.79157160808051,18.848529799795344,28.298822862089697,70.82156677518171,64.34248097618458,-24.122387103104828,-33.999685061087455,-11.483430108243155,10.908675131849497,0.0,0.0,-5.748791487925297,1.1516881453564252,-5.418083632237495,255
-58.889322682139316,66.30992808510733,20.348529799795344,28.298822862089697,73.57156677518171,66.41746083939955,-25.622387103104828,-33.35919222192481,-10.889147043564943,11.170765972445855,0.0,0.0,-5.6288914553178016,1.1620323793334197,-5.629839660327115,256
-61.639322682139316,68.75699712996511,21.848529799795344,28.29882286208985,76.32156677518171,68.50105192072921,-27.122387103104828,-32.781338346733364,-10.534806939998562,11.379504305645735,0.0,0.0,-5.4335400548685495,1.1607938349064915,-5.812221518578487,257
-64.38932268213932,71.12909016959402,23.348529799795344,28.298822862089594,79.07156677518171,70.05014542683692,-28.622387103104828,-31.894261331882337,-10.46163548723608,11.76069998605734,0.0,0.0,-5.3135901860106864,1.116034487753606,-6.071864575907378,258
-67.13932268213932,73.5134867366126,24.848529799795344,28.298822862089697,81.82156677518171,71.88851457566172,-30.122387103104828,-30.90958172116846,-10.33130745196305,12.266887906251839,0.0,0.0,-5.219336974489038,1.0849060049337715,-6.449978636389355,259
-69.88932268213932,75.85352086708274,26.348529799795344,28.298822862089647,84.57156677518171,73.74634662175872,-31.622387103104828,-30.09923999984693,-10.01602137145327,12.859764841200326,0.0,0.0,-5.174366382786135,1.0580145493614546,-6.933220382813881,260
-72.63932268213932,78.11140563205412,27.848529799795344,28.29882286208962,87.32156677518171,75.5649959253066,-33.12238710310483,-29.10915098825945,-9.756011467144434,13.511499251721029,0.0,0.0,-5.078356111027589,0.9818843166731959,-7.464957729074975,261
-75.38932268213932,80.33616620431356,29.348529799795344,28.298822862089697,90.07156677518171,76.99339506974329,-34.62238710310483,-28.298822862089825,-9.516995806765525,14.072452780493911,0.0,0.0,-4.933456719398419,0.885120606666442,-8.040916116641904,262
-78.13932268213932,82.56471731642522,30.848529799795344,28.29882286208985,91.20902242348173,78.96131917701638,-36.12238710310483,-28.298822862089686,-9.569840747505202,14.622192161251677,0.0,0.0,-4.802709827009331,0.8193395777936285,-8.548161739227005,263
-80.88932268213932,84.32827988565025,32.348529799795344,28.29882286208972,90.8718655047942,80.7733146893676,-37.62238710310483,-28.298822862089715,-9.108024421105252,14.895042661051527,0.0,0.0,-4.67260820036662,0.7877327931912709,-8.918246621359494,264
-83.63932268213932,86.2736169138197,33.848529799795344,28.298822862089825,90.66561838558326,82.52541276030797,-39.12238710310483,-28.298822862089704,-8.576994869216229,15.096588479306915,0.0,0.0,-4.545951251356751,0.7294759079334069,-9.230378342114985,265
-86.11323887544663,88.0271632458706,35.348529799795344,28.29882286208985,90.44222512266305,84.1820610517422,-40.25100019893796,-28.298822862089704,-8.57526557769718,15.276453690665731,0.0,0.0,-4.38334195202952,0.6166765741431448,-9.530888940742038,266
-86.20175752735233,89.25933155183634,36.848529799795344,28.29882286208985,90.22993580130513,85.67366820121585,-39.905430043137656,-28.298822862089608,-8.789425913627465,15.331566526680005,0.0,0.0,-4.260287920735827,0.5168568653375492,-9.726026226848802,267
-85.91510349437398,90.74426625874688,38.348529799795344,28.29882286208985,89.94650043285127,86.8897472336711,-39.574146696633285,-28.298822862089835,-8.641504804878002,15.323592874294528,0.0,0.0,-4.151654023645825,0.49904337734698845,-9.852041545148397,268
-85.72167505416584,92.07537959126256,39.848529799795344,28.298822862089697,89.38238613118888,88.12675678375501,-41.074146696633285,-28.298822862089697,-8.244073924907637,15.285589670248877,0.0,0.0,-4.021065488100487,0.5765094472768016,-9.939276687214072,269
-86.01871939644302,92.76970981284322,41.348529799795344,28.298822862089647,89.05829491153169,88.72136574176031,-41.34082025228138,-28.298822862089693,-7.991611768809016,15.103873126584523,0.0,0.0,-3.9138674609201822,0.684114723118461,-9.893053238522207,270
-85.92951075750774,93.57987823890156,41.422571989356676,28.29882286208962,88.8261165007485,89.16363529055431,-41.143320688587046,-28.298822862089676,-7.859813455399827,14.87403522907242,0.0,0.0,-3.8503061376637633,0.7443942536755201,-9.7324877015172,271
-85.88283975731538,94.18141132424819,41.40367214672867,28.29882286208972,88.76631040127988,89.4014549577206,-40.9823913977649,-28.298822862089732,-7.84313569480049,14.636176801603414,0.0,0.0,-3.7817182519920234,0.8090085083820833,-9.432715254588484,272
-85.5447103852224,94.869401437827,42.90367214672867,28.29882286208972,88.73876067740376,89.38332737898286,-40.814894068006915,-28.298822862089732,-7.749243615353629,14.19464945321896,0.0,0.0,-3.6761398518596953,0.8352841888797611,-8.998596598516093,273
-85.22475456577448,95.31073230080307,44.40367214672867,28.29882286208985,88.31647633079581,89.50812465347609,-42.314894068006915,-28.29882286208986,-8.256065875570453,13.77118729040825,0.0,0.0,-3.510776573105582,0.8854404601305458,-8.55598013971645,274
-85.34040411088823,95.1567471840469,45.90367214672867,28.29882286208962,88.25262503206058,89.04306687462086,-42.80103684282491,-28.29882286208982,-8.631095559763072,13.318413073458366,0.0,0.0,-3.378288207501974,0.9285890153513151,-8.115438428709158,275
-85.52547515989393,94.72466786078576,46.53130255037162,28.29882286208962,88.28622345543829,88.33022481440814,-42.710417998967905,-28.29882286208983,-8.82778847870688,12.836601778083503,0.0,0.0,-3.3012604250041524,0.986408223868262,-7.558109688799689,276
-85.34782442086855,94.41739096755045,48.03130255037162,28.29882286208972,88.31381579415545,87.3902130907387,-42.578868256491845,-28.298822862089853,-9.00631943564696,12.311690783576935,0.0,0.0,-3.1935612195083762,1.0515638031976953,-6.910420434893329,277
-85.5262071936414,93.54321845038811,49.087139184123544,28.298822862089594,87.95739466640926,86.70273603552897,-44.078868256491845,-28.298822862089633,-9.48976632413894,11.752760917892818,0.0,0.0,-3.0962590261891663,1.0758918838359395,-6.266049749060429,278
-85.69336396203987,92.40269454206054,49.13412927347286,28.298822862089697,87.99257587465065,85.57289219977504,-44.62915366370225,-28.298822862089605,-10.768894907604656,11.13222878392747,0.0,0.0,-2.995515809460233,0.979490826648549,-5.566762216343524,279
-85.3784811984766,91.38278589565319,50.63412927347286,28.298822862089697,87.92853361740617,84.26058304275489,-44.43704527327789,-28.29882286208972,-12.269073820272965,10.617438408301211,0.0,0.0,-2.8820228289365786,0.8753166530448702,-4.959390991070381,280
-85.35717958453696,89.89771332164884,51.53268061847042,28.298822862089697,87.39603457254233,83.13643689762972,-45.93704527327789,-28.2988228620897,-13.411966664918028,10.277560788297926,0.0,0.0,-2.820248866971256,0.831280679043956,-4.500301709939425,281
-84.97228056078868,88.5715467384034,53.03268061847042,28.298822862089697,87.2481499746704,81.55738251064763,-46.364797235762076,-28.29882286208959,-14.351754242794321,9.937181648702616,0.0,0.0,-2.7539726486693494,0.7851531052636214,-3.9837678823573013,282
-85.0310993973998,86.71739835126411,53.72967720074388,28.29882286208962,87.19666409531274,79.90789470575871,-46.13314580253157,-28.298822862089605,-15.55600945109122,9.544467719823233,0.0,0.0,-2.7040138177575317,0.6643625214097717,-3.3933456061030327,283
-84.62040953899574,85.0686172420253,55.22967720074388,28.298822862089825,87.0876175997058,78.08540213465109,-45.8654373900321,-28.298822862089697,-16.448235174134517,9.151356549761939,0.0,0.0,-2.6547849984450287,0.5803034488658724,-2.8834538963791014,284
-84.6565591909874,83.10014202794375,55.72664714517328,28.298822862089825,86.88534905925637,76.81859863726226,-47.3654373900321,-29.31387321997956,-17.478668289693733,8.688851972321778,0.0,0.0,-2.6460719455747794,0.5501006502297161,-2.4049715656317643,285
-84.68607827583197,81.01884965880386,55.46068391941896,28.298822862089697,87.4067424202723,75.36713315577938,-47.795279367904946,-31.154291792800592,-18.326412925857525,8.288175425910117,0.0,0.0,-2.6611812919294477,0.5338148129931948,-1.8773133896315586,286
-84.15439120625659,79.09270382441795,56.96068391941896,28.298822862089647,87.88920207999831,73.87240021858597,-47.628933596505696,-33.08571713702221,-19.10140639185415,8.103755066456614,0.0,0.0,-2.647084067559021,0.48326170823866677,-1.423814604558963,287
-83.99249570427948,76.78494260228842,57.08407020158617,28.298822862089594,88.29358972977137,72.25201630244392,-47.468098608000545,-34.81708921616695,-19.817090105691545,7.955746730914353,0.0,0.0,-2.643844654635649,0.40291195821336473,-1.0364065591967366,288
-83.90929557523161,74.43274857318185,56.698033487233005,28.29882286208972,88.20842921289044,70.92337254686863,-48.968098608000545,-36.57969822952754,-19.769306547838376,7.718361464364735,0.0,0.0,-2.655479247235444,0.37195092469139307,-0.618469531394284,289
-83.37229329045526,72.2673229438416,58.198033487233005,28.298822862089594,88.5276757237781,69.02697105846656,-49.22027945402968,-38.20621089098022,-20.22011643217216,7.462044627310733,0.0,0.0,-2.699575341988329,0.3324202556739835,-0.18346080335456932,290
-83.0820334928569,69.71724362517536,57.808893759764835,28.298822862089672,88.73921469589934,66.9588347158099,-49.00337629827199,-39.60074014313133,-21.312910260256498,7.270558728030696,0.0,0.0,-2.8110859939508215,0.2808613326643566,0.19374141616797266,291
-82.78636606563724,67.14045403687214,57.154330963535735,28.298822862089594,89.10143116930467,64.82094597121625,-48.83394287612055,-41.20301666169301,-21.669821399084405,7.075062706251997,0.0,0.0,-2.898202694023754,0.29410073999293906,0.5442470777318305,292
-82.5769589149198,64.51351128535211,56.57827933561099,28.29882286208962,88.89788413782229,63.102141219635456,-50.33394287612055,-42.99105273335301,-21.645732903064047,6.842801588265968,0.0,0.0,-2.8972728274968844,0.35097575198787273,0.9128289571487759,293
-81.85871321560393,62.02804718683381,58.07827933561099,28.29882286208962,89.0813153578193,60.70862991750574,-50.12252915635349,-44.419407292386296,-22.09370936114184,6.601821947873329,0.0,0.0,-2.805774840353908,0.3647776131586531,1.2674482242262122,294
-81.57444492929841,59.27804718683381,57.55924693012854,28.29882286208985,88.30198656919687,58.72830620971234,-51.38110739520971,-45.83746054017037,-22.241638716158377,6.480968639852429,0.0,0.0,-2.71158780930558,0.39200113827089983,1.562137759615368,295
-81.05305374791432,56.52804718683381,56.6441752067281,28.29882286208962,88.39820073218155,56.20442183538853,-50.92316933025717,-47.23048984754667,-22.82201085931836,6.407081043499524,0.0,0.0,-2.772476593247833,0.3645229321702437,1.8504186267487823,296
-79.8687527586173,53.77804718683381,57.66756145606032,28.29882286208985,87.60503176721184,54.114077916942875,-52.24476343878712,-48.35021099975523,-23.94588866859301,6.399456106876861,0.0,0.0,-2.8584275113968953,0.31401986521432496,2.079896127659802,297
-80.07713839763248,51.73292397054296,57.24460258709786,31.04882286208985,87.44630185495754,51.37409701252284,-51.624015847800344,-49.356326300758184,-24.26608204837099,6.382385620938241,0.0,0.0,-2.881267875546852,0.31109176259339727,2.2238238504536514,298
-80.23313722564828,49.859122264094914,56.86420345130537,33.79882286208985,86.30677677915666,49.12184736691494,-52.64803060569597,-50.26175113517572,-24.508548530997025,6.33768304140778,0.0,0.0,-2.895933671026435,0.33166860152433525,2.282863116868916,299
-80.20609851263075,47.8038604676129,56.46045719813695,36.530478148048125,86.04366618034929,46.37184736691494,-51.95594078178811,-51.211300975452005,-24.201786218271756,6.332845034684651,0.0,0.0,-2.868816084549667,0.4270779374667042,2.292527029489629,300
-80.06148524381682,45.54812620553361,55.981684232841864,38.63754729266951,84.66857333822797,43.74120174287744,-52.68491759882425,-52.14203723194329,-23.85287907214109,6.437562927859538,0.0,0.0,-2.8504477029943205,0.46936587619324066,2.294399031367859,301
-78.89588751026646,43.58800612596434,57.09389239187098,40.771717520979465,83.89511411449115,40.99120174287744,-52.18855384016978,-52.96647887488344,-23.71911313153632,6.625462944293342,0.0,0.0,-2.8249122985281794,0.4688204294112289,2.2435166580064383,302
-78.50532902123477,41.16886165267129,56.46872411796829,42.57139339412857,82.69053696172541,38.24120174287744,-51.75340540573144,-53.77460684876149,-23.424640121544105,6.779810803706141,0.0,0.0,-2.7537899954644365,0.5385977875104447,2.208220982987221,303
-78.25453676885537,38.75860214645274,55.98587190996902,44.33990128825759,81.29678660948358,35.53362416624674,-51.07583346869595,-54.52866413686728,-23.0795958963348,6.919306313945663,0.0,0.0,-2.6553520234883767,0.6057858611168221,2.194514967362897,304
-77.91672958440165,36.3399683611664,55.43200393554379,46.22106612215121,79.82019085050943,32.8277523447873,-50.383099157914735,-55.17112939111745,-22.93186974478737,7.0232816409706125,0.0,0.0,-2.6190469238339467,0.6472508476217682,2.149597118565207,305
-77.11630812412042,33.92630412582476,54.65740531505634,47.822881695808036,78.39641269342552,30.0777523447873,-49.72113997112626,-55.864996881664766,-22.77003496471072,6.987069953820473,0.0,0.0,-2.6462668410405126,0.752716515006539,2.1420840912603754,306
-76.00238915504819,31.5717000410629,54.13341524688965,49.20154907582443,76.65173528668826,27.3277523447873,-48.68169621509734,-56.58993995187085,-22.90880588520331,6.873640479762447,0.0,0.0,-2.634293049542802,0.8958089306788318,2.14913588973258,307
-74.700574702757,29.088912092133967,53.43534543946261,50.40604328356543,74.27987770606299,24.592315861771358,-47.18169621509734,-57.16895099156572,-23.125810719727983,6.784651192399823,0.0,0.0,-2.5940583229308283,1.0069934282647348,2.161839905404857,308
-72.96057161617833,26.512916892759698,52.30927713908491,51.474786415309424,71.59165378866598,21.95974065814648,-45.68169621509734,-57.69067953518382,-22.93379610820623,6.832029714492211,0.0,0.0,-2.5854472930455135,1.0760152020238107,2.1560432285594193,309
-71.04509755613753,24.005039975130252,51.001663965360905,52.6089440883406,68.84165378866598,19.407395972593793,-44.18169621509734,-58.26060484334175,-23.10053667200975,6.938574425628913,0.0,0.0,-2.557123312945406,1.1606530224283338,2.144339659883259,310
-68.80198003445919,21.551091670369605,49.501663965360905,53.701460082171984,66.09165378866598,16.927717498678298,-42.68169621509734,-58.90458559598343,-23.654601510794286,6.940260082555354,0.0,0.0,-2.497835136852616,1.2711238440739445,2.097547236893012,311
-66.05198003445919,19.714510193468392,48.001663965360905,54.65197628638369,63.34165378866598,14.62921944946881,-41.18169621509734,-59.497911682443394,-24.288018861045988,6.834179706158269,0.0,0.0,-2.462102052347903,1.3600471320194556,2.03185098030879,312
-63.30198003445919,17.250661934787697,46.501663965360905,55.509328570378436,60.59165378866598,12.551522990427522,-39.68169621509734,-60.19520358203078,-25.015666451815942,6.831040426967963,0.0,0.0,-2.471858518393467,1.4081033036557045,1.937818204709488,313
-60.55198003445919,14.500661934787697,45.001663965360905,56.27035844290318,57.84165378866598,10.73743411458022,-38.18169621509734,-61.12257060886001,-25.086076099531894,6.9642533652950736,0.0,0.0,-2.4738737644571174,1.4653396143814656,1.8228433795443415,314
-57.80198003445919,12.943155640908113,43.501663965360905,56.82961232309303,55.09165378866598,9.108980088986048,-36.68169621509734,-62.0623504601878,-24.61686687542276,7.093760553879653,0.0,0.0,-2.5219487538581613,1.5286371050238354,1.7338740773089594,315
-55.05198003445919,10.888105605873712,42.001663965360905,57.31054854799082,52.34165378866598,8.799114818365798,-35.18169621509734,-62.941779459185625,-24.700008404466328,7.230088440547483,0.0,0.0,-2.5630254505307417,1.5356568575930774,1.643271589806067,316
-52.30198003445919,10.307577759460601,40.501663965360905,57.81700942962161,49.59165378866598,9.064001244706752,-33.68169621509734,-63.93535848815034,-25.305089664285763,7.367607471420113,0.0,0.0,-2.5494919852235176,1.5165890208268629,1.5251917341011865,317
-49.55198003445919,9.485433850765114,39.001663965360905,58.30567214236562,46.84165378866598,8.660080046169448,-32.18169621509734,-65.10094635002264,-25.776950602256324,7.47081440969845,0.0,0.0,-2.546305878853346,1.533179335342591,1.3820424257716089,318
-46.80198003445919,10.547110015025998,37.501663965360905,58.73553929984237,44.09165378866598,9.694776424368955,-30.68169621509734,-66.3441654285043,-26.11266478670649,7.543413974487908,0.0,0.0,-2.566449774605321,1.5263204429709492,1.213194822296761,319
-44.05198003445919,11.279870179439987,36.001663965360905,59.237969890358535,41.34165378866598,10.315327538544715,-29.18169621509734,-67.50740609973245,-26.114398610899357,7.692297228738906,0.0,0.0,-2.5478525785171526,1.4920248368637536,1.0488188638704559,320
-41.30198003445919,13.536517951481864,34.501663965360905,59.70615430018262,38.59165378866598,11.879018966608337,-27.68169621509734,-68.80747393091455,-26.39762648113845,7.994787813989216,0.0,0.0,-2.595851705947265,1.3815766111481755,0.8913500583444982,321
-38.55198003445919,15.970495857806023,33.001663965360905,60.23571871787214,35.84165378866598,12.812249298067824,-26.18169621509734,-70.20194461281933,-26.182171917197223,8.335040747678786,0.0,0.0,-2.6355904696814374,1.3234698142960888,0.6279040851069764,322
-35.80198003445919,17.566950898166077,31.501663965360905,61.04744248450858,33.09165378866598,14.716415786071416,-24.68169621509734,-71.49318827650258,-25.589032726825675,8.519439005851456,0.0,0.0,-2.5623518295088665,1.3223598611907597,0.3145968878609245,323
-33.05198003445919,19.881487003887298,30.001663965360905,61.99208376928222,30.34165378866598,16.03385143943773,-23.18169621509734,-72.81909220531232,-25.14815797570749,8.618950363134404,0.0,0.0,-2.530657707544192,1.2845490297125708,0.03314839672268606,324
-30.30198003445919,21.73520093365296,28.501663965360905,62.95467328672579,27.59165378866598,17.75057677357744,-21.68169621509734,-74.31864668880645,-24.869121420956528,8.82855848088288,0.0,0.0,-2.5124936099673345,1.1859059396492904,-0.2659321882327434,325
-27.55198003445919,24.013846257002363,27.001663965360905,64.08766425342117,24.84165378866598,19.542627322175417,-20.18169621509734,-75.87448663201955,-24.16332632048724,9.084770955784723,0.0,0.0,-2.448755437931044,1.1420972728149932,-0.6332332818087023,326
-24.80198003445919,25.61372177986011,25.501663965360905,65.41338299118854,22.09165378866598,20.63047869687838,-18.68169621509734,-77.61250343004795,-23.448189631204492,9.256765034576691,0.0,0.0,-2.4624035347548645,1.1367665638413083,-0.9971118970573979,327
-22.05198003445919,27.501669325465304,24.001663965360905,67.00260425050395,19.34165378866598,22.318273818819353,-17.18169621509734,-79.35980825346235,-22.437355129469925,9.420335760645123,0.0,0.0,-2.4399023854503,1.1846012771098366,-1.3077617449252363,328
-19.30198003445919,28.735454717827135,22.501663965360905,68.66388416072857,16.59165378866598,23.33617630651384,-15.68169621509734,-81.0840652308425,-21.750790226775422,9.760339397726602,0.0,0.0,-2.4410825443100297,1.22867525101093,-1.5978140371731586,329
-16.55198003445919,29.929021699126412,21.001663965360905,70.24136017992413,13.84165378866598,24.1984561801358,-14.18169621509734,-82.85675663276935,-20.781359789471722,9.808448818486685,0.0,0.0,-2.535656937634886,1.3032599739080504,-1.809696527695557,330
-13.801980034459191,31.647368510017984,19.501663965360905,71.66769467563493,11.09165378866598,25.53665961317271,-12.68169621509734,-84.58394062755231,-20.03357856031295,9.862312252976006,0.0,0.0,-2.5550614813644112,1.3885015493855728,-1.9887558611207867,331
-11.051980034459191,32.600364388706154,18.001663965360905,72.97795990446134,8.34165378866598,26.291051952403617,-11.18169621509734,-86.13583545339276,-18.954825367746228,9.77683838689447,0.0,0.0,-2.525585741300781,1.5017725752499842,-2.1973685438601755,332
-8.301980034459191,33.43465362206173,16.501663965360905,74.0916558351153,5.59165378866598,26.884446875213616,-9.68169621509734,-87.60515670258668,-18.662422239011832,9.785018529857533,0.0,0.0,-2.53827688394947,1.6063332165686048,-2.3583989338691786,333
-5.551980034459191,34.15547157415695,15.001663965360905,75.0491642606736,2.8416537886659796,27.341528588923683,-8.18169621509734,-88.95545482862306,-18.20132261530866,9.770338509168425,0.0,0.0,-2.5907580128532346,1.7063253983091127,-2.476009574758326,334
-2.8019800344591914,34.814444756046676,13.501663965360905,75.74132118243843,0.09165378866597962,27.565168906072238,-6.68169621509734,-90.19177550141421,-17.827366742461333,9.788076383822599,0.0,0.0,-2.6864151285271496,1.7605216508496306,-2.590818118578849,335
-0.051980034459191415,35.45416489578176,12.001663965360905,76.07212130754527,-2.6583462113340204,27.582787238496785,-5.18169621509734,-91.28022087451336,-18.813209874279057,9.877144671838922,0.0,0.0,-2.7727818424301764,1.7414339983300455,-2.6983451981860718,336
2.6980199655408086,36.12306487599986,10.501663965360905,76.00339394892856,-5.40834621133402,27.941235314680355,-3.6816962150973396,-92.29519665755312,-19.558033607962,9.716700619569773,0.0,0.0,-2.839663805500405,1.6569293096602087,-2.7192895912343302,337
5.448019965540809,36.01971730770294,9.001663965360905,75.71840832976112,-8.15834621133402,26.994741627391935,-2.1816962150973396,-93.08438411462045,-19.975524477947793,9.591208875486664,0.0,0.0,-2.9048403926668223,1.6213003628019809,-2.654920668169403,338
8.198019965540809,36.180310201639564,7.501663965360905,75.36707965970167,-10.90834621133402,26.54169635576521,-0.6816962150973396,-93.61246040907919,-20.012103165441893,9.519701731197951,0.0,0.0,-3.017518870036307,1.600167145310766,-2.5872254671671553,339
10.948019965540809,36.2607058097762,6.001663965360905,74.85083182006824,-13.65834621133402,25.728386268144302,0.8183037849026604,-94.04007658027737,-20.230874542968273,9.411509770680752,0.0,0.0,-3.2003670062365224,1.5126445647290652,-2.5074812627863556,340
13.698019965540809,36.182252375606424,4.501663965360905,74.1532948249007,-16.40834621133402,24.812187409767404,2.3183037849026604,-94.25954692249735,-19.996341352531804,9.226849347864258,0.0,0.0,-3.3936499753156717,1.4714882064628736,-2.348403189660634,341
16.44801996554081,35.28786990414489,3.0016639653609047,73.4133846033521,-19.15834621133402,23.865254371789593,3.8183037849026604,-94.26205067169766,-19.73357426493377,9.07068189910079,0.0,0.0,-3.537603804941859,1.4829692356696305,-2.1347968001437976,342
19.19801996554081,34.66205424554106,1.5016639653609047,72.74975053839461,-21.90834621133402,21.975614903271822,5.31830378490266,-94.19146389492869,-19.291244975667265,8.647192396055303,0.0,0.0,-3.6838549465619876,1.4481671781537226,-1.8649951944364027,343
21.94801996554081,33.342426937709426,0.00166396536090474,72.11451201732292,-24.65834621133402,20.623829690132954,6.81830378490266,-94.0478231733144,-19.711597131381257,8.433060257839093,0.0,0.0,-3.8006187182803277,1.3876467468361664,-1.5899563370178535,344
24.69801996554081,32.150417894709754,-1.4983360346390953,71.56863853603774,-27.40834621133402,18.567605632717754,8.31830378490266,-93.68484413878748,-19.21493433311969,8.222191100867027,0.0,0.0,-3.8636669375246546,1.39232882285084,-1.379101410178875,345
27.44801996554081,30.400929312633693,-2.9983360346390953,70.99690267167793,-30.15834621133402,17.273657415678905,9.81830378490266,-93.18942165253354,-18.633746322342056,8.025330200031945,0.0,0.0,-3.9334689209802876,1.3790059903962684,-1.1590768889695902,346
30.19801996554081,28.918627177693427,-4.498336034639095,70.42849482656457,-32.90834621133402,15.058518792720657,11.31830378490266,-92.68345645979657,-18.57471915052265,7.8870948682758595,0.0,0.0,-3.9840227138279083,1.3377082048694262,-0.9111743563570497,347
32.94801996554081,26.79189120732765,-5.998336034639095,69.90639048894182,-31.56868076749094,12.907459688712873,12.81830378490266,-91.99913055703136,-18.45775524907486,7.706725842259383,0.0,0.0,-4.043244038262699,1.3323499842453241,-0.70954997350231,348
35.69801996554081,24.56838610459313,-7.498336034639095,69.31830486229097,-28.81868076749094,12.127607075312698,14.31830378490266,-91.22265693214356,-17.717050473110213,7.486643452599955,0.0,0.0,-4.105070023162532,1.3716472734112712,-0.5205997583952937,349
38.44801996554081,22.039796321740234,-8.998336034639095,68.8671555019752,-26.06868076749094,10.714012398468778,15.81830378490266,-90.32456119641898,-16.73925658149067,7.347024168068641,0.0,0.0,-4.087025787027424,1.4542346449222536,-0.34464279187429,350
41.19801996554081,19.85621058816845,-10.498336034639095,68.34824054519433,-23.31868076749094,9.870636338501109,14.31830378490266,-89.28183659020947,-16.43791138090364,7.286684480188769,0.0,0.0,-4.054615738955117,1.4838245541881203,-0.19350160833528476,351
43.94801996554081,17.385694200360298,-11.998336034639095,67.65759517702885,-20.56868076749094,9.747177364024571,12.81830378490266,-88.06323375283911,-16.99077538562098,7.161377854211811,0.0,0.0,-4.0363746438625325,1.4468774229955454,-0.0702633406754608,352
46.69801996554081,14.982472786919447,-13.498336034639095,66.8921804770976,-17.81868076749094,10.350944583697949,11.31830378490266,-86.73662989178379,-17.68339256017934,7.1130502244945815,0.0,0.0,-4.037691243847306,1.368578190674334,-0.009896302684882287,353
49.44801996554081,12.975344773041131,-14.998336034639095,66.056193622293,-15.068680767490939,11.49829639426385,9.81830378490266,-85.27408472482881,-17.48641514730597,7.126347244038666,0.0,0.0,-4.042772626392018,1.3394070543560248,0.08076522014820918,354
47.50098586611487,10.467364657452398,-16.498336034639095,65.19357999735941,-12.318680767490939,13.39200584481234,8.31830378490266,-83.61001034728895,-16.882884033929113,7.197254130635856,0.0,0.0,-3.9826438372947006,1.345215783222827,0.16649455989623266,355
44.75098586611487,7.882242753924286,-17.998336034639095,64.38194701421658,-9.568680767490939,15.472157064768036,6.81830378490266,-81.83973590286698,-16.309064064524364,7.326365813487957,0.0,0.0,-3.8882743236663657,1.3523500026894613,0.13923258647066525,356
42.00098586611487,6.309869567263546,-19.498336034639095,63.448250904392886,-6.818680767490939,17.701643475526385,5.31830378490266,-79.94534063363446,-15.88597180759978,7.512435477723283,0.0,0.0,-3.817469143989867,1.337942545176433,0.08274795476260205,357
39.25098586611487,4.602415199993526,-20.998336034639095,62.507812602790814,-4.068680767490939,19.90681997508186,3.8183037849026604,-77.93785940673628,-15.384548452604971,7.751314783593466,0.0,0.0,-3.7712206888380817,1.3299912150611268,0.003356732962384155,358
36.50098586611487,4.028000133612341,-19.498336034639095,61.67096723852325,-1.3186807674909389,22.04481923241313,2.3183037849026604,-75.82681214527251,-15.018570070270897,7.885660489190869,0.0,0.0,-3.706795738560472,1.3415368457602874,-0.09113730406863181,359
33.75098586611487,5.980163937822498,-17.998336034639095,60.78258091374518,1.4313192325090611,23.32770348794187,0.8183037849026604,-73.6604771843644,-14.301357061782019,7.956370168112885,0.0,0.0,-3.6905967284173475,1.3689436078148745,-0.1931514406835779,360
31.000985866114867,7.736498556037368,-16.498336034639095,59.76531252711158,4.181319232509061,25.315371413196413,-0.6816962150973396,-71.34292837568447,-13.162682446223236,8.02747699650211,0.0,0.0,-3.713707549386823,1.4387380980391316,-0.2727977871141262,361
28.250985866114867,10.398875361523814,-14.998336034639095,58.64507729607999,6.931319232509061,27.295443251700654,-2.1816962150973396,-69.01322725088873,-12.498645385464243,8.080662777118999,0.0,0.0,-3.729020267966413,1.5185931041158682,-0.36096180615976314,362
25.500985866114867,12.552146399623927,-13.498336034639095,57.54559855932327,9.681319232509061,29.23053450946139,-3.6816962150973396,-66.73413572996209,-11.429348281558495,8.265504611887835,0.0,0.0,-3.7146162521674495,1.6062498809857513,-0.5416191855487533,363
22.750985866114867,14.79465706163895,-11.998336034639095,56.52754819207924,12.431319232509061,30.408579872517286,-5.18169621509734,-64.38682493652162,-10.055697490748944,8.5263419474026,0.0,0.0,-3.7531795012577036,1.6585611224848356,-0.77405210765882,364
20.000985866114867,17.25426398265711,-10.498336034639095,55.48196278224438,15.181319232509061,32.261742655149376,-6.68169621509734,-62.10855269415825,-9.028418977600733,8.809104639995672,0.0,0.0,-3.8226680502301695,1.6807857945085614,-1.028917619820518,365
17.250985866114867,19.70560159004375,-8.998336034639095,54.35533850607751,17.93131923250906,34.18601182967592,-8.18169621509734,-59.86466617162817,-8.726747780578146,9.16350894199757,0.0,0.0,-3.863222076892056,1.6317515339312183,-1.3495555207525582,366
14.500985866114867,22.126670289731706,-7.498336034639095,53.22401979792172,20.68131923250906,36.16897989647979,-9.68169621509734,-57.78809578880156,-8.894675684515613,9.48322469424572,0.0,0.0,-3.906370695447992,1.556167485798712,-1.708148166820787,367
11.750985866114867,24.083095174166758,-5.998336034639095,52.24458184817498,23.43131923250906,37.800962792889614,-11.18169621509734,-55.92254442637457,-9.115046305636188,9.814824111984345,0.0,0.0,-3.9552184406715503,1.465794924783214,-2.0772139744369813,368
9.000985866114867,26.56233878207132,-4.498336034639095,51.329272269952696,26.18131923250906,39.49485356451005,-12.68169621509734,-54.41952172347883,-8.846091433029974,10.170257593718317,0.0,0.0,-3.98466481912293,1.4308528611040463,-2.486395711325024,369
6.250985866114867,29.13874416619231,-2.9983360346390953,50.54315720550332,28.93131923250906,41.03368329021846,-14.18169621509734,-52.89170231011027,-8.534473346147024,10.469010979350891,0.0,0.0,-3.9453861635030494,1.4133574204532282,-2.8679035904445236,370
3.500985866114867,31.251521672732387,-1.4983360346390953,49.72536922971853,31.68131923250906,43.0823461118762,-15.68169621509734,-51.32413703815541,-8.294363957227695,10.73891529471903,0.0,0.0,-3.9392290930627776,1.3888501847570829,-3.1839418684229637,371
0.750985866114867,33.69749931534216,0.00166396536090474,48.92146126656385,34.43131923250906,45.22487035946378,-17.18169621509734,-49.9211137777816,-7.980902662424725,11.045002565340397,0.0,0.0,-4.062274518136753,1.3129774945229702,-3.5471164820115497,372
-1.999014133885133,36.09577599749257,1.5016639653609047,47.99163527505182,37.18131923250906,46.79272247096047,-18.68169621509734,-48.66022599265529,-7.580215004510685,11.268330462727041,0.0,0.0,-4.2040912848058305,1.2718679390637064,-3.9496254616764936,373
-4.749014133885133,38.04222332706409,3.0016639653609047,47.00041982507558,39.93131923250906,48.86677701955432,-20.18169621509734,-47.490415964031875,-7.799439341421166,11.592242479086801,0.0,0.0,-4.3027316857159,1.2647599523608661,-4.316754626093969,374
-7.499014133885133,40.496422003998916,4.501663965360905,46.035181490923925,42.68131923250906,50.44480071537633,-21.68169621509734,-46.64818335560042,-7.262136128259969,11.846178251613175,0.0,0.0,-4.410709682326566,1.3012257839368886,-4.6982458889433,375
-10.249014133885133,42.90294564758252,6.001663965360905,45.12206371387457,45.43131923250906,52.59257658633296,-23.18169621509734,-45.90942890245828,-6.627917905988917,12.234390806770858,0.0,0.0,-4.602900038689184,1.3208495926254182,-5.108848470154011,376
-12.999014133885133,45.24410931607695,7.501663965360905,43.930146995444005,48.18131923250906,54.12312423912548,-24.68169621509734,-45.22974406626347,-6.1584604248130415,12.534354491824436,0.0,0.0,-4.743830692970709,1.3774255652528846,-5.442122514792722,377
-15.749014133885133,47.50600149186455,9.001663965360905,42.64004919203775,50.93131923250906,56.20821018486403,-26.18169621509734,-44.60454008288582,-6.137925650315587,12.764582932709844,0.0,0.0,-4.880378921448097,1.410007043898261,-5.765704445805687,378
-18.499014133885133,49.29005632640067,10.501663965360905,41.374517702403715,53.68131923250906,58.340319870052994,-27.68169621509734,-44.13744418380041,-6.132132083678875,13.00040041792637,0.0,0.0,-4.974858717364465,1.4279274820264678,-6.123681345067072,379
-21.249014133885133,51.47666283715993,12.001663965360905,39.96453054747374,56.43131923250906,59.982129857641795,-29.18169621509734,-43.96008118944595,-5.99679739941565,13.217055651708046,0.0,0.0,-4.992098695560372,1.4484503237319082,-6.471088369644821,380
-23.999014133885133,53.539664247708586,13.501663965360905,38.57101286337892,59.18131923250906,62.154991441616396,-30.68169621509734,-43.639350474048605,-6.198711496336538,13.471958030322424,0.0,0.0,-5.053696325963073,1.3779067156465767,-6.844377158727901,381
-26.749014133885133,55.61122688116809,15.001663965360905,37.417233541098874,61.93131923250906,63.84319074278589,-32.18169621509734,-43.2273413951539,-6.670315491986102,13.749542630585378,0.0,0.0,-5.1994883212157275,1.2468809206797462,-7.208760890127156,382
-29.499014133885133,57.66055708945397,16.501663965360905,36.21263318011251,64.68131923250905,65.94531089475066,-33.68169621509734,-42.65776100598635,-7.134195920192825,13.933701376986493,0.0,0.0,-5.307881787453102,1.1443521728237336,-7.5245627089153,383
-32.24901413388513,59.665277461102,18.001663965360905,34.76862896120967,67.43131923250905,67.91114072134418,-35.18169621509734,-42.06609704246832,-7.316038635632184,13.997345655162107,0.0,0.0,-5.337554730788123,1.0941239368418096,-7.816397041043636,384
-34.99901413388513,61.18017670046415,19.501663965360905,33.2031506511196,70.18131923250905,69.96426193900085,-36.68169621509734,-41.679758397641216,-7.584899132772732,13.958203118775007,0.0,0.0,-5.385563700325966,1.029172840437563,-8.013020452002449,385
-37.74901413388513,63.031069744600444,21.001663965360905,31.589323314473287,72.93131923250905,71.52429461867524,-38.18169621509734,-41.425548876849525,-8.090628634001689,13.931727367350893,0.0,0.0,-5.432806026569185,0.9389873589063925,-8.134402593586072,386
-40.49901413388513,64.9163431028662,22.501663965360905,30.19564780105358,75.68131923250905,73.59924236252903,-39.68169621509734,-41.128493130043076,-8.661117994529715,14.012070861564846,0.0,0.0,-5.41887213005703,0.8069290343567408,-8.355928310144296,387
-43.24901413388513,66.86376620135108,24.001663965360905,29.038364160362008,78.43131923250905,74.99971258700677,-40.52248566715857,-40.60561937688513,-8.926463808226055,14.112628727497226,0.0,0.0,-5.38376277985225,0.6835376515689022,-8.621666871892337,388
-45.99901413388513,68.632864475599,25.501663965360905,28.29882286208962,81.18131923250905,76.80817186869163,-40.04750640434526,-40.11074102431484,-8.641909345111417,14.224487961955647,0.0,0.0,-5.3558013858471005,0.6598060586049957,-8.857914443843542,389
