JMW9912/AVATAR/Dynamixel/dynamixel_control/data/csv/.data/0502_1415_Semina_Robot_joint_animation_semina_21degree_Complete.mp4_motor_degree.csv
theta1,theta2,theta3,theta4,theta5,theta6,theta7,theta8,theta9,theta10,theta11,theta12,theta13,theta14,theta15,theta16,theta17,theta18,theta19,theta20,theta21,frame
5.195541767181579,-14.821394979359788,8.847257525914097,90.25319690940364,64.96541584795534,-0.8043319800076266,-0.20848291148719236,-1.641387686575291,-5.95637446807587,15.142901388916107,-9.640363454458438,-83.25840540565433,-66.85473557059387,0.408725961719887,-0.22426903280430088,-2.0413848441132805,0.4895537446356096,7.5550388921832825,-0.025991187333671208,0,0,0
4.281419984518337,-16.368975003842138,7.592739687191053,92.64058009851067,63.562158311883394,-5.2758207126260865,-0.13277316674656114,0.3916670901291997,-5.18118855152762,16.618930797761617,-9.697852517397545,-82.41093770163187,-65.36603438494943,5.385269039347284,-0.1965717834463573,-0.23321688519464434,0.5080117586128579,11.586096415118606,-0.3325407349435559,0,0,1
4.567849516891522,-16.508774454254702,7.3905290307010425,92.80819367344377,62.789476723555936,-6.269866481073708,-0.13513414827981268,0.5142252103076366,-5.404116961413551,17.03849968392088,-7.850966211831805,-85.79457092709347,-64.45016150315384,6.36677477397156,-0.1641502786626193,-0.08981634315528651,0.6135007773718602,13.00069684940636,-0.2892966519470306,0,0,2
4.817699544277882,-16.16221088823138,7.634777041670692,93.20064098579905,62.58381867162909,-7.108593450255303,-0.052435768174672555,0.4287651026314743,-5.620859781232388,16.8658914411137,-8.068543515306544,-86.14488769866686,-64.19677795943807,7.192398149508448,-0.20606137512924652,-0.17065041278568563,0.6633675724542807,13.716079764651047,-0.2814848253470085,0,0,3
4.99896593466085,-16.007700830673734,7.691601342258802,93.42172345662155,62.43934612117464,-7.602739013923048,0.006429433750410534,0.36287597207029415,-5.8109823656479245,16.697627129558796,-8.144760012698995,-86.38981247510017,-64.02068846657876,7.675688633358125,-0.2384572335378796,-0.21780952388055955,0.6293718174499381,14.22627139245964,-0.25234575621340805,0,0,4
5.052237568205541,-15.97176846037761,7.751992547641369,93.50178605149937,62.25862510036727,-7.9860033132339625,0.046321036404187936,0.23556328106015004,-5.89161061436581,16.64313257869996,-8.210358054848,-86.50715858156994,-63.81024264818525,8.022045185842067,-0.2461844171486871,-0.32555176603674413,0.5483840697639374,14.389236738492231,-0.2476256759367809,0,0,5
5.183171013934216,-15.724054026659038,7.746272173854814,93.64227612330627,62.30600809020021,-8.200448319906855,0.1191023958258355,0.12309640528680096,-5.99462736940935,16.54944229173777,-8.267318847177654,-86.65016880505684,-63.77628911412058,8.224576842312482,-0.3019823778268121,-0.4171023568673326,0.4371475134716214,14.603002599198838,-0.23008375133808492,0,0,6
5.2611820195395165,-15.499485317583247,7.778932002486944,93.74432996521634,62.34739411358177,-8.33640195893986,0.19149627330235422,0.036074662665824625,-6.054719800613945,16.40400597562995,-8.356265994623433,-86.76247048377644,-63.777004186269146,8.355313433783614,-0.3593496914040641,-0.4853259472495418,0.2884533340359805,14.65080982281934,-0.2112603924504901,0,0,7
5.352635264318225,-15.253142867643396,7.767997839921257,93.83907839054798,62.42168617413891,-8.451231431724699,0.25621659970108723,-0.04095999338245896,-6.069874709721734,16.26648213241199,-8.390572167112863,-86.79738379913644,-63.847702279644146,8.431824837567278,-0.4115571944812614,-0.5622146233213747,0.09981322070706145,14.72717888387229,-0.20234426093967192,0,0,8
5.385468837432123,-15.115463695668804,7.713792710968849,93.84608457546955,62.472714964856834,-8.546510573986573,0.3047746260884012,-0.15038823621562386,-6.050988809779826,16.260427326111895,-8.460650972243185,-86.81457940946648,-63.85097900343673,8.516450721998728,-0.45876203857590436,-0.658825730048142,-0.051562106014150726,14.749607800485663,-0.19712453856699388,0,0,9
5.453558566381157,-14.81187923545424,7.692031265895496,93.91396125091441,62.659843475399086,-8.58258532482338,0.3842817394319505,-0.21256076811230432,-6.08699031000814,16.121316630909735,-8.52913654928526,-86.89119556209224,-63.91147431485679,8.5539900102364,-0.49626648979403515,-0.6891592484953919,-0.17319067819855316,14.746137897148909,-0.1930222301650594,0,0,10
5.524392323829244,-14.522188924140394,7.687641239847565,93.9944038269577,62.84973435218091,-8.607832671423425,0.4396116394555306,-0.25211565838684297,-6.090708494237566,15.963172545529357,-8.651991442221597,-86.9618870765989,-63.992227494402435,8.587381174609545,-0.5278095879382482,-0.7420926559119622,-0.3434672831485262,14.661369120584201,-0.172539944883319,0,0,11
5.569606468587436,-14.237156625071703,7.65840694901299,94.02972012088806,62.99349120022954,-8.627926070849828,0.4759549505204605,-0.2979515759470403,-6.103342209767973,15.816151184332016,-8.786484715436382,-87.04783701876423,-64.03389545089395,8.66198675142475,-0.5362599523914218,-0.7725889350759488,-0.36672786030323085,14.480212378040896,-0.16290315563041727,0,0,12
5.610220054052801,-13.945654236843465,7.687225610766485,94.09460146244054,63.19321162286034,-8.647155783738233,0.5293945449758322,-0.323521017123184,-6.094330202044965,15.74632096424748,-8.905778760787234,-87.10552901880969,-64.12519263289313,8.689848425598383,-0.5712767371656161,-0.8139173855615762,-0.397707974777731,14.399239522418155,-0.16706757568591235,0,0,13
5.560401934907198,-13.864960831390784,7.786655719418924,94.100195930313,63.32991378403683,-8.687322779070335,0.5639110803963918,-0.4051822440258652,-5.998444164494917,15.768680844445138,-9.087322579038318,-87.10307375144876,-64.21456528867907,8.743094800769596,-0.5854242486237294,-0.9009161978144303,-0.4018918657756734,14.269070643671995,-0.18700666052431142,0,0,14
5.611212992803392,-13.538100836376753,7.847050875548129,94.19004769257042,63.48696938573237,-8.69930866966797,0.5912549180972586,-0.40376359248148347,-5.988056300540975,15.675312688565558,-9.219153120275996,-87.16570031617155,-64.29640730435966,8.784628633654112,-0.6130148083842908,-0.9131150580847724,-0.4594644408070555,14.145111123685554,-0.16605096842177283,0,0,15
5.676657304109515,-13.300900977684933,7.904737399357508,94.29174366159597,63.559377436442425,-8.74996377925628,0.5930079008837763,-0.41114285995204686,-5.994252989665468,15.551789584450672,-9.33816616181811,-87.23889848245446,-64.37184172582822,8.835539655539439,-0.621676674425143,-0.9416296713237239,-0.489162338949336,14.124106749725835,-0.18435934857755173,0,0,16
5.682352828103659,-13.12614527010332,7.995594277480007,94.3475842523972,63.6318974459374,-8.777435415994027,0.580873358887957,-0.40659218904884253,-6.000554266061628,15.36011066294146,-9.500200019920074,-87.33688691019348,-64.49763716892498,8.85986510809748,-0.6349840940792798,-0.9439592319551117,-0.48870890069445966,14.050709618431794,-0.19539749939993667,0,0,17
5.746506233656651,-12.841533998351974,8.062482398305063,94.45639046636097,63.78456799518797,-8.78437113240802,0.5877497341244553,-0.35710403325538265,-6.064766581996211,15.020105158687306,-9.596584857060469,-87.46462904243404,-64.7422093192933,8.849578717487589,-0.6607686402591743,-0.8731208833866553,-0.45245505722557394,13.99514035919494,-0.2075096844235292,0,0,18
5.791576944442272,-12.715232807633848,8.071497377530815,94.51008143148991,63.83152575424319,-8.84713700870418,0.5688620251647207,-0.35021068101537084,-6.106807250111285,14.799708244936381,-9.684910377754683,-87.56103765699905,-64.8717065167116,8.907186480536916,-0.666133100850324,-0.8646553585042477,-0.41406575153912123,13.949903403005854,-0.20985918180282018,0,0,19
5.814232681919204,-12.486813605703832,8.099110977379848,94.55648409274134,64.04197307038072,-8.840153431430059,0.5821082703287302,-0.29759992216876807,-6.149805852257455,14.460182154980737,-9.801941722773789,-87.6818355784142,-65.22026331594104,8.877945436068634,-0.7097683304515964,-0.7982868712709003,-0.38247170922370993,13.859531163434271,-0.22084920647121656,0,0,20
5.861286708885069,-12.364373450987907,9.862814402565709,91.44518008458411,64.16022643602258,-8.854185104346334,0.5728728503306298,-0.25036720983162014,-6.199565061021467,14.13390734275376,-9.878563714184146,-87.78292107257406,-65.47179371956192,8.883028043000373,-0.732017313192633,-0.7353920525051333,-0.3812965365697614,13.738238390966519,-0.207544174457499,0,0,21
5.968697409999042,-12.06180009746854,9.908621859431072,91.58961406860743,64.32046544142882,-8.871623173475207,0.5692764244706091,-0.15210220784563366,-6.284238489275292,13.714974519718302,-9.93641808962626,-87.91511523940613,-65.84895041565075,8.840815763563846,-0.7651740939444042,-0.6422852534675654,-0.4351052557991302,13.668755652912754,-0.21115591304322504,0,0,22
6.05962601087213,-11.687028758323143,9.938970420114199,91.71590364881652,64.66515140060405,-8.820956129292993,0.5972893927278885,-0.03144599115450468,-6.326028574825192,13.296640264235615,-9.979089004472605,-87.99772229148127,-66.37919435968155,8.736764246795598,-0.8328854323455911,-0.49549714093154895,-0.5091680298060779,13.52118484256467,-0.20595660086174214,0,0,23
6.138581717017008,-11.329558074185512,9.998991037887333,91.83959312594263,64.91133029191802,-8.820844188973883,0.5970435433386351,0.1304807021534906,-6.3871126641199085,12.81676883649362,-10.037886927359104,-88.11144361741111,-66.97444457829437,8.60480936392027,-0.9013065499055829,-0.34795490266133555,-0.6451684458344523,13.329910890404054,-0.18325713851292147,0,0,24
6.570572399000097,-10.407004037366294,9.960137346666729,92.27963708975689,65.31832242287062,-8.73297013443541,0.6207664815875042,0.4380654167958219,-6.769523429804698,11.791649699664434,-11.787190811025802,-85.31827829952717,-67.5228667326906,8.476493235187544,-0.9355212251838994,-0.017338512227799543,-0.7541914004632467,13.218093759038798,-0.17960408834274594,0,0,25
6.812522031950866,-9.803075903349555,9.957582049347943,92.52955549603841,65.54779109927657,-8.78201650501231,0.5957785699413649,0.6058912567619877,-6.96226496488011,11.1684454931901,-11.793694024106966,-85.5273699433264,-67.93969272014348,8.416826497083287,-0.9215184557576631,0.16849505677811935,-0.9868601620088888,12.854035315618466,-0.10632377142917288,0,0,26
7.08423464109679,-9.071246948403436,9.957255300893008,92.81225129844763,65.918001253334,-8.691259231162102,0.5712827558518057,0.802914790443654,-7.228751198650505,10.398648971929996,-11.779575089549969,-85.80454289328551,-68.56675256258771,8.30024620249409,-0.9570319845570313,0.40941754727916346,-1.111369344923399,12.642644752168561,-0.07980044058481989,0,0,27
7.347441103405109,-8.373636137770532,9.926247750655419,93.06570467061564,66.3019626404265,-8.641382682119788,0.5669987192217207,1.0145076773635717,-7.424719571221926,9.716007257198628,-11.760618310323501,-85.99848300860907,-69.14916891537476,8.162962398732066,-0.9535139830142794,0.6193042528818773,-1.331914181109993,12.402013144639707,-0.025990999928970967,0,0,28
7.836839525362155,-7.273272818656163,9.81971600534058,93.49431882598314,66.80121239038948,-8.478786793088819,0.5542146918658436,1.3043217791410826,-7.841262072849738,8.696600846916551,-11.666569699550822,-86.37238251934362,-69.9760330635547,7.931612895282509,-1.0282509256884185,0.9473825109017452,-1.5331702009904924,12.201998347389678,0.037141668677277244,0,0,29
8.43267961534468,-6.055671564133787,11.393946862425208,90.79137722961711,67.29720216028231,-8.270228189230513,0.5382826645915619,1.6450125828837756,-8.363539317923934,7.486325275039498,-11.51423009889873,-86.78941472952897,-70.61279080051524,7.720406196523053,-0.9772561372179885,1.3113967837325373,-1.600115759370797,11.867195454810734,0.06808140843898158,0,0,30
8.542909477038577,-5.241893700314149,11.38849931546541,90.88778545955485,68.07799691924468,-8.037831728970252,0.5794549668714033,1.812822596223881,-8.413245165835056,7.026279061023503,-11.473861110637973,-86.81393662398995,-71.37196315708874,7.522059713086777,-1.011614795854444,1.445546806334341,-1.8089004773095332,11.462839192903292,0.11554442936819631,0,0,31
8.912734338517149,-4.226940542656015,11.249688589491608,91.13787905935789,68.59282565306118,-7.7929909769609775,0.5518407421296144,2.032831237848674,-8.716491904605281,6.244755010851791,-11.33561443331387,-87.00832742135181,-71.82599458889197,7.302230507319697,-0.9639768597129253,1.6008604557402382,-1.959859041995113,11.157556935653131,0.14001320945244097,0,0,32
9.330884495920854,-3.166493987278692,11.241861831927102,91.49191154997412,68.92598212039017,-7.6131106217606135,0.4809111226065254,2.147479149249879,-9.04638491887502,5.442592495864118,-13.248570234848088,-84.18551847558084,-71.82429685430319,7.212408376640949,-0.8217912249484527,1.671241712388057,-2.1259050484500346,10.914299568431668,0.17146004146036595,0,0,33
9.877357686129818,-1.902503178373704,11.074753643407087,91.85780269146716,69.54037645538098,-7.264696347026002,0.4603555022099924,2.430352005004273,-9.581236542211208,4.441202212077704,-13.194671321264256,-84.63742141197687,-72.11942410886466,6.995002756884898,-0.7377020954787143,1.915950841295692,-2.2050049442071464,10.858406054135655,0.22588069002744493,0,0,34
10.530449275509037,-0.8394894554656588,12.78070748861223,89.19046105546445,69.57892757832084,-7.112081531265851,0.33192155360082676,2.4979666493039048,-10.264687468677486,3.3832629195461332,-13.162473822711569,-85.2197794295657,-71.8934654908532,6.963032241226805,-0.5392320371987456,2.0234680859242133,-2.220269765674196,10.817600693677198,0.25214710390021194,0,0,35
10.769645061563821,-0.42273698344811045,12.648653937957395,89.30036550688355,69.5413297324665,-7.008230498492894,0.20919578635228353,2.429706246239468,-10.463557817872516,2.95562582433038,-13.13493058020252,-85.3624576650675,-71.8619311421489,6.921236213284853,-0.4232062073597656,1.9712911873110934,-2.2232975702742896,10.520226917502788,0.28451247840409855,0,0,36
11.24865220447234,0.4226955262173543,12.653331254666972,89.68137693316571,69.5812303896421,-6.888212892388119,0.10545982596837392,2.5027158038679653,-10.978829850179217,1.9913493757022385,-13.060716273435714,-85.73898892074581,-71.90227013731764,6.768029000633122,-0.28375405971353196,2.0785143312440533,-2.14659933278898,10.375244521685623,0.2632581581532426,0,0,37
11.471225017634607,0.9630721179507714,12.884614996081567,89.97571994337177,69.57410451650792,-6.820026519894548,0.015823401726723585,2.470573038813857,-11.116552077056062,1.5759032115601355,-13.216169851477453,-85.9319476984793,-72.01752347582374,6.649722347723717,-0.20532409093560397,2.036303395796467,-2.158224290510942,10.132782975363861,0.2441784293132856,0,0,38
11.92572288048018,2.0217828317808335,13.023336632592212,90.37824400697744,69.90620948095979,-6.570124212345267,-0.03779424236722559,2.6419739464596854,-11.578207124378162,0.5894395749246603,-13.36269876689346,-86.37544996831976,-72.2327464009779,6.453118888759303,-0.12990660137805973,2.2355956743965364,-2.0014159842196713,9.987288842989674,0.21563748401976401,0,0,39
11.797624390143882,2.3349287098316673,13.251260695314944,90.37760902009734,70.53377125898561,-6.313640648696723,-0.0013373915100417966,2.649817540902431,-11.534676621250378,-0.029118540617432017,-13.671781848494627,-86.46929540135548,-72.95887789651762,6.195897878833744,-0.1812990366298483,2.2961250068866015,-1.9170327117040762,9.543299514141978,0.21999638486317818,0,0,40
12.121955069108292,3.145979502611186,13.575639385679981,90.78110807766578,70.61469740408684,-6.1453265338448935,-0.07616880003217819,2.7910771235322853,-11.928960390146766,-1.0593011890174642,-14.024668373041145,-86.95415301006662,-73.19767557676322,5.987228824099072,-0.10785922810597283,2.4487183951689984,-1.8355215322793736,9.240065543270049,0.1993801017990781,0,0,41
12.661914820170004,4.205399852719147,13.961560546871912,91.37186513762373,70.51427486439837,-6.022302788210966,-0.20645051193425293,2.984770404693223,-12.495528850667554,-2.408319605945651,-14.493783867117255,-87.61516704364476,-73.29298914345522,5.813842440457026,-0.007858153155084476,2.616149297244144,-1.746003698434679,8.876842666879064,0.19120414890882842,0,0,42
12.859335461713698,4.99546678155571,14.310615944104235,91.65936245579108,70.71807366533506,-5.8345778949277625,-0.2626354361487087,3.0941966919811565,-12.606446000146684,-3.240837698757123,-14.910872223356652,-87.87884266958115,-73.76818536193814,5.524869319943761,0.020975604662603013,2.7341505746948154,-1.6852532831402405,8.360254749138779,0.1840030654292398,0,0,43
13.26662647211073,5.856335624952613,14.73775619769658,92.15497620899356,70.55075173206983,-5.828196319048364,-0.3790947176908479,3.124608013464007,-12.928500518570187,-4.017681897807373,-15.33838573048616,-88.33857327447407,-73.75901338806732,5.3758581050469765,0.13110778267637185,2.742595144333607,-1.6593526393008307,8.072427282659799,0.1365465340901106,0,0,44
13.434293102082556,6.516600397248863,15.126908400110707,92.44205973119703,70.59309691891093,-5.808853217182726,-0.43680751757943,3.1286420427885173,-13.039675507690484,-4.602937077894631,-15.749953115454788,-88.62429792145704,-73.99021912117473,5.313560729627256,0.1542449600796953,2.7084485885969,-1.6561097138299958,7.6965783068289095,0.14446560538632255,0,0,45
13.417816124483547,6.891011512726936,15.80730495516784,92.79550288859758,70.5820948418537,-5.843590004633526,-0.4915930566531303,3.0305431574573687,-13.112165159125476,-5.24471800683461,-16.58779350813819,-89.13282880525745,-73.83143146806923,5.352428404717113,0.2476722697624506,2.65769569550012,-1.5093402144543127,7.535799417825429,0.12321291893925992,0,0,46
13.594290283390105,7.832512490532907,16.57380125583189,93.29775759562857,70.9651739020122,-5.754648181593396,-0.48945082380155774,3.1111869221011377,-13.271574944164403,-6.197148770102072,-17.19505596658325,-89.53645955745881,-74.27225367715123,5.282142462155045,0.24673504716728284,2.74612093638819,-1.554292700705237,7.143308301558939,0.14555896717555605,0,0,47
13.522078962163791,8.329843337420993,17.251416989965968,93.60281462264776,71.26757613093655,-5.721545494541622,-0.4666490139487071,3.139108192723987,-13.237469248317591,-6.730817887593264,-17.833797534703866,-89.85653253016665,-74.56250636168961,5.244442102456257,0.24443974352290446,2.7740434057494396,-1.5609276089836472,6.805637398464314,0.1436595219546912,0,0,48
13.343899817285669,8.866735767881503,19.664707993724733,90.6565816759476,72.19992250501687,-5.471893574926136,-0.3972865697241414,3.2875691678175682,-13.231850563951609,-7.565645543468339,-18.401353769749576,-90.12184296072448,-75.25784201999184,5.088735778165906,0.18979949648346114,2.936846998302414,-1.453540113182723,6.28712281054016,0.1372444345139475,0,0,49
13.447750282294773,9.687912652128647,20.376699695995395,91.09531368196285,72.55966934663984,-5.339084116025553,-0.4193098793680683,3.48594809082267,-13.448682603116481,-8.76101204134011,-19.287048448807177,-90.7171969107915,-75.59057459877616,4.923216603517804,0.22164102988590317,3.104986671302071,-1.4356225539332417,6.000633666645704,0.16789460908437667,0,0,50
13.414418105371466,10.33329064185658,18.96204039785664,94.36930040503631,72.72584773506368,-5.299375429756401,-0.4771068312397498,3.6377010796160234,-13.382567225724403,-9.30812899522777,-19.708894443909877,-90.87583098052002,-76.04059067419381,4.813710019060995,0.21376457631317258,3.1705606538579088,-1.7130521549364603,5.631527886016711,0.21156979298393683,0,0,51
13.214603482523682,10.698032231579148,19.265668962175518,94.38202461585905,73.32000298666935,-5.198929523732113,-0.419978971954752,3.6648004637154243,-13.146458685174464,-9.421810330217536,-20.04666465097326,-90.9238031624016,-76.51969858309654,4.698773151703141,0.16651990169731917,3.1465476296981683,-1.7392346036623019,5.332303619882877,0.22177681515689096,0,0,52
13.20163892970535,10.863662480626143,19.64905950515316,94.58246428136684,73.02836911435614,-5.229294024857168,-0.5191261253570442,3.6391644913345877,-13.055796461679007,-9.542906801692432,-20.186427078286275,-90.93728104643803,-76.73686779117747,4.683396001894984,0.1797748978629899,3.0185179726534748,-1.973109821689157,5.099993513130335,0.20147209141863406,0,0,53
13.68739686083478,11.936575381954622,20.22258649451239,95.13085263363146,72.66196384632643,-5.226741463674252,-0.6516190945006153,3.7607123301990115,-13.479001812842167,-10.6402355766734,-20.645204507057127,-91.40142977860974,-76.76842229459338,4.5763363904987475,0.2520537993187696,3.0325117322975674,-2.1783226933586604,4.966108749425653,0.24187050826456258,0,0,54
13.992634599748065,12.963732695124394,20.895883610294206,95.61359909497989,72.54376312181483,-5.1785663136666145,-0.7079677904629711,3.857322148676839,-13.72899442042745,-11.605633251712133,-23.23913547299439,-88.81605001060281,-77.05584271218581,4.486124515119333,0.23189778646078713,3.065142173626718,-2.362781357169562,4.742265684257483,0.2174318417972673,0,0,55
14.457917331293089,13.90575906322181,21.447168861913404,96.09880191743946,71.93533261685056,-5.290858048895813,-0.8577874082018532,3.820770556120355,-14.164932951750806,-12.34151526147971,-23.713143072319955,-89.29733269852626,-76.26163294224926,4.698991738932181,0.3750819608406628,3.0042164740436523,-2.4892098266531058,4.514709203985962,0.2628652640934819,0,0,56
14.68117913978788,14.36131879526126,23.968565560816074,93.49664688287076,71.5364889813246,-5.497002117557343,-0.9330461064407755,3.6432007468956726,-14.322160491349916,-12.866828853060683,-24.38609338751902,-89.78151893342697,-76.03663955181717,4.902370671608904,0.40713548167623576,2.7793057712439686,-2.6382226172393337,4.320870438797291,0.2937128338147391,0,0,57
15.131406426854904,15.215831239421767,24.51121635716145,93.98548713881542,71.21077372448052,-5.753184423010539,-0.989298142476776,3.4240794829262016,-14.783169232021804,-13.709430775431043,-25.028067186102312,-90.38487818956547,-75.6364604827758,5.160009332360746,0.4831589655141801,2.5647678285341047,-2.6400587812752843,4.456117578493284,0.27943205417213335,0,0,58
14.783809562256492,15.417949322448568,25.653033222887405,94.53537715998294,71.63340186430094,-5.964073798374444,-0.9069230739867402,3.149643853092116,-14.54047895043291,-14.182607684054021,-28.136281092546938,-87.91249230443181,-76.06479263725996,5.402561640239823,0.3512345423105623,2.291411579159033,-2.5904464364145436,4.410412610949027,0.2744936917024331,0,0,59
14.606760813686007,15.2504283978452,28.27691777592701,91.92605165823865,71.79448889883119,-6.292061794212527,-0.7912940632384765,2.796912669868549,-14.427149036629473,-14.288401882898343,-28.816912656714358,-88.35850129347703,-76.38917793873186,5.676019904894267,0.25572228320659035,1.8523375264691748,-2.6029505807702167,4.251821545280136,0.26302713973244257,0,0,60
14.733054426534126,16.0906573142081,28.865469584136736,92.30240538734137,72.26977398871219,-6.452379578081637,-0.7462076460264362,2.593943929549824,-14.4924217394327,-14.80442857041189,-29.36330188744425,-88.75780079525585,-76.9144880358394,5.802181732743476,0.1663935197757385,1.5468794694532189,-2.654932586621004,4.024313243843609,0.2776064867964265,0,0,61
15.029698079924243,17.16971232389764,29.83603777912815,92.94814849289469,72.05425833961489,-6.618105972900084,-0.7356395578711995,2.4758645580523675,-14.766085221360308,-16.1082683191848,-32.35257337430924,-86.3501037178428,-76.93255442922279,6.021094113683056,0.14718276546534764,1.309366664746401,-2.8278158759769427,3.626582269133588,0.3102759908738714,0,0,62
15.397684766742435,18.432564129619134,30.814001917845918,93.53629174046029,71.46519152432437,-6.748733073784935,-0.893081109471845,2.4721108002868255,-15.2525808129201,-17.416262984690164,-33.2817297068921,-86.99599118178601,-76.05081486638773,6.242834992351317,0.30624294671939667,1.2339924743303479,-2.82102681601008,3.142471704189954,0.2889830935303845,0,0,63
16.074978277671946,20.02344082430965,31.74447857340453,94.12696451690068,70.56241526018242,-7.045265747037347,-1.111918600613741,2.463925205117015,-15.914287832163643,-18.729630288993132,-34.20720330515162,-87.66722318681306,-74.6868610500782,6.642416005410224,0.5752393446146451,1.1671996919520715,-2.775766128608013,2.595650635280205,0.284052112791633,0,0,64
16.851493946674236,21.802065780824893,34.51196482520384,91.61684925298178,70.15961326016861,-7.242063247746887,-1.2481388164891893,2.4645737623630732,-16.802193641245083,-20.735127425288724,-35.01415470762534,-88.17062015829097,-73.86881572746486,7.003412527433457,0.7648895629886071,1.1860249829251344,-2.5280949982799115,2.0636982147970078,0.23074057561176065,0,0,65
17.275619665828053,22.943199928179634,35.510425275531894,92.18599317002376,69.4825617347209,-7.637007205398407,-1.3509825847464234,2.351579082818144,-17.250284786649186,-21.98118074891721,-35.7906797326631,-88.59720234290721,-73.36685391904099,7.390263145390686,0.850426094949471,1.0219907587306127,-2.3890408897187774,1.5630463871281346,0.1633387508694608,0,0,66
17.921383316001496,24.144850835650516,36.08646571038191,92.47976439013775,68.64072219451187,-8.031952758648137,-1.5712662421033872,2.184120842065919,-17.945703912088618,-23.284228002443314,-38.03632730592367,-85.59032438995398,-72.39032491625171,7.781431133633916,1.0782464968513366,0.7977742419448269,-2.2393406511414327,0.8453368904045054,0.13186223443719333,0,0,67
19.341852635047168,26.402984080059728,36.679864381683366,92.68783160422592,67.2212596523178,-8.37563273419941,-1.922012358405307,2.1747974453670817,-19.328576454847955,-25.72987508263049,-38.38182620502413,-85.58195699473133,-71.06371003056276,8.180701686319152,1.4432006868742875,0.6995702346988382,-2.1353374489690875,0.21485919323285835,0.17439556307250748,0,0,68
20.000696097481182,27.502256357499327,36.88341349543594,92.63920126446871,66.34000348728239,-8.668527304926362,-2.1344171005831765,1.999482789062055,-19.896252259787932,-26.823368452197524,-38.45540839013039,-85.43335506273593,-70.30428099825517,8.505331792119252,1.6551787804780846,0.49037635048616446,-2.1676470926906446,-0.8682799867250158,0.2191152253909312,0,0,69
20.933271343734507,29.16320537746498,37.406968457902344,92.65731260053866,65.13041538534011,-8.956515050092847,-2.5003061748017315,2.009647133248657,-20.858383442127195,-28.383037250995248,-38.98525236278514,-85.52399167770896,-68.67685912989849,8.878366610502923,2.0779707520132358,0.5172284934622025,-2.1988964076741997,-1.582368365324328,0.2168756333830199,0,0,70
21.50198021478645,30.66751720357149,38.16820318843452,92.73701144073593,64.36240821890621,-9.08422329482873,-2.7143618153736915,2.144204007693411,-21.392553754093676,-29.924444101778192,-39.78997283729867,-85.61297330851521,-67.62563937602675,9.12343893661881,2.3705048885039557,0.6686120283229432,-2.2962283144263504,-2.329298607978325,0.31460477280888444,0,0,71
21.903817319131225,31.858871378952696,37.14310992979488,95.96780309438103,63.63818039598093,-9.16713816899005,-2.9461124993297982,2.2421421228544367,-21.861463316087974,-30.80030623979387,-38.54915462113731,-88.9202862185243,-66.54956103526729,9.288126208770825,2.6532701996585737,0.8177385653270515,-2.2857270454533904,-2.997644669288334,0.3286305165884879,0,0,72
22.509339202262243,33.16711370443713,37.60672044536774,95.90691797899039,63.20390276634545,-9.037163223688198,-3.1527060237574025,2.420260855022611,-22.47394686953053,-32.13934105164549,-38.587582891510664,-88.58485444178847,-66.18211269900867,9.251579674303343,2.820075027621127,1.0912302101614777,-2.445101004289269,-3.5944098217554443,0.3675970905001206,0,0,73
23.072981780497326,34.34940526902291,38.00060882220828,95.79854091243091,62.69827759062292,-8.964139764841715,-3.2742157843193778,2.5106847697737873,-23.017404531220933,-33.31815925524655,-38.675886907250934,-88.29972854185053,-65.77818140803524,9.121703602047806,2.983990073584696,1.2802231631258993,-2.5453674842104816,-4.243041778015981,0.43272319219573535,0,0,74
23.38001927425691,35.446087644137904,38.008458924247954,95.42724949938103,62.8498459843527,-8.81489075001922,-3.281695984710451,2.528952941198426,-23.505033934182947,-34.60841105825741,-38.95676232668072,-88.06070312096585,-65.51293580068062,8.970406932912734,3.061096567735724,1.3756023429572592,-2.4640973607944288,-4.732935463595565,0.4416941792224751,0,0,75
24.191874342024843,37.18573848838992,38.40490327818243,95.0967785695721,62.40664169485423,-8.745330768238194,-3.4532080456628695,2.559023355422178,-24.44904803974875,-36.43953424249958,-39.58360556220537,-87.87365333157608,-64.62714487711972,8.944466966359691,3.263663680658148,1.4942607823340388,-2.3801830506449773,-5.155209286845954,0.42783730806579207,0,0,76
24.789020705686134,38.733445556290185,39.064245526640626,94.90278996886856,61.85313595428186,-8.800277662528423,-3.5653841031990496,2.5277910572588076,-25.100490992217054,-38.10937655610995,-38.961818565818284,-91.11134708236575,-63.68516240476221,9.034377318026852,3.449959933787336,1.5233482710668491,-2.2991281947284663,-5.441152086987706,0.42702166621974874,0,0,77
25.378947559394717,40.19158549303287,39.66323625615347,94.68236401103111,61.391594696182125,-8.852374943979168,-3.6704647628780784,2.5204075828269183,-25.727357216504362,-39.76915674996851,-39.82614192797375,-90.96049209920744,-63.018686706008324,9.13309707654361,3.568249403928375,1.5175375753094311,-2.190141437410216,-5.476666584264944,0.40698716323842676,0,0,78
26.03735730481644,41.79611901117188,39.584293456737235,95.61896134012648,60.975855070543425,-8.925961575141494,-3.768912908789131,2.4895124243346975,-26.406810774758892,-41.52531470941327,-40.53818301066901,-90.64173792000426,-62.50390816329691,9.252138715682447,3.651364755644897,1.4951317770194412,-2.060493607958322,-5.477510613527031,0.34167926361281664,0,0,79
26.607980336383275,43.366422178338254,40.29780433925871,94.94356298442796,60.664495501295434,-8.969565114358742,-3.8543417719006263,2.485128551656383,-27.10844707989033,-43.16586319329917,-41.22852753696743,-90.3217034898918,-61.92736482239498,9.305883264143285,3.7547607556868927,1.4557976068233769,-1.8858521990421997,-5.273015729837726,0.3080311742782336,0,0,80
27.14977996965266,44.81309293194499,40.91364306673207,94.28437417183399,60.423306206203556,-9.015362041664202,-3.9126382324690923,2.438087491742939,-27.677099601881615,-44.73053513557296,-42.304064088278935,-88.69428959289748,-61.66540839176053,9.406299553319842,3.77764898145669,1.4279749557505594,-1.753972925058553,-5.06995700543063,0.273799055984889,0,0,81
27.679167441652837,46.17904272755919,41.55685082154661,93.69829040959564,60.15623489210582,-9.082516360365524,-3.957381204710571,2.3680988641107548,-28.185707930879325,-46.14912780166626,-42.760277836389776,-87.98304437643063,-61.452456014340996,9.491133389558215,3.800301810640439,1.378474333243178,-1.6923577841034028,-4.813918706261838,0.24197343341714497,0,0,82
28.042668401733625,47.06751356557515,42.01187857915801,93.33661498856307,59.931320713534824,-9.187075706374424,-3.994930262863019,2.2971019825291834,-28.563193703285712,-47.07719113552326,-43.077682517433544,-87.53108689653301,-61.27885410200547,9.607848405087456,3.8411038391525225,1.2903492176979605,-1.6164568294871542,-4.632309417274207,0.22086174920674126,0,0,83
28.33815433805942,47.54738572049229,42.18324614636676,93.09447239492636,59.72992043725375,-9.296797252434313,-4.059798286578859,2.186176553698205,-28.88604820761575,-47.557022154604,-43.098188628085744,-87.20698358269225,-61.11046657222937,9.741484285289417,3.9070126231783715,1.232487206176213,-1.5486717078460805,-4.486284260341277,0.19335656961774267,0,0,84
28.587753355993783,47.82965334794619,42.31436445720951,92.97213603902847,59.540550630781674,-9.437231457865133,-4.107518015005749,2.0591043444163555,-29.142634509071033,-47.881907756004324,-43.1217219795905,-86.99555937162953,-60.96546893478552,9.880465280381628,3.9415469875247773,1.109878229339131,-1.5249921667494561,-4.342642976472079,0.19189723170810902,0,0,85
28.703678741681827,47.85448442422509,42.37313520518267,92.99341838996938,59.39484123101636,-9.571309288984079,-4.134730521765897,1.9322173600610828,-29.264567046134104,-47.928548268819696,-43.07296411215591,-86.93476344579533,-60.84962075875276,10.004795768088421,3.9852521986459424,1.0151028178440522,-1.505460372526204,-4.255491403849529,0.1664202796422291,0,0,86
28.776454407288313,47.80827753798297,42.400983291918465,93.04692332810045,59.29737645226006,-9.714349226387796,-4.1662681122045715,1.85119295896972,-29.34843493895269,-47.920998703294075,-43.09165136892087,-86.95585830852843,-60.718956478913555,10.136172968735195,4.031640788939909,0.917340950558068,-1.4560348491504154,-4.091114424547554,0.1590371140802212,0,0,87
28.77147519938337,47.678731846693005,42.35055483885143,93.11259025770633,59.252304471278684,-9.827303052064831,-4.170406769583267,1.7569426427362835,-29.399582810552328,-47.73101542419883,-43.04176919498931,-87.06125666548647,-60.63686529378067,10.270437224870214,4.029376084140994,0.8710957606812566,-1.405734044521927,-4.008491907246918,0.1482511885170421,0,0,88
28.80022688069454,47.53756686418585,42.343701084769705,93.21385658528656,59.20979409160851,-9.903730646255804,-4.166788192124374,1.6894627636106194,-29.40534749021182,-47.5829667096507,-42.94710850041981,-87.10543973637687,-60.644426165444074,10.342253281046466,4.024232801657378,0.8223162887073703,-1.3627101813731903,-3.8798745542733033,0.14171527371927806,0,0,89
28.93385953180584,47.278949640229605,42.138787533832364,93.2807237106182,59.095692074452714,-10.002310663000875,-4.21301590631798,1.6296396817720809,-29.533369140919955,-47.3105239474745,-43.561052557275865,-85.54133999638256,-60.45459583251928,10.472598366938781,4.0796152363421765,0.79125920521913,-1.3460129985170783,-3.7885883947556844,0.13614541255081605,0,0,90
28.90762477520382,46.983280202635854,41.94062225336496,93.37465908198848,59.125550911541424,-10.074248263915894,-4.201966030960111,1.5496317153527808,-29.48522655255512,-46.97900937916857,-43.3846889692162,-85.62334740467985,-60.48616602298911,10.569336378858575,4.0726415625301255,0.7420499811744672,-1.3035156003897939,-3.72498021999802,0.09854953978728008,0,0,91
28.916746492840375,46.817817122077095,41.76421758105562,93.38425645221412,59.17239161391958,-10.157695236986513,-4.2031474335367465,1.51370599044765,-29.519650705971983,-46.703102023293894,-43.20066727658014,-85.68189775554455,-60.5114466558492,10.643113161361555,4.070833947869631,0.6988840307994425,-1.2029031237417522,-3.5855845332332614,0.06918586910333778,0,0,92
28.92325224802481,46.69501904938835,41.71505410549675,93.44444133335534,59.15716763281371,-10.226046273025634,-4.192096645928837,1.4520848449053196,-29.52603351775136,-46.535873012875484,-43.080966527590405,-85.70942598298713,-60.505346599042994,10.734537456506118,4.058719542096132,0.6684716132372643,-1.1371412892233583,-3.4755796305368736,0.0456713458442584,0,0,93
28.911384794341913,46.60815782054837,41.68988646762641,93.49238314087853,59.17444598739839,-10.305663679033263,-4.17314531707596,1.4062705802521611,-29.511522780859668,-46.44553320902351,-43.061713952134674,-85.74789965704467,-60.51904162011944,10.778806452622838,4.052547022492486,0.6279066380770739,-1.0673613592370885,-3.403908110853157,0.023566671542841953,0,0,94
28.87998299963278,46.63570505261764,41.73144309243672,93.49731103186011,59.21757438839366,-10.390614094303473,-4.1121725972616305,1.3909178353634541,-29.5015165537256,-46.40089676836728,-43.11598774377687,-85.80331701618884,-60.53898572521505,10.86476920967047,4.026683136281875,0.6407075232026864,-1.003907326688206,-3.328140639211527,-0.005749341667898291,0,0,95
28.837366034306484,46.47631727009394,41.63471014365641,93.553361107756,59.232664381172356,-10.448390444434427,-4.123049753363401,1.3708428458132553,-29.464940890720182,-46.206845827739194,-43.06143293177556,-85.87552626652275,-60.53239284645086,10.923020263193688,4.024515580410997,0.6366815705216462,-0.9365506562881817,-3.428110375282894,-0.03437598398929499,0,0,96
28.846214544376238,46.429932688525945,41.56751482274902,93.54524204007564,59.21017239792856,-10.482748329049498,-4.123866981733384,1.370644724715756,-29.487268779116953,-46.070434081776355,-42.97942091432138,-85.9091273201926,-60.518532178437134,10.972019294221601,4.025881931080528,0.6295685518607514,-0.9083054488410096,-3.4231016294214673,-0.04561703807793532,0,0,97
28.78678848350254,46.234473850978546,41.48353852624898,93.63489814448448,59.261952888277904,-10.54705902147209,-4.105038496210482,1.357504562322065,-29.422897661284168,-45.91045462932351,-42.9485751550893,-85.9729782044479,-60.56418991264416,10.984602647273787,4.023540249274772,0.6234895406684795,-0.8532441035114793,-3.5557057132212804,-0.07206979971080013,0,0,98
28.747344141045716,45.969741434969,41.289874340846694,93.70503189850753,59.29298611575812,-10.559216692987965,-4.119547062801033,1.3667296579681805,-29.359154920855023,-45.68515799771251,-42.90180515047883,-86.06147186790155,-60.55445763586391,10.989927351417148,4.01792291672258,0.6398974217042641,-0.8138700984893644,-3.740128600330199,-0.07662622937362985,0,0,99
28.706772817375843,45.714958751957205,41.07772613701518,93.75418317474742,59.33293278662531,-10.576690133881003,-4.129612482297101,1.379697328534394,-29.323091522037355,-45.43021691046716,-42.713984111949856,-86.09421475865426,-60.614607098616986,10.998456601869853,4.018240021149688,0.6531267225778337,-0.7693665536084571,-3.87085645020856,-0.09838614631205299,0,0,100
28.639741340861335,45.32233193567599,40.82178831941199,93.87541910485561,59.376712003740394,-10.581799329630059,-4.125262215689981,1.3584783193364278,-29.221072401499463,-45.09055870241077,-42.546014732793466,-86.17279458878619,-60.67634882960189,11.016970081945127,4.014369881661478,0.651080650877884,-0.7201315002661636,-4.0334247952347795,-0.1263307060585135,0,0,101
28.49156038681791,44.885330422851844,40.57169067636558,94.02896102895163,59.508488512783465,-10.610477178670568,-4.088652422846387,1.3532187362462076,-29.041322313112236,-44.59718376662053,-42.29106299919621,-86.27673727896442,-60.86515510776967,11.023012045184426,3.977427909262721,0.6415019070741457,-0.6684246004367626,-4.172962544622028,-0.161573419740576,0,0,102
28.394909794967646,44.33016517757015,40.60230193488375,93.62306826024894,59.53773613873701,-10.636106372996393,-4.104721902526044,1.3390057035358445,-28.952000514241394,-44.04967251688302,-42.09402890936495,-86.44848983357649,-60.84679054984185,11.0672177237939,4.009075737320536,0.6214407202230173,-0.6005725753767187,-4.276693911597674,-0.19174420736131514,0,0,103
28.188771270722075,43.763129182127024,40.309295618047535,93.73079484685056,59.706033713334065,-10.637114714823202,-4.117332342083384,1.334767617408427,-28.713589346167513,-43.40953113483508,-41.793866677949104,-86.58798666798656,-61.04637230561916,11.068910491668671,3.964966021165396,0.6107634318885797,-0.5603491524390403,-4.503452479995711,-0.2024373437344972,0,0,104
28.062730374873244,43.250274805940954,40.06326157584863,93.84207204451057,59.77515924955683,-10.65229450556938,-4.099925585380283,1.3315862224120436,-28.565276910982565,-42.809668329700216,-41.458430981487005,-86.69780295210919,-61.21171002882135,11.096869130762778,3.944466880531726,0.5982436797110199,-0.535082397727728,-4.627299685907061,-0.22684922911241268,0,0,105
27.91779205313828,42.658967490973,39.76366120311746,93.96082374184596,59.90051580711565,-10.670906920807028,-4.090597722606713,1.308187393866027,-28.415094711512324,-42.210411129018645,-41.14479126428086,-86.81433065417637,-61.35887734324942,11.117286041651388,3.922854781453632,0.5925499891653365,-0.5465257313474229,-4.831553700847324,-0.23064920352457582,0,0,106
27.826528772995864,42.12448110979503,39.590518978111525,94.12306201213232,59.89518607096021,-10.702543568908318,-4.097280120637874,1.2915360960688078,-28.266572248010398,-41.64282476637383,-40.82268894452162,-86.90491590269573,-61.50325137041437,11.134900360346668,3.9246229997805497,0.5905885588004787,-0.6036637265737592,-4.936231007062479,-0.22810902962135574,0,0,107
27.666372789790113,41.41673605207693,39.343334048087186,94.3160182202871,59.91724048870319,-10.732539142336512,-4.098279504195587,1.3133665904807013,-28.058661289675207,-40.91605553938648,-40.559726293128996,-87.0917652606829,-61.5755150803483,11.199376503669201,3.924835267066985,0.6267630709383403,-0.6648694432078252,-5.083130892327363,-0.19860994962969253,0,0,108
27.465452530070433,40.492447522100655,39.09439257312195,94.60193625680573,59.8882669725574,-10.813426627626953,-4.124212446184494,1.3132659443915107,-27.854899671260803,-39.985172416471904,-40.16801281615446,-87.30439150871699,-61.618136119979525,11.26797870188868,3.9272527191671616,0.6497741694293814,-0.7448090103556554,-5.216729894666507,-0.1821865221366201,0,0,109
27.126427552880386,39.69705933394626,38.9191452175032,94.82954775043561,60.012421039431636,-10.855872174383395,-4.123142433226666,1.3465136426500561,-27.550230545595923,-39.1500535051146,-39.89812778199953,-87.50645028316045,-61.796383253164045,11.30539939913438,3.891291947113858,0.6724638604554966,-0.8556501237962163,-5.366740167022027,-0.148913831200733,0,0,110
26.987679090080746,39.11998934731964,38.79001820924555,95.01298127668124,60.03466630901736,-10.92243136321172,-4.134308043897185,1.3998588336137365,-27.43427613160391,-38.494493120189084,-39.99801176584462,-87.8587001082574,-61.53738715136925,11.403558329817509,3.9637284200232914,0.6801250284715656,-0.7712098747412107,-5.351512009694328,-0.1733193012235869,0,0,111
26.617132789871093,38.02903971056288,38.60810582027752,95.35462761885985,60.07696252033136,-10.988184176620901,-4.092994518919118,1.401338759986039,-27.00068377026045,-37.450903515074515,-39.8589871698719,-88.18473386853991,-61.64570428209583,11.535069012537429,3.9323145020177583,0.6605367849346103,-0.7736770247129929,-5.457380053089628,-0.19722953972264654,0,0,112
26.33706259050201,36.89481545510689,38.43490575882676,95.72097426838475,59.93413814958942,-11.150026768666892,-4.128642567445009,1.4117764639302475,-26.722777033310972,-36.403819592597245,-39.861131207083275,-88.61666223805842,-61.46084471310066,11.719734012084773,3.9474577266920563,0.6126874766017274,-0.7079741049538829,-5.5263544661424735,-0.21084663781992272,0,0,113
25.99965807569255,35.74812332589805,38.167357480071715,96.0119137927182,59.91360521747907,-11.337690499162127,-4.110978840515833,1.2904488389452633,-26.398684557193867,-35.206946560609005,-39.85116280845809,-89.08449160588629,-61.22281943556748,11.958693489785187,3.9785580269996315,0.498535289516195,-0.576481815684532,-5.600777249556321,-0.2752361176740644,0,0,114
25.430250817797976,34.356822076315765,37.95971136953141,96.37066361889887,60.05191611423657,-11.443327961469253,-3.994636704289667,1.2531870729389785,-25.780675380712776,-33.85149522453491,-39.72872086548812,-89.46384881293059,-61.414239865541674,12.195077223082041,3.8242698088914158,0.45167780520692535,-0.557565601732243,-5.519248946769748,-0.29307114286114005,0,0,115
24.883555646440985,32.90860679905537,37.752021287367846,96.72766757610964,60.11791841338696,-11.657837402602292,-3.9396803143581405,1.2295459717603265,-25.221622689599936,-32.445474247361695,-39.62959762545271,-89.87232873860955,-61.54283226955427,12.41587629719629,3.7166134968863807,0.3542238951285289,-0.5069737884422286,-5.259352284295736,-0.31658258156089486,0,0,116
24.425296056910028,31.75974015378881,37.55899615695759,96.96855278154634,60.253220190257245,-11.807885894618634,-3.855817000174257,1.2536971962784726,-24.74066638145703,-31.2472425888954,-39.53786542895769,-90.19402851216938,-61.680876805706326,12.597069851494268,3.6021632613565933,0.32147359014422405,-0.4863341670930808,-4.931852808515148,-0.3062373074220303,0,0,117
23.941703295747494,30.44304875496477,37.50918430849499,97.33049436657397,60.23566434852467,-12.01405744008133,-3.7844953356459525,1.2972232013117861,-24.244068940114786,-29.9995041322374,-39.54768704562551,-90.56713509097047,-61.70332064589173,12.79822468551161,3.5237985229781508,0.3156960532492785,-0.4629746402642486,-4.4812749431857695,-0.3113937630362761,0,0,118
23.182047948711382,29.184257274468955,37.43441752870829,97.53908189304222,60.578803745440084,-12.157347982870021,-3.6400242988582336,1.3886241202843692,-23.558126702148748,-28.498034696177317,-39.61605381384363,-91.00043795241308,-61.89619994583113,12.96707867957414,3.343142549174573,0.39221576966993593,-0.40419854683608775,-4.050672272301218,-0.3048047215228462,0,0,119
22.64353705152736,27.679848924851647,37.06061149642096,97.69599708864325,60.69134676807992,-12.33002854967043,-3.540229502322912,1.4994562506817064,-23.04652333519999,-26.91978588609886,-39.36513944364093,-91.27562695338814,-61.85999264055146,13.144189705689122,3.2922759779770923,0.49501648464928527,-0.36349287396505636,-3.6468745554668986,-0.3095974385515395,0,0,120
21.98827090067114,26.00832651114427,36.62009240368458,97.77783573559341,60.81298257372135,-12.494373506915043,-3.4421900162959513,1.5745575416637965,-22.343070199749327,-25.1116670548973,-38.9635467061693,-91.42617550632528,-62.042567852969135,13.267625070798076,3.2021307110574293,0.5556539392124777,-0.31927142486447585,-3.3721236017057357,-0.3009764753780673,0,0,121
21.28841556736578,24.246193504952853,36.19042029504012,97.83002764813692,60.958657648066215,-12.627577079281284,-3.370240234362061,1.6785291310568553,-21.576787861671015,-23.304152683952857,-36.81403717079461,-94.6358091169737,-62.270799716014736,13.34024240316046,3.1120208293155445,0.6565673806231022,-0.3483186247530684,-3.087783513824574,-0.2843050293171074,0,0,122
20.919344588016852,23.414951803492222,34.08827746854407,100.81583062112777,61.13698785370124,-12.625062271704568,-3.3013634740148383,1.8243937327201336,-21.146101745819397,-22.019792760836594,-36.28764468502538,-94.5406143499412,-62.465603113816215,13.346688895976772,3.0718360903020874,0.8195880923182475,-0.39709612112059234,-2.8281893374465126,-0.25353182602859786,0,0,123
20.3193192996204,21.736118079127984,33.49397853160701,100.69335271828588,61.28082538673505,-12.772911913947459,-3.2442605142844476,1.8913860175507573,-20.5015128881832,-20.172552508284404,-35.55019200089533,-94.34252147685335,-62.67999548087609,13.500755342277648,3.0121993402008527,0.9047642021712917,-0.4210961884023635,-2.658878155077247,-0.22430013748936578,0,0,124
19.913662411982298,20.553419562994556,32.791933413440674,100.41903223383261,61.58397338133694,-12.848268866790592,-3.154461751197794,1.978138968019812,-20.059293997918015,-18.862247275298976,-34.796545617913736,-94.0392351977288,-63.06597488231772,13.535789261773097,2.9223636341434216,1.0162564595343426,-0.47829990604422656,-2.5011163230643283,-0.1833546491767226,0,0,125
19.731991332891003,19.271131804082238,32.189467376178676,100.31217811497834,61.44425245041798,-13.063811707133656,-3.185539738695096,2.0638285211887704,-19.892545174615908,-17.668221060445735,-34.116057343282776,-93.85115823005208,-62.97488053204345,13.711580864967914,2.9495658402148575,1.125803563806967,-0.5249299237739787,-2.2510947622743296,-0.20111162050804027,0,0,126
19.515424817330118,18.186341291790686,31.477761936607607,100.04853686400715,61.48367569937659,-13.20909294260643,-3.1904928590727595,2.172539917353653,-19.671163375690163,-16.583435398174565,-33.332654919672365,-93.52121805276656,-63.051976946870475,13.83707877668199,2.928913684273565,1.2701993928744089,-0.6227371707948938,-2.043534685567905,-0.17298968004132198,0,0,127
19.16143831076316,16.90411974578879,30.519392127717296,99.58898665096741,61.675991093490275,-13.30681762995692,-3.108469596511338,2.225582257065048,-19.28154547977054,-15.369144640308717,-32.349689094529495,-92.98424116295323,-63.3787794474933,13.909868555622522,2.842279051890106,1.3599548796153325,-0.7393184481248477,-1.9264104062024776,-0.15088577365994002,0,0,128
19.211247465285478,16.03672910668968,29.65800284698621,99.2932348111405,61.48247714539795,-13.468893562510281,-3.1836464752910567,2.329524129291351,-19.2594378649745,-14.503200971615156,-31.39779198749417,-92.57553464268241,-63.31042857462114,14.025639041508656,2.8775375290890297,1.4669367890765304,-0.8277636788214358,-1.7624961057104056,-0.13737392509131802,0,0,129
19.075453059301868,15.378697754119866,28.798370633293036,98.85186081964284,61.72109447657175,-13.547480666449157,-3.129235600422097,2.443868165795249,-19.124019119395243,-13.719505315974402,-30.531796462929478,-92.14064217842007,-63.48751261153548,14.123992550759748,2.810076038817396,1.6268400300049821,-0.976040608790535,-1.6140517459474122,-0.09870688692112692,0,0,130
18.954309409087937,14.776481907542097,28.134389515379752,98.52554547531373,61.90487832397469,-13.664182371084967,-3.062003262500256,2.566443129090604,-18.96618710805459,-13.109710648588099,-29.847127137540838,-91.7535898937948,-63.651688016650034,14.203773956013045,2.7607389538836515,1.8229557378465835,-1.009501578311115,-1.4284103271198816,-0.09213724912768549,0,0,131
18.7842872176261,13.993801070052172,27.545355149486802,98.24136159171363,61.91816096381859,-13.841551046234711,-3.0204913595230547,2.724313404549404,-18.761868829222827,-12.419930264529091,-27.47358205237728,-94.54177678248509,-63.71403905918048,14.369478487653751,2.7136019149406354,2.022004696093956,-1.0623571715528055,-1.2940540598308092,-0.0746925707272986,0,0,132
18.569182362547597,13.389220889637606,27.09105002259058,97.97803304772354,62.157252364048276,-13.996987522920913,-2.9278959074721143,2.8849018982640198,-18.53972204911004,-11.885941190773735,-27.05024448676026,-94.26476716635592,-64.02278403010538,14.45875154917032,2.6017847351149594,2.2308477997208267,-1.0677011826009348,-0.9894684287973673,-0.09806119014124204,0,0,133
18.235351744221347,12.644174766323589,26.54806917792394,97.59525774757637,62.40872462142681,-14.169537377935374,-2.811419607169317,3.0138697564030195,-18.166611012867047,-11.03595131382469,-26.528052225289887,-93.87349673814121,-64.28241755665523,14.601693886699316,2.476632541534994,2.384722733698474,-1.168858827005994,-0.7939672207624158,-0.06775730548361011,0,0,134
17.912925834261724,11.80461508817262,25.881311378558816,97.14784391523833,62.59473101571875,-14.35482664539842,-2.7316538659119076,3.0599400188343657,-17.91885785355588,-10.152763456802534,-26.11768937054794,-93.62048413776708,-64.16706243771803,14.827621400851214,2.4363543670642653,2.5702293781035466,-1.146422909802067,-0.5632981308763554,-0.03810994225286178,0,0,135
17.759693955327077,10.984636392637547,25.2578479610211,96.82515221232143,62.51656047366015,-14.613876279273132,-2.7312327623255435,3.1369009943483968,-17.737127010309354,-9.312339776039451,-25.57860762164019,-93.32013313867314,-64.07301664346554,15.08410298972813,2.4095899353688615,2.661131122453798,-1.1695109779664654,-0.43144933309032213,0.002360778337052028,0,0,136
17.57764550828414,10.422670552551487,24.723217741674336,96.50368679734551,62.81554585627019,-14.788198662344808,-2.6268630706842933,3.1812811573589435,-17.63018503092717,-8.818343025953524,-25.1745488831402,-93.0997314154801,-64.19253623766905,15.28399674613666,2.3212496292562284,2.764873293446207,-1.0774013733979533,-0.06778923247812156,-0.055813110366108004,0,0,137
17.399423674723703,9.623705307649248,24.072787185682618,96.15330679874124,62.99583725910731,-15.015565665781315,-2.5644805034736873,3.1794829440304717,-17.460304565890613,-8.084076225035504,-24.556359746062785,-92.73700172181752,-64.26807183795026,15.498005325837706,2.2485392758822917,2.858958887202452,-1.1294263543292757,0.2823246734000764,-0.010417949522472646,0,0,138
17.36727738939504,8.974164333634327,23.466347233112756,95.88934029762541,62.909314558229894,-15.261493180917745,-2.5284885700798565,3.248168760322675,-17.355806086684,-7.679421062952781,-22.198657888303323,-95.51697218669332,-64.33611468690212,15.632534866042446,2.2198057763519423,2.9503408877243684,-1.2575272072294135,0.5629712767718256,0.03274259774890379,0,0,139
17.308071602122077,8.274594679128967,22.91973251632568,95.64069923673806,62.710414185613445,-15.518799095489735,-2.53693979249978,3.278360295921028,-17.349645256052654,-7.239045841777656,-21.53575222605485,-95.1892050493686,-64.27586643701903,15.809069921282905,2.196666654354675,2.9937486356273957,-1.3176096662735886,0.6422863732994174,0.011114174092202783,0,0,140
17.11437768254427,7.542024667584411,20.762220674406304,98.5033855714432,62.4603605026452,-15.841637423510294,-2.526350178697865,3.203540426753857,-17.200531981187517,-6.556176039676911,-20.949615287349516,-94.83228506314565,-64.13464988459683,16.065365930962397,2.1852211730752007,2.9340974089784995,-1.3230578460948028,0.6800504645492369,-0.009412070998174201,0,0,141
16.89584407250242,6.596028140459869,20.258446480658787,98.19412398984568,62.312495140261404,-16.106261441505207,-2.527815193531683,3.191324541827296,-17.042578733989096,-5.913274270474299,-20.390341256057802,-94.48321983234199,-64.13070372955471,16.312046530077385,2.1354854990283973,2.902263168397118,-1.3720230973977285,0.8709599432113629,-0.029429193492913574,0,0,142
16.510541148590953,5.577025086057667,19.853290806194906,97.79848856634929,62.17578190157844,-16.410075188427147,-2.4822041068437994,3.116075449643975,-16.63486083676894,-4.908175085450877,-19.908966392810118,-94.0248031858929,-64.13757847242023,16.552425105968112,2.07858538363614,2.7869739717064594,-1.4831703830604313,0.9793687353915536,-0.025740253014350605,0,0,143
16.18036638901795,4.389684831848045,19.1983056810764,97.30285735934478,61.84891866693072,-16.707348646300996,-2.509790257936871,2.983245337501278,-16.30048380330909,-3.755975291248521,-19.325309811143626,-93.55525915124929,-63.73872751254805,16.872113399578744,2.113280190979562,2.6880252316932727,-1.5245488272199332,1.0837772568835875,-0.016044832220325614,0,0,144
15.993319951049859,3.5167079664768206,18.735662548157325,96.99573994312443,61.63172703525489,-16.942721400873406,-2.515195453473771,2.871590001508193,-16.116463139143313,-2.917774523632712,-18.87975089935208,-93.24186555653424,-63.35818644113914,17.187475523200522,2.1398451015203586,2.6626765752668815,-1.497445804626129,1.27534579824452,-0.0050131085303292975,0,0,145
15.802923305293877,2.7202136434424986,18.398412878463215,96.73460824743924,61.356596231111254,-17.234382530527547,-2.534434434041986,2.7682673631860215,-15.862605498261448,-2.0204960089120467,-18.605360624009652,-92.97124133442506,-63.01206165326753,17.517630137364705,2.1578328103430784,2.588434163157392,-1.5325776179072303,1.4859801381157183,0.035736014680463925,0,0,146
15.29398712721601,1.4843439271270664,17.787631001374933,96.0820387133545,61.225128751846825,-17.515056544614243,-2.489192970967973,2.605475177381459,-15.389777115230853,-0.8241567839570495,-18.269524953688073,-92.49302797041139,-62.717534694854976,17.816517131298347,2.1556286848158597,2.478223589243322,-1.4434778111860347,1.6376775641046797,0.00852271356390759,0,0,147
15.028868211940086,0.6701617416867137,17.33924804475381,95.69193850222892,61.242580519842264,-17.730147321718704,-2.443938429058302,2.446740036253593,-15.133609162862232,-0.16331498458939833,-18.035631059901544,-92.20543743132835,-62.68153605187476,17.98291139440605,2.124316534773439,2.390319469495866,-1.3906236011310156,1.9281324076063133,0.00031927345167794506,0,0,148
14.650892373460751,-0.14890751457836582,16.752112145884272,95.10796741235521,61.34458178740333,-17.84997943145261,-2.3740137840676003,2.291771249994826,-14.79526208194731,0.5492024018438659,-17.615187434917313,-91.73295689623994,-62.73962485005808,18.16977262214571,2.0629313924899115,2.320717393330422,-1.294628664411029,2.1146162805901794,-0.02030356115746071,0,0,149
14.418554951106305,-0.8745608763957151,16.39201191539226,94.76532240923966,61.255489070227874,-18.041964076555768,-2.36030076562074,2.197777721271296,-14.487324710764579,1.1877874278021332,-17.29741084785124,-91.3300845753866,-62.74385310257544,18.284825442070932,2.0213362499230807,2.2219165419831106,-1.234077617501466,2.441774575167545,-0.06058981943039657,0,0,150
13.837444164068913,-1.9449517734982318,16.133697538701778,94.16432501062398,61.118685804873174,-18.224728407981985,-2.342940030107974,2.073898009780816,-13.94467898781176,2.113302868421451,-15.398869032691616,-93.98294232004923,-62.60271711949053,18.464470948056444,2.0049238453347984,2.0721173231229724,-1.0613072395856777,2.7133448038186465,-0.1300564305109191,0,0,151
13.402286835631877,-2.782172265430612,14.265260192213203,96.89642495087456,60.89450917114819,-18.385682820294882,-2.368696948581556,1.9423459645987504,-13.49683799808601,3.0940330256393436,-15.084422276448537,-93.45282670396672,-62.38966178607093,18.601880765945015,2.02952541624996,1.9433375882611021,-0.8771327609673919,3.206716581981899,-0.20949352811387617,0,0,152
13.024877049080006,-3.819387536141077,13.976700120578837,96.43630330169225,60.52019513555082,-18.593191538213755,-2.4201840506242447,1.8672407434999376,-13.105586833181107,3.943648691060858,-14.832169142637625,-92.9942162851706,-62.24240161923718,18.71997920440933,2.061707500958398,1.8125869577378937,-0.805757400394771,3.698058456631858,-0.27571880491695905,0,0,153
12.708208134817058,-4.793123602515518,13.697127508845675,96.03112361386624,60.20335932769773,-18.762545865051262,-2.478480359534869,1.7485757425121335,-12.78845090473366,4.904446776198896,-14.50999326710043,-92.55601290849678,-61.81867655709083,18.894371299427576,2.134116991577295,1.7137696674440852,-0.708612426081335,4.10192556031341,-0.3343500602054863,0,0,154
12.504232219217444,-5.42052303158005,13.326108870217574,95.6621322934142,60.0407912552884,-18.846104097826185,-2.509568712234287,1.6415726767044057,-12.58772872049991,5.698357459141512,-14.136902812578246,-92.19487639053607,-61.51617612284705,19.02310528291503,2.1853263130025926,1.6028135445115015,-0.7692700537594241,4.490682957297228,-0.30161856193911024,0,0,155
12.324685328958026,-5.881292531113911,11.484227023160168,98.60065236286778,59.7830410272216,-18.95581700329557,-2.5419902126632987,1.5112355600785865,-12.362881454344029,6.408918466458129,-13.830432889487229,-91.83749676151996,-61.26732278760142,19.138667202301345,2.2163856302870815,1.4663685366421437,-0.8614026242367908,4.879573251497163,-0.28378053635451683,0,0,156
12.152353679783081,-6.560218807153622,11.148148043821731,98.28338615488741,59.575202266105286,-19.059338373356642,-2.572625382828689,1.3527308949744004,-12.138998098634767,7.160666900051369,-11.796615087300223,-94.6617586645266,-60.96639894346715,19.290193330170776,2.2603056741705445,1.2887346466585856,-0.9875320757883358,5.244171772024495,-0.25249549702505664,0,0,157
12.030732770100895,-7.053781378540052,10.878403111652915,98.04097358930855,59.41928564757745,-19.15842219824191,-2.6027777163949986,1.1913717492654161,-12.015351184090026,7.808723004204356,-11.507899110423406,-94.40916107574175,-60.68315981580487,19.408871179767395,2.306932332382063,1.1338329869606212,-1.0260448810120824,5.581104687513037,-0.2163986312642197,0,0,158
12.077686905550147,-7.1452797898015215,10.56095133613783,97.93143461185704,59.47110770394058,-19.19022999618938,-2.556463227121606,1.0981717602354708,-11.993606423093643,8.103661521724051,-11.1065245188607,-94.18912402946432,-60.6554797073074,19.439480893971307,2.29310358659086,1.0548026084850985,-1.0606206444463744,5.9059353348239085,-0.22413505531967487,0,0,159
11.98823191799049,-7.496052728559702,10.25664596749203,97.69496404795167,59.352935662942976,-19.281980595311985,-2.555099476697315,0.9692131104656612,-11.912993115414569,8.5988199355206,-10.735743861337674,-93.93019379279455,-60.46809965124696,19.55619074508059,2.3057296987001723,0.9146710153096289,-0.9549073850622684,6.084277336456638,-0.24596526585383535,0,0,160
11.808484390924203,-7.960056767771794,9.948075770599337,97.37193268282527,59.27128706855458,-19.37467009455645,-2.5608405848857183,0.8459325916041469,-11.741033711549388,9.138681950473762,-10.316710746392445,-93.55250650411676,-60.31295637604532,19.652108776583002,2.3335839935616476,0.7412030919313889,-0.8388046605540267,6.067231026339837,-0.2956461951373771,0,0,161
11.566244048046885,-8.510802800108099,9.67445623468453,97.00578140801541,59.183646464439136,-19.460017224703403,-2.545440031610341,0.6645844932200369,-11.498825812070628,9.770822912405572,-9.959071710955856,-93.13923916817129,-60.17663563476292,19.744906405295197,2.3458111251589053,0.5700504212167068,-0.7265104574205804,6.021396986451432,-0.3605632973017043,0,0,162
11.325664294911526,-9.111471116211865,9.45903165186298,96.66457491510451,58.96156742376764,-19.53166683362062,-2.608102316833618,0.5299146218416615,-11.310763383463497,10.359828204192397,-9.664354627338094,-92.8072522660613,-59.935845317377165,19.813088431137043,2.4040960271121588,0.3931488855119765,-0.563218454590269,6.095908134850002,-0.42605788453434423,0,0,163
11.023104843926532,-9.73953927399054,9.286177353320834,96.28931254005525,58.911265260834405,-19.569832037805423,-2.610458986703041,0.41592971840804405,-11.052471242263001,10.86494493955092,-9.39835162993257,-92.42076309492418,-59.950584395826674,19.80885966230176,2.3824043313102963,0.20973409874959206,-0.4041456100705056,6.342637901767485,-0.48152497089730373,0,0,164
11.045091222864803,-9.921997144370227,9.062720063378558,96.1987879218693,58.76282365895434,-19.68040748194794,-2.64940603988238,0.3494047942850245,-10.970672042989284,11.325336363051935,-9.128031753147061,-92.20940608692142,-59.77508226805632,19.87956601378264,2.4086862444391617,0.09696075047517554,-0.3459140229020288,6.717185641526432,-0.5247919003823724,0,0,165
11.035621165580581,-10.09963526050343,8.88193229684977,96.09912290299259,58.650592831143825,-19.745202567975983,-2.6384283331397134,0.30978248636670996,-10.900593448331307,11.61263370584191,-8.95154506892938,-92.0571633850001,-59.758790225913565,19.887639639307878,2.3970316393532896,3.971125176004978e-05,-0.27785304101472075,6.942337898901384,-0.56586280837123,0,0,166
10.947685041337605,-10.392482329058712,8.626623948373153,95.88531940306532,58.56115148853603,-19.85377540436911,-2.6450376016563637,0.22003617242603044,-10.82564065992688,11.921972414727733,-8.789319765248228,-91.90324525323778,-59.64297796661724,19.984994400778152,2.4014395919673373,-0.14627683778944575,-0.2589493725910574,7.0556678831982405,-0.5565442723079972,0,0,167
10.756574640813357,-10.753839773441998,8.42969921393242,95.60002971153807,58.567704254089655,-19.87743947786802,-2.6045652211699593,0.1218847944860072,-10.67508450759958,12.253533707359844,-8.71965593084222,-91.72105749775307,-59.630589798432844,20.04380572640583,2.367942911293377,-0.23397930159369512,-0.145446645998105,7.3267060843118665,-0.5768552665145116,0,0,168
10.680270328726913,-10.95651749427306,8.186386917996675,95.40573863571674,58.593296046997274,-19.939417668176485,-2.577565189457368,0.02266692610491095,-10.629419570356168,12.430742639883968,-8.634092747116139,-91.63487801203718,-59.598424962976694,20.137831977213395,2.3360734034987676,-0.32249407341172076,-0.16753974660285528,7.514508939638182,-0.5200604143384292,0,0,169
10.728361690672973,-10.984689558694297,8.005932279517793,95.36543135566944,58.57244617853145,-19.989582954132544,-2.544089449861947,-0.037838754536184675,-10.73040733232939,12.459979854856405,-8.593676417639077,-91.72295162575377,-59.540555268722905,20.252363242456454,2.3228183640970945,-0.34153445984335506,-0.07985332900226204,7.900113260628792,-0.5040868954490741,0,0,170
10.638519943651563,-11.171864527259565,7.798109664878035,95.1745588208486,58.608700218300925,-20.06271053002794,-2.5015066377140482,-0.08992711341624855,-10.68133925333202,12.563439313061998,-8.642048493737406,-91.69962361492922,-59.52693155121154,20.342390975648055,2.2877930710205505,-0.36576836222434345,-0.03225579989532403,8.124362710109658,-0.5001921375801446,0,0,171
10.560269881425311,-11.385030109730748,7.667695170482923,95.03414299651968,58.58673883565276,-20.139676767189098,-2.4672625213289665,-0.16938333387094529,-10.65070841622545,12.653992112491759,-8.654152097199871,-91.67497284050012,-59.476292602765504,20.441904572354424,2.2710428205817434,-0.41594183615135116,0.07118208889242644,8.296438814155556,-0.4992836599615872,0,0,172
10.426708093526651,-11.708343790760365,7.572806567661247,94.85406636510298,58.49311210491474,-20.239467583195072,-2.468060576004801,-0.24936011826453341,-10.573674127671461,12.795822088782746,-8.67037284125393,-91.60260571099828,-59.3889219185289,20.549275549975267,2.270990631109814,-0.458932245883138,0.1755581376647987,8.438095792192353,-0.5112342975894638,0,0,173
10.222627163768548,-12.131778926286957,7.476394733941425,94.60143630025419,58.40519721444648,-20.299396759769387,-2.4655385341381186,-0.3220506771768438,-10.370133636631437,13.074595076192676,-8.715708593158029,-91.4147254871879,-59.32315426525698,20.62595504086218,2.267126412492023,-0.5352276721730536,0.2311516235187301,8.580907073286976,-0.5074834741836775,0,0,174
10.090937701476117,-12.415327834291192,7.469400770364489,94.46827209171062,58.38808940140761,-20.335670166926576,-2.458020027191638,-0.35033388306093205,-10.319567184884892,13.173388584538559,-8.683121485664094,-91.34640283542588,-59.30237504903398,20.686560165853077,2.2478795773227698,-0.5674548282501711,0.39857652378421304,8.897258937227207,-0.5271480072249942,0,0,175
9.949452894140242,-12.599004035788196,7.503761339317342,94.34041677261091,58.380310827215695,-20.39498655586218,-2.418550405796139,-0.4122383485771243,-10.241641556644216,13.284669246047788,-8.689826237652195,-91.26989461880585,-59.299615479624954,20.74224321518518,2.2225674072597594,-0.5974516419910739,0.48445463030788255,9.134249841720273,-0.5090138844295053,0,0,176
9.64548983928081,-13.041876630922456,7.578149456429831,94.06631649648473,58.35303994092801,-20.44723753206372,-2.4027440522419603,-0.4579978428031177,-9.957016474872384,13.745044614694248,-8.696987667341686,-90.9809619671696,-59.251939621061744,20.811910749360976,2.2102536711062846,-0.6939602296885796,0.5483254936630994,9.217775213390645,-0.48813377845189804,0,0,177
9.501460786479106,-13.256076512849184,7.656779615627076,93.95566797017811,58.297314692792725,-20.47874809025344,-2.4030804798281293,-0.4961849297694707,-9.852377123014143,13.975499788149731,-8.674535548667034,-90.86130270974277,-59.179618337507165,20.859915132419516,2.2196337795583174,-0.7505507392866292,0.6308464703458454,9.44433313020039,-0.4669890090292976,0,0,178
9.365462328594043,-13.489232631591243,7.727602756386118,93.85029937622392,58.24513475243673,-20.51360374191226,-2.42053587880276,-0.4844191910442319,-9.788087967451398,14.14470106754664,-8.581923139096462,-90.7468137608904,-59.10863093305476,20.902972931178315,2.2193949035601768,-0.7626919123166279,0.7136250203890093,9.61986639416397,-0.4695762007903048,0,0,179
9.193119580361696,-13.683049217794824,7.749500676637593,93.67954789607347,58.219638357084726,-20.513874346706196,-2.4113294052469176,-0.5205147923002315,-9.68421530432749,14.32448193104628,-8.448927668410283,-90.5700745402735,-59.073334539572265,20.913766508696813,2.2235548573017683,-0.7721872000503496,0.7536656907833973,9.742093149451948,-0.4553134962577012,0,0,180
8.860822339504113,-14.149500921091091,6.23388775675412,96.61789255217447,58.05622229199867,-20.570056021455695,-2.462826907504503,-0.6119667318277962,-9.44887686760647,14.794136949336979,-8.282186085642099,-90.23547224678475,-58.87613131121226,20.975608465235876,2.30193627536626,-0.8978035978480036,0.7852087636806215,9.662913936245978,-0.4231929183460103,0,0,181
8.58366606958969,-14.619425430373045,6.239379167763559,96.32838316734721,57.950676709541554,-20.560148864261812,-2.4953225893289828,-0.7063002264154926,-9.237631923182668,15.19462785349655,-8.054685322372235,-89.89701482478857,-58.76802880524302,20.971006745875524,2.3521515936302015,-1.0344774950107678,0.8206306026532111,9.56948703914386,-0.39929614237840655,0,0,182
8.460352980540632,-15.007749930249464,6.083759940864236,96.11847597504418,57.76334750615175,-20.555971655177107,-2.573496793988302,-0.7854940654727177,-9.142776817310471,15.500487134584905,-7.8314334133362795,-89.6829290376829,-58.59970763485097,20.969271082455148,2.409700813718249,-1.116754341388651,0.8279760557926197,9.539079946768792,-0.3964920181534659,0,0,183
8.440283323438196,-15.184912362556055,5.8317663308558645,95.97512906067787,57.728193501321094,-20.523457157070467,-2.5739162364948824,-0.8486424184264892,-9.150851808456718,15.643142339917949,-7.557415474330946,-89.55582088837714,-58.5342150937822,20.943729089092717,2.4353825350323466,-1.1486945234685038,0.9401958654859597,9.665535101803423,-0.4202867705975444,0,0,184
8.455997027397457,-15.30635938806831,5.4789268844854115,95.81984644357608,57.69537144797275,-20.5589718427702,-2.5891314643503,-0.9224398915111871,-9.14459450140334,15.836197353148373,-7.272326168559497,-89.40834056962002,-58.43360623406454,20.960056680622717,2.46068217042763,-1.1963228150546013,1.015620934407673,9.603157340298248,-0.44373612302652005,0,0,185
8.559977266000793,-15.31002239431502,5.142222999785732,95.76692041942643,57.67694103081253,-20.531152179982808,-2.5842882591164575,-0.9858306997127859,-9.182101631456819,15.890280701294055,-6.948336215675789,-89.28870298564298,-58.41392621010331,20.938032376613684,2.4679387441944036,-1.2279160355589804,1.0311951160095385,9.639619620134724,-0.47227927766396055,0,0,186
8.672739420329473,-15.256309646729836,4.87404123173217,95.75737823798131,57.69143588752611,-20.55213272549275,-2.565276490017465,-1.0026472654531382,-9.205644439752207,15.932460529640986,-6.71552450620992,-89.20139677996954,-58.45784587032875,20.90700093979194,2.4564447097025313,-1.2596719766466853,1.084240834828103,9.623497616127967,-0.5237612885050149,0,0,187
8.833426450743191,-15.003194217195889,4.621376284609783,95.80371763764694,57.761787034653835,-20.578101424626304,-2.5319327181940054,-0.9576975349741101,-9.318633697870789,15.776891837427183,-6.4832314662862975,-89.20789678086916,-58.554009567068356,20.864382266730697,2.4207447488772913,-1.2503268362251914,1.1068702373337997,9.588164178941398,-0.5579262944122292,0,0,188
8.867005368250267,-14.992256446424836,4.577829836609492,95.81796437262335,57.7442779085475,-20.62794656601884,-2.5095825865456023,-0.9438180942251413,-9.35800803088862,15.718953311082124,-6.334656302130206,-89.17653583450469,-58.596381034520576,20.874989839613356,2.401673630415558,-1.2690588792384745,1.154437784662874,9.430520456487006,-0.5930392865020535,0,0,189
8.817269638261527,-14.958948339664575,4.607519488044092,95.77776465736876,57.761883386371736,-20.612177717562332,-2.4991354636345693,-0.9315490562388701,-9.33378220367623,15.68952320885398,-6.309355749835862,-89.1367696381391,-58.612396023518116,20.868882676285228,2.385363760927176,-1.2520796042669322,1.1872187637787797,9.329707603434226,-0.60690206188165,0,0,190
8.747917604976509,-15.029181690254596,4.64649808953493,95.72269816850786,57.74475007787442,-20.632973932598187,-2.5199538892796296,-0.9057473029819638,-9.270193142503413,15.776455588157036,-6.288558876158931,-89.05890037701408,-58.59373947016029,20.882938836147215,2.3812190327359257,-1.2442767881807382,1.1661237759587597,9.199754797252957,-0.6077958944529114,0,0,191
8.696207950317635,-15.007421650714177,4.696301190680926,95.68944804635277,57.73429366974652,-20.658660713379504,-2.502061758057173,-0.8845619291800542,-9.186437094032485,15.802877154397061,-6.326207635529861,-88.98623478266308,-58.588662886631404,20.899523590374272,2.375412888415681,-1.2252336496638832,1.1381830321666735,9.164992627823272,-0.6018400703276588,0,0,192
8.570285729005635,-15.168201722327646,4.792297169868801,95.60260558994442,57.700257977016,-20.666282620339892,-2.479749639410162,-0.8949309849828193,-9.067693401538166,15.950955336803132,-6.421485374916326,-88.90641177911094,-58.54191964448238,20.918899166495905,2.3825325212172954,-1.187682919252834,1.1641655856620452,9.12876987879592,-0.6181280109137371,0,0,193
8.483168373689415,-15.196458519948035,4.930716608061879,95.57606986514999,57.698365987788264,-20.665128653794138,-2.4927991162573617,-0.8568164951724127,-8.977588692233713,15.985630550955813,-6.505732933651123,-88.85041650007955,-58.548182476660415,20.92913243650734,2.3775079701464215,-1.1790205781054133,1.1851973216540348,9.21372489019473,-0.6341652891276256,0,0,194
8.345214774154435,-15.349753620328409,5.05853810594791,95.48991961488338,57.63810586968447,-20.675780321579694,-2.5089290851426456,-0.8520500745494455,-8.849602046245074,16.17307752201925,-6.601175943260042,-88.75983744121979,-58.45379413864397,20.953815181627625,2.384081336646812,-1.1803063035272965,1.219232882077504,9.158392569392625,-0.6245135692117157,0,0,195
8.272460452889106,-15.374897785672717,5.105084587067126,95.4335272061779,57.630969048689984,-20.671261742461578,-2.502053702370832,-0.8180753554635949,-8.770715922652366,16.25165237411938,-6.640058750256941,-88.69412638999556,-58.438122795350935,20.938099046069,2.3835801103259486,-1.1954757169031005,1.2559745329906054,9.214803855286226,-0.6359462481828594,0,0,196
8.211207316412432,-15.396093579319778,5.186003308668469,95.40646480559036,57.623181117383204,-20.661655889438535,-2.4922448418579175,-0.8143496169118829,-8.714744229951403,16.331070790159888,-6.689937341270195,-88.6587353504109,-58.411485595860086,20.964442889511968,2.3794447818732074,-1.1688603923484338,1.282040975307174,9.244668504672513,-0.6427721370180359,0,0,197
8.027536699441619,-15.574787568726393,5.367236944840356,95.29785701666441,57.58848206992814,-20.663708874316224,-2.521356258831964,-0.7950417631825654,-8.57103875736163,16.50468105616583,-6.815504878266813,-88.56574296901456,-58.352321307051895,20.97991526537694,2.393608241160402,-1.1976670984326148,1.2980916243567011,9.275274328104453,-0.6341517254052453,0,0,198
7.971351563329094,-15.563467356469456,5.426456065629938,95.26692787475474,57.62852182853384,-20.68149975767506,-2.5005377880513473,-0.7908274905412825,-8.57574390392612,16.339511883653763,-6.853501515559012,-88.58740011182482,-58.4238648601265,20.982645811810986,2.3675239580793845,-1.16799245465327,1.3503311881166373,9.321788672016716,-0.6427764271731972,0,0,199
7.9354905088655885,-15.49919355928289,5.548233398263663,95.28754733947753,57.66626708952091,-20.686768521884918,-2.4765269207629874,-0.7616832810833947,-8.559027015932514,16.30831040457191,-6.948196749394509,-88.61583771480822,-58.443744204752264,21.010694841508382,2.335732431726509,-1.1403730454412349,1.3424412152692977,9.169071204338444,-0.6281060045058512,0,0,200
7.7794693514286335,-15.537513751769096,5.742050128067848,95.21594012942211,57.72419128353303,-20.674006038724713,-2.4443837748356287,-0.7887489725906869,-8.37925387565684,16.429096033288314,-7.169633024664823,-88.53213382265146,-58.46776087180522,21.052750658809625,2.31316013515389,-1.160868703975077,1.3410180382040702,9.023944933327037,-0.6187086644132797,0,0,201
7.593122154076822,-15.730914683830003,6.003347130206182,95.14309788691743,57.67077934426015,-20.72050160021149,-2.4485393372665394,-0.8005369788039771,-8.220429779339241,16.583481836876853,-7.342080122948404,-88.44568220940259,-58.42997091634602,21.082527867658445,2.3316763837191075,-1.2297188595285733,1.3801367041454704,8.994725650555457,-0.6323534453413295,0,0,202
7.383797346583441,-15.873641863943028,6.295871469642344,95.06252106164376,57.68859044604016,-20.74282885125607,-2.448816576612542,-0.8021087816556709,-8.031762878990564,16.673236548378416,-6.034114063828381,-91.65020111163204,-58.422036487471516,21.098627999351972,2.3081330101415225,-1.189880543516981,1.4508022774898457,8.965115934614834,-0.6632377841731463,0,0,203
7.237053293586656,-15.758686552134247,5.0797708139616695,98.33471145804897,57.69577982606629,-20.759923053142757,-2.417308672734941,-0.8333712363931651,-7.832338430699116,16.878851371416694,-6.411757851110082,-91.62374737646789,-58.41659801790683,21.10780695639898,2.299218608470055,-1.2453905726997436,1.4123266002199728,9.013392139491854,-0.6478337889605333,0,0,204
7.1060814280438995,-15.763867779242856,5.419602456002109,98.35948456606724,57.712164847288854,-20.73340412568547,-2.4200823559338343,-0.7909920846020223,-7.61097968366182,17.001667772903204,-6.878780604500682,-91.61939852393219,-58.48855170365233,21.070022368899263,2.2796292714298665,-1.2907762447298903,1.389689713551019,9.083360204954065,-0.6615972461117431,0,0,205
6.95961271704803,-15.730813306848157,5.901541628179148,98.43997462910436,57.774178004409585,-20.73468729919288,-2.393283831972021,-0.7529647733834112,-7.4500237145495305,17.000659026517752,-7.399394404651783,-91.70634977679727,-58.54727536219483,21.06269033407098,2.234789609917154,-1.2527651976734118,1.4894808287883765,9.286578118101426,-0.6898873458734475,0,0,206
6.758812412525648,-15.690441172712278,6.6264669090194745,98.57914943418619,57.78240724742492,-20.770992289688753,-2.40503121352085,-0.6739897074958715,-7.234674680208198,16.958203292542343,-8.25378263917446,-91.90415089309822,-58.621357088724565,21.04714549362627,2.211946447892758,-1.2387367477863984,1.48094218978364,9.40259763387254,-0.6989423255581979,0,0,207
6.53810893676185,-15.628284156754697,7.387512877853638,98.72015106014432,57.84682368947471,-20.777897299465163,-2.378892007994095,-0.5786619881437486,-6.975699520090703,16.937413957670138,-9.225718551408109,-92.1169264501377,-58.67416710456104,21.05500021122936,2.1939822286253934,-1.1634426050500746,1.4205454305151397,9.526707445925826,-0.7218423984939413,0,0,208
6.332533476235983,-15.29940052697032,6.831693945453644,102.23232538153336,57.850750035919305,-20.82315964616348,-2.383342637575188,-0.4610366492917495,-6.6701249674739715,16.866442842908313,-8.909639995295993,-95.68622987888658,-58.67929664371796,21.095676589457334,2.188689782762163,-1.099794049852893,1.192192887174107,9.497452268906784,-0.6341237327537086,0,0,209
6.18922586216536,-15.044160684077948,7.800457292165365,102.99489866987652,57.94654103337282,-20.8790159322009,-2.3348905336978185,-0.296922454199293,-6.424456723406953,16.826595245182663,-10.86100734620063,-95.15828906380837,-58.79163486170358,21.148783832854576,2.129415226823786,-0.968961595112759,1.03684736274332,9.790879965821258,-0.5848835363906584,0,0,210
5.916188623207277,-15.16375607108546,9.073025030464256,103.05183867150537,57.90723589406913,-21.035482682277483,-2.327448197742202,-0.17221400494594089,-6.104091396142559,16.74148931966562,-11.173590737299461,-98.60284940520971,-58.702080985096785,21.364448781939434,2.122419200379556,-0.8474068697368791,0.9578784086408445,9.829816001142007,-0.5468004685481399,0,0,211
5.696660366867544,-14.840497335158537,9.039449250819734,106.42005737132213,57.901823594694726,-21.214509762840432,-2.2806846828257457,-0.028237869190698664,-5.831067390675993,16.75464426771819,-13.112369809826946,-98.84525185726685,-58.714530999724985,21.528890717028272,2.084836153618919,-0.7104036549721746,0.7829372944781058,9.921910150741844,-0.4917566533251466,0,0,212
5.556228262437497,-14.836210133780682,10.529704950926602,106.62145124525343,57.86705870300024,-21.401954654690854,-2.2319415360809565,0.10202504198311502,-5.6780024244891845,16.33383941239575,-13.530037922931493,-102.36994767786511,-58.733084368272614,21.721636620742252,2.0581654325292367,-0.5991733064453404,0.645138111540306,10.018860757017288,-0.44578628036306345,0,0,213
5.383745922213987,-14.770832978705899,12.251176634439846,106.81850942253064,57.90455124664819,-21.572103647403917,-2.1856481006660657,0.25942538312239255,-5.497061321865438,16.42199128521375,-15.529523226761174,-102.71542176535537,-58.63805063205589,21.980762571417813,2.0589314030222776,-0.4380394101266756,0.54276836704208,10.124904472273665,-0.37827382246185837,0,0,214
5.1804722354384145,-14.375054241036997,12.336742588030846,110.17183647593079,57.924296509822824,-21.71508886440478,-2.1625649479861835,0.3661266742869566,-5.240349515684155,16.204820638363152,-15.74223312743445,-106.1191698979722,-58.635166559638456,22.202847993301685,2.068400847723107,-0.38303645253139657,0.3729247835393345,10.178359461423922,-0.2986959870898983,0,0,215
5.111551784731578,-14.347602244757294,13.667597546782238,110.37470660301997,57.944354233256156,-21.915964917069548,-2.1546149929308966,0.49334579179146687,-5.149646737940501,16.262228793061706,-17.14079590176213,-106.38361219955101,-58.661666077958756,22.38534674652257,2.0652739181220654,-0.3404947799992443,0.3232194132400158,10.314468027287216,-0.26367125014540516,0,0,216
5.0122630323143955,-14.236388609321134,15.08358087485819,110.52647404455566,58.06622820100286,-22.037796458380914,-2.1039802289719316,0.5751641123393625,-4.941625642804946,16.30751012928983,-18.462570572228646,-106.510579744853,-58.81530550399641,22.542017737564613,2.0225814803370534,-0.3507679007159829,0.16074737207795053,10.075795979523006,-0.22549293885173943,0,0,217
4.760146662784061,-13.943906580226237,15.118985698107098,113.83246792883413,58.00305826407912,-22.283223165458942,-2.1353132780915294,0.5612237882971238,-4.659491872532876,16.208617575268253,-18.313815195288562,-109.84322872892044,-58.760221396614526,22.776772349483885,2.059598724385921,-0.371334573469219,0.06099076847579379,9.918595074372396,-0.19827630004450725,0,0,218
4.745123661704619,-13.880745574708278,16.509545453907677,114.05974224087507,57.993616513894665,-22.488643102710903,-2.1304603451665107,0.6368570218365758,-4.563987898689526,16.25228610052605,-19.6250508126867,-110.07000372797367,-58.81150667218048,22.93204538845902,2.076270460032472,-0.36620751625954895,-0.030606175317450357,9.845444238330716,-0.198861858900774,0,0,219
4.805564432556884,-12.886804568086529,16.550120092123144,117.32981790390119,58.057995894741836,-22.610070754399707,-2.0951541312064252,0.7617753870203061,-4.547102390400785,16.092674078355675,-20.94525701654356,-110.27277943312357,-58.8661929234155,23.06514655252303,2.0424684327881013,-0.280792556104168,-0.048777248834265687,9.570597556721285,-0.20712750956419845,0,0,220
4.664149634660002,-12.895234128356327,18.16640021914941,117.47218240447819,58.11676580501249,-22.823900471076584,-2.0852178834839994,0.7657151425784695,-4.4001026321969485,15.649534452121902,-20.8783458896572,-113.57544970941339,-58.90932298112408,23.269173714094,2.0288676444689497,-0.2749795680022744,-0.044506691464882175,9.055631102077726,-0.21422309962764916,0,0,221
4.674431630681809,-13.083881885175645,19.776797221050746,117.84694382203041,57.848717939006015,-23.201905430918266,-2.18688850064189,0.7745425012675802,-4.318206956501203,15.965061784780152,-22.422518391125394,-113.98822203600871,-58.62964579408092,23.593810688383318,2.127086346132882,-0.308891017615355,-0.08761884251933805,8.680675985971014,-0.22839411894972808,0,0,222
4.554866607939798,-12.549534335929444,20.25562093231953,121.18414662583078,57.73989795514083,-23.507734808767655,-2.2095483515722387,0.7650686833855134,-4.1428994792822476,16.412314148832365,-24.141581749368555,-114.43288382741821,-58.48655097873224,23.88445645989566,2.151685997476923,-0.28845545213095597,-0.06391053065730769,8.26541599690275,-0.27542316330797023,0,0,223
4.553866839000037,-12.695475261006015,21.913522838843342,121.5119840512579,57.66314509847911,-23.745864027237378,-2.2027526400152397,0.7938063369008099,-4.2160708689737705,15.70191724698294,-24.43225047740113,-117.83510284320725,-58.35848559084514,24.1732941221318,2.1590612001860787,-0.21599621742437192,0.0230513113183459,8.128501140297592,-0.27779904091800306,0,0,224
4.444314873581264,-12.214553587436995,22.020412974609986,124.81682829825277,57.50886483385326,-24.110991040367175,-2.2528584789869583,0.6829142198153041,-4.184120951583743,16.06602941980999,-25.994929599210487,-118.32517590644414,-58.17024544379983,24.57182654540089,2.227015872442502,-0.31103565936646077,0.07427029270555811,7.851596481766399,-0.2696633324598892,0,0,225
4.284610109747557,-12.76776412004006,23.548024915077356,125.22817288390937,57.35954415250151,-24.466896777068122,-2.3122342474037842,0.553786538966798,-4.128083945198844,16.594455142965298,-27.652634123115988,-118.92454528168123,-57.94015397020134,25.004488498225076,2.30054829086291,-0.41697243412368845,0.16787756331196604,7.870439269379178,-0.25590723924190123,0,0,226
4.288672791643244,-13.05685549768783,25.14852853952484,125.6391794035071,57.24540516530096,-24.802819518329855,-2.2978709354904643,0.47731272381579853,-4.177178918066072,15.936996150295489,-28.12020977187322,-122.31761883601371,-57.86756590772662,25.403425467577872,2.304399305829008,-0.48440145969148984,0.23240502011338748,7.891894917264274,-0.2511697919311548,0,0,227
4.022708640457533,-12.720450365227432,25.61887731250611,128.95679193454703,57.12319731674901,-25.155802919361637,-2.334729231693477,0.3438992766896129,-3.9421982125028308,16.735249275691334,-29.927958307246907,-122.98845067925235,-57.66363466446337,25.849075424976782,2.360441542591707,-0.5516709142671438,0.3161902860702152,7.91955183217671,-0.2664720355143085,0,0,228
3.82486623473259,-13.168657300110098,27.247885878594122,129.3181873093386,57.07789626702294,-25.436453737806143,-2.3040621708714224,0.31116478866505204,-3.7228240623062456,17.408696819383877,-31.59925094567563,-123.59139080246898,-57.56434121934766,26.16387064312216,2.3786013311456586,-0.5781683212717155,0.3557456610904287,7.872177160174745,-0.24850600461391847,0,0,229
3.840164150926126,-13.326397829423556,28.72727916291677,129.6373989397305,57.03487824039752,-25.735520288287464,-2.290080249720216,0.24263995216069278,-3.6702072731482294,16.75095057694085,-32.002073499456465,-126.8656851307119,-57.51425601701786,26.51270492711468,2.376934645996386,-0.6478734671618087,0.31873599433589095,7.7014196242388335,-0.23180147546722918,0,0,230
3.7723787922819807,-13.774777644692717,30.28984650134179,130.1137871291595,56.94998132325235,-26.069963195592315,-2.278656258497726,0.19916273075515614,-3.5787536014826973,17.266063828422627,-33.660217429564845,-127.4627925352468,-57.421643067414884,26.894855480809024,2.374764055511748,-0.686618435237597,0.348887292810773,7.563199331422999,-0.24849953143549386,0,0,231
3.6839991326297774,-13.015561349733925,30.746129470319307,133.25655129072013,56.91163560342122,-26.390425755509092,-2.254411984094876,0.16288500953381108,-3.4495588657846135,17.857211273890496,-35.315290904140525,-128.1025234755603,-57.37329210212202,27.264770607250174,2.3339629771303523,-0.7207675634565841,0.35769839897597605,7.482624746090802,-0.27060691724422387,0,0,232
3.5330355168298055,-13.83407576264591,32.224283736554376,133.95488256594368,56.69202898232088,-26.854378219360743,-2.3183330727145353,0.055408164804797044,-3.3177052655086907,17.516360036136817,-35.59062368112173,-131.5323651604702,-57.11726140805408,27.74477141116885,2.4159967715746116,-0.8007469824703618,0.5306659469595135,7.412676207765021,-0.3147088191894358,0,0,233
3.4400973462368536,-14.435725474871852,33.89431728253401,134.56935651582725,56.59633435191032,-27.20475597348924,-2.295069711128596,-0.0005617052725190236,-3.191124998158841,18.324875939600467,-37.27809069314128,-132.3750037350664,-56.991286235759326,28.143356930769876,2.3977665429837347,-0.8186485001391439,0.7061053629913612,7.335055967114445,-0.3610300613390472,0,0,234
3.427734917282542,-13.76324816896007,34.426995496227576,137.83634686484172,56.41748283119947,-27.627968904255116,-2.2975812260867516,-0.0715335764945555,-3.1687247524455495,19.140819272925235,-38.95425856907571,-133.31278586413742,-56.81839415557068,28.590348765161597,2.4252668890387055,-0.8936246495084643,0.8029850402090801,7.43429369789246,-0.4085010873587445,0,0,235
3.3669050390909967,-14.576363363402324,35.94945388760005,138.64336381681446,56.23205304276163,-28.082832400402705,-2.332355334995923,-0.15216413110061863,-3.0936003555382254,20.07363675260616,-40.461065462645635,-134.3081582345206,-56.60473102605714,29.05109263973307,2.456132529907506,-0.9585594697149219,0.8479725606833257,7.347261290197508,-0.43986283083829975,0,0,236
3.215234071825105,-15.1809075388026,37.37209127129677,139.22099655245395,56.17402854898309,-28.397485977534302,-2.2864794178004937,-0.24659340160961796,-2.9654239583567086,19.469126184919666,-40.8032579242737,-137.54399615202826,-56.473864952076525,29.45787714709745,2.477465849079275,-1.0323802472204702,0.7534648363829418,7.094480608799039,-0.36734932739207055,0,0,237
3.130729263866415,-16.01039649400092,39.02715121837048,140.08125514754732,56.02274973031653,-28.847285550550698,-2.3243757702438756,-0.3652871693027661,-2.843254072219983,20.53319656436638,-42.24771047387282,-138.642129052613,-56.249709447260386,29.92367752126617,2.560449674577443,-1.1475122673033777,0.7045735804632967,7.1550377694558,-0.34628001340146175,0,0,238
2.891496765544841,-15.49980203881987,39.63744802464908,143.35461838549207,55.9121906188332,-29.25231426981405,-2.3270984480328387,-0.459427269047674,-2.6279712053362356,21.67534517805803,-43.80347836742504,-139.7998229360826,-56.14295091109425,30.375451478797473,2.587549364802403,-1.2135498218922571,0.6959515426641928,7.021950780329966,-0.34031059001103764,0,0,239
2.5578343406269015,-16.485118358487377,41.242396869247486,144.2338095549613,55.87971649112877,-29.620370790397434,-2.2924972757692412,-0.4740213072183026,-2.3124593678073704,22.804752380893447,-45.34835526676858,-140.92084905875222,-56.134935801851064,30.730419780892362,2.537313934565301,-1.255750540977988,0.6604713028432518,6.919735352883545,-0.33007277421314946,0,0,240
2.268247126423055,-17.469858607496572,42.954689527575574,145.18676769241648,55.80398699392097,-29.950293263063266,-2.273641693983158,-0.5123471053743999,-1.9931339368441112,22.37500300971066,-45.968099459405686,-144.29443306702566,-56.00821965835884,31.142576224062797,2.55521001516791,-1.2591969565966912,0.5710119453188189,6.801321911901557,-0.31415768137522315,0,0,241
2.057276670226524,-18.261282542722633,44.77085008863048,146.03853903038507,55.80883320315278,-30.25525304878342,-2.2213845870658964,-0.554697330920333,-1.7325972247276211,23.367665472457414,-47.715409064559395,-145.38707386717658,-56.054792455978486,31.45157319408332,2.4805910897168135,-1.2657784068177726,0.4230629451633717,6.633992097773091,-0.2946534314681318,0,0,242
2.163251750954326,-17.040298233005778,46.044563031045634,148.89819497391306,55.78179234932731,-30.655101541202605,-2.170613597144204,-0.6176103144018303,-1.7783712315543425,24.187557059775294,-49.680831727023715,-146.49431096760915,-56.03949805602786,31.844655506247847,2.442916161506625,-1.31865652929725,0.2572101499369734,6.651645854200982,-0.2648166515083491,0,0,243
2.133803390347816,-18.146236889665445,47.9936162230757,150.15218518186148,55.64632927739002,-31.174228473637715,-2.2134524501742856,-0.7865520481323551,-1.7518898410902626,25.470979981045737,-51.358747870229934,-147.98841208582408,-55.89640680707751,32.365161292123666,2.485381838451938,-1.442299853854273,0.31541819712055463,6.6575603247255,-0.2913146077298055,0,0,244
2.0876618339663837,-19.17095436408478,49.723453350997524,151.31034955130684,55.52835645039254,-31.669930991396658,-2.246320068932674,-0.879235947699754,-1.7005581947132664,26.741187166076713,-52.85903184018953,-149.44439877648196,-55.77152039740822,32.80093878953489,2.5240013162301755,-1.5235456945888957,0.30689787499597054,6.5935396994298605,-0.31191907562016274,0,0,245
2.0930636598262176,-20.13533072014132,51.27014036815653,152.4183734765873,55.421685352375924,-32.10028238960777,-2.262728612212933,-0.9796662958769502,-1.6974841826999376,27.796286767320435,-54.330723349714575,-150.69988821081967,-55.715913852536985,33.17040544020068,2.5173073536192057,-1.5692852277561953,0.2754472232525046,6.568207340746762,-0.3061541169860278,0,0,246
2.1679449446877714,-19.198679219670876,51.9211431241761,155.4131127629934,55.23592945514085,-32.62988137240142,-2.3678761512960764,-1.157696133476115,-1.8459207352287108,26.834759186629284,-54.652109310553044,-153.67259910437693,-55.4549097799336,33.7210779325705,2.640771163002406,-1.712284085277118,0.3063294931341711,6.894868217667459,-0.2886655815411099,0,0,247
2.061212993622567,-20.561952651217506,53.35581535286677,156.87761966658897,55.12914199411044,-33.062539323818655,-2.4255477232869267,-1.310841790791437,-1.8164333144778848,28.26480725206817,-55.75565266526537,-155.25343377797006,-55.31138944244357,34.14776297485802,2.7142625202396444,-1.8058003040378676,0.21869882385985998,7.088261507194428,-0.22393795933677305,0,0,248
2.0535153704279625,-21.748078535850812,55.00848408636279,158.21347933277542,55.069026581430606,-33.44588555370897,-2.4531681984614293,-1.408103169264849,-1.7757917679256048,29.83521294322561,-56.958656709496886,-156.99249644354583,-55.21732805412047,34.47326545912161,2.740259679481439,-1.8766702343622297,0.10125131416648973,7.210950769922037,-0.17776470059703472,0,0,249
2.144409180024965,-22.66628858520646,56.70784943872499,159.29462984006958,55.04929242034486,-33.7836459340856,-2.4472791198005837,-1.522353244753649,-1.7707358271142086,31.50702635743471,-58.327256495697384,-158.8649552064326,-55.1747989165614,34.80169780289049,2.745679273366507,-1.9636701716559584,-0.09504083776171943,7.331924194316143,-0.12553578427013545,0,0,250
2.0589592446398743,-21.510749324685538,57.623940671073065,161.9904049533053,54.955111560308865,-34.19360785962834,-2.526700082575418,-1.6291100739995061,-1.6690416741704177,30.56399086690336,-58.93400079312132,-161.794370205448,-55.06328569806841,35.173988058046085,2.815802212666065,-2.05760925071701,-0.07520640569001444,7.415304100726796,-0.135096039735796,0,0,251
2.0473660657408357,-22.730613039952086,59.17101662196231,163.33490761308857,54.91186612375735,-34.537011050166825,-2.5728144074617765,-1.7127951579664473,-1.6160462364002888,32.317562210253485,-60.15568754135881,-163.72771341679882,-54.99678431511177,35.45871369685708,2.861556517471,-2.134593924714739,-0.011592139490625061,7.476251866408518,-0.15462334976956713,0,0,252
1.9663414526076783,-24.182299853847354,60.502997775652084,164.90416966679595,54.852243086197284,-34.85946858268173,-2.6304273361248716,-1.7887810314013128,-1.583204552436752,33.900533221571926,-61.29984768443674,-165.47678106976844,-54.9482424836938,35.76674734653949,2.914487824797792,-2.201512008175462,0.10088602705281792,7.487496447659842,-0.1510044036631017,0,0,253
1.8615802245614343,-25.837119034324353,61.692636945725376,166.68491846313952,54.78085704002,-35.18987559586169,-2.7308793139892162,-1.8915952754549243,-1.4951740862058656,32.616558168588895,-61.971110593044905,-168.03684912738186,-54.87145970032192,36.05686084027205,2.9839702058324495,-2.289238172246348,0.24053071261952164,7.592014118166535,-0.1653346707737096,0,0,254
1.7204141949607281,-24.24711306656058,62.83037011639962,168.8879342024998,54.78028268148825,-35.340075220985646,-2.743767594335755,-1.9321612480870494,-1.3704623024808376,34.30740186414172,-63.298349508243696,-169.88459826866261,-54.90062554452739,36.19492336485855,2.9641772750900004,-2.306423970335842,0.3489633243104518,7.518362747889141,-0.18781444658101085,0,0,255
1.647120502194379,-27.094479119787437,64.20734952960402,170.7034813018577,54.730374632301555,-35.627724373339404,-2.8424790988592927,-2.075616365965207,-1.3234349559414187,36.2595491109637,-64.41230906264194,-172.00885878619346,-54.85491947674936,36.47621570598953,3.023752453122994,-2.4193954062843397,0.4999816526991801,7.64150647167408,-0.22773428236901036,0,0,256
1.5422637582214607,-25.64763347406909,65.42696231927555,173.19270975522033,54.67757921652806,-35.93242492805596,-2.967358740771329,-2.217399408447685,-1.181729554839693,36.28716014394954,-65.46417772433384,-174.9074653281564,-54.80219151668056,36.74889810008851,3.117723883986232,-2.528724660028301,0.4929340040547835,7.660709897534718,-0.2290646337658514,0,0,257
1.5428479528389083,-27.72928718011816,67.05828328613616,175.54356142767008,54.64971839036154,-36.17501593193062,-3.018449722123239,-2.2808463841929245,-1.1138261619889536,38.90899580529655,-66.77392741964135,-177.81764439573024,-54.77368160119364,36.949744424942345,3.15747103940596,-2.588829203260384,0.4351540031726796,7.672753689227868,-0.21380872908827728,0,0,258
1.5889733942427682,-29.691358429060017,68.53779864809547,177.7284980641045,54.63832557557658,-36.369021479898905,-3.018270771122347,-2.3186549847031146,-1.13809329050148,41.36979328317859,-67.91825004793135,179.48165320974528,-54.74981690716088,37.14407555957361,3.159244675430551,-2.6057382542478273,0.4259748333344862,7.7184863181826735,-0.1959313384310173,0,0,259
1.5892788317647146,-27.658740302401704,69.6874544726413,179.49206107926835,54.60692483013302,-36.59921004062087,-3.033379652088661,-2.367299664902382,-1.1268118457050287,43.2375425814138,-68.80958170790836,176.583794699958,-54.70399204608601,37.30336908433988,3.184596731654428,-2.6461446028524565,0.4203192304251356,7.824626290802535,-0.20303377959297111,0,0,260
1.5828526909727905,-33.54662852992804,71.04050069666165,-177.3945638076403,54.621635636073265,-36.72664456126745,-3.002629053642859,-2.4216778414723628,-1.1529875852037506,41.8192882243686,-70.00440202057068,174.25411770070045,-54.70673582887099,37.42319331436154,3.1721427521325487,-2.689494637113836,0.41464565840113154,7.7467242915795635,-0.19601953658434912,0,0,261
1.59633132224787,-31.550775322233804,72.32033563885031,-175.7199128572304,54.618614793233455,-36.877982038412874,-3.0027497606946842,-2.4390142118478404,-1.1265114241032539,44.57423848590372,-70.81444074967217,171.3387358908098,-54.68097812318029,37.59424986338831,3.1808190665111997,-2.715503245803985,0.43759266657498114,7.6667497206883874,-0.1946987933254067,0,0,262
1.64689734710759,-33.5354735740674,73.37534192420621,-173.69352091096655,54.631270748626754,-37.02012504962184,-2.9631168878351093,-2.4613427688040983,-1.1360507437745289,46.863715629504235,-71.57160976004687,168.94439031694156,-54.69365187167333,37.70399989702379,3.124105130243963,-2.7248316207180427,0.44762596978458974,7.497576794326992,-0.2124909298684024,0,0,263
1.648893149727409,-35.02807649405474,73.98221054570631,-172.15872147447936,54.62900849044173,-37.1486616841355,-2.9381616395958075,-2.432460207528107,-1.169865089364558,48.53813919714536,-72.05648855565566,167.20088185893204,-54.693828023911315,37.806051637147235,3.0610151014585685,-2.7302756898040443,0.569854711188628,7.395910103773887,-0.25365483673344347,0,0,264
1.6608371228733514,-36.213332644585144,74.48765028604096,-170.95185479044548,54.647002695881675,-37.198427911383504,-2.8346059629508216,-2.3978659452440545,-1.1634476997525078,49.59116120208719,-72.36195166790256,166.1055441584615,-54.70618517541485,37.847879442643936,2.992440454700261,-2.698872017090863,0.6291150665494293,7.2514694121018,-0.26963546673133965,0,0,265
1.6152338707758804,-37.160762615611034,74.6392012861049,-169.94900500008254,54.62118238923308,-37.33456429058139,-2.8710871898430192,-2.4138217589525617,-1.1696773658840882,45.61800573522365,-72.82905717006898,166.4896721304593,-54.67508412532168,37.96733326183703,3.017343690262837,-2.721275572987294,0.7185311257964757,7.153155150545953,-0.28700789312137803,0,0,266
1.5937051145120003,-31.98925801163414,74.95973696419809,-171.58204626694268,54.60928403651718,-37.45029389241881,-2.8972639663928406,-2.4358820474158263,-1.147969423876201,45.97094891722251,-72.89592061956445,166.115044147418,-54.661414015709695,38.036125884589644,3.039168553761688,-2.7435822928740006,0.7721423178119687,7.028207161320855,-0.29756760378102987,0,0,267
1.5896404049039021,-32.11058662463072,74.88336043504347,-171.44212606003694,54.5963977381388,-37.54375769679175,-2.901548046739357,-2.4589198950931004,-1.1166828886093114,45.92752238338052,-72.80849983569473,166.14541589845052,-54.64752720098221,38.09170524321546,3.048950246527602,-2.7444109880901495,0.8453558883537282,6.977686475186633,-0.309857703773476,0,0,268
1.558647034162794,-31.47359549807597,74.68517953790753,-172.09676224082105,54.60183881915113,-37.57062089815595,-2.881323602623488,-2.458408411368861,-1.1074016220226162,45.3500889063979,-72.7054122418355,166.75251323689244,-54.65489265927775,38.12775401381753,3.0159515559286545,-2.7672568844825745,0.8702221894398166,6.870742428599005,-0.3179323535725586,0,0,269
