JMW9912/AVATAR/Dynamixel/dynamixel_control/data/csv/.data/0715_1630_gymnast_2_HalfMethod_shoulder_estimation_version_Fixed_wrist_shpere_radius_Arm.mp4_motor_degree.csv
theta1,theta2,theta3,theta4,theta5,theta6,theta7,theta8,theta9,theta10,theta11,theta12,theta13,theta14,theta15,theta16,theta17,theta18,theta19,theta20,theta21,frame
0.0,0.0,0.0,0.0,0.0,0.0,0.0,0.0,0.0,0.0,0.0,0.0,0.0,0.0,0.0,0.0,0.0,0.0,0.0,0.0,0.0,0.0
0.9284752117606122,-11.780588381760273,0.6125140642479431,84.85014560224508,36.97366595167436,0.0,1.530905676621871,-2.1021011188125285,-1.5657836213501055,11.869189782616479,-0.10431460247960316,-85.32484485671633,-40.469599221043936,0.0,-1.5542319970024823,-2.466574388953576,2.1451955230911097,7.438814107912163,-0.24771595082379774,0.0,0.0,0.0
-0.5247096995532187,-13.035860886260572,0.3244124841620262,83.95602215652802,29.058027066312842,0.0,1.4923194237618638,-1.7300101011004416,-0.20681674068581096,13.411259929636369,-0.038269989955767345,-83.3919571535687,-33.37800768570052,0.0,-1.529142015063511,-2.111986342916105,2.1508752276939185,11.002387071119049,-0.317276783355193,0.0,0.0,1.0
-0.07975702607273803,-12.084813834115966,-0.7859322611239643,86.66235243972628,24.365575530810577,0.0,1.4320584796445803,-1.6213663160938965,-0.7084283412916332,12.68068046179545,1.3892732154362573,-86.07907666286657,-28.741134473097585,0.0,-1.4430126317610368,-2.0066755627505963,2.149364791067257,12.80859709423176,-0.28401542613505115,0.0,0.0,2.0
0.4037433674534434,-11.75832111907318,-0.4807347185080843,86.64183985279045,22.972325443629654,0.0,1.4593408838385753,-1.5533061937344201,-1.1982986332707926,12.433773770354804,1.265054568603339,-86.61775087959366,-27.4897415213925,0.0,-1.4572858953676768,-1.957333721073445,2.049647245020292,13.725887205998403,-0.2941793839487128,0.0,0.0,3.0
0.5390798305975437,-11.475301395987389,-1.0158256881151742,89.16028727562173,20.42076638251774,0.0,1.4177928503883037,-1.5046755547459167,-1.3818091676829325,12.24313616173333,1.4748867004838921,-86.76724405352644,-25.188894659051826,0.0,-1.4495174946562464,-1.8586515480061658,2.037258597849006,14.193724852300871,-0.2978954496831194,0.0,0.0,4.0
0.8559414842611324,-11.146378053290208,-1.0458586079577132,89.48017868697049,19.96337743352328,0.0,1.4198816427523537,-1.4978939211024145,-1.734964845770383,11.88712594200002,1.588317456782304,-87.11725412536282,-24.74280063284128,0.0,-1.4483999901062015,-1.8540568259787242,2.0110794148543336,14.131213993959456,-0.2721249360991402,0.0,0.0,5.0
1.1867517715920628,-10.549450336354099,-1.0894576062275891,89.81639330310067,19.003378823269458,0.0,1.4214368394902903,-1.4796218760536202,-2.084408529487342,11.378254626626742,1.6489081498310214,-87.4804975682593,-23.94875885046637,0.0,-1.450458050705156,-1.8396554136317183,1.9374429600582388,14.142942885719433,-0.23107107113913483,0.0,0.0,6.0
1.6365973151175055,-9.929279083165508,-1.0945229736148199,90.26995980769289,19.098808129642755,0.0,1.4249628622563386,-1.5136662178426987,-2.480259613354835,10.833820342145899,1.6667325550039613,-87.89993431080558,-23.887733661302796,0.0,-1.4546241704945575,-1.8617818778835888,1.7504893308764269,14.150702515704728,-0.2054979333613333,0.0,0.0,7.0
2.236395393002347,-9.343533905829391,-1.2123126102819142,91.45455640317147,20.239331042770356,0.0,1.4168217812062789,-1.6104295464115876,-3.0146096446738513,10.312042526000532,1.6207021173888114,-88.47021613347269,-24.668232633166305,0.0,-1.4627914745976183,-1.9217818176933328,1.592351376176681,14.313287121453993,-0.16708312498267533,0.0,0.0,8.0
2.9665255398037846,-8.712568562018902,-1.3716749655915912,92.1794949915768,21.865850883836938,0.0,1.4118042807208895,-1.7166895412450849,-3.678102971828764,9.73587886118774,1.5854367796038626,-89.17027506557157,-26.201176143341343,0.0,-1.470770328393257,-2.01766251018158,1.498216702485083,14.484561610906768,-0.15510769647005634,0.0,0.0,9.0
4.199444480986666,-7.860265282259213,-1.1274357762479355,90.34665721363505,26.291097698481604,0.0,1.461231122045917,-1.881186487243949,-4.750293688019495,8.932557317708355,1.1369767652537341,-88.39964637947355,-29.647411888301484,0.0,-1.5260969309834704,-2.1541943206903733,1.2677586466734836,14.734352865434419,-0.06600009799028438,0.0,0.0,10.0
7.309380728028861,-4.747464417987327,0.5571592369167608,86.28709033303873,37.75820876905934,0.0,1.6388840367477393,-2.2697917379762083,-7.731518008360559,5.536349178074871,-0.2866544406807685,-86.60862500374637,-40.63228183360518,0.0,-1.6900618611815426,-2.561732903247147,1.116636836573401,14.610965121616822,-0.04713386759436966,0.0,0.0,11.0
11.345260961413938,2.172931323317477,3.4224549100011887,85.47776018145049,55.088266922366195,0.0,1.8802884544713052,-2.752014210631805,-11.858785319066765,-1.9218385752867029,-4.5069887602707785,-83.78279970524457,-57.2604283399638,0.0,-2.058260440877391,-2.8703350872316764,1.1345197217294958,12.844597094623168,-0.05373494322107791,0.0,0.0,12.0
18.501322725596225,12.479687847272233,11.787772827978944,86.21052913743932,58.73233536631817,0.0,2.3477472973100797,-2.5647246666251173,-19.121565373935915,-13.11790762699081,-13.387875665103705,-84.6400177014719,-60.329248706455104,0.0,-2.5673117494766546,-2.5739784848985847,1.0824837787007218,11.133068884133518,-0.10187306802540125,0.0,0.0,13.0
26.38758037715072,23.488059348558888,17.673260124060203,86.39812751611343,57.37312647058824,0.0,2.6029969616982664,-2.3379053080554777,-27.0230184888464,-24.782790540571344,-19.584477438804903,-84.48321667583039,-58.265528391199155,0.0,-2.8400052443633808,-2.2600110522459276,0.8798223179155963,11.513837448089014,-0.06554883034853524,0.0,0.0,14.0
30.81008517605167,37.78820662433358,29.75784125571851,79.62387493372228,60.16886683832823,0.0,3.023962148263458,-1.6186622210646924,-31.368371178430166,-39.30763173495122,-31.034614000487196,-77.0034345845314,-59.929394368037165,0.0,-3.2246804334018697,-1.4570875117329998,0.7247557175004549,9.790505021075337,-0.05113173042649931,0.0,0.0,15.0
32.317712831548576,47.22070939516313,35.83120162636506,69.76288422801076,60.978559341605646,0.0,3.2505053308226994,-1.0224300953623326,-32.81944486759939,-49.201128388440424,-36.006747672484,-66.29819672982062,-60.66224855848141,0.0,-3.428950468727259,-0.8305260687024256,0.5848516708826329,6.921629500087867,-0.09430188874043836,0.0,0.0,16.0
35.510990193069624,59.54335511527321,39.72219927951524,67.29745878831976,57.835521079310595,0.0,3.1930208687601955,-0.7468987414561566,-36.05239196781985,-61.8121363634196,-39.43543924320634,-61.95373433623986,-56.877567775188815,0.0,-3.3893006531132017,-0.4919006364875228,0.811245891688376,6.029472225286976,-0.07108935701325188,0.0,0.0,17.0
38.63981788958242,69.67897205680698,40.914760410095724,67.87377063590243,53.607592759687584,0.0,3.0195268595769686,-0.738729317283472,-39.17939600382425,-71.80335005695139,-40.61674482977397,-62.83029336154726,-52.197703269427855,0.0,-3.210569167065849,-0.49163469289000494,0.708457975399014,5.930029399727049,-0.007572010188114476,0.0,0.0,18.0
40.189427302812824,72.67671673182517,40.0126871837128,71.0771992452936,51.55613613056634,0.0,2.8755556870093684,-0.9019760046282197,-40.620306371508484,-74.17804173590393,-40.05772114560725,-66.5111729108682,-50.23731538492177,0.0,-3.0741228637885243,-0.6701882585666767,0.6053965685450604,5.708772888476213,-0.0200958370573821,0.0,0.0,19.0
40.97280560438368,76.63263230443467,38.55206958599656,71.1208159325279,49.552919962257604,0.0,2.8002450932166076,-0.961001792216474,-41.31104681736646,-77.92463036316376,-39.09048078920464,-66.84901916923766,-48.485939485573795,0.0,-2.9925790328786737,-0.7162893495280434,0.5750288672627836,4.571786318120908,0.045624520980440106,0.0,0.0,20.0
41.85844208311339,81.29643478276049,37.32073750711239,70.93271252685064,47.28940566450901,0.0,2.7145129192321478,-1.0010889122816422,-42.07518789113998,-82.0885596288855,-38.80686104863633,-64.67402907433826,-46.64781096286248,0.0,-2.974545581527601,-0.6558124050604123,0.509042128549877,4.682858241329668,0.05028026119934857,0.0,0.0,21.0
42.23431763842293,84.94581802958346,36.85166930478423,69.84915237029507,45.772819136480756,0.0,2.6716892200193088,-0.9748124273401646,-42.417025198720786,-85.79792177840199,-38.0192538894297,-64.68238493015346,-45.1207832730024,0.0,-2.8933352344579926,-0.6697430205065551,0.5790554369485708,4.468191664276566,-0.05213673284042245,0.0,0.0,22.0
42.26616339542812,88.06978652568999,36.671672374395214,67.74393266962659,44.67075500545191,0.0,2.6701780661236283,-0.8960099173466511,-42.438448087052535,-88.67039652942064,-37.950279671722335,-62.77500624061343,-44.21341450060947,0.0,-2.880320313927848,-0.5883768872907778,0.496137740538886,4.068402103799329,-0.0733740819436261,0.0,0.0,23.0
42.21086959900229,89.73201029907013,36.66763209199326,66.68041711528798,44.16987904570817,0.0,2.6637790159987356,-0.8491377150000893,-42.365709987486476,-89.87265441049267,-37.28568384595334,-64.2880856326596,-43.780276368128554,0.0,-2.8054590787675626,-0.6452785141811014,0.4667800735596825,3.8105781796263805,-0.0882454120954073,0.0,0.0,24.0
42.1814827100983,89.96724302988619,36.53007450796766,66.50732538385853,44.16357523948074,0.0,2.66521883664691,-0.8410680664263818,-42.31505388950708,-89.79687428395015,-37.24009954365027,-64.45774418650657,-44.073991720623134,0.0,-2.8014052520887693,-0.6410622369546364,0.43002585495544526,3.7210822574846554,-0.07552805267951292,0.0,0.0,25.0
42.16655191657266,88.92409364337011,35.84709169520564,69.4362035399178,44.44586407094932,0.0,2.5944491529440588,-0.9559406274357396,-42.29899269967379,-89.57707397796868,-37.33967762532407,-64.49730774221256,-44.08999527261475,0.0,-2.8042278658737017,-0.6443170210364502,0.3887942549355937,3.671791756214644,-0.09580718745862692,0.0,0.0,26.0
42.02980128410525,85.42277107691405,36.14615346162908,71.83532677778163,45.84094400114314,0.0,2.589175513917653,-1.0374851809899395,-42.114833724177316,-85.82079690785446,-37.75842526487881,-67.10473158066665,-45.59613064533908,0.0,-2.8062953048571955,-0.7356852702085116,0.3122483020441505,3.5076947647479635,-0.06998631394887649,0.0,0.0,27.0
42.181127540261464,78.46404670720634,36.491195874312126,77.07613754385713,47.95499918217022,0.0,2.5602715481770644,-1.2362423178294262,-42.19342871095665,-78.97269344430009,-37.79389526960026,-73.39043420966541,-47.54653470346371,0.0,-2.757845739235682,-0.9905338519645865,0.2656876728269147,3.662902152466581,-0.07247252349721932,0.0,0.0,28.0
42.204773655168054,72.4277118646358,35.52359595531087,82.45820164352683,49.44635382355431,0.0,2.4951032302240477,-1.4616154591842994,-42.2806297360902,-73.14657380336438,-38.007054420123524,-76.4985181391393,-48.99832674434014,0.0,-2.789678660063073,-1.125504132390359,0.30532941762924604,3.3801732269435716,-0.10830943605460223,0.0,0.0,29.0
41.879660065770025,69.37569342649351,35.20079818337814,83.97890592410705,50.376419398240444,0.0,2.5027194560500816,-1.5229472876444465,-41.907335992286924,-70.01230642899937,-37.69953553170486,-78.09144595215065,-50.00296011690738,0.0,-2.803420067030258,-1.1905836079828451,0.10836448797345513,2.190066477402718,-0.1156726544848783,0.0,0.0,30.0
39.12751388688884,58.944631322099646,35.61498627058202,81.89832577226385,53.90350053302698,0.0,2.7879391467124397,-1.4433825868405055,-39.00353570816935,-59.088945115307034,-37.40926719878498,-78.66622123273395,-53.94502726237926,0.0,-2.995940074127845,-1.2064576862821683,0.20106084032775473,-0.9514417676873056,-0.16215435158488667,0.0,0.0,31.0
38.7602443699335,51.44136105083429,33.10133977721545,85.91416861001537,54.370715532511056,0.0,2.766456939350943,-1.6984581366216023,-38.764567879678125,-51.52944825032936,-35.702645761188,-81.70397691256453,-54.37334067054309,0.0,-3.03585590548989,-1.4235973837289866,0.48346417544633247,-0.06633525481514568,-0.21091057722432277,0.0,0.0,32.0
36.99572988465783,41.384748970366694,29.075561944564573,90.34574397791869,54.64601336154605,0.0,2.7076076573266965,-2.0067009184944498,-37.08553662695973,-41.24823874148489,-31.00241999184698,-88.60137525203892,-54.7843582855814,0.0,-2.9131004407274204,-1.8651150412922346,0.49975893946942146,0.6589253413427602,-0.16735343153319857,0.0,0.0,33.0
33.324445149168014,29.0848745148762,21.890513881989232,95.4396394693814,52.802022867915035,0.0,2.5090663886046163,-2.413731113231858,-33.099735340569175,-28.46658362427799,-23.389015572372315,-93.57241967904471,-53.34706443315667,0.0,-2.7278350022503144,-2.350178951806627,0.2546636754708851,2.6074546517060733,-0.16186880353217142,0.0,0.0,34.0
27.250511599532015,17.620150926427705,13.369404642092357,98.09594646481277,47.79047481991308,0.0,2.2054210401475194,-2.6787853145291245,-27.243899976415445,-17.095892008639222,-14.80173252232939,-96.18969565065181,-48.830664197025705,0.0,-2.418674883264747,-2.7057158441276234,0.40673295287491623,6.081000918154702,-0.2218555627601808,0.0,0.0,35.0
19.199938379567225,6.533307464127425,5.804818133787352,101.28136363484421,38.938353209727474,0.0,1.8076152768453198,-2.672803641548854,-19.20784432353152,-5.524484795035314,-7.0299792022272225,-99.30957738694768,-40.78794649704087,0.0,-1.9844872332080727,-2.8065470868725275,0.47932436632176817,9.375852700099816,-0.21847353923568316,0.0,0.0,36.0
11.981328304286897,-1.4314938926424845,2.0409264074391054,106.20948736858935,28.32742751012594,0.0,1.4937989754417622,-2.3976744125440104,-12.09863424196093,2.977799657541631,-3.294807661809399,-101.81495033984542,-31.29200968998796,0.0,-1.6865476443079381,-2.5554817497242186,0.530364716769455,12.656664453033759,-0.1660955482699337,0.0,0.0,37.0
4.464134375005348,-8.561136550475187,2.6460643615343193,111.39053281678012,21.30479383903462,0.0,1.3793481487667298,-2.1125917676047457,-4.643630038845991,10.332749332890625,-2.8020059112227664,-108.10497283129496,-25.52762504850808,0.0,-1.457867216501134,-2.365347619581207,0.5638597729820783,14.4839784555163,-0.1594633181053982,0.0,0.0,38.0
-2.3348939779099234,-15.387874598789189,5.300865896524923,115.92795958090014,24.381161455619257,0.0,1.400291744409091,-2.190815899635875,2.201722791454423,17.18143425459603,-5.2282569100243625,-112.65689770748305,-27.92305150244254,0.0,-1.440723109321259,-2.405803349261355,0.6611798990802998,15.250732225428097,-0.16934136289163432,0.0,0.0,39.0
-8.66541916508651,-22.1304597229695,9.440700550842664,117.80789251342054,35.33955609508892,0.0,1.5637013822613626,-2.4746681040665504,8.644828706059863,23.8668797514521,-9.267492206445974,-117.02582284301444,-37.48536883126378,0.0,-1.5418676370082864,-2.681372900214399,0.5655719639631176,15.424965423721543,-0.18176661155404303,0.0,0.0,40.0
-13.958918224683941,-28.48609769177468,12.89666655514932,118.94656986543468,41.375128800112876,0.0,1.7321407680980416,-2.508761721727,14.022869285882772,30.31709975204553,-12.661124167805998,-118.22227264838831,-44.241884670663865,0.0,-1.7056649744490469,-2.7281432115051616,0.6101084535503948,16.006629864356572,-0.1570557586721048,0.0,0.0,41.0
-17.887160653165147,-33.66078334528553,16.028095801992787,119.11113276225,46.749184950437844,0.0,1.9041309570934322,-2.494983634936899,17.857988915220016,35.27572787067928,-15.470682742454398,-118.72213251585443,-48.45320267294045,0.0,-1.85835161470567,-2.6953525869192223,0.5850055962573969,15.762991386499777,-0.14218516433956385,0.0,0.0,42.0
-20.829887892909902,-37.910173524120744,17.975905946574812,121.56499297410787,47.897884223907155,0.0,2.001891143144554,-2.4354394410032527,20.666999834036147,39.62055740800699,-17.614377804823498,-119.72051942551703,-49.543803844003236,0.0,-1.9860452260486827,-2.589287348515483,0.7594907219065685,15.45982532887686,-0.1609115453284406,0.0,0.0,43.0
-22.482735615445048,-40.29115002586662,18.97848090230338,120.72121023849381,48.08735594724889,0.0,2.0701174835221314,-2.3351559723988538,22.28388490304387,41.2496819982353,-17.2565116149789,-120.76605315943402,-49.079293335628535,0.0,-1.9593673153703468,-2.554816359933831,0.8154094936879966,15.091241382888326,-0.16653934311042767,0.0,0.0,44.0
-23.667430219436458,-41.09351169218053,18.29645645310556,121.97052341570519,47.527534168170455,0.0,2.0234447400466,-2.3370898494490477,23.39193453926399,42.21814958040874,-16.842424154116312,-119.81125925846996,-48.64052429934379,0.0,-1.938924131211505,-2.494830871923521,1.0083541753871452,14.90356037952575,-0.16581529583642468,0.0,0.0,45.0
-24.291275792563333,-41.38475205864655,18.025769922226768,119.08599744471462,48.199711390823566,0.0,2.0169623765052584,-2.2863464859830667,23.909457972675863,42.15528194521688,-16.33315597182925,-116.77965477203252,-48.625996948060454,0.0,-1.908555360191417,-2.439992494135586,1.076256802184532,14.875381283845329,-0.13885069314133122,0.0,0.0,46.0
-22.786661958037687,-38.0332534597085,15.19289974289917,116.47230105339108,45.41863894012902,0.0,1.8586376767363355,-2.288419367151347,22.296172413360722,38.56167703944854,-13.625295444186127,-114.21724976833694,-45.79704258141662,0.0,-1.7441792703044106,-2.4477476265148135,1.1038120765001034,14.389596156322215,-0.1612871975709697,0.0,0.0,47.0
-19.04764394409617,-33.316854805131904,12.358020052771069,111.29215862351226,44.694416096592995,0.0,1.745032018514517,-2.320545256000996,18.49164434754232,33.50979153749819,-10.422688986401226,-111.31843533138974,-44.52215444086831,0.0,-1.59549076140254,-2.5335006500860504,1.1704929258192425,14.692497135758558,-0.16819831898327847,0.0,0.0,48.0
-13.558186757211061,-26.7498311235443,8.973745563677703,107.6793166754395,40.966708075699266,0.0,1.6224379026870386,-2.330071267401725,12.967599082700277,27.145460498768962,-7.753902905467325,-107.92335497604688,-40.34662261611744,0.0,-1.5199227985932564,-2.5207260992274736,1.1532188514140609,15.186505235062972,-0.17298584242341855,0.0,0.0,49.0
-7.232855288568038,-19.17730302458712,4.999768699849413,108.97358599792958,30.391195984779184,0.0,1.4385550008225325,-2.191414173172514,6.572064368446922,19.51581955578768,-4.289858613883811,-108.22726119118812,-32.4254749793762,0.0,-1.3787276777941209,-2.457550379965795,1.2423664954921823,17.00886661125796,-0.21541123711740345,0.0,0.0,50.0
-0.702120928397391,-11.804087667767687,2.0458390439382597,108.85579546376505,26.84625986780683,0.0,1.3240806999920283,-2.240676199640417,0.23537997814499617,12.809382089411162,-2.09527177296561,-105.73059232263981,-29.53206661445237,0.0,-1.3691621301405137,-2.46340915722041,1.0089039738621721,18.608701955709957,-0.24700884744368276,0.0,0.0,51.0
5.131778109298103,-6.356360574144939,1.0423201655979408,104.18230825186694,30.70141507015906,0.0,1.404425805489965,-2.396545859378924,-5.633796586407214,6.963396579380747,-1.329249208884106,-102.37218108236686,-33.587221260497174,0.0,-1.466642757402434,-2.6569987215153197,0.9814627494102925,18.71644300361353,-0.2821210697802794,0.0,0.0,52.0
10.299239688141284,-0.2530643011524308,5.924908449077857,93.58623649177775,49.52751741068158,0.0,1.8799583423213324,-2.713003170381847,-11.03178089171974,-0.411923777076941,-7.263380497280696,-92.29117901683534,-52.91021008771841,0.0,-2.044081054663145,-2.88859176523055,0.7855621856127727,16.406045803627755,-0.25753662887996387,0.0,0.0,53.0
17.013236241314726,18.347730966583157,9.042037631905945,87.18970042139752,70.75730991067358,0.0,2.2133531838300593,-2.660596438894072,-17.33834641561816,-18.706871186474253,-11.009088076290464,-85.57473001127327,-72.85094871956787,0.0,-2.442859327836104,-2.5807696166896736,0.6021813695992355,10.575761183629526,-0.271164501508257,0.0,0.0,54.0
26.39839598170143,47.16338896868168,30.82098054591592,78.85648438862147,72.35860623647685,0.0,2.9144894607501435,-1.1397588754988492,-26.492012262012913,-47.514373624470586,-33.58591671943428,-77.4650787956155,-72.95564333730258,0.0,-3.066403921161952,-0.8796672287411926,0.6071817374302171,5.1877475997378255,-0.249228298483747,0.0,0.0,55.0
35.03326285685683,72.03082544436107,42.81440822394853,63.29853596600964,58.191514383753805,0.0,3.0371103589758413,-0.35060792072501645,-35.09851848418714,-73.49430328367744,-44.9294412668068,-60.63262425765128,-58.01080557243321,0.0,-3.1138302408843677,-0.07557417943887829,0.7426928752458474,5.504347280214872,-0.28475744418309,0.0,0.0,56.0
40.139208336940285,86.09661735237427,42.02572618459659,61.13062965330626,48.94786970659355,0.0,2.837867837737274,-0.4423104185007495,-39.99857815702432,-88.16657908544093,-43.28105057849578,-57.752295255159005,-48.42794401261185,0.0,-2.9095871929020984,-0.16466888781748526,0.3478853335585101,7.014149996576394,-0.2772186140470943,0.0,0.0,57.0
40.0314245367429,75.4404214039274,39.24841578451246,77.935112972569,62.142154359625174,0.0,2.54577124940624,-0.664014180094962,-39.843898277985616,-72.79738591706199,-40.83986298805036,-78.09762809399703,-64.07094752005115,0.0,-2.6539462688377027,-0.45483529586218385,0.447316825400092,3.7887037605319245,-0.3080260884806779,0.0,0.0,58.0
39.7096338343761,64.04083700815757,34.35656508523612,89.45492541826384,74.47948587952071,0.0,2.356695157493429,-0.8056031656956978,-39.59330888262162,-62.13006201423018,-35.46160359298592,-89.42919019246291,-75.43665102198004,0.0,-2.47623915539219,-0.6268000541321643,0.3682450122914652,3.5750339658354497,-0.23446352856162633,0.0,0.0,59.0
38.917407022735496,53.110240032567866,27.82602224549699,98.3257994222814,86.44816341415111,0.0,2.1526768619964476,-0.9407202590059404,-38.88750445454918,-51.639492264293075,-28.57112849314936,-98.64974707911958,-86.9567664262583,0.0,-2.2570805161335854,-0.7890459455383485,0.38180917878446413,0.15562557544817218,-0.2041312645433472,0.0,0.0,60.0
39.09920609556816,40.06972610054248,16.395439732740517,108.549707309003,94.4697639426366,0.0,1.7437613911561451,-1.5221254694547854,-39.104128677201395,-39.9021719197285,-16.96476085647409,-109.23603776827987,-94.40478549478321,0.0,-1.8101342546109074,-1.3903197404355006,0.34438316001677044,-0.3789256616133494,-0.1306114270278262,0.0,0.0,61.0
45.089659412816225,36.21574230998587,18.232647545846774,113.13434022696775,100.04411598643203,0.0,1.7571688254844349,-1.4241457138496403,-44.971269202772596,-36.16020334737388,-18.675434106778624,-113.66040757855625,-99.78914842645904,0.0,-1.8301513608219655,-1.2902689763783586,0.4177077394774854,-0.9565065783566736,-0.1541359771549323,0.0,0.0,62.0
49.52383453806663,33.62989736759267,19.34770803515557,116.47710328721,103.55422476490047,0.0,1.7681622702308069,-1.3696193014025764,-49.523813348182976,-33.460426326446076,-19.773833090304894,-117.1077138978846,-103.4551580578497,0.0,-1.846371169664302,-1.2281940147987889,0.4202237150438981,-1.7159534571316692,-0.1750748951223858,0.0,0.0,63.0
52.367388266838944,32.26167747332579,19.932117438543322,118.37172105901585,105.30372618314294,0.0,1.7774873029355485,-1.3529606349549832,-52.32449870620844,-32.03517503500549,-20.303961086124293,-119.01095357927301,-105.31982845441141,0.0,-1.8593923344186682,-1.2062829023169988,0.4576919569440896,-2.0413447857261082,-0.19604177640428902,0.0,0.0,64.0
53.9362621207308,31.25581022256505,20.288636459441786,119.73911491479517,106.60885921344585,0.0,1.779665987801895,-1.3290698183095553,-53.477976407657806,-31.178706964676405,-20.535284395293534,-120.10085052896711,-106.48806961702736,0.0,-1.8609673682369074,-1.1807657540597458,0.4816711186531757,-2.1404475381626056,-0.21483673849489354,0.0,0.0,65.0
55.06363966782013,29.7706827653603,20.50774291523548,121.48513702730868,108.78189178236269,0.0,1.7749631098111396,-1.2674326556232567,-54.034788346411695,-29.94910961250863,-20.60707079823738,-121.41909133805947,-108.39319801353656,0.0,-1.8524908499287964,-1.1181807967943322,0.45333533243581764,-2.496970264203742,-0.2136422573806766,0.0,0.0,66.0
55.20127314172092,28.9495867549344,20.509420881269218,122.34944775167972,110.08570419333141,0.0,1.7687967424153181,-1.2218322383403466,-54.33708618780915,-28.94614409568333,-20.646706083326766,-122.51865226380302,-109.9438845473881,0.0,-1.8429936929420232,-1.0623694918218918,0.4607709619133983,-2.488750379890646,-0.22696079966597482,0.0,0.0,67.0
54.95900042772767,28.66251187403444,20.404835810144704,122.53033038994587,110.65190335970547,0.0,1.765111576723887,-1.199598435891597,-54.05508429013146,-28.586601508320918,-20.541376031163676,-122.7784765927844,-110.62430739804105,0.0,-1.8362176160973733,-1.0332104985840533,0.44775516225835715,-2.6434409215263592,-0.21437551976601377,0.0,0.0,68.0
54.625511642380616,28.527117047452837,20.384569247196044,122.65180919138287,110.88758450945998,0.0,1.760658206579219,-1.183295152148068,-53.69657255657573,-28.532528612108063,-20.51477719564927,-122.80476445538561,-110.73825789053284,0.0,-1.830796307513002,-1.0207493293992413,0.4801346924858035,-2.6556693384770713,-0.21832141216006123,0.0,0.0,69.0
54.47582626469958,28.044278237162732,20.411536309775833,123.2128692637051,111.61795106897881,0.0,1.7537125333924444,-1.149824468924131,-53.027458060015476,-28.45459908726882,-20.419031591403694,-122.77259234347817,-110.96471392912267,0.0,-1.8218017219020062,-0.999457144740799,0.40792147230056014,-3.007321302035659,-0.20418664473716377,0.0,0.0,70.0
51.76772160157834,29.86316367994126,19.707013255758085,120.4257359086868,109.45672172779489,0.0,1.7539671308676406,-1.200869583615952,-50.741468857477095,-30.088410118710332,-19.74337195448498,-120.24307833180232,-109.05399385869269,0.0,-1.8246986904554,-1.0523247332105217,0.4145674363341598,-3.2571151374938574,-0.24795555956494172,0.0,0.0,71.0
46.1208713542628,33.81247748407972,18.04138284138712,114.8163965052114,104.373323798064,0.0,1.7535477172350558,-1.3175298948877587,-44.813265175075514,-34.1604856346743,-18.081038639524166,-114.57754503438169,-103.73899223331607,0.0,-1.8201665191472545,-1.1770714697257485,0.36154287933495227,-4.08820316641776,-0.2447336754276449,0.0,0.0,72.0
38.78017914722459,39.29257008757814,15.516098329928376,108.10353944150127,96.44144045736127,0.0,1.7494445469629045,-1.4891589517234398,-38.06931457895658,-39.287416401416536,-15.69433738649208,-108.29600481326092,-96.33953181490205,0.0,-1.8164523300413935,-1.3527788935532468,0.3958548656649963,-4.585186269719629,-0.2872985315884857,0.0,0.0,73.0
38.03368982716256,56.81647485191563,26.541648929165664,94.15217867956613,82.30741387207003,0.0,2.2346419649090206,-1.0180431057310608,-37.6692001971994,-55.77995905933611,-28.209838788256903,-94.07402944050828,-83.05714613626174,0.0,-2.354412847072689,-0.7975786507035978,0.33571020818217734,-3.7066372175311577,-0.21160186296065486,0.0,0.0,74.0
38.561379997153985,62.276853332130266,29.931736403207754,92.11802215245982,76.29395419728029,0.0,2.2446471931037104,-0.9589683448103793,-38.07315124509232,-60.345579352148505,-31.23450736527305,-92.38252830754043,-77.86688992907317,0.0,-2.350600034983061,-0.7469544886332758,0.35441866163478236,-4.184155594069218,-0.28284242952238664,0.0,0.0,75.0
39.67861453026049,82.38745190401849,37.16881736047255,77.1974466863966,48.71232570561343,0.0,2.406410403196704,-1.0859573388141506,-39.26996772731321,-84.31472430475593,-40.644337017580945,-69.6804143424538,-48.49295574473278,0.0,-2.6500044583095206,-0.6424366844173264,0.4725441460666294,-0.5378028845444471,-0.2773623677868517,0.0,0.0,76.0
37.213008447439684,53.03676853688597,33.74739366009803,89.9602852161262,55.541505442693015,0.0,2.571089584536453,-1.7243957727533927,-36.78602258657091,-53.0808843869201,-36.877317117979345,-85.93082280135852,-55.94928305936578,0.0,-2.8243662833394745,-1.4277860180753734,0.4971993579865654,-4.1743340216282885,-0.3381174035879065,0.0,0.0,77.0
35.475350265980495,41.1583190679362,28.31834989007371,94.78444260101975,55.638487029901455,0.0,2.5267781968055534,-2.126700251546764,-35.15910909231432,-41.204500999263246,-31.361443719416286,-90.64210891283432,-56.232459144264936,0.0,-2.8223270660923663,-1.8723833003608428,0.43954595714927525,-2.908814653837531,-0.34525201947936446,0.0,0.0,78.0
31.311769400778275,26.795345798772058,19.39459172722208,102.15783264049745,53.03855628241294,0.0,2.2324741555140477,-2.6567344837835853,-31.05658328810284,-26.436980255699073,-22.188962101707805,-98.04424939437939,-53.90760687751685,0.0,-2.551772174104152,-2.5146846698724974,0.4573818631231675,-1.1701687281179647,-0.35878850747862534,0.0,0.0,79.0
21.781741348095586,11.169183089654561,10.163587593476741,104.41025254632234,46.69341513347908,0.0,1.9202279399193933,-2.8607882547199064,-21.801752094816436,-10.95273644222833,-12.82843358357493,-100.38984412893092,-48.76247802765498,0.0,-2.212502299253923,-2.8651706026897554,0.5220251673581102,3.1185694426291186,-0.2891984771661372,0.0,0.0,80.0
12.080243103847021,-1.7994291723821212,3.505739053010348,111.87068760620112,34.11614006427065,0.0,1.4594688996197542,-2.691692404360453,-12.416887760111322,2.4402812815502752,-5.582237096028718,-105.52064692723778,-37.5175539583253,0.0,-1.7287154744725808,-2.821650090516025,0.589353265144048,8.392184918241488,-0.3659754409613513,0.0,0.0,81.0
3.8602829000132215,-9.618559329586677,2.9683422022723462,120.76036560768114,25.209205699414742,0.0,1.2131923386921464,-2.436232143460064,-4.16310531328126,11.1800951383791,-4.080344145178596,-112.86952922835805,-29.6365402226096,0.0,-1.4316465674977596,-2.6079455979955006,0.6994203898976638,12.459008392338566,-0.2827063432779319,0.0,0.0,82.0
-3.8285003222578604,-17.149018837399716,6.887206730928482,128.03605465700954,30.491785243391835,0.0,1.2403805530797012,-2.6354347688977193,3.6545469300418585,18.57445972858866,-7.129626486287944,-122.38706910506573,-33.454071886099825,0.0,-1.3357181453288014,-2.789042348258818,0.7636191889640981,14.284420606739136,-0.2511227524424075,0.0,0.0,83.0
-11.167952665654992,-24.286402412750466,14.409542318879174,126.97230835506934,48.17501375570803,0.0,1.621638562132464,-2.9331340754999937,11.015855451896213,25.453126853574034,-13.61878782830205,-125.90093696227595,-48.32470069360707,0.0,-1.5645016330045485,-3.1005983243742983,0.7702988934547447,14.532920687860411,-0.23343075126168591,0.0,0.0,84.0
-16.765739214097433,-30.93722479276944,18.958433733762792,130.98787356094346,57.02204685572107,0.0,1.8062175331412667,-2.951706084357876,16.592908107339433,31.979447669768916,-17.708390172673848,-129.3737566793592,-56.590910711259674,0.0,-1.742666305736833,-3.1239315586318988,0.8639725341966108,15.831939841916924,-0.30726993040127126,0.0,0.0,85.0
-20.00137911639818,-37.66357663626867,23.367132267534142,132.48523496555623,56.47818628458462,0.0,2.0906237158743766,-2.750168388508586,19.714424086345733,37.91944621543743,-21.28793527546622,-132.56076637786487,-55.97428766034924,0.0,-1.9556749288452,-2.9882624264261786,1.036946826103988,16.316651631233636,-0.33364030582199783,0.0,0.0,86.0
-22.382929476198218,-41.507951906391426,28.524602085717014,141.82643881928817,58.62926507503992,0.0,2.148112563767495,-2.761121671483664,22.1829312920165,41.608713334493316,-26.059758201379204,-141.02288926862434,-57.983723627143995,0.0,-2.0321060091043286,-3.006881876378883,1.046266033957853,14.701778305285206,-0.35750429603269107,0.0,0.0,87.0
-24.12705413925412,-43.362318680762364,30.88241372920403,148.06170884136444,59.77065077617857,0.0,2.0898630397717204,-2.7963159407710414,23.94393847515338,44.91641030879926,-28.458643129462462,-144.8611018926017,-57.872760324094436,0.0,-2.1126571248187447,-2.958455173823015,1.1483619353659675,13.505158532341932,-0.3707513498595413,0.0,0.0,88.0
-24.88472190124177,-44.97107159491841,31.242866776928988,146.27978993156822,61.179786036673455,0.0,2.199273520298538,-2.713398529421486,24.689426302303584,45.570427980504064,-28.203865061399046,-144.58236075350996,-58.983936241141116,0.0,-2.1257901375209993,-2.94903617560652,1.2109789045594732,13.129523856166525,-0.4261568303119414,0.0,0.0,89.0
-25.592143376600212,-46.29441323412011,29.88879523500299,141.50663875838194,60.9318259953386,0.0,2.3114168592079007,-2.625177071069003,25.36335765261417,46.16079098917754,-26.256195896287053,-140.18621530816202,-57.66377312526907,0.0,-2.1685266747897534,-2.879368421178457,1.2545245956415492,13.362760131567212,-0.42808363398741633,0.0,0.0,90.0
-25.475295915374204,-44.62564296993348,25.533326045585774,135.28927771180756,58.20286850840398,0.0,2.2314784949487128,-2.6313237026421654,25.12616225821255,44.8195943486823,-22.704812255961553,-132.5824303772203,-55.48545025001653,0.0,-2.1176450928592456,-2.7933486233937477,1.4090489155872659,13.65023887117907,-0.4690817674461385,0.0,0.0,91.0
-23.96954485435176,-41.617058471355136,22.354968550582665,126.15232238726283,57.13891061271739,0.0,2.169331790943085,-2.5744550543338898,23.72390393104142,41.592237605769306,-18.853567066599645,-125.01371281106692,-52.66436155558693,0.0,-1.9701844410034044,-2.7297196329439255,1.346681687894159,13.767966503084867,-0.36141316137254836,0.0,0.0,92.0
-19.59913220070321,-34.97711611545773,17.041068416710853,119.13130691528262,53.260983705634075,0.0,1.941555873929778,-2.6157338640669234,19.082880890024253,34.39796251337745,-13.804942884303863,-119.51641769443445,-49.742083099552765,0.0,-1.7095904258936805,-2.808916508743,1.5947141491383612,14.553283049795263,-0.30781914834134,0.0,0.0,93.0
-12.666861584676386,-26.072802110768045,11.082943979804034,113.36510877704538,48.281419799799984,0.0,1.692756229239775,-2.664201835458117,11.962996930328238,25.65549254131897,-8.759299511803867,-113.94424726041842,-43.91701165040931,0.0,-1.5078406343484434,-2.7998116383157163,1.60400500939394,15.933866561347859,-0.23098307584156666,0.0,0.0,94.0
-5.2084311879190395,-17.69502981036275,5.430024755309621,113.63055855188188,35.35224812593962,0.0,1.4216214951890496,-2.502731614487534,4.491981483138315,17.462094277507415,-4.273014134595798,-112.64936639064156,-33.523920640140474,0.0,-1.3284365638768174,-2.6406341084368257,1.8645987937770996,18.694907866379758,-0.29212956158412295,0.0,0.0,95.0
2.263277736915047,-9.149942430645943,0.9838077185374384,113.85386271213936,27.914605439135393,0.0,1.2054765449154858,-2.4318932776185735,-3.0193922711967414,9.107585813701107,-0.517807041685371,-110.85906671917027,-28.862526940942683,0.0,-1.2124901024096213,-2.6270817559771737,1.9099714081374317,20.656921069174356,-0.4920071003646469,0.0,0.0,96.0
8.102242747262279,-2.934283571822202,-1.2552932502799488,106.58720191596514,30.34040958963542,0.0,1.2594011839144548,-2.504996523010712,-8.612448486752124,3.0600191501311875,1.698508004655231,-104.5247854882282,-32.47923461083486,0.0,-1.2846915246649278,-2.756306952348964,1.5737934997418637,19.0495901616069,-0.671413833601248,0.0,0.0,97.0
14.97831627434553,6.226415161418358,4.836745373707428,91.81040207960653,50.642015901249614,0.0,1.8989776310311224,-2.7748878614667016,-15.554572504430336,-6.791675305550693,-6.761257440445016,-90.4124623674316,-53.14527081410055,0.0,-2.1122272812056706,-2.8849893373929065,1.6082871153483427,14.50430674721124,-0.6000532741438728,0.0,0.0,98.0
25.591494508629058,30.344493740101424,17.10796041718471,85.36598376486761,61.67087198516156,0.0,2.579309823308235,-2.305304349896653,-26.370653460840135,-32.70908998368643,-20.495711427076017,-83.61751161244524,-62.77970970266006,0.0,-2.84145097715344,-2.1054542069174764,1.703461967021818,6.976152137428739,-0.5607701532363262,0.0,0.0,99.0
33.39356666356855,53.795632396550594,33.33570646800155,74.78155328639055,59.502052627693445,0.0,3.0369372001531896,-1.2107290120722645,-33.643503775866826,-55.85310616478943,-35.70760699160574,-71.02099265918314,-59.4157947866154,0.0,-3.2307600503902325,-0.9078714839255158,1.171785794850651,3.5045433690782675,-0.4050847462842108,0.0,0.0,100.0
39.14149186902528,71.91178722987544,38.49726786554644,73.58803881607281,52.28186109377395,0.0,2.801051585233848,-0.9950353212941409,-39.17645902248116,-73.44813850711493,-40.406431055988804,-69.52733656568535,-51.746132912123855,0.0,-2.9645660966820406,-0.7054999122916266,1.1160482687565785,4.907705629403435,-0.3040004771958609,0.0,0.0,101.0
39.907405376888406,73.59762845213811,37.145200456255665,80.9903889183616,63.93289802751915,0.0,2.4805275510635303,-0.7602764322679777,-39.813380992774015,-70.91307676301724,-38.682620203863316,-79.64273389294078,-65.43653986743487,0.0,-2.66307460358974,-0.5463257737835989,1.0869792747207248,0.07313195286691576,-0.23952357989258222,0.0,0.0,102.0
39.58691924065307,62.98134550285858,33.209918913940655,91.32824024808853,75.99111886755264,0.0,2.2930839929278655,-0.8340361632713322,-39.45797551440698,-60.206167625888895,-34.05803410646466,-90.95124002769154,-77.36039231689517,0.0,-2.453192958881383,-0.6714042286619244,1.1048895346402003,2.152337590153038,-0.20848851907318047,0.0,0.0,103.0
37.20973337173265,50.74035853330799,28.20502604538101,99.65295757000708,90.6403140898554,0.0,2.1273646675640867,-0.7756083946689942,-37.091892117982425,-48.763783542662246,-28.47133045110762,-100.38476016931426,-91.56138150238074,0.0,-2.2095293049157454,-0.6343815941076048,1.0773799275506644,-2.787596823694469,-0.18964084156059002,0.0,0.0,104.0
36.401441955164174,37.16885922116347,16.625406332701377,110.32833302180458,100.1292483342062,0.0,1.7007958973448207,-1.2774897213343241,-37.20062400223727,-35.72025254077127,-17.352762832554625,-112.52646790460868,-101.59662512292556,0.0,-1.7284132611064578,-1.1005072310817028,0.9178152362598994,-4.43177237750884,-0.1488536394857017,0.0,0.0,105.0
43.495988246492374,30.194950597392452,19.07161436143931,119.31534460927537,109.54684751590943,0.0,1.665521749474336,-1.0299425686340824,-43.590440682900386,-29.506503315234358,-19.720395477861715,-120.80543618084215,-110.02099950139886,0.0,-1.6951580719435306,-0.839821281233526,0.819158494911006,-5.666170583470122,-0.12032070512089636,0.0,0.0,106.0
46.65672730961674,25.15950448393435,20.530458255351245,126.74707706723565,115.91167071277172,0.0,1.6048878640156294,-0.7788745716962545,-45.957337465633806,-24.954337604657287,-21.058353949771583,-127.67414456401313,-115.57868425295727,0.0,-1.6117693540046538,-0.5931743023894087,0.7621889888011313,-6.677729758557197,-0.14924880616796737,0.0,0.0,107.0
41.565276761766896,24.42908977309782,20.033253241363408,127.02226004059166,117.60450876852371,0.0,1.5144117220677278,-0.6178320649700192,-41.10246491945719,-24.029111983024226,-20.72085314156252,-128.43539975666573,-117.35608162911008,0.0,-1.4909962811617974,-0.4226954323767466,0.7137329865474128,-7.710797917159086,-0.15161610519898197,0.0,0.0,108.0
30.487742219103918,25.83567603266769,18.70767039184127,123.52165320801934,116.96832233926227,0.0,1.3621166534082734,-0.47844427601602635,-30.41242224921183,-25.57126694092698,-19.55066429562348,-124.96693815658016,-116.4325442326573,0.0,-1.3103779217329063,-0.30383391460237125,0.6950618578676979,-9.13085397489724,-0.18612973028351604,0.0,0.0,109.0
23.527302058424475,30.491725378725715,29.974020710364382,126.63245965908324,118.05504747069615,0.0,1.0987666212131388,0.4497959248588453,-23.221150781709714,-28.87173638003978,-31.54346252259111,-128.1473061552127,-117.26494951974377,0.0,-1.0234366597474862,0.6150201849033728,0.7927312998965158,-10.68052358497,-0.311057848685554,0.0,0.0,110.0
16.666672442828276,32.00248072710095,43.663286413020636,138.4396143101002,112.10200138972567,0.0,0.2790118786115617,0.9224220236580596,-16.30105753919937,-29.003602012610127,-46.27799162528572,-140.0037930270578,-110.34337884104775,0.0,-0.17432424060050059,1.0107952469780703,0.868511769362448,-11.647071878364661,-0.3841920107741003,0.0,0.0,111.0
10.31123350032383,35.219055317748,55.5573931545279,147.90142167733669,99.51893709431153,0.0,-0.6314366742451496,0.7808463791361875,-9.99798821838235,-31.135182356695896,-59.596051195260365,-148.37408724245262,-96.2647069168429,0.0,0.6780260605077005,0.7792206669631058,0.8491541492098693,-12.80546606312428,-0.43366935452194627,0.0,0.0,112.0
3.5816099012162312,51.125429145805946,70.21851738149411,142.18274294803516,77.08809920990663,0.0,-1.3371149325581175,0.3334300938470185,-3.378362041093458,-46.89036625858078,-75.28077799584875,-140.45579907333882,-72.86268653319247,0.0,1.3304228258806798,0.20172845304539766,0.7745122903683983,-13.577885421377534,-0.3694952280963467,0.0,0.0,113.0
-2.378358953910358,78.11517206213958,79.68821238186652,121.10173381659246,57.65555631393264,0.0,-1.7927990026469627,-0.15961447432706438,2.4281331037131793,-45.984678260018306,-82.3730394457638,-143.28885667831605,-57.608021749042805,0.0,1.6802922890450398,-0.531055882088005,0.6342445571770856,-12.847141125070054,-0.17660712186912456,0.0,0.0,114.0
-7.110313157121544,13.786756315576309,72.12812226499983,179.96394463610727,59.69857883836203,0.0,-1.8688086291465789,-1.0872221558537067,7.014010478032129,1.191891400231367,-69.95446241505437,175.53455366327415,-59.726418949895816,0.0,1.5990303507698942,-1.490489139792279,0.666611856002497,-11.540852642224756,-0.17884064866130012,0.0,0.0,115.0
-8.798900698262425,-4.24481842149093,55.1908006056417,-178.47618062435055,61.8595748138734,0.0,-1.0741937807906028,-2.1467829941139365,8.864448316179743,9.107660771638779,-52.99699292624191,179.76992366974963,-61.49772371530332,0.0,0.9438710046768253,-2.4358085252365687,0.5370803944365703,-10.184382833431037,-0.12191742647403504,0.0,0.0,116.0
-8.903519559553157,-10.941661739790877,38.44445603525955,169.20657879514417,61.62727445391815,0.0,-0.048787154354242024,-2.928186825498685,9.352215176698806,14.427102826562408,-37.142130649537016,-167.96077070351944,-60.69878675545187,0.0,-0.010656131749413832,-3.1604106804747345,0.39313103971527624,-7.318257907061239,-0.16037356113018855,0.0,0.0,117.0
-9.362275191572584,-15.38899806809818,23.748574976170534,159.98760193560935,55.11852053349682,0.0,0.464525783747995,-3.4043876579326873,9.81492548824767,18.051390428015072,-23.665442889816973,-157.5992200843312,-54.85278703006019,0.0,-0.5313455158679931,-3.552110803731328,0.486104686217051,-2.9190086013960395,-0.2508441386090885,0.0,0.0,118.0
-5.172921461310968,-14.226878904864432,13.01534317371446,148.48630243505107,47.371327873424555,0.0,0.729035582768031,-3.3943238838879557,5.6181464885846015,16.73490542998324,-13.3654108149062,-145.5880916492762,-47.4345731072638,0.0,-0.7958786566365864,-3.5159568350041557,0.266834274495146,1.8833360071655432,-0.2103179199800975,0.0,0.0,119.0
-1.8075205579412523,-12.426074921819293,5.566940542924014,141.15364147617336,35.86588215148967,0.0,0.7367067568650052,-3.0883503112746125,1.9899794566646227,14.014948409688152,-5.723614465550748,-137.73238122017074,-37.381527607457485,0.0,-0.7667419028456848,-3.2465289347219914,0.439345521259162,6.621376147648527,-0.229795723014529,0.0,0.0,120.0
3.9399523609263674,-6.151939432018175,0.19376983942109718,137.1362871534843,25.6224104710386,0.0,0.5717120934812001,-2.7506655945900884,-4.09023487880004,7.827119941890474,-0.6166182936820753,-128.9621875155427,-28.640308563359977,0.0,-0.7658796778755701,-2.9325062223860883,0.5881564231077164,10.996294310582671,-0.21856319332732016,0.0,0.0,121.0
12.45616476293348,2.7640246257051415,-2.9187005564025412,125.18977760815179,25.47604772125379,0.0,0.7197067227667391,-2.732854379923021,-12.11523245541771,-0.7019080119026373,2.5194273868237986,-120.11044293229205,-28.372966986979122,0.0,-0.8677344438705799,-2.9372899252336513,-0.06917026230261195,13.319218238512414,-0.2650658605207017,0.0,0.0,122.0
18.490703488984153,9.367699392847191,-2.8971022998868747,110.47835980590825,35.71633430454619,0.0,1.1138822459515505,-2.946233586427727,-18.140193548704733,-7.846292959543912,2.1827800737792926,-107.91114061883785,-38.25013418971039,0.0,-1.254705113481017,-3.136821898311054,0.12217140392906499,10.890045502841176,-0.19125477626933365,0.0,0.0,123.0
26.89968405545618,21.43280382824237,5.803916304802451,106.79890101229354,49.21271763694918,0.0,1.5908030500751686,-3.1087895789307205,-26.712740070325637,-20.45574867929973,-8.529520536667498,-102.66544362540591,-50.573924858690305,0.0,-1.9252072584943538,-3.087537899485593,0.11054654818114167,8.18104841589023,-0.17162777820138667,0.0,0.0,124.0
35.6650826758397,37.65652112602976,17.32933619324522,103.43739878133586,53.04143475223414,0.0,1.9826861017090027,-2.764025138793277,-35.418690431720655,-36.46162545395198,-20.70886705044689,-99.92007646501612,-53.7854336737291,0.0,-2.331808906641763,-2.601568769849224,0.4005232872927126,8.240385186105861,-0.09342488261434855,0.0,0.0,125.0
38.35552492575898,46.81902496125018,23.240098017925042,100.79455780990725,53.97951771589291,0.0,2.100870277666593,-2.46384088398509,-37.987169408725606,-45.62220598700663,-27.293819267735614,-95.10013128108157,-54.48526241397493,0.0,-2.535092452345415,-2.170410039935858,0.2726156997560021,6.063207778768166,-0.11196145915909991,0.0,0.0,126.0
39.63374360250808,59.20210744106,30.333479715650814,84.49189691720345,52.69092985393736,0.0,2.6557373210645085,-1.7353406081818972,-39.20291576023119,-59.187981810954334,-33.65636413723213,-79.42562657513382,-53.24979101359914,0.0,-2.9634355084430988,-1.3853076130176014,0.2060433379462856,2.3591519603537994,-0.1504443563714417,0.0,0.0,127.0
41.65142587955946,72.57954536630395,32.013202167498235,81.41077073194776,48.91940035111555,0.0,2.53456199863304,-1.5394257637231725,-41.33427287563909,-73.12764057657627,-35.381859544785655,-75.8211088003302,-49.21997708531562,0.0,-2.820989050501537,-1.1583193674504322,0.36221045179726985,1.044636115871357,-0.2815258704350079,0.0,0.0,128.0
42.293497812486514,77.14946000896877,31.75378252966834,84.10390561858317,47.405216142242836,0.0,2.3192438565332187,-1.601980184207909,-42.030877038899526,-77.63320662142756,-35.00976063868447,-78.4244577297429,-47.543716051696165,0.0,-2.614780094104104,-1.2389691058510837,0.3342115490645166,0.3322903333668633,-0.29593816080934193,0.0,0.0,129.0
42.87298130695414,83.13841608944992,31.27141128986072,81.17456670978753,44.70815950409969,0.0,2.3152008077261246,-1.5213390094221264,-42.683511859377994,-84.08957185514562,-34.11209807548299,-75.08811435454838,-44.61119096986558,0.0,-2.6061625800467723,-1.1507822366523062,0.2845597879387949,-1.0730964148243403,-0.25409297574044926,0.0,0.0,130.0
43.21470591641365,84.1460463675277,30.669129534131702,82.99874826830397,44.03584687912721,0.0,2.2162183421484434,-1.5962902380655086,-43.01517218509548,-85.24617873901887,-33.73742267302208,-76.0799985876443,-43.84936470689809,0.0,-2.5440621824054412,-1.2017737647664641,0.3548537015461937,-1.1972875528490774,-0.259428674243684,0.0,0.0,131.0
43.20097040599274,84.4761542088715,29.89635620762568,85.12835017657773,43.85473979993602,0.0,2.1139035331917677,-1.6708179999625077,-42.98048165430098,-85.42183236736551,-32.90869417272587,-78.21507882294031,-43.675195945303926,0.0,-2.457219182570797,-1.2885344930758464,0.31652776912346686,-1.8119623356107042,-0.2208510608102315,0.0,0.0,132.0
43.01621037384931,84.16835189208241,29.934999180785443,85.27799196172802,44.11100784336465,0.0,2.111866558332245,-1.6675380798266548,-42.76997522408119,-85.19260277675988,-32.88928689093437,-78.40577478956274,-43.88740858140309,0.0,-2.4516480905776943,-1.2877052841139474,0.4057475513687785,-2.2497333097533936,-0.23318301316185522,0.0,0.0,133.0
43.15868128974661,81.8278467697615,29.263571708589613,88.66872280495662,44.86433884562507,0.0,2.0103771263746535,-1.7962690981862495,-42.88842436466754,-83.11425745689267,-32.65996062521153,-80.143530895349,-44.469944735289516,0.0,-2.43383325996434,-1.3699307202307107,0.31646945693825596,-1.8125682307903384,-0.2114530809498985,0.0,0.0,134.0
43.039713054783334,79.24266594904456,29.08201213146681,89.8628363688594,45.87958434662245,0.0,2.0135031738412676,-1.8462452711864241,-42.817356246353555,-80.40537388713346,-32.65157940543731,-81.46043093886875,-45.49669033181136,0.0,-2.4440066651002326,-1.4256145803571425,0.3236486660825175,-1.414750022261572,-0.23929310130615128,0.0,0.0,135.0
43.09713445513562,74.48948447880832,28.484545547825718,94.4576601618263,47.50716470773404,0.0,1.8994364858226984,-2.010404878528343,-42.79363499936611,-74.86549134083046,-32.39173689107,-86.58380887189615,-47.48440513315369,0.0,-2.3506624353014995,-1.6153297526206778,0.25000711100406137,-0.2564756295562097,-0.25392765504371156,0.0,0.0,136.0
41.13228710640889,62.5528274202876,29.635336446995048,93.1878302852967,51.70088281779247,0.0,2.228594335596645,-1.9840280948621931,-40.9476773384272,-63.210147943284184,-32.77927536063227,-87.62515864755709,-51.61280912663123,0.0,-2.5659373644920156,-1.664230592049842,0.21767349577392647,-1.832794414748636,-0.22483200750369692,0.0,0.0,137.0
40.212253795018995,52.05352415237781,26.632609845874764,100.00382664978248,53.26662064159487,0.0,2.108221604377747,-2.316100813367902,-39.98212764640836,-52.21381779482087,-30.712433741684965,-92.58093160642598,-53.30891012494168,0.0,-2.5763386202813154,-1.9549935322725327,0.21338772629559585,-1.520859966147828,-0.28661977095762187,0.0,0.0,138.0
38.52662116446779,40.764970497888264,22.27846846882995,104.48513502327732,53.201503641745745,0.0,2.0472924946319506,-2.625027868220992,-38.333149226038024,-40.509676596319935,-25.033505531098946,-100.31627369195606,-53.46486830647972,0.0,-2.3810135756179087,-2.4458579458523673,0.1394550164855648,1.2833442786871354,-0.2257163566236308,0.0,0.0,139.0
33.63977449258,27.641711423703327,13.562390274034515,111.62746936378117,50.84843781000627,0.0,1.7063161870007955,-3.0325756125255525,-33.40962443830725,-26.424784206368628,-16.93860852347846,-105.39492855628833,-51.452842474356636,0.0,-2.1543166540790244,-2.8878049531059022,0.14616183472943445,4.381175114410274,-0.19284781812767168,0.0,0.0,140.0
26.00839388764099,15.148442717879847,6.338514015789683,116.02297607247209,45.5089945370837,0.0,1.4128058452013643,-3.163581953199385,-25.766391747610985,-13.791900048277254,-8.380365124877693,-111.72791547808677,-46.33599236499006,0.0,-1.6992366223251387,-3.2001587951448958,0.27048205850427826,8.622498719269748,-0.24657764158914167,0.0,0.0,141.0
15.310692062378571,2.4521968063169126,2.384482522653846,124.73810982140537,39.677368297360225,0.0,1.0592063629205062,-3.1247421309593677,-15.019348635784379,-0.5020761529009965,-3.794129476164417,-120.0889163435409,-40.412495613882044,0.0,-1.2652570607385223,-3.2303830115085654,0.47303569604339346,11.435259679783229,-0.256747981522785,0.0,0.0,142.0
4.952066440724956,-7.612311027949809,7.078856512264415,136.2433049490264,44.171674365259236,0.0,0.9579147035298566,-3.2608284133872756,-4.546044137966256,9.634066652649715,-8.021190240515418,-132.95985025806067,-44.63850226324961,0.0,-1.0552174848032927,-3.3887057404285197,0.5514271231138255,12.096263705871435,-0.31644605526572955,0.0,0.0,143.0
-3.110463879155576,-13.456056433715741,17.252933897009473,148.46518233933224,53.107837079520856,0.0,0.87646422298599,-3.3819864137216267,3.427953269892571,15.674435495600283,-17.87024347193731,-145.81859288795448,-53.21120881233633,0.0,-0.9498305618163007,-3.5076473986388295,0.6703382893408626,10.573998316281594,-0.32236339869130926,0.0,0.0,144.0
-9.34679286027146,-19.276223115715776,28.49037261940644,159.69175356870247,57.29998728872643,0.0,0.7621782090444469,-3.2689127999774845,9.495413507742708,21.729262898289313,-28.603458220371937,-157.63400137096514,-57.24319112272164,0.0,-0.8348965647995727,-3.4113706694370287,0.8279552839924782,9.944350666475048,-0.3093155486292468,0.0,0.0,145.0
-10.112592816239639,-20.631219999766778,40.49209242785853,168.1404333436669,60.62019945416017,0.0,0.531989193985961,-2.914478568593389,10.204212119992546,23.344161879759294,-40.376858706375856,-166.69796921745606,-60.45094294047824,0.0,-0.6036751859728373,-3.0741292682232686,0.8248993862752739,8.714645450356887,-0.31946620647334034,0.0,0.0,146.0
-10.17826679265661,-24.13075728043654,53.22922272254752,179.65055594688297,60.53174856109024,0.0,0.11727388572180747,-2.456389238984373,10.307615207611011,27.280668143795232,-52.77544527346904,-179.17064019110038,-60.222513105256404,0.0,-0.15866734520020875,-2.639934039012912,0.805320609383815,7.756948217781033,-0.40946080205803814,0.0,0.0,147.0
-10.267904487776564,-27.79301767048091,64.75787417731412,-166.09128971918975,58.33344514968377,0.0,-0.5462626042274472,-2.0084092402340605,10.326800355215939,33.55345937147422,-63.611834973863644,166.31810934352103,-58.1134260837946,0.0,0.38466071921589745,-2.221068868405123,0.9397421909601389,6.1227834337311355,-0.4278536276337328,0.0,0.0,148.0
-9.111141088622265,-48.462503037246826,77.56213298051777,-139.8447295396592,55.09067582937793,0.0,-0.922370432591141,-1.3819599415967943,9.090603563561679,53.77808895300183,-75.37509464876112,140.49328252908256,-55.13208845735509,0.0,0.794425203960501,-1.6172396326654415,0.9894869379926208,2.7513855221024652,-0.4876531693260945,0.0,0.0,149.0
-7.448797695593513,-58.469336248206375,83.24709118210431,-121.52260096442848,58.06192596021972,0.0,-1.3265994481970413,-0.7803962544310311,7.527341455954075,75.52190995792284,-80.47175789338505,111.83976005513104,-55.81213063368871,0.0,1.199008581199498,-1.085375021125851,0.9754666268604324,-0.08454543881296393,-0.5864474918197692,0.0,0.0,150.0
-2.9890532112337795,-0.5276915421739162,69.32508189463204,-173.47435748306498,85.01624879377034,0.0,-1.4604356813835475,-0.029224616835998682,3.171542845808415,12.58680261723255,-71.62090065588268,167.02329181016452,-80.66456436190678,0.0,1.427601807202856,-0.24549876700630807,0.9521752492463726,-2.3661548955466456,-0.5966443425435356,0.0,0.0,151.0
0.7861175275931497,4.329208987270886,52.29544479706522,-176.84331108188536,106.84301103137066,0.0,-1.4290188966851436,0.31582952110541573,-0.447613832574994,0.12989659557916075,-56.04893651073148,175.65249286938365,-102.2355953373491,0.0,1.5079745276465197,0.22362171294760647,0.9762140450046533,-4.543276036867704,-0.605968130011796,0.0,0.0,152.0
5.638572596184347,3.1863605898457417,32.29629475910711,178.57831147612893,126.11821364784227,0.0,-0.9944012889565147,0.3854630374222447,-5.497241041217972,-3.010388982824507,-36.71306899912486,-177.91291474534938,-122.7421573840145,0.0,1.1748157263221672,0.46868770618445815,1.118339079447068,-6.70492857381299,-0.5336045742436276,0.0,0.0,153.0
20.239686282963955,-0.3523680394173084,20.04598921393729,-178.9721087947627,139.90208290860295,0.0,-0.5092786344665636,0.6096906306985795,-21.533551616990504,0.4342684275605243,-21.73150569195358,178.827259500306,-136.52873144797297,0.0,0.6744876355775209,0.5813883387262303,1.1941415435606293,-8.644544067877744,-0.4500170022382858,0.0,0.0,154.0
34.846371966710244,-0.3067856936151373,15.60733190693808,-178.85985493048375,148.77945629999485,0.0,-0.06472273500051405,0.9493731766022192,-34.72282062051514,-0.3703532865282219,-17.47659072866388,-178.76696171615808,-145.0392159928047,0.0,0.16494391228958294,0.9597944370580322,1.2957046196575082,-10.074194433725859,-0.41439602536739095,0.0,0.0,155.0
49.5998891398481,-0.1305929245309099,14.382407512234096,-179.47426150704877,151.23402422045135,0.0,0.41813361229227314,0.9818527433117211,-49.26363108640452,0.02575590026213125,-16.114399567101938,179.90720478206507,-147.77116079095288,0.0,-0.28984840992081196,1.0361769832630627,1.3197587365661951,-10.926723120917323,-0.48226500444482473,0.0,0.0,156.0
58.842005104192395,-0.19062672535309438,14.5393855870563,-179.24071014345037,150.91878348965585,0.0,0.6923431464829963,0.8916254963860183,-58.42457072142506,0.2909645858167292,-16.289286186405104,178.962750278943,-147.41637150336706,0.0,-0.56891225415225,0.9701038618253741,1.1824058217888216,-11.914525581402039,-0.4341874232495237,0.0,0.0,157.0
70.30267931071853,0.36424674606074975,16.89213257538858,178.74662719662103,146.2081103178526,0.0,1.0705234102427927,0.5626547171505406,-69.84286906667538,-0.12702649080920336,-18.66575449505086,-179.60310594703353,-142.66765736361623,0.0,-0.9807118865188698,0.6683694658041031,1.177060437766304,-12.668505981625398,-0.45456128485718655,0.0,0.0,158.0
73.04028155721488,6.850451616588784,23.315507508395136,163.11530711505503,131.50588641149446,0.0,1.4726236347764743,-0.1998914665928412,-59.55270747165103,-14.953649561460834,-22.643148585306303,-145.24950373691115,-126.16663002357447,0.0,-1.5541841864979429,-0.23937612901529015,1.0464742395573683,-12.44765221757698,-0.4416649883857006,0.0,0.0,159.0
35.46162841593794,48.54887288290506,17.641662356003916,100.08148070402875,87.03677952452304,0.0,1.9459987355809143,-1.4340179593335567,-35.49286970120158,-50.4839025022304,-20.908164003061422,-98.67103833161775,-85.61419677036841,0.0,-2.124592806027804,-1.1643835496928594,0.9268349605696903,-10.449329703739087,-0.32674517354918436,0.0,0.0,160.0
39.10792831944383,65.77802199043208,25.720705206427816,92.47445400645078,70.13129814130295,0.0,2.1328377515574903,-1.2924960213696193,-38.91865353225903,-64.81652997415617,-27.97928020561579,-91.12978292567966,-70.27167233886296,0.0,-2.31246530317973,-1.083682193114541,0.7830629298571433,-9.618153068353987,-0.3384839485536262,0.0,0.0,161.0
42.009870792107144,84.28591195337883,29.267472156828447,83.39281756423517,48.251933051065066,0.0,2.1894405359658218,-1.4457359345850884,-41.68926854265592,-84.12164898887623,-33.014314754391705,-76.71205749489948,-48.461670424294724,0.0,-2.531965282213503,-1.049519392680606,0.5367119639369602,-6.477563531290832,-0.29881798846200386,0.0,0.0,162.0
41.887405500288814,73.45133410812201,32.334106899056806,83.5687182945672,48.413730025418,0.0,2.425137623331748,-1.5971373942396352,-41.57388615700689,-73.1394459526823,-35.626274558057354,-78.3693345675267,-48.776888472780854,0.0,-2.7208355678500626,-1.249890879810706,0.7481804238369036,-8.125020255502971,-0.27142327712001524,0.0,0.0,163.0
40.56074370685139,55.807061107464676,29.9881300450835,94.29602306158773,52.705676827415466,0.0,2.329213245456124,-2.048573292206608,-40.16701745214602,-54.70519013313929,-33.21250122179819,-89.84659036830158,-53.04345399701599,0.0,-2.660719714199478,-1.7696592456898814,0.6413077416838411,-10.065015658241725,-0.26024652497839473,0.0,0.0,164.0
39.179802400079865,39.841070198472266,20.076259873759337,109.8878278594928,52.366123795220005,0.0,1.7849602335987804,-2.822499552978429,-38.715346121424425,-38.029427144887435,-23.191357411676435,-104.03131982823967,-52.637653358617676,0.0,-2.2377014529456294,-2.6289898687129423,0.48289340861893065,-6.19494632642142,-0.2636234185846373,0.0,0.0,165.0
32.39086074246484,23.87726615999801,7.16859410212765,121.03056893162669,46.57729006020323,0.0,1.174296672910377,-3.2944601811433514,-32.052237038888514,-21.89517375015679,-9.687890731358815,-114.53719490819367,-46.92912432270297,0.0,-1.6021371782124383,-3.266596716666616,0.48494429393490973,-1.6560760128801693,-0.1877673757346167,0.0,0.0,166.0
20.87041311280288,8.945580832904737,-0.9770530189719464,125.8361200835025,33.56675584942928,0.0,0.8272318926526199,-3.066953800539519,-20.45640461135714,-6.603259624654872,-0.7218152378191279,-118.64631423947854,-34.71049472539208,0.0,-1.1519558479442173,-3.158023831274818,0.4533358364866768,6.739892576797274,-0.14443393978951213,0.0,0.0,167.0
11.026212579998887,-0.10244584100289207,-1.5185713505018836,136.1685344199484,18.52826127799181,0.0,0.5187338110457567,-2.5399588616854216,-10.653011043749391,2.4099538876261657,1.4477981061132443,-128.60738830214368,-21.16531611846177,0.0,-0.7127168815603417,-2.7135958626977725,0.45678229983676993,13.078262524373583,-0.2377810840102814,0.0,0.0,168.0
2.2288288240624428,-8.99413225881712,2.0079271625095045,140.97744313953967,19.979873574902552,0.0,0.5901761409206036,-2.5508961176592635,-1.912080508850393,11.131287957129489,-1.548943325960132,-134.79373479404097,-22.33963816138956,0.0,-0.6894306977697199,-2.6948911309702566,0.5207925761103523,16.025209990119986,-0.37582274344674527,0.0,0.0,169.0
-6.007935993007122,-17.550686503629613,7.473048757682086,141.58484885266265,33.35764648159433,0.0,0.8796972742107291,-2.9524789861338205,6.3798812013361585,20.066122792224686,-7.817384230350214,-135.82689109253664,-35.1541576047183,0.0,-1.008488307621857,-3.0533560003239417,0.43914238638256997,16.231408566886714,-0.3533448341171916,0.0,0.0,170.0
-12.12713747514104,-23.55078396352707,14.429093037931926,139.3494456384033,48.46284883565212,0.0,1.273269968434667,-3.174614805277279,12.44641552166693,25.428394049314473,-13.975542934691395,-138.45257300323277,-48.98622461185504,0.0,-1.2300548102278792,-3.326730471734346,0.3298155779097142,14.51936330128658,-0.3631238807521719,0.0,0.0,171.0
-17.34362615184658,-31.21113919298271,19.75600605641864,142.1254994065247,50.835586079847374,0.0,1.5651286789535561,-3.0805723252704844,17.605867849934633,32.830846463889074,-19.45469719799012,-141.58238017823163,-52.934392703601176,0.0,-1.5280942304033385,-3.2584099321539517,0.6764926067128435,15.064786032836821,-0.33486555342766616,0.0,0.0,172.0
-20.273480192553148,-34.860354370327016,24.588330835772904,149.05876163716616,53.2709700431527,0.0,1.6025856071014961,-3.106851077642546,20.479437716785725,35.935575703742174,-23.78747685823448,-147.9213109752013,-55.214503949325476,0.0,-1.5585192496692677,-3.283581086385592,0.5454160000944654,13.687468217004579,-0.2982223509276444,0.0,0.0,173.0
-22.764769494200497,-38.36383181384123,28.841085179449816,156.43359997148102,52.38305670326196,0.0,1.573567383043384,-3.123378902234083,22.916445797551678,39.81512730462104,-27.869084386371398,-155.45185798784559,-53.38321039390126,0.0,-1.558451724369879,-3.2877865944660134,0.44394563748934246,12.41735995385268,-0.27550033143553054,0.0,0.0,174.0
-23.782816020180075,-39.22458613229683,29.987122781386375,160.8766178934593,50.660282463904885,0.0,1.4582601396924735,-3.17792216187588,23.938617757789938,40.26482387050156,-29.107351724971675,-160.68636352681557,-52.26140584300392,0.0,-1.4008108609627412,-3.3571835125821132,0.5299286131626011,11.829132251402077,-0.27326564091780675,0.0,0.0,175.0
-24.641430563005912,-40.36753152761706,29.93142407014825,159.51840446223426,50.596304692834956,0.0,1.5485983642205376,-3.1368268812940086,24.80781055609283,41.297894620740955,-28.758975503244688,-159.72470493763075,-51.76495047138262,0.0,-1.4682051003194323,-3.328841959727771,0.4223851273179343,11.303820699072052,-0.2735915017258943,0.0,0.0,176.0
-24.860083701358235,-39.23505853160784,26.859840896860206,157.02696796275382,48.530846149982665,0.0,1.5131263374383197,-3.142023610597581,25.02721160015928,40.167818754698075,-25.67516397169192,-157.2296145690404,-49.443840734293545,0.0,-1.423031886742169,-3.325195328706236,0.22590131090221302,11.216307898406413,-0.27256590693108207,0.0,0.0,177.0
-23.875901253283597,-38.41799400082651,23.25887725744101,146.90298719536537,48.93868183937975,0.0,1.7037282604473454,-2.9881193589742163,24.027345330202976,39.336961864857784,-22.296722865745682,-147.03673859452894,-50.414562236650184,0.0,-1.6126958832494471,-3.184540726153059,0.3299433058677704,11.448804375351523,-0.265729457973529,0.0,0.0,178.0
-20.77368226622987,-34.24754477374351,18.947394521945633,139.41706562447453,47.49215989948701,0.0,1.6409955482006575,-2.9382239832045185,21.00352666953726,35.44782071918253,-18.01872840486557,-139.35580497000282,-48.019800608206694,0.0,-1.5488928860148432,-3.113292079304631,0.22794676379605888,11.319960845820571,-0.23043474334330907,0.0,0.0,179.0
-15.823424118087667,-29.385343593141076,14.048041095007868,131.98636803266143,43.131788368239356,0.0,1.5516103041924414,-2.820262866473891,15.964032099888838,30.410042241573628,-13.643731185730477,-130.83443902244412,-44.90822147080972,0.0,-1.4884384306227572,-3.013430322827904,0.44545174080735966,12.516013924844065,-0.21396561619746218,0.0,0.0,180.0
-9.030482530939937,-22.40341853422145,8.816286629881597,127.85192741410916,37.62615779906165,0.0,1.3580034551766065,-2.7444571918834497,8.994671849121561,23.21495831506321,-8.561952352395355,-126.84080508125378,-39.71691307356937,0.0,-1.2944233376379777,-2.9668066426755524,0.5259253653753482,14.19809088517932,-0.183864352285312,0.0,0.0,181.0
-1.5001224515378337,-14.290383217933057,3.8244120416179155,126.35943932496981,33.097259759770004,0.0,1.1200031087668747,-2.728354829382479,1.4583702521934867,15.37273045255994,-4.1441352525727595,-122.9687757262897,-35.834524404720966,0.0,-1.153542287008491,-2.940529906412918,0.5203860607747869,16.467994720056932,-0.2275138112790263,0.0,0.0,182.0
-3.18300048814111,-20.560906721139585,8.391980270942986,102.0544859264052,44.94014421678415,0.0,1.8056429296098302,-2.391259280512823,3.105712628814185,20.44663568741404,-6.1545569173749195,-105.12894730785136,-40.800427577203386,0.0,-1.6404139449553672,-2.5888686651803545,1.0490913179046983,16.116921323893735,-0.5710614344128144,0.0,0.0,183.0
-4.6190644097223945,-23.73807903967639,13.528419494930272,100.91057971745684,51.938387252515675,0.0,2.0735231472411484,-2.379684076304284,4.153305699369585,21.83916940968921,-7.391541373755796,-102.19475512434092,-42.784412464122596,0.0,-1.7288129505584968,-2.5432928603466682,2.5216590749639853,14.163166552131223,-1.116098737314021,0.0,0.0,184.0
-5.14338772333983,-23.71476563647614,18.45904745640604,113.21290946024013,56.638407431168034,0.0,2.1832663710213582,-2.626912433729424,4.163140744887581,21.36655538213034,-8.791286912973742,-102.65802636016649,-44.35224452776243,0.0,-1.7945212815770553,-2.6029350593773533,4.984010514008857,10.293674805345969,-1.5194359463369118,0.0,0.0,185.0
-5.1391167206744575,-21.789827266396422,24.73901597659925,128.0323896427503,62.15150621866433,0.0,2.07708840396552,-2.7973483430094044,4.491803044446245,22.27259961754525,-8.473017748544812,-107.61510593165207,-42.674511635860405,0.0,-1.727050844791043,-2.637586324214964,7.622084205018842,9.343297969076515,-1.7507542531929683,0.0,0.0,186.0
-5.342217945173488,-22.15238832778055,28.07303162679435,143.01063867355364,61.330430081476074,0.0,1.6990591526129966,-2.9363909193527653,4.774850352519806,22.518245348306987,-7.795932094313788,-114.93363253854977,-40.36331802627752,0.0,-1.5877878914709644,-2.7249753177633127,9.301856406723351,9.248443186289373,-1.843703531305188,0.0,0.0,187.0
-4.71974524006979,-20.48413377197693,33.92290060922603,154.95678087886196,62.728543224311146,0.0,1.250180887075632,-2.8844536365939173,4.242066142068016,22.172788268057342,-7.971265332582822,-118.09291315647718,-39.9934244097977,0.0,-1.5524110286854802,-2.7843664346159898,10.893665612722073,8.904455100215069,-1.920211668703672,0.0,0.0,188.0
-5.379000221401298,-20.36622598271073,42.0128935816827,167.85844613435066,62.97654901436227,0.0,0.6558688134613258,-2.702902882977271,4.782047664357708,23.138047712548833,-8.959119327442027,-120.89353541392074,-40.419955550858596,0.0,-1.5619505725257794,-2.8266882027360967,12.550880500579504,8.141466231460246,-1.638186867136929,0.0,0.0,189.0
-3.6955511169503845,-18.29072641048088,55.81277818789717,171.3498226689414,65.24161379604759,0.0,0.42649144184874255,-1.9824238940215544,3.966885931257843,23.271819789643413,-9.45759869991281,-122.04750229546204,-41.35053351499759,0.0,-1.5943437494394306,-2.8596233163018927,12.9874217226473,5.920626561790325,-1.0122231013984633,0.0,0.0,190.0
-2.8942907398021993,-17.418162827907153,65.95730549660244,176.63048518515208,64.37926657534854,0.0,0.0752612542560416,-1.4948609711403678,2.8785469403219075,22.236011628087322,-9.456793919669755,-125.49152577724821,-42.46877589276005,0.0,-1.5276117587233433,-2.9782982658828074,14.885768694606202,4.7993093139201335,-0.48473077909200185,0.0,0.0,191.0
-2.357377039666901,-22.61146074086994,76.41753782577716,-175.04712493919362,62.239490443061385,0.0,-0.1375405257076054,-1.0159862102214232,2.405514291946448,22.99434895905846,-10.592403762690205,-126.74380583572437,-42.52403386584775,0.0,-1.591475400981569,-2.972039895313845,15.635475871104697,3.6077448591436974,0.5475038338059682,0.0,0.0,192.0
-1.1004190342567477,-31.286591754227786,85.51115122065235,-161.98207046474533,59.8868981285346,0.0,-0.37262000885292323,-0.5826516382853566,1.466160296385298,22.76500362496905,-12.207297498759658,-131.0138451732713,-45.60164017410947,0.0,-1.5849770479912972,-3.1091129837443083,16.822241070242317,1.4509186675581138,0.9803101276637984,0.0,0.0,193.0
0.0615285451786566,-40.248804181557205,86.50306383360792,-149.98726428782115,62.28803452316815,0.0,-0.5266387981144592,-0.34099513241993,-0.28337416997794174,22.30214346497887,-14.916259039557708,-133.6205787082777,-48.94583067372023,0.0,-1.6624347499261154,-3.1753087497006494,17.38116727089699,0.780797456499427,1.8721465136973987,0.0,0.0,194.0
1.2183821641949801,-5.7682632421626545,81.85765422459116,179.91908185173125,70.8383036184069,0.0,-0.6985358294117986,-0.08348641830385857,-0.8332776359345607,23.318425045521693,-17.305464315553813,-138.298285910138,-51.021849914446676,0.0,-1.6710697173508626,-3.2175775251077927,17.112939418178666,0.6115282308943379,2.560055377046939,0.0,0.0,195.0
1.996535371050778,-4.09640232919241,77.98190646506559,-179.61371621823554,76.69563858810041,0.0,-0.7982777090743889,0.056033230909922536,-1.2065926173573032,24.568378473394944,-19.945456046017092,-143.1350606738873,-52.85436747859724,0.0,-1.6647651422539183,-3.2352376195591375,17.09546179205845,0.8181531326980077,3.1202348324878666,0.0,0.0,196.0
3.007752348190571,-6.550081265406493,74.09084471512416,-176.86384895978014,82.53635995334498,0.0,-0.8056546573691936,0.1807045578798542,-2.2107187909215655,25.5817089055944,-23.116340529376547,-145.88325402880415,-55.16460467277665,0.0,-1.731845727881206,-3.1775753938675306,16.85770923723475,1.1339990524125558,3.560394529010732,0.0,0.0,197.0
4.370480101766603,-4.318440226887828,68.16519215789958,-177.75856316453334,91.70339029700409,0.0,-0.8432187722162501,0.39909670278422416,-3.323904302510713,26.00278069461212,-25.28456944008996,-147.83510734552078,-56.99545732072396,0.0,-1.7640995913319186,-3.1157028911913454,16.19397976311447,1.3041796751045425,3.9357985511305476,0.0,0.0,198.0
5.520341594764606,-2.48524063585564,63.20186003302941,-178.6934823652516,99.23811651805308,0.0,-0.8584141417155094,0.5740730009097919,-3.8975172493867247,26.438871869264887,-27.143537047297873,-149.19588667899197,-58.65514713112167,0.0,-1.7893967585864907,-3.046764843342109,15.168261153789738,1.1744174586656921,4.003463819029304,0.0,0.0,199.0
6.470340226703809,-2.5114694614365893,59.70754876327549,-179.08721243170157,104.58884746969001,0.0,-0.810867322479306,0.6982755427700973,-4.498205493019487,27.21833350484547,-28.9841391613966,-148.10137601246475,-59.928345933075924,0.0,-1.9243699334811766,-2.9254898932546842,14.44399292275207,0.7453635173803107,4.014942602944614,0.0,0.0,200.0
6.682795822157992,-3.125143093476302,58.53961026888453,-178.2214604610821,106.23176634002786,0.0,-0.8247175083997992,0.7233262817439762,-4.576119168429115,27.084770237890563,-29.69586646807519,-148.2303859925199,-60.74518817013243,0.0,-1.9301916174030709,-2.890955811265132,14.145627224592172,0.39336234594557384,3.7519977530316257,0.0,0.0,201.0
6.664820898696635,-3.3983209093336524,58.96213726442629,-177.82349499950436,105.64345584463017,0.0,-0.8341718918343927,0.7110698278309707,-4.562931780689114,26.656386938818088,-29.9803210881667,-147.92206266702757,-61.29485973350922,0.0,-1.9289365960382394,-2.8748423303644715,13.866281329224913,-0.012517076832344215,3.5018790030727107,0.0,0.0,202.0
6.220557220548679,-3.3730796346700496,61.320671386164065,-177.77002446567136,102.56542762032338,0.0,-0.8497863503265757,0.6630534549012534,-4.298260242803827,26.482990419003993,-30.121564859815837,-147.62171385561857,-61.52977743129349,0.0,-1.9290622457655995,-2.8695798926177387,13.861626091295104,-0.5979329950811787,3.227475104161191,0.0,0.0,203.0
5.61930463253574,-3.3910474411897624,65.1368352762381,-177.60911228302237,97.04303574700025,0.0,-0.8717065996763493,0.5552839467997056,-3.851641430052686,26.150579395353525,-29.693377099989686,-146.91179065834075,-61.36496642911771,0.0,-1.9217498817508454,-2.891756873752724,14.010017259825293,-1.1060177964591817,2.963839061216092,0.0,0.0,204.0
5.178013794224034,-5.169060077673536,69.11675637814157,-177.261344669112,91.37476200697343,0.0,-0.8068820349029299,0.44665763995327434,-3.4886755726046887,25.67624014671161,-29.04056568693533,-146.07676951349802,-61.047560859716974,0.0,-1.9097587039706465,-2.9226452146882043,13.680005767760965,-1.3097600405174679,2.9121906957753976,0.0,0.0,205.0
4.229739785050258,-6.045577539749065,75.8610990438013,-176.27893582165424,81.09486494940894,0.0,-0.8334321067453836,0.22397960984912843,-2.745302329332829,25.5220401749733,-28.233620189581348,-145.1812389493004,-60.20087523826776,0.0,-1.8988709569425009,-2.966466441333419,13.470056883580227,-1.561919395470917,2.8223386239048205,0.0,0.0,206.0
3.334097292629899,-16.234121576339902,82.11151600034292,-167.66261407865528,70.68027402793713,0.0,-0.7869616445582037,-0.04456527511504226,-1.8504378381476159,24.827243270986315,-26.155472615498248,-143.31343342780306,-58.77904686552726,0.0,-1.863057805344174,-3.048251194288222,12.689544350034755,-1.8372866496616833,2.735001685093165,0.0,0.0,207.0
2.9122966125582335,-30.894256338985237,87.12776547357521,-153.5911409072378,62.55666760350706,0.0,-0.7551562734562046,-0.22600898513655915,-1.0659869834336557,24.190650557107492,-23.536930152325876,-141.3419445594215,-56.99791472318762,0.0,-1.8128555580836554,-3.1274495802997575,11.152870421643899,-2.129765848267668,2.8194934400221086,0.0,0.0,208.0
2.3878699923296005,-31.80719742405852,85.58949969647065,-157.57432819369532,60.45950800011812,0.0,-0.5074178082234972,-0.46796126749571165,-0.6726893230986888,22.93314985134526,-20.563493541396127,-139.09813532395017,-54.81433820735767,0.0,-1.7338532630511392,-3.1968882499015407,10.678962093960928,-2.282480053763023,2.594984836357908,0.0,0.0,209.0
1.888132798403271,-15.629662323061964,79.33368132666415,-175.98029029174128,62.28527746139899,0.0,-0.36532488735406177,-0.7562014328996969,-0.15356874599895023,22.102887467554783,-18.001650468340124,-137.196037900456,-52.65325134371406,0.0,-1.6592593720232882,-3.233675853513879,9.8256173429269,-2.2939487242214587,2.2694059613306243,0.0,0.0,210.0
1.9517459786815958,-14.237200588844878,73.2623740826002,177.64613211057681,64.04705737810534,0.0,-0.0551412807102088,-1.0087477582184885,0.5580988658674144,21.47318727034903,-14.672373353923398,-137.60345128714332,-49.403152011042756,0.0,-1.4798779144520162,-3.284437194473391,7.187867938530865,-2.023568457874052,2.2437866471023855,0.0,0.0,211.0
0.9801289442456563,-11.207938834306182,62.05203014391203,172.83143734551618,65.52125251825247,0.0,0.06201516059998615,-1.5654305292965613,1.043216626844714,21.116653173617944,-12.903160866392994,-133.5983807782597,-46.832953670252266,0.0,-1.4964566952420928,-3.2134028370835668,6.098801787483084,-1.988865910674552,1.4708045048477463,0.0,0.0,212.0
0.04260943811098366,-13.18394227655043,50.62422238032917,168.63653302026557,65.62571625090001,0.0,0.3909317214970496,-2.1503093522002024,1.5030592194375278,20.100573133712167,-10.421404838604193,-131.71526360501204,-43.74026679788141,0.0,-1.3905946272988834,-3.1688906135679065,4.740245692966532,-1.2638896694348738,0.7390867727154983,0.0,0.0,213.0
-1.5539485043440604,-16.03653335126278,39.23685904730908,161.74531459698406,64.07916613309165,0.0,0.82805704986516,-2.6921238123600464,2.284793046244,19.72812651704061,-8.308977972203564,-129.92279951505017,-39.98052814063237,0.0,-1.304218496057014,-3.0700764333336084,4.423704230468126,0.1600151116622761,-0.10184198615289139,0.0,0.0,214.0
0.8795588910288615,-12.891674527495265,29.50962496726793,150.70894494404598,62.24681107446708,0.0,1.1517080304552443,-2.980725316629648,1.1341922919900504,17.69992648457522,-5.184339205614446,-126.7262325594802,-35.59342876470845,0.0,-1.2030737898225536,-2.9233117224548573,2.5121889470190997,2.933634386684919,-0.7436029434369906,0.0,0.0,215.0
2.427712406748989,-12.622076696747019,20.077396092483102,140.15150808366536,56.72079991672818,0.0,1.3951363922113134,-3.1758837853532627,-1.0553096902136325,14.698660588116661,-3.0688856473547386,-120.05235970524048,-33.37806953382897,0.0,-1.22491215779451,-2.7939576887239275,4.291986766814563,5.8456856978678085,-2.1567152145261526,0.0,0.0,216.0
2.935399727425802,-11.371941098325198,12.120159233863687,133.8255643103606,49.81534903180392,0.0,1.3051153614391682,-3.2193515870642813,-1.9856051473880527,12.832466976143207,-0.8416019654460652,-117.6669507868449,-31.008028806535528,0.0,-1.1411153768934064,-2.7057093002142194,4.705774806789314,7.804845675386253,-2.8207871054693543,0.0,0.0,217.0
3.9150883379134056,-10.238066219478268,6.659948869798126,126.23424597587375,42.12637520789713,0.0,1.2798663791917009,-3.0334044732000893,-3.33257757553957,11.135396675196473,0.3977821905531514,-111.17817885936027,-29.375159709738057,0.0,-1.2075372323270086,-2.5626598572169406,5.423567245901799,9.785423875954308,-3.505211247816616,0.0,0.0,218.0
3.056503890608593,-10.394188683161111,2.4018225191620868,124.86964170892065,33.634352154663134,0.0,1.0999361080167618,-2.7792268386511703,-3.567116453240876,9.985663485497255,1.883371361309465,-108.63011458396335,-26.01185448215318,0.0,-1.1603668785078924,-2.4125693061701994,6.849978974736432,11.08175255335783,-4.08864416688316,0.0,0.0,219.0
2.4281952157459434,-9.827980456848644,-0.0928206037377232,123.75896685682572,23.47622248367256,0.0,0.9727273869551929,-2.387389197659978,-3.7117139058475743,8.61192327662976,3.597415753649055,-109.09450194528442,-22.636952168684207,0.0,-1.0378938488219074,-2.3165338569776557,7.9047684471144875,11.53775135615777,-4.498560574724669,0.0,0.0,220.0
2.497079167629403,-8.729944398930716,-0.789073610177615,123.60318910482796,19.23374938479178,0.0,0.9134605219030134,-2.2326458869570054,-3.9993378675518647,7.936153869412135,4.0317170755983796,-106.86459793040524,-21.92188052880384,0.0,-1.054487987137758,-2.2663073712796997,8.594596065961987,12.34076191184129,-4.799627104778882,0.0,0.0,221.0
2.7432061015878704,-8.95566984519466,-0.7365911092830407,121.43399841581397,24.34977649209973,0.0,0.9762494099428668,-2.4041052581300013,-4.229315032661247,8.274542651013817,3.518184061442101,-104.70500713804336,-25.248277425751184,0.0,-1.1343637609826005,-2.36007561768551,8.19253210302062,12.63526225323464,-4.635746827324113,0.0,0.0,222.0
1.9852209492472404,-10.833113488762228,1.322451578410717,121.21648131123435,29.926682065409253,0.0,1.1100421931705478,-2.5824761086120374,-3.922814562525157,8.930918119952453,2.4728822118195137,-104.60051655468155,-27.613775843998738,0.0,-1.195225718177364,-2.440303844825367,8.289935412482189,12.852280900724775,-4.620843284970409,0.0,0.0,223.0
1.3831177892392248,-12.135892675503882,4.346717657252251,123.8894154426574,37.26699973983839,0.0,1.2165674973465688,-2.8506231913427023,-3.5986179260232114,9.61413268562983,1.0279007270156113,-104.63295298314307,-31.158910629054613,0.0,-1.276085621737585,-2.5627049944156832,8.129369697480728,12.71008872760088,-4.503883366753139,0.0,0.0,224.0
1.4566355975877145,-11.623535885252803,8.410204284906275,129.4793475262163,45.523981806991,0.0,1.2472910931929162,-3.138921935541252,-3.468252239769292,10.58743361394607,-1.0181252603728643,-104.13449087582325,-33.72529020284625,0.0,-1.4082060775815222,-2.6081087651661905,7.488254875399209,12.340993255556631,-4.138028730583682,0.0,0.0,225.0
1.5407838483273892,-11.106480444849602,14.545081836056902,135.19560644747963,53.070895159979685,0.0,1.3004746524869657,-3.2469512599326964,-3.4761381200528945,11.219295765479323,-2.632870717788413,-104.49057230277914,-35.70808848329477,0.0,-1.49993865330548,-2.652817161648644,7.479211986010957,12.175635781971057,-3.926836304332844,0.0,0.0,226.0
1.6140294096044314,-9.532922250802741,20.885309196537253,142.5090393401927,58.852507632314655,0.0,1.1731775816528025,-3.208684040706783,-3.0001975186383016,12.585588822762048,-3.5558105751252946,-106.82626028792875,-36.418479639688314,0.0,-1.51815782305921,-2.6796773643678415,7.301073204831685,11.610137076837656,-3.4693071830882474,0.0,0.0,227.0
1.079475539827373,-10.010513631567502,27.82311683268948,148.20351372816833,62.17937236930112,0.0,1.1013439269759009,-3.026206880147208,-2.262693969184423,14.362339305686815,-4.85566263519063,-106.64580691867232,-36.513662422864584,0.0,-1.5996064268612575,-2.6186045220462946,8.094677991655269,10.796234134542395,-3.02239160531589,0.0,0.0,228.0
0.7309093219753485,-9.901596706116171,35.499053077025266,153.70936996678483,64.80044377658984,0.0,0.9494897325516041,-2.741482144934321,-1.7163609045751491,15.871465611287622,-5.961676525782553,-109.15484439474903,-37.3320966712482,0.0,-1.6292354935690003,-2.6486253667786483,9.312153932704913,9.771358203875568,-2.389874569940662,0.0,0.0,229.0
0.36481657190880684,-9.124159258497462,42.025473087359416,161.17732027079424,65.4407854510762,0.0,0.5670340618040317,-2.5090963095830485,-1.240646873341929,17.16341750828737,-7.518727650768662,-111.92594951496633,-38.6689899044337,0.0,-1.676138276508992,-2.704937682706551,10.403203273515603,8.757958572326764,-1.5440534481663004,0.0,0.0,230.0
-0.6310755418067396,-9.548314692331417,48.67148004167344,167.08467037800548,65.4882820326187,0.0,0.2599974834173321,-2.2507564132248206,-0.4822044718528773,18.97345921155963,-9.568040581699398,-114.843815356726,-40.398899260645145,0.0,-1.7472994101005879,-2.756608522824795,12.607716772126585,7.691943077620969,-0.8141411083198882,0.0,0.0,231.0
-0.4071497642194288,-9.915406672686137,57.911475773159694,170.6363340047301,65.40194713910435,0.0,0.08992515384590251,-1.8076640628111076,-0.6464025396651013,19.834592431088172,-11.069879340621855,-118.37896901786272,-42.61798980251099,0.0,-1.7812098724458274,-2.850210971844487,14.196143730222808,6.195741671419915,-0.05600747194882582,0.0,0.0,232.0
-0.37506836568787877,-9.482452648120987,65.24535906189281,173.82095780041212,64.60652519892335,0.0,-0.13057938377987258,-1.4617511210117666,-0.8670239464371543,20.584405325876233,-12.727728890228033,-122.05605649860509,-44.88947190969835,0.0,-1.8107908627348697,-2.9389405978421017,16.016190890375423,5.2474048777630244,0.5213860074351792,0.0,0.0,233.0
-0.011249688418874627,-8.140852399224139,73.34523152196746,176.76759007882038,62.997195215339815,0.0,-0.38564544739236284,-1.0863243438553036,-0.903142253572446,22.161446377979566,-14.78856449721998,-126.1452702077026,-46.35750124827268,0.0,-1.8587918605010199,-2.9846922556973756,15.931460324160847,4.33053014510069,1.7009188546162148,0.0,0.0,234.0
0.4321469492407795,-13.679831594649434,81.21245952152884,-175.03834360666048,60.664035762705794,0.0,-0.5613876293665363,-0.758202771884172,-1.779581242254493,22.407215409894977,-16.976054186107593,-130.54548544627048,-49.36414850940556,0.0,-1.8721173942901097,-3.068397509736229,17.115167966779566,3.5394252183101433,2.436902045245063,0.0,0.0,235.0
1.1702412833774376,-50.64055352954762,87.42872726637054,-135.65455126432116,58.18307686461709,0.0,-0.7099163416696704,-0.4848285080905898,-2.426850308809686,23.251495104299483,-19.560896198127473,-135.17358257547457,-51.6570184167378,0.0,-1.8860320157898063,-3.104307778829269,17.629816677538617,3.1916107255437676,3.124934686023124,0.0,0.0,236.0
1.6719348996141528,-31.542890679409957,85.35433504799771,-151.67370250134132,63.40956230909681,0.0,-0.8749053232972321,-0.29388883066557464,-2.723663649711994,24.538520982355355,-21.92598972555934,-139.74590251752156,-53.43857555340978,0.0,-1.8792517781636968,-3.1143152381093153,17.55534106712108,3.3235296170530724,3.699309258466823,0.0,0.0,237.0
2.1064386643249833,-17.382746855966733,80.35076729496389,-163.09556435536493,71.13801757038966,0.0,-1.0202038315863058,-0.13341586637502134,-2.7122501901654923,26.021054219119513,-24.239838207189223,-144.28741228897525,-54.92114548614188,0.0,-1.8515717680067614,-3.1092092279555947,17.59252573948482,3.2818601928698925,4.132043091262824,0.0,0.0,238.0
3.4545893001083283,-13.970992888427382,75.45657744792302,-166.5510112277312,79.00058498125694,0.0,-0.9927789341705542,0.051790291710882064,-3.523720632905789,27.27205100195591,-27.074830174097745,-146.85048036479864,-56.83105372867798,0.0,-1.9049836139725187,-3.0243744002463457,16.50710113303668,3.937461634081496,4.552784754397333,0.0,0.0,239.0
5.242623114904122,-8.803709723229222,70.27257994151103,-170.79187688485837,87.54402444780023,0.0,-0.9876907450624014,0.27591569066349064,-4.888167886605372,27.371919244250503,-29.515776504623133,-148.6498269778206,-58.840143823304935,0.0,-1.9292009802936732,-2.9267445292311987,15.314352088574688,4.415577384481744,4.831006192228906,0.0,0.0,240.0
6.83771134272305,-7.381213396893283,64.72616852222077,-172.77113909662486,96.3098823916927,0.0,-0.9132609094240589,0.48637694536109977,-6.000932060900096,27.513311726600524,-31.608584401009033,-150.04238506258616,-60.544845697145476,0.0,-1.9484135558898357,-2.822477154641665,14.172059963165623,4.475449823461366,4.972003685985537,0.0,0.0,241.0
8.23616226631872,-6.682180978046893,57.90095363656031,-173.56913752810974,106.30401214253371,0.0,-0.8694568626737008,0.6878441355966136,-6.716773878844691,28.810083679214017,-33.988534989916445,-149.49246093340935,-61.997724001400634,0.0,-2.0896848814626128,-2.650343353220721,12.869474522102177,3.78153853174169,4.980162782481102,0.0,0.0,242.0
9.471841671143345,-4.708642867984646,52.930450484952146,-174.9846463287822,113.52074480495158,0.0,-0.8558977210228641,0.83923866467555,-7.479035796822806,28.40303188198198,-35.59354177513383,-149.86508363375387,-63.55252969716631,0.0,-2.1007964678471445,-2.544631297850468,12.238804693915764,3.0373050509572,4.729011841248307,0.0,0.0,243.0
10.248643354317126,-4.657311816622953,50.38467647388764,-175.21553850364097,117.21281241498993,0.0,-0.8231603863670364,0.9164766937169081,-8.247368899199419,28.94017566818731,-37.63443254510083,-148.48371987797677,-64.91588387156963,0.0,-2.2324969886458947,-2.3682523925020043,11.715740287263834,2.498790660117594,4.377649112129824,0.0,0.0,244.0
10.256426354876357,-5.261391039786356,49.71290910694396,-174.02913636698636,118.17850696367104,0.0,-0.8597994195916093,0.9241994170378585,-8.50132557782425,28.59476978502341,-38.5121700465417,-148.41072369039532,-65.68862054065173,0.0,-2.2391193224557875,-2.306554316913042,11.529720514002438,1.6257118897990135,4.016117632155254,0.0,0.0,245.0
9.980360353908198,-5.722614899071481,50.926953792593785,-173.25152171394996,116.70182672370322,0.0,-0.8895001604698658,0.9007155649959165,-8.51969878669158,28.180253834750136,-38.888285101112224,-148.0762162177592,-66.06524861959151,0.0,-2.241201151067594,-2.280987592881946,11.44932633146375,0.8574467951397011,3.6244453777493515,0.0,0.0,246.0
9.360726446178289,-7.566094801631443,53.50236407676843,-172.02615937524143,113.23950238443774,0.0,-0.8835726061164476,0.8382542209573216,-8.189972258282864,27.88801091457941,-39.030232383381104,-147.64010892248865,-66.26943212557548,0.0,-2.2413076356142314,-2.2754296746368965,11.124190940723315,0.11473049992133443,3.3838234204108284,0.0,0.0,247.0
8.761131459699545,-8.404909444544389,56.222324120339486,-170.89948499719233,109.11456012315874,0.0,-0.9226637175207687,0.7457993438609459,-7.741503744927117,29.0084434678454,-39.57758020465826,-145.94033638469628,-66.2002974664312,0.0,-2.3572510282448422,-2.213149158167914,11.144844461271363,-0.5642287886551263,3.13742396627733,0.0,0.0,248.0
7.7265942957426255,-11.01971036595149,60.77490098082763,-169.29901000559602,102.51660380764885,0.0,-0.9077124965896656,0.6148299027551385,-6.850034284646222,27.988288366402198,-38.61537234389145,-146.9525633397216,-65.90820677703289,0.0,-2.2365270902531544,-2.3251467939367325,10.860322983932882,-1.4777491019975155,2.941036520076489,0.0,0.0,249.0
6.800982854234953,-12.551957203357073,66.22422836915138,-168.04470035823996,94.57217993072005,0.0,-0.9207059148413517,0.461820897535931,-6.045172476814738,27.76738846602794,-37.60189359251245,-146.13988019168278,-65.26242513162804,0.0,-2.226435268895458,-2.3999678152989636,10.888799265638388,-2.087090781030638,2.8447684481020934,0.0,0.0,250.0
5.78692772005161,-17.27800012943595,72.31268522150137,-165.22161451476376,85.46432455336297,0.0,-0.8499055257196031,0.27873362006311697,-5.006351076700926,27.260718342603713,-35.9426294509892,-144.75469190363197,-64.49027531024254,0.0,-2.2087952742195665,-2.5043618120738964,10.61524672932992,-2.664045432202881,2.849582161339943,0.0,0.0,251.0
4.742781333706127,-27.323046698224616,78.68689178535521,-157.58418622179997,75.37584716465615,0.0,-0.753835576636354,0.059784592760527146,-3.922092696907252,26.572919598264342,-33.472382950079115,-142.91730598400727,-63.04393311890956,0.0,-2.1785262147046947,-2.6467540076805616,9.829718770248368,-3.260964032277308,3.2981763071539016,0.0,0.0,252.0
4.285161220636213,-43.06604776362676,83.44616926533773,-142.7566681377544,67.02032262275837,0.0,-0.713893232911688,-0.12949833502036334,-2.9806828144059283,25.068400333800042,-29.753847589594017,-142.7087043851521,-61.12305577313868,0.0,-2.016132020571697,-2.8661173540686575,8.451425993058507,-2.879139359336324,3.815014954808483,0.0,0.0,253.0
4.15532615470344,-82.7547422795967,85.20981032892325,-106.20178855867691,60.24853790246691,0.0,-0.5674783809972656,-0.3099102246111495,-2.4197637741023867,24.391588061360768,-26.532919790283074,-140.84474896209414,-58.865879335800614,0.0,-1.9603326477605134,-2.9931859808465973,6.075270228857547,-2.3822351775220105,4.64979522446393,0.0,0.0,254.0
3.9644629216497798,-52.36214115927818,84.36779950341345,-139.4265601170705,61.054914697625875,0.0,-0.38588799458338013,-0.4303030263437311,-1.9642941034039672,23.782465916836983,-23.269435745715384,-139.01899639483668,-56.3641235900949,0.0,-1.8930144137336429,-3.0906761692619886,5.328947495493058,-1.779669853453637,4.925926497964033,0.0,0.0,255.0
2.9257665993751463,-32.299637003972194,79.69805427924832,-161.2606406449273,62.1937856955023,0.0,-0.2901244915543874,-0.7048272681018436,-1.3036838631307404,23.127776939501995,-20.451894461424708,-137.06440784966674,-53.95048929234043,0.0,-1.8218141762109579,-3.149613295357974,4.465668134935909,-1.5959433270289995,4.966964964293037,0.0,0.0,256.0
2.69037843033923,-26.745488671856997,74.8588489645324,-171.6851674780189,63.680415379694004,0.0,0.006860905918211138,-0.9145873856703806,-0.5763335499606446,23.071511038460812,-16.98070356605357,-135.09555037267634,-49.804703970667475,0.0,-1.7355194156955127,-3.16482193734104,2.19396284912501,-1.0646873010466062,5.181727220164322,0.0,0.0,257.0
1.6238705382596557,-21.04827670970947,65.99429502595476,-179.61250628242246,64.66415548330151,0.0,0.15467403430607238,-1.3905914774636328,-0.4490192507184298,21.803532891396056,-14.840038901266096,-130.82164757227468,-47.4644528545979,0.0,-1.7190844658379576,-3.116226837298639,1.9218411825156752,-0.8650827490938853,4.34589725050535,0.0,0.0,258.0
1.4299666970865776,-18.45364830840977,56.41800117240495,172.2258190899262,65.58124536443391,0.0,0.5081263661614821,-1.8413623450969192,-0.41714334483136223,20.484780096819872,-12.418770781987655,-126.65881104827051,-44.24495817659575,0.0,-1.6746926347189321,-3.03848817531305,0.24531627949132173,-0.06765836032094046,3.6287122561644107,0.0,0.0,259.0
0.05213731521436675,-18.879319801561856,45.498899957199214,166.26369791093572,64.51987984005805,0.0,0.8170959690827937,-2.404009921357293,-0.2067382468712087,18.929882289158588,-9.753849540385296,-124.89893044845856,-40.73331023527234,0.0,-1.5389442180838184,-2.989536405232009,0.5290038828328955,1.141714796186245,2.4059201830758483,0.0,0.0,260.0
0.40831743308280993,-17.081295623619,36.01158726835307,157.87776825444178,62.87336984532512,0.0,1.100212224863378,-2.7862326166281712,-0.6278043614419796,17.30284959474461,-7.11943002826703,-121.36990480331815,-36.20979490994608,0.0,-1.4559143885385113,-2.8430162293961065,0.5093556975036282,3.4477454417067106,1.2792844618048864,0.0,0.0,261.0
1.3727536175039654,-15.32263003645063,27.018012433552517,147.5184200896739,59.91177771227947,0.0,1.3702798707286432,-3.040820444304009,-1.7588234435931773,14.848528892635933,-4.653038752873975,-118.69162188539367,-33.16121425532655,0.0,-1.357579434679517,-2.754614023242617,1.6160909377457837,5.387817910986866,0.06231145946696234,0.0,0.0,262.0
3.0448340855248044,-13.427933824928818,19.00657052615777,136.00383391516598,54.70254081586099,0.0,1.5562234956764789,-3.1284622302222242,-3.2385640770391646,12.296187549532949,-2.559381177501619,-114.27323874375034,-29.934035144812686,0.0,-1.3234332453121151,-2.614755244491145,2.0922146741155396,6.968147787293642,-0.9055906225654855,0.0,0.0,263.0
2.815153606757492,-13.085687646785955,12.354936458337823,129.57464743037494,47.408777818261974,0.0,1.4915852066690705,-3.0925706716848853,-3.7190508096766366,10.728911573161602,-1.0393785379755278,-111.8122951765098,-26.792255051888024,0.0,-1.273382346279466,-2.4898975175201605,3.1343813958903666,7.925714808943615,-1.6615554618565544,0.0,0.0,264.0
3.2374968599813507,-11.77141499092404,7.444177199945569,123.72104906865036,40.139897634057085,0.0,1.4006108553877876,-2.9123806393382417,-4.542295217885567,9.028262589030165,0.3427744093456747,-109.83119306971767,-25.46044385183787,0.0,-1.2300972183452088,-2.443388733895603,3.171746540935033,8.881698878791473,-2.0070494464151034,0.0,0.0,265.0
2.98333527568142,-10.93804011687765,3.95327020935301,120.240211573777,32.09630690285989,0.0,1.2846523551673046,-2.6432808313241383,-4.774725274680631,7.946597132230115,1.171140013829079,-109.90585361473406,-22.066826385273362,0.0,-1.1706487285072906,-2.335974699910329,3.7450060330544654,9.417222421119073,-2.1433556140795127,0.0,0.0,266.0
2.4861786126008862,-9.717274655178567,1.7420322448580725,119.19076887656276,23.3166141228557,0.0,1.1541070224075247,-2.33368360263642,-4.273252785818293,7.669819497803449,1.5693903162057767,-109.34359367255107,-18.39428727619831,0.0,-1.1426105939437248,-2.1774957058672126,3.7477741667362388,10.181070128436774,-2.23717016552499,0.0,0.0,267.0
2.7543945917785866,-8.173917536021527,1.019814674797345,116.73372132687376,17.322552933434586,0.0,1.139996892698684,-2.081024267316837,-4.2967225964669264,7.610046468057136,1.5755873119756714,-106.92489651112285,-19.421362296392306,0.0,-1.191746299194992,-2.179836043451504,3.13344555748026,10.681113544886378,-2.1922876133418003,0.0,0.0,268.0
2.092760356738386,-8.745098191363427,1.1186421082093356,118.57113689914415,17.01587564242999,0.0,1.1018568238073585,-2.089951340504539,-3.65113567743826,8.613306498401784,1.2592711642092362,-108.77916501724307,-22.56020496424811,0.0,-1.1693941771847576,-2.3275249501998974,2.850391334568652,11.119436134629602,-2.2783460608533637,0.0,0.0,269.0
1.3432585127903223,-10.910202897868812,2.5840675817781857,118.3195956927917,21.157045665708047,0.0,1.212105343871002,-2.2085356904628486,-3.320067016857635,9.765458648427831,-0.6354726604952067,-108.78560221083785,-29.042426961466205,0.0,-1.2827314575331557,-2.5628471155975703,3.0572707245086033,11.158669247522123,-2.5571808753160834,0.0,0.0,270.0
0.5531445241199224,-12.417966594745417,3.811897005692001,122.99665431634253,26.840371939162527,0.0,1.1908920420395834,-2.4923402015955385,-2.8424092631970166,11.129159218732562,-3.887841172606961,-113.9066871516107,-36.57318334055567,0.0,-1.3637507767051313,-2.8831078810112194,3.4296744062742133,11.283659410479435,-2.859016752514855,0.0,0.0,271.0
-0.0061802535649220615,-14.322071358912579,6.536460476096034,123.53394770008563,32.90680453825874,0.0,1.3451919634209712,-2.6748032134074045,-2.4382505348646717,12.4809697259766,-10.035901624969592,-122.29866276948498,-46.33926793243541,0.0,-1.4882040593333343,-3.200114973651486,3.1540473400707416,11.677264365359788,-3.0816296637840526,0.0,0.0,272.0
-0.4144126832259585,-15.748709071055277,9.230958966737587,126.81895706011277,37.86793650175825,0.0,1.4239455754984682,-2.8487475467608245,-1.7961190512257972,13.906308666145927,-17.080791889967298,-133.5828451295534,-54.07875742273383,0.0,-1.465856515023479,-3.3293336090675587,2.2341607559990897,11.788614016759558,-3.5471094811230826,0.0,0.0,273.0
-0.2952234542904296,-16.654491583293478,11.312473879696844,130.43434409740854,41.391015856763374,0.0,1.4576485074172152,-2.9693509942731935,-1.9069025851292887,13.777510309822647,-24.85811631817256,-145.0401843860225,-59.93496038809102,0.0,-1.254912498708134,-3.2501923470218044,1.1734952134326484,11.583953155522266,-4.08530647458505,0.0,0.0,274.0
-0.7079255219748439,-17.767724777233916,13.414532509712016,133.7356463033195,43.65365648105245,0.0,1.4812454865016775,-3.0411363987965663,-0.36628725037532806,16.561762806420575,-31.64615023520805,-155.30380582762672,-61.95661708017758,0.0,-1.0041680595940896,-3.104438454855784,-1.8734958449860217,10.172748452364495,-4.30644098696927,0.0,0.0,275.0
0.17728496372601948,-18.61738535430097,15.790467718733977,135.74548967006123,46.45647421071458,0.0,1.5695233365354857,-3.0677370942182387,-0.5553597465668277,17.509848782652075,-42.13464271859503,-163.25338754770067,-64.80723295500289,0.0,-0.7550210090616605,-2.658116798607773,-4.154955832340124,8.663396500331482,-4.598221299385094,0.0,0.0,276.0
0.06663883401872198,-20.297719472319674,17.928611545416068,139.88986912035153,47.62486912453984,0.0,1.5803672933878812,-3.096659393429362,-0.20365611066802727,17.65633536653751,-50.8456554098436,-172.28367507297162,-64.95770242075746,0.0,-0.2553546922931635,-2.2974590179278134,-5.019077215572414,7.226219496573584,-5.429073625755834,0.0,0.0,277.0
0.2348175547555278,-21.26880143380683,19.79144678060248,143.93885232752837,49.76737935947076,0.0,1.5528869308079232,-3.133022169537964,0.018963216482693737,21.524822390635812,-62.55695519809606,176.84990393746477,-63.70766334001065,0.0,0.20903959110529302,-1.7695976564184337,-6.403624043589929,5.673286399728875,-5.936109010902746,0.0,0.0,278.0
0.5106713129313152,-22.4097366621029,22.012635832039713,148.40382973541045,51.743097038495335,0.0,1.5152930707393648,-3.148017600260228,-0.008065451226266701,29.329393069830235,-71.48206504364938,163.721445861952,-61.42202204039297,0.0,0.5922675840022974,-1.3715375655291868,-8.127264484422968,4.266427385345849,-6.148750044659431,0.0,0.0,279.0
0.8926440393747249,-24.094287869399324,24.483688724236945,150.828382411882,53.208305152136575,0.0,1.5697105016970088,-3.0981978472696423,-0.2623098932580488,44.82469583661297,-78.28443381742788,142.6455504582632,-58.58327676042901,0.0,0.9709019011326238,-1.0494034058721111,-9.702745587549801,3.6095071013926243,-6.245906636156785,0.0,0.0,280.0
1.1652779770066595,-24.733698882389643,26.204498471989613,154.8698181372292,54.67370615680297,0.0,1.4839936666452673,-3.0960216266251503,-0.49622007339059626,84.85524819812873,-80.35230022594072,101.70740416581678,-55.40644981603202,0.0,1.1020810653382893,-0.831943007304014,-10.909899039843511,2.774675782744843,-6.230022229253989,0.0,0.0,281.0
1.7423598062073906,-25.706713007321103,27.93996696132279,156.7081652979867,56.185795078015445,0.0,1.500975679324644,-3.036118223865653,-1.7090788557028573,50.988344065050775,-78.1663649272206,131.61351613126368,-66.88128533765942,0.0,1.260459242806993,-0.4650652631528161,-11.177568845737095,1.9383808295516618,-6.064444762636202,0.0,0.0,282.0
2.4158374825466873,-27.56877437072135,30.233851217111813,156.81472254258904,57.69708368411695,0.0,1.6385096497169591,-2.905324306054084,-3.021561710031867,33.46983819582068,-72.55465775216464,147.96376693728766,-77.87346446390372,0.0,1.27602209963746,-0.2050748713988589,-10.427771672558679,1.0761724332375129,-6.145582262656338,0.0,0.0,283.0
3.1197939175618123,-28.02273546371182,32.11625487722292,158.2502191292206,59.31370131726059,0.0,1.6429929875442455,-2.816669464004466,-4.599965920142568,22.88143123610335,-67.3687461505898,156.81393027412574,-87.53220924567364,0.0,1.3049014963145227,0.052963990436434995,-9.672967476355321,0.5039937821367099,-5.986292764756635,0.0,0.0,284.0
3.7788683257671383,-29.552927802612118,34.100082098816934,157.8859677691736,60.59492301958453,0.0,1.7719883748919536,-2.6730338098228987,-6.184552732112604,17.467860858414,-60.95026982807603,161.9711012149998,-97.6113672528933,0.0,1.255406000077,0.2814378829858575,-8.197395668673707,-0.14205571186938246,-5.987004863621774,0.0,0.0,285.0
4.459864226113621,-29.468266766991135,35.246214241997436,158.4766262470197,61.79540315024191,0.0,1.7721792276257626,-2.598894171708416,-7.768091963818683,12.986693505745091,-55.520850864451845,165.486205905801,-105.72562888459399,0.0,1.241218345738362,0.46393902389978425,-6.799714812962016,-0.6033253136396173,-5.9003431688265975,0.0,0.0,286.0
