JMW9912/AVATAR/Dynamixel/dynamixel_control/data/csv/poppy/1119/1119_2030_Semina_Robot_joint_poppy_humanoid_arm_margin_0.95_motor_degree.csv
theta1,theta2,theta3,theta4,theta5,theta6,theta7,theta8,theta9,theta10,theta11,theta12,frame
-96.9011610740358,84.4381453573956,-4.63288633350322,37.6983021610535,97.5344129373218,83.9994496164646,14.580118723544,-41.8411616974429,0,0,0,0,0
-98.8429574549851,84.075262425131,-4.56160328604288,36.5984083826437,98.1474627361608,84.2993848655723,14.7102686810724,-37.7793844602504,0,0,0,0,0
-99.2317043027203,84.2003103675467,-4.59838261600462,36.5984083826437,98.3559254610783,85.0616398464946,12.417954302263,-36.5984083826436,0,0,0,0,0
-98.8631144485498,83.8939324900257,-4.50823922224429,36.5984083826437,98.1811409292782,84.7612742269617,12.3318835480135,-36.5984083826437,0,0,0,0,0
-98.7009252451881,83.7948324580161,-4.47905895684674,36.5984083826437,98.0077096716885,84.6282976226485,12.2937514503861,-36.5984083826437,0,0,0,0,0
-98.7541354138192,84.3964449821875,-2.13378594274694,36.5984083826437,98.0019366701226,84.5256141860689,12.2642943271661,-36.5984083826436,0,0,0,0,0
-98.4094744386501,83.7137345801238,-4.45517096443274,36.5984083826437,97.8779246645867,84.4432523062259,12.2406593101805,-36.5984083826437,0,0,0,0,0
-98.1418432088014,83.679691901717,-4.44514112701006,36.5984083826437,97.69953306439,84.347333795819,12.2131253271083,-36.5984083826437,0,0,0,0,0
-97.8417509803028,83.6932632853539,-4.44913976581666,36.5984083826437,97.5267775122458,84.328151047163,12.2076176696862,-36.5984083826437,0,0,0,0,0
-97.6835403952634,83.7581815357867,-4.46826410654515,36.5984083826437,97.515899865122,84.2596957598623,12.1879600037956,-36.5984083826437,0,0,0,0,0
-97.2906751358873,83.7966798147825,-4.47960302003526,36.5984083826438,97.3320263751712,84.1972116150325,12.1700127258179,-36.5984083826437,0,0,0,0,0
-96.9059421808487,83.8144653106886,-4.48484080532971,36.5984083826438,97.123779224058,84.0881181231616,12.1386679231317,-36.5984083826437,0,0,0,0,0
-96.558339676719,83.8658617720669,-4.49997487650965,36.5984083826438,96.9354172170011,83.9591649206101,12.1016004035931,-36.5984083826437,0,0,0,0,0
-96.1737280959281,83.8565539196181,-4.49723433636542,36.5984083826438,96.8142785917707,83.848034498592,12.0696412985556,-36.5984083826437,0,0,0,0,0
-96.0423473979174,83.7706135244276,-4.4719258946119,36.5984083826438,96.8071811253203,83.6825876317218,12.0220359113024,-36.5984083826436,0,0,0,0,0
-95.6325898923091,83.7275808411512,-4.45925003237842,36.5984083826437,96.6639298763315,83.5583853838912,11.9862773975113,-36.5984083826437,0,0,0,0,0
-95.3379244347653,83.6732727520215,-4.44324972847335,36.5984083826437,96.4891275075329,83.4460520205792,11.953920315552,-36.5984083826439,0,0,0,0,0
-95.122633051621,83.5920804871778,-4.41932223012208,36.5984083826437,96.2201250732429,83.2982450180339,11.9113220562993,-36.5984083826437,0,0,0,0,0
-94.7481850041362,83.5349612632917,-4.40248434380369,36.5984083826437,95.7982886982983,83.2204267942828,11.8858357880212,-36.719793368283,0,0,0,0,0
-94.5851537678765,83.5269718995098,-4.40012888428369,36.5984083826438,95.6990295641642,83.103660852244,11.8399346798797,-37.1876963605272,0,0,0,0,0
-94.2613321926621,83.516808493426,-4.39713235166125,36.5984083826437,95.6150983168349,82.9388457238972,11.7652061203145,-38.174323066132,0,0,0,0,0
-93.9743024827684,83.4675861413951,-4.38261806986895,36.5984083826437,95.4840416272278,82.8291442856554,11.711772012604,-38.9266249255704,0,0,0,0,0
-93.5581436848735,83.431011898307,-4.37183143075389,36.5984083826437,95.3164785111234,82.728483499741,11.6529525296462,-39.9472184144093,0,0,0,0,0
-93.2320250233221,82.7216308347015,-6.66162574981559,37.2606399193277,95.2265510471034,82.6427466166807,11.5905786962948,-41.2443087747606,0,0,0,0,0
-93.0852161959051,82.6471198379111,-6.60674475867373,38.051289315975,95.0949757242607,82.5366395291553,11.517030318308,-42.6751492907991,0,0,0,0,0
-92.4255651240892,82.6618295560192,-6.55716950407393,39.3816586686579,94.2473723319471,81.7288827761083,13.7741857969052,-44.1142928584472,0,0,0,0,0
-92.0054231132594,82.6598867977968,-6.52243388449447,40.2287121990969,93.8316666810064,81.6914226784761,13.7339787561356,-45.184323527699,0,0,0,0,0
-91.5171522397684,82.6660778336825,-6.47913186354039,41.3652084032634,93.311832523564,81.6739979460078,13.6928307680659,-46.6115920821625,0,0,0,0,0
-91.0500051844745,82.7130431712243,-6.45166149753023,42.4706247814434,92.8779556040808,81.6752079303536,13.6625235834707,-47.9316691320893,0,0,0,0,0
-90.0762836449453,82.0733093558237,-8.74648508672343,43.8601421945015,92.1091666391371,81.7655754930283,13.6600585592004,-49.6714717996841,0,0,0,0,0
-88.9658564807045,82.3693115598574,-8.80652631514663,45.1817291528903,90.7939211369096,81.0756727825735,15.9835805195165,-51.0404076967514,0,0,0,0,0
-88.5562158826062,82.429793671995,-8.77129679193537,46.9418379127053,90.6159974091941,81.0911273399484,15.9661261018267,-52.4782813859105,0,0,0,0,0
-87.5876665224869,81.8092644001181,-11.0991931521434,48.178367715337,89.9482172229346,81.2703600225699,16.0274502001694,-53.4400814707562,0,0,0,0,0
-86.6328315141961,81.9256764895021,-11.1172577062157,49.1573940942105,89.2441483265943,81.2893037092435,16.0319216764379,-53.7146715104177,0,0,0,0,0
-85.5174932091597,82.2595174308527,-11.2164362647532,50.5379447227291,88.1899288715757,81.4508443572831,16.0927802437012,-54.4348570571398,0,0,0,0,0
-84.3312462651659,82.590708142425,-11.3432801147934,50.9375409816552,86.8824024927423,81.6460999344387,16.1776170219108,-54.37795464306,0,0,0,0,0
-83.6932287572388,81.9003109445161,-13.6873358055987,51.0644038297951,86.1377957007072,80.7879948173128,18.4630562655006,-54.5442487770932,0,0,0,0,0
-82.7571143393485,82.0670488527479,-13.749684270716,51.4076569242135,85.047269166009,81.039575722975,18.5689637166202,-54.8032250484518,0,0,0,0,0
-82.197279663348,81.9092087746073,-13.6780786136851,51.7895280056446,84.656795127295,80.912462086512,18.5113753476617,-55.2814968865112,0,0,0,0,0
-81.1222389871296,81.9843863897772,-13.6952830730002,52.6376704237069,83.5709350809725,80.9378249352276,18.5191003586664,-55.8659226292675,0,0,0,0,0
-81.0958944533918,81.7186040293846,-13.5586363685964,54.0124220041793,83.1714371654754,80.6390940637482,18.3780603621639,-57.3115628639275,0,0,0,0,0
-80.2103445524386,81.5508998428019,-13.4765469453285,54.5109486942614,82.0327739460866,80.4638159129299,18.2940287582327,-57.9870642314494,0,0,0,0,0
-78.6645305229991,80.4719512933603,-15.6631984017573,54.7169439206066,80.4463847843497,80.2824835115609,18.2069129433694,-58.4902536851043,0,0,0,0,0
-77.8635056555996,80.2624691899615,-15.5577560259971,55.3936976401852,79.6513934916605,79.9752241383667,18.0544712268171,-59.5176699748835,0,0,0,0,0
-76.7958152240322,80.0590539633933,-15.4643738527617,55.5350710901013,78.7046707890979,79.7130047656127,17.9268300886298,-59.8373235036333,0,0,0,0,0
-76.0795448364706,79.7968262609525,-15.3372244417564,55.9646053102796,78.0908352702122,79.3792035354567,17.7585358305599,-60.5031574700911,0,0,0,0,0
-75.6786829310417,79.1009640306108,-15.0086436406478,56.460484135552,77.2942000800292,78.6029759320238,17.3772257676946,-60.7641980144466,0,0,0,0,0
-74.6800841998087,78.4780684486775,-14.6868506622616,57.5271849699856,76.2726785700616,78.1548908932637,17.1351798755603,-61.7391347530233,0,0,0,0,0
-74.2277441254288,77.7884650210309,-14.3270219459022,58.4320021355948,75.7227641204659,77.5377975876161,16.8051954289467,-62.5024597538225,0,0,0,0,0
-73.8510531108904,77.237226608768,-13.9860991429273,60.1790959538358,74.9249621222223,77.0645530349359,16.5244863478777,-63.7694889039314,0,0,0,0,0
-72.9454017227568,76.6573299640117,-13.6542779745228,61.0690394889143,73.5149996291694,76.4152223994014,16.1558278109304,-64.5629397029781,0,0,0,0,0
-72.3931261968216,76.2187935729049,-13.4033022229939,61.6059560578893,73.0114625608993,76.0298060095155,15.91619592627,-65.4363205270786,0,0,0,0,0
-72.2275784071925,75.8536467572721,-13.1523255164056,62.7592342940483,73.0563924620811,75.5710443083475,15.6263581983082,-66.3885316848547,0,0,0,0,0
-71.9867712945005,75.4620203446882,-12.9515441826143,62.6456249537267,73.0087380549175,75.3904908374466,15.5042113246148,-66.8960131178204,0,0,0,0,0
-70.4936784087797,75.2720558025428,-12.8697795852208,62.3276577539691,71.5834604956066,75.2803704291957,15.4337863371829,-67.0941055684458,0,0,0,0,0
-69.1727819599175,74.8944012276453,-12.6617580156016,62.4621915200701,70.024484302976,73.7849398829911,17.4019371522745,-67.7263947418845,0,0,0,0,0
-67.7844026942418,74.7317451722943,-12.6138337178722,61.8684703160208,68.8178473635907,73.6309773613216,17.3564144485703,-66.857947616155,0,0,0,0,0
-66.861247260445,74.2772445838519,-12.3844853931062,61.720433096715,68.0157376668572,73.0713446860135,17.0376268537767,-66.957167626041,0,0,0,0,0
-65.3113115691338,73.0272893939891,-14.5265939607067,61.5767517146661,66.2851711281266,71.6535062651157,19.1119384547713,-66.6877749297937,0,0,0,0,0
-65.1627868923483,71.6039874230097,-13.6611553535803,62.9350639922946,65.7630456156389,70.3625386065758,18.3056260172551,-67.8927052321625,0,0,0,0,0
-64.8869224699511,69.5523807159551,-15.2980138672833,63.7392595961708,65.1453611955951,68.4013846742995,20.007018645051,-68.7887828814008,0,0,0,0,0
-63.8653161698826,69.1526134905239,-14.9836703079361,64.6980454077517,64.4514292529315,67.9274271657702,19.653319595983,-69.7554537200048,0,0,0,0,0
-61.9565648909074,67.4038058247325,-16.8595793602819,64.7726341554382,62.251616346582,66.1233817224453,21.4969138076649,-70.0880785242052,0,0,0,0,0
-60.1062198402832,66.8888187324635,-16.6174809381696,64.2479935445742,60.2000349841275,65.7465524192552,21.3510713115816,-69.1035481704824,0,0,0,0,0
-57.6656950036869,66.7503443043628,-16.6555516544466,63.1441026989172,57.9607370246328,65.5313136239824,21.3705759397865,-67.4159267339878,0,0,0,0,0
-54.8684343096497,66.8136545571407,-16.7572871732048,62.5247977589614,54.4352339298353,64.7577708368108,23.9861902134213,-66.1105324366495,0,0,0,0,0
-53.0046093614448,66.363709299196,-16.5861318964838,61.8055547285515,52.5336117585207,64.6157574089407,23.9617252784049,-65.4774434979863,0,0,0,0,0
-50.6705558774417,65.5470375284971,-19.1435228358122,60.627844286571,50.6395445567051,65.1573666780853,24.385556942289,-64.0150733563906,0,0,0,0,0
-47.05608283556,66.7979470224471,-20.0599101687601,58.0518240602707,46.4729517471948,65.7066741979977,27.75127556246,-61.524053217919,0,0,0,0,0
-45.3567773092577,67.5172807509692,-20.5547670930927,56.5871098683075,44.933999902602,66.4960664568719,28.2237455060889,-60.2515855934377,0,0,0,0,0
-42.7905199068328,68.3750448614383,-21.1584011871825,54.3795544970711,42.4505633281712,67.3841459642224,28.8123679769308,-57.5555606965925,0,0,0,0,0
-40.9573174005363,69.5254073299361,-19.0518980291794,52.9588032048188,40.7402876169774,68.4976127639652,26.6379285582902,-55.804932884534,0,0,0,0,0
-39.3654547338116,69.5533800902923,-19.1748449147749,51.7407568374327,39.1930476283522,68.7615882835372,26.870575846358,-54.0402196416132,0,0,0,0,0
-37.4868009905862,70.1130165025623,-19.5210944253704,50.536712952605,37.5084207896989,69.8159479487957,27.3871483070905,-52.8052325016176,0,0,0,0,0
-36.0837760481375,71.5399722593816,-17.5244545433393,49.2802824711536,36.4516699543252,71.5523304494192,25.44506931653,-51.5997000569372,0,0,0,0,0
-34.8714827918153,72.2057604181443,-17.8174855501901,49.0074710833216,34.809515964842,72.2169796244417,25.7594174777859,-50.6355079110285,0,0,0,0,0
-32.4931698282305,73.2253236708052,-18.33577289249,47.47555702204,32.1656927641062,73.2351309940509,26.2543365385866,-48.4113187711458,0,0,0,0,0
-30.3335420443955,73.7084132797038,-18.6202202082682,46.0385521997915,29.6418469788464,73.4618305475658,26.4301331918754,-46.4307921044192,0,0,0,0,0
-28.2943622280784,74.2346924635182,-18.9051000186428,44.6659488373347,27.2883642195341,73.9079778910846,26.6646671811559,-44.7161444857589,0,0,0,0,0
-26.0834617137115,74.7019149953764,-19.9173202057891,43.1889005846994,24.9046820575079,74.6202341253098,26.9745647857578,-43.0272961146084,0,0,0,0,0
-23.9530557029689,75.2516269951141,-20.4655825322417,41.8795520689656,22.6132901488922,75.3745921984487,27.2887581505829,-41.1531411456151,0,0,0,0,0
-22.0069446338695,75.8342270350601,-20.9625704812146,40.6432429353141,20.5990519180797,76.1089677415885,27.7258761346033,-39.7776372307094,0,0,0,0,0
-20.1301223469217,76.3521250366811,-21.3888532883938,39.3653788545159,18.8256298318758,76.866295756081,28.1405985704629,-38.4944748960258,0,0,0,0,0
-18.8712692382978,76.6841502064193,-21.6519070396536,38.4067358598861,17.6183107703446,77.4117016135523,28.4085370228083,-37.5089595449436,0,0,0,0,0
-18.1286858777634,77.080609709365,-21.8653442842697,37.6089013303146,16.9522790387586,78.0320698210474,28.6430938024627,-36.6427977524557,0,0,0,0,0
-17.6131261101064,77.384495232945,-22.0164470418439,36.9350289439205,16.7179864071905,78.3610191684127,28.758779298231,-36.5984083826437,0,0,0,0,0
-17.4653359013352,77.4869356553182,-22.0626339812614,36.5984083826437,16.7423220841634,78.5279977104757,28.8078284984421,-36.5984083826436,0,0,0,0,0
-17.52172934425,77.5007436080074,-22.0607490148285,36.5984083826437,16.7940047328476,78.5606280349611,28.8145780106924,-36.5984083826437,0,0,0,0,0
-17.6614019319334,77.4958490478321,-22.0437484022119,36.5984083826437,16.9871837522512,78.5832368964997,28.8097720621128,-36.5984083826436,0,0,0,0,0
-17.7894802342572,77.4763567769086,-22.0233029252758,36.5984083826437,17.1442101146168,78.636908895568,28.8169465030027,-36.5984083826437,0,0,0,0,0
-18.1235604741116,77.7175343407717,-22.0649896992734,36.5984083826437,17.6242791527196,78.9208052244364,28.4263989200435,-36.5984083826437,0,0,0,0,0
-18.44109933408,77.7952147948472,-22.0568472507005,36.5984083826437,17.9567858543289,78.9574230523763,28.4359244985947,-36.5984083826437,0,0,0,0,0
-18.6378060657351,77.9368347136352,-22.0837690987277,36.5984083826437,18.2520496027706,79.095257174383,28.4717580553246,-36.5984083826437,0,0,0,0,0
-18.7630673622316,77.9475656608237,-22.0744531685873,36.5984083826437,18.434859486688,79.1714284438566,28.4915460162352,-36.5984083826436,0,0,0,0,0
-18.8377756621837,77.9333314160413,-22.061870087851,36.5984083826437,18.5168143065118,79.1486589255491,28.4856319866214,-36.5984083826437,0,0,0,0,0
-18.785556924882,77.8731563396031,-22.046808689871,36.5984083826438,18.5192518294657,79.0745538299094,28.4663778831893,-36.5984083826436,0,0,0,0,0
-18.9580652903267,77.8739761443509,-22.0289892818217,36.5984083826438,18.700019986791,79.0330943572486,28.4556014903875,-36.5984083826437,0,0,0,0,0
-19.0383944971621,77.9309614403811,-22.0402195571881,36.5984083826437,18.8497817553351,79.0918089679049,28.4708620246284,-36.5984083826437,0,0,0,0,0
-19.2150242783491,77.8958479142163,-22.0095879417555,36.5984083826437,18.9790000791494,79.0197878444152,28.4521421214294,-36.5984083826438,0,0,0,0,0
-19.5103003848234,77.9658227106554,-22.003355825138,36.5984083826437,19.1837735225412,78.9336829205137,28.4297491396998,-36.5984083826437,0,0,0,0,0
-19.8498671194259,78.040605837812,-21.9965817700032,36.6970033626024,19.463003065281,79.0177755138691,28.4516189365297,-36.5984083826438,0,0,0,0,0
-20.3559131423667,78.0692722524534,-21.9586060082064,36.89226486987,19.7964185966879,78.9936375150926,28.4453427348851,-36.5984083826438,0,0,0,0,0
-20.9799168689984,77.9631093434848,-21.8627322632655,37.3433567406902,20.2590427071376,78.9585320938931,28.4362129607855,-36.5984083826437,0,0,0,0,0
-21.5003772803788,77.6060763708135,-22.9456755095068,37.5939854136098,20.8168140153465,78.8861508159281,28.4167474109388,-36.6277769065896,0,0,0,0,0
-22.3044193818184,77.4456000680903,-22.8762054931381,38.1720525405216,21.7071213534733,78.6437775688744,28.3368887201053,-37.3591322489808,0,0,0,0,0
-22.9661905704297,77.3618620629783,-22.8386521244641,38.4947394287355,22.5091733080571,78.572833583777,28.3066363200063,-37.8662271982573,0,0,0,0,0
-23.7418887897531,77.2793223561993,-22.7966099107183,38.9265356882295,23.2963147042738,78.4798375137449,28.270529563346,-38.3577849151912,0,0,0,0,0
-24.3572625551512,77.158739110568,-22.7529819597421,39.1180155798552,24.0623627456677,78.4090326409582,28.2407669303921,-38.8259290929033,0,0,0,0,0
-25.213317143188,76.9695657495884,-22.6827052819694,39.4443056162301,24.967245461162,78.1545844212668,28.1588585170627,-39.3078759886566,0,0,0,0,0
-26.2818036028522,76.6609784389144,-22.5739575012413,39.8017410028387,26.103313560711,77.9661884862922,28.0953140422337,-39.7432961623508,0,0,0,0,0
-27.3332386346479,76.1522310318357,-22.3846800995035,40.5141949368443,27.1903018768344,77.5597386592837,27.9593210547952,-40.5038220253525,0,0,0,0,0
-28.0113022284727,75.9134955731008,-22.2957992314851,40.8092510197183,27.7556364805999,77.0926524615672,27.8239516792984,-40.463060295175,0,0,0,0,0
-29.3369999587992,75.2826990773508,-22.0605478317161,41.4906714971796,29.0425869136423,76.3370676222483,27.5725061526225,-41.3309929351494,0,0,0,0,0
-30.6057852529514,74.7466128342109,-21.8701147233304,41.8030696791399,30.116338524452,75.6363470359477,27.348667723766,-41.6474705901146,0,0,0,0,0
-31.9891985664416,74.234841819722,-21.670418991102,42.3374489120748,31.353228505077,74.8482288203243,27.0939317131629,-41.9452185915746,0,0,0,0,0
-33.759485738892,73.3248557466857,-21.3008412424819,43.3170122264387,33.0557354456829,73.7767215913189,26.6998002308507,-43.1159820959491,0,0,0,0,0
-35.5595806652736,72.4411651939001,-20.9364740150796,44.1255957400368,34.7496889336117,72.7470727492152,26.3081014145409,-44.1128266929047,0,0,0,0,0
-37.0340076378309,71.7528369043836,-20.6346474793921,44.8558242049115,35.8102679598109,71.1537810197645,28.3635948493317,-44.9457499777395,0,0,0,0,0
-38.6001888068851,70.8535546812501,-20.2601817153517,45.4040664577869,37.2669415894575,70.1651215105227,27.9819303806243,-45.6132543189799,0,0,0,0,0
-40.3924047625296,69.7338156390522,-19.7274753577448,46.6061211075982,39.4917827757222,69.6082509143993,25.0333112649263,-46.6586921208781,0,0,0,0,0
-42.6264960705834,69.9170334345763,-17.0643798142387,47.1855797640828,41.3905466437891,68.8174308331464,24.7010561435762,-47.1165687036033,0,0,0,0,0
-44.8536598928223,69.2233927773564,-16.7186213916196,47.8132922151396,43.7558223666446,67.9383707371922,24.2901415600937,-47.9602963947168,0,0,0,0,0
-47.2029709201105,68.4838904002557,-16.341040907397,48.4599398466648,46.3361812439352,67.0919928430894,23.8727493097914,-48.8370226150379,0,0,0,0,0
-48.7618230847728,68.3104175126154,-16.2304139195853,48.7880570905999,48.468123146474,67.6677803985464,21.3389652084325,-49.2784070943032,0,0,0,0,0
-51.2715809998832,68.7825387854869,-13.6784582916791,49.2037159306926,51.0077668834208,67.3055661911669,21.1315386601473,-49.8293956253455,0,0,0,0,0
-52.9752192911862,68.8394763436363,-13.6553645773379,49.6032744355087,52.9247365285945,67.3194638658658,21.0753292724262,-50.4275696551785,0,0,0,0,0
-54.4840700186847,68.9506901257365,-13.7449532752799,49.2555668780924,54.4103166909302,67.5443246624739,21.1979066400822,-50.1602223669881,0,0,0,0,0
-55.894049143284,69.2222836780925,-13.88090927128,49.0927399534512,55.8951576384346,67.8791171392408,21.3452377792737,-50.0928185935612,0,0,0,0,0
-57.693372789376,69.61044773444,-14.0432166781382,49.1251862677663,57.7370181252195,68.2741249370684,21.4824912059898,-50.3829557863717,0,0,0,0,0
-58.6691069380891,70.3189211822508,-14.4281388159113,48.3310703098201,59.2194784721638,69.883027774783,19.4855522384647,-49.8588443439991,0,0,0,0,0
-59.6544214526852,70.9627455974011,-14.7050432653568,48.2237627970718,60.3633058385723,70.4928520297775,19.748524626033,-49.7260942970942,0,0,0,0,0
-60.4938568353362,71.4316470921305,-14.9116424861354,48.0715982086685,61.2816410900511,70.9639872125719,19.9516009492809,-49.5955250543415,0,0,0,0,0
-61.4600764738597,71.7571160159586,-15.0838939022674,47.6419922463499,62.3588711130441,71.3632525161832,20.1388111342505,-49.2682609065406,0,0,0,0,0
-62.5116255615377,72.8091484463711,-12.849754960389,47.6025687471936,63.1473589279135,71.5547982660966,20.20778128567,-49.3705611208632,0,0,0,0,0
-63.5872142343049,73.0111418202224,-12.9303018481827,47.6101816286986,64.6785591641448,72.5374288481503,17.9159461623088,-49.4670680947252,0,0,0,0,0
-64.7568582166927,73.3385208295087,-13.0752857987784,47.4546520405901,65.7179421124512,72.6367838219615,17.995198866746,-48.9516065081897,0,0,0,0,0
-65.6951617354145,73.7309638341916,-13.2868776459146,46.8012063707077,66.7063440635396,72.927212643462,18.1526378675849,-48.3915686005413,0,0,0,0,0
-66.4819437508253,74.0767736619751,-13.4202799439983,46.821423965481,67.3181478157,73.2013925008783,18.2758670448933,-48.1794549114046,0,0,0,0,0
-67.4806339649908,74.4887243559445,-13.5977811001746,46.6019119671241,68.2443416496544,73.6163217180278,18.4612018017662,-47.83929595168,0,0,0,0,0
-68.1534862320422,74.9782018833302,-13.8373844372598,45.9159598122303,69.2068172895184,74.9874477159448,16.3693223372054,-47.4399215508375,0,0,0,0,0
-68.8376017663873,75.3858039718955,-14.0514062959031,45.072870834323,69.7071256975724,75.6161930919014,16.6484441785749,-46.8121394238151,0,0,0,0,0
-69.8109971848132,75.6224090208269,-14.1993650574022,44.2051862102832,70.4898510407238,76.0399049237606,16.8449887390246,-46.1635117009151,0,0,0,0,0
-70.7940182638715,75.8714777886845,-14.3409329243414,43.4483601678631,71.2564226569751,76.4399754185409,17.0166046637639,-45.7251558826851,0,0,0,0,0
-71.9347973419918,75.9451865388714,-14.4094793628656,42.8260428178329,72.5030362976316,76.5724035069999,17.0809178278687,-45.4255386830018,0,0,0,0,0
-73.3270606301335,77.0582958626289,-12.282000839446,41.6360180217071,73.7246002199445,76.8605272514435,17.242368751083,-44.3156695592529,0,0,0,0,0
-74.1365046826572,77.3279773140403,-12.436245960289,40.6702305417043,74.5032123119999,77.1493192230209,17.4008183566064,-43.1822975606763,0,0,0,0,0
-74.8157911174926,77.4971377491717,-12.5590083072551,39.6292976780282,75.33751231637,77.2246700785447,17.4780227794867,-42.1658373290237,0,0,0,0,0
-76.1452542349165,77.79190741445,-12.7137327016429,38.6653729717744,76.8054512323196,77.9856097726895,15.1976354133358,-41.2009381555198,0,0,0,0,0
-76.9996149333207,78.0612640358296,-12.8302695230911,38.1288979479888,77.5015363428782,78.0635975212734,15.2463658914283,-40.756679613424,0,0,0,0,0
-77.9492168975605,78.4777484793507,-12.9861175850768,37.6382254846496,78.3459314298436,78.3272336699511,15.3509624337143,-40.3754949919757,0,0,0,0,0
-78.6178856427445,78.7149300125657,-13.0996676963869,36.8882555119834,79.0900478977664,78.5046294282604,15.4250950204783,-40.0230075708723,0,0,0,0,0
-80.1089265494614,79.3478936415824,-10.7608639265088,36.5984083826437,80.2139718859673,78.4955154598283,15.4521897060505,-39.4178552948608,0,0,0,0,0
-81.4724349246749,79.317809316571,-10.7519976788098,36.5984083826438,81.4028764846773,79.3320667672302,13.1953493820838,-38.5881295965208,0,0,0,0,0
-82.9201372575468,79.3474816639337,-10.7607425235918,36.5984083826438,82.2511056826476,79.4464926002249,13.2667617459739,-37.8529017817755,0,0,0,0,0
-84.3600905843437,80.0707997693917,-8.43734691964433,36.5984083826437,83.0820112571921,79.6527044655045,13.3894457813428,-36.5984083826436,0,0,0,0,0
-85.2586404132858,80.3212457193157,-8.51146139613812,36.5984083826437,84.2062184511353,79.8460845933195,13.4456113398891,-36.5984083826438,0,0,0,0,0
-86.1738615417971,80.4299128051748,-8.54358325218218,36.5984083826437,85.3573217330348,80.6612654269379,11.146231327376,-36.5984083826436,0,0,0,0,0
-87.0941788213505,80.6406856311996,-8.60582664114116,36.5984083826437,86.5316880869749,80.8859517534886,11.2118438033959,-36.5984083826437,0,0,0,0,0
-87.7709178752238,80.8241953694242,-8.65995486103747,36.5984083826437,87.424151531365,81.0436487725325,11.2578427363418,-36.5984083826437,0,0,0,0,0
-87.91064576627,81.1431797261865,-8.753904684344,36.5984083826438,87.8533550196746,81.4097148044169,11.3644623894689,-36.5984083826437,0,0,0,0,0
-88.4224152334059,81.3926657596576,-8.82726667596989,36.5984083826437,88.5550111054272,81.6921375683909,11.4465734516066,-36.5984083826437,0,0,0,0,0
-89.0658480304696,81.6334293987704,-8.89796829231869,36.5984083826438,89.335238353094,82.029626949001,11.5445335467255,-36.5984083826438,0,0,0,0,0
-89.8059766308786,81.8269470951919,-8.954729760117,36.5984083826439,90.2013347315528,82.2941329434614,11.6211915103729,-36.5984083826436,0,0,0,0,0
-90.7273597535691,82.6214231660729,-6.65915902149226,36.5984083826437,91.0273202702139,82.4916853728089,11.6783800820407,-36.5984083826437,0,0,0,0,0
-91.5243907200462,82.7155994182686,-6.6868683572354,36.5984083826438,91.6865529494611,82.7111765486471,11.7418562336405,-36.5984083826437,0,0,0,0,0
-91.8162013017622,82.909591498134,-6.74390828579953,36.5984083826437,92.3087683859076,82.9058856992948,11.7981112593558,-36.5984083826437,0,0,0,0,0
-92.0883895463458,83.0647833928951,-6.78950359286295,36.5984083826438,92.6686639524724,83.0475131647845,11.8389988294556,-36.5984083826439,0,0,0,0,0
-92.5090940349394,83.2864817117677,-6.85458432485681,36.5984083826437,93.0888949655578,83.1639304024202,11.8725890225876,-36.5984083826437,0,0,0,0,0
-92.9832059929,83.4558418042822,-6.90425915770182,36.5984083826437,93.4948664412853,83.2017003804524,11.8834832269861,-36.5984083826437,0,0,0,0,0
-93.2572091573434,83.6864188653756,-6.97183322587813,36.5984083826437,93.7192983501686,83.2646288048767,11.9016300682374,-36.5984083826437,0,0,0,0,0
-93.3202963162106,83.8632628131376,-7.02361739072498,36.5984083826437,93.7456420042001,83.2811991463903,11.9064076858313,-36.5984083826438,0,0,0,0,0
-93.5731579607928,84.0641885874407,-7.08240989237968,36.5984083826438,93.8627161082396,83.2213582197068,11.8891525407967,-36.5984083826437,0,0,0,0,0
-93.7506491995732,83.5018996327957,-9.44377221089009,36.5984083826437,93.9828141488677,83.1949421294939,11.8815340383756,-36.5984083826437,0,0,0,0,0
-94.2724569078313,84.2320641747547,-7.1314973245204,36.5984083826437,94.183731690792,83.1598642099515,11.8714160814247,-36.5984083826439,0,0,0,0,0
-94.8160600205987,84.2890703655203,-7.14815921068278,36.5984083826437,94.5513002295604,83.0958835089018,11.8529573483427,-36.5984083826438,0,0,0,0,0
-95.148460185349,84.270806791765,-7.14282147385043,36.5984083826437,94.6859388509187,83.1223233236322,11.8605859864477,-36.5984083826439,0,0,0,0,0
-95.3764409936271,84.2311941245727,-7.13124299751445,36.5984083826438,94.8264670924375,83.1122748742628,11.8576868275101,-36.5984083826438,0,0,0,0,0
-95.9131868465658,84.1374840540629,-7.1038455350507,36.5984083826437,95.4022620057362,83.0782863876438,11.847879586944,-36.5984083826438,0,0,0,0,0
-96.1799333038245,84.0464076103354,-7.07720885954823,36.5984083826437,95.701543259819,83.078631299284,11.8479791171782,-36.5984083826437,0,0,0,0,0
-96.4647652423087,83.9620712884443,-7.05253522750797,36.5984083826436,95.9432290915435,83.1571826709822,11.8706425485154,-36.5984083826437,0,0,0,0,0
-96.7237686414169,83.9445501763651,-7.04740820884647,36.5984083826437,96.204847132496,83.2884891602195,11.9085094601847,-36.5984083826438,0,0,0,0,0
-97.5565311756519,84.5456355193994,-4.69986313521958,36.5984083826437,96.8661592228241,83.422553095725,11.9471496533212,-36.5984083826437,0,0,0,0,0
-98.146838564251,84.5306103919373,-4.69545029908581,36.5984083826437,97.4259331780923,83.6364859869288,12.0087650967247,-36.5984083826437,0,0,0,0,0
-98.6682146509473,84.661777194126,-4.73396588098163,36.5984083826438,97.8723349142937,83.8305516999982,12.0646123011443,-36.5984083826438,0,0,0,0,0
-98.9039235764671,84.9021773687697,-4.80451227070524,36.5984083826436,98.2216699379176,84.7544622082324,9.80722812726521,-36.5984083826437,0,0,0,0,0
-99.0900095823467,85.2463694203515,-4.90542164229489,36.5984083826437,98.511072348528,85.0148953243562,9.88259523058676,-36.5984083826436,0,0,0,0,0
-99.1250301639615,85.5690533424678,-4.99992974636941,36.5984083826437,98.6262308351161,85.33354208737,9.97472456310585,-36.5984083826436,0,0,0,0,0
-99.0774398005179,85.8273399168074,-5.07551482058271,36.5984083826437,98.5560279641334,84.90033796504,12.3717431229895,-36.5984083826439,0,0,0,0,0
-98.7990505101326,86.0902169713205,-5.15239006913821,36.5984083826437,98.3745895389791,85.1463378774709,12.4422099224378,-36.5984083826437,0,0,0,0,0
-98.7918547565832,86.1280081587863,-5.16343743841917,36.5984083826438,98.3173022006421,85.3031395316835,12.4870977667524,-36.5984083826437,0,0,0,0,0
-98.7639838778974,86.1159562316149,-5.15991445170136,36.5984083826437,98.2956304004595,85.3418131740928,12.4981656718991,-36.5984083826438,0,0,0,0,0
-98.8529620750126,86.0810404786271,-5.14970737994308,36.5984083826437,98.4131897662706,85.363837820735,12.5044682790964,-36.5984083826437,0,0,0,0,0
-98.8453034757032,86.0464715631144,-5.13960082537647,36.5984083826437,98.4623118907101,85.3414497686973,12.4980616758047,-36.5984083826437,0,0,0,0,0
-99.0378379621169,85.9539324041747,-5.11254176706957,36.5984083826437,98.646357253048,85.2454327078428,12.470580428155,-36.5984083826437,0,0,0,0,0
-99.0698996852177,85.8281783202687,-5.07576008513568,36.5984083826437,98.6935726505799,85.177299873201,12.4510751574392,-36.5984083826436,0,0,0,0,0
-99.2652837156733,85.7070344782371,-5.04031523920564,36.5984083826437,99.0708423002709,85.7393955646807,10.0919424155212,-36.5984083826437,0,0,0,0,0
-99.3089398815295,85.6742541787659,-5.03072221926388,36.5984083826437,99.1740096953341,85.707310317623,10.0826804645154,-36.5984083826437,0,0,0,0,0
-99.3394027687977,85.6033460194363,-5.00996826726595,36.5984083826437,99.2708125121066,85.6555799153314,10.0677458957318,-36.5984083826437,0,0,0,0,0
-99.6007389686577,86.1136648715125,-2.6389461194486,36.5984083826437,99.4885851282913,85.5324929099869,10.032202046774,-36.5984083826437,0,0,0,0,0
-99.5822663261793,86.0690878774119,-2.62586397589467,36.5984083826437,99.2911271283913,85.5221050134349,10.0292017688148,-36.5984083826437,0,0,0,0,0
-99.4957602651409,85.9607553236382,-2.59406518398869,36.5984083826437,99.2396782477197,85.4340782270868,10.0037739025598,-36.5984083826439,0,0,0,0,0
-99.5286591920755,85.7954013227988,-2.54551176201915,36.5984083826438,99.3673487020132,85.2347684802407,9.94617605720019,-36.5984083826437,0,0,0,0,0
-99.755559953623,85.5445289200714,-2.4718059785899,36.5984083826437,99.5558208839389,85.0720457233374,9.89912562385567,-36.5984083826439,0,0,0,0,0
-99.9102899374903,85.2770005852632,-2.39314883166165,36.5984083826437,99.6658272894598,84.8345779974298,9.83041977316948,-36.5984083826438,0,0,0,0,0
-99.9722007479179,84.9663842442394,-2.30174351065068,36.5984083826437,99.869161641304,84.4657844832704,9.72361054212013,-36.5984083826438,0,0,0,0,0
-99.9655695006902,84.647697677233,-2.20786863154013,36.5984083826438,99.9553586804329,84.0252145604825,9.59583073550978,-36.5984083826436,0,0,0,0,0
-99.8993102797526,84.8648976715605,0.248103495118413,36.5984083826438,99.9989700762111,84.1990449517739,7.1218448040265,-36.5984083826437,0,0,0,0,0
-99.8214660203162,84.1634519738476,0.455335428928331,36.5984083826437,99.8608142331847,83.3686419055301,6.87868708969467,-36.5984083826437,0,0,0,0,0
-99.7063938671204,83.4294113816692,0.672778392610979,36.5984083826437,99.7559709508176,82.4213028686409,6.60023688300427,-36.5984083826437,0,0,0,0,0
-99.5869216462337,83.0562777224924,2.99426171583624,36.5984083826438,99.7864904594259,82.1321154124636,2.90866900913944,-36.5984083826438,0,0,0,0,0
-99.1983652654715,82.5379090810692,5.45384154294065,36.5984083826437,99.5225645986464,80.5983961242421,2.68524100643947,-36.5984083826436,0,0,0,0,0
-99.2651348705193,81.3251299380262,5.65933227694248,36.5984083826437,99.5336585705312,79.4504703791419,0.0619493776380748,-36.5984083826437,0,0,0,0,0
-99.1563171641437,80.5718053525347,8.18763791840353,36.5984083826437,99.360523476121,78.2416738884891,-2.5310302327012,-36.5984083826438,0,0,0,0,0
-99.0337875433026,79.1188073898124,8.38888936122661,36.5984083826437,99.0153912027455,76.3027269727848,-2.75739797009736,-36.5984083826437,0,0,0,0,0
-98.6895191757322,78.1075884018248,10.8844749501816,36.5984083826437,98.8892415161428,74.9834678892932,-5.34732195835222,-36.5984083826437,0,0,0,0,0
-98.5356222514883,77.2285574124538,13.3954765468909,36.5984083826437,98.876803350701,73.9217273121649,-7.92403484125131,-36.5984083826436,0,0,0,0,0
-98.3643774407474,75.9053490812227,13.5337132653272,36.5984083826437,98.7696254922417,72.5035640813482,-8.09820545773855,-36.5984083826437,0,0,0,0,0
-97.8893433883288,75.1575032419261,15.9051402878903,36.5984083826437,98.5534327021439,71.8532430952663,-10.5360446842449,-36.5984083826438,0,0,0,0,0
-98.170449704745,73.6706247693641,16.198554767333,36.5984083826437,98.9674393925877,70.4751664860986,-10.8856889220267,-36.5984083826437,0,0,0,0,0
-97.7323432469309,72.9175103162255,18.5570291430003,36.5984083826438,98.7123735950246,69.8005671963841,-13.3047198612954,-36.5984083826437,0,0,0,0,0
-97.1994033767368,71.4610713275579,18.5274902066963,36.5984083826437,98.349051894017,68.4608878972185,-13.3390122349935,-36.5984083826437,0,0,0,0,0
-96.8101491181429,70.4658531358838,20.8906648848171,36.5984083826438,98.228474265225,67.6678634228242,-15.8074656695906,-36.5984083826437,0,0,0,0,0
-96.6174344081797,69.4486360776416,23.3263090778245,36.5984083826437,98.5084481916499,66.06646222805,-16.1457158870085,-36.5984083826438,0,0,0,0,0
-96.7762820665419,67.5587365595283,23.5981263752694,36.5984083826437,98.6764593493937,64.9177598565752,-18.8000495393492,-36.5984083826437,0,0,0,0,0
-96.4261061474388,66.453384456102,25.9504763315611,36.5984083826437,98.2264123955578,63.767763034935,-21.1378130400927,-36.5984083826438,0,0,0,0,0
-96.8234862808064,64.9771852520946,26.3049264661673,36.5984083826437,98.5268446239748,62.1236124838071,-21.5029621752311,-36.7053175130016,0,0,0,0,0
-97.0250203903181,63.966681641121,28.9389569234436,36.5984083826437,99.1509240289251,60.4074335323977,-22.0704583598285,-37.0878108566621,0,0,0,0,0
-97.1556186250787,62.2655682051691,29.1894575465976,36.5984083826437,99.2116638708766,59.2421755730475,-24.6689305717856,-37.9551090730163,0,0,0,0,0
-97.5313221172241,61.0442088555292,31.9693174044238,36.5984083826437,100.274174815812,57.381452642731,-25.5751765225271,-38.3599797344991,0,0,0,0,0
-97.9812550035321,59.3106620275203,32.4372715743831,36.5984083826437,100.845828244006,56.3270894563435,-28.5278781655206,-38.8859076611989,0,0,0,0,0
-97.7483323768902,58.4170100567544,34.8031321196231,37.123594513626,101.438653512963,54.6583917590315,-29.1608098589899,-39.5821692704501,0,0,0,0,0
-98.3901648060065,56.8874442745915,35.3783176428256,37.761904821707,101.700512217742,53.6150085244875,-31.9378043287743,-40.1202630494473,0,0,0,0,0
-99.0552175903631,55.3310505154099,35.9953977135526,38.4582604770174,102.536136203335,51.9420995203507,-32.7863255250113,-40.67859132504,0,0,0,0,0
-99.5559970324562,54.3536552981803,38.9150409853805,38.6188333613593,103.04839542053,50.9967980012981,-35.7783002408663,-40.7237904731867,0,0,0,0,0
-99.7968108907702,53.2365372271689,41.6692753677846,39.15764121354,104.114580635611,49.2480977690317,-36.8745553880595,-41.0776762704354,0,0,0,0,0
-100.576759932213,51.6003378290187,42.4542751360091,39.4965802525492,104.426041523753,48.0636374166708,-39.7838636147421,-41.3352022477555,0,0,0,0,0
-100.903979887758,50.5306834781089,45.3092844064128,39.7111910352007,105.509086327695,46.4302891112471,-40.935781486037,-41.410788044636,0,0,0,0,0
-101.793598602625,49.1080078379584,46.1963697715267,40.1330954444098,106.613986947811,44.9497413865898,-42.1088852332287,-41.5751472216699,0,0,0,0,0
-102.8541357854,47.3892023759039,47.2939436680729,40.4435257974163,107.210185018281,43.9392358049863,-45.2879305525656,-41.5647050915088,0,0,0,0,0
-103.529507377728,46.2724204307136,50.5075434805361,40.6385368813416,108.78775919483,42.3019759465799,-46.9555256661892,-41.6958948655025,0,0,0,0,0
-105.113440582509,44.659022601423,52.1092450973755,40.9350695153173,110.550937253036,40.7419028521871,-48.8176684036827,-41.9541889506639,0,0,0,0,0
-105.796503282322,43.3723395901293,55.4115589435888,41.1985799437824,111.600382042788,39.6480519754027,-52.502991681359,-41.952441767212,0,0,0,0,0
-107.099654243526,41.5589524818287,56.8566246066157,41.6556738358135,113.307865660627,37.9176197598938,-54.4134424532577,-42.3153578922121,0,0,0,0,0
-107.876339527656,39.4153614375091,57.8751298248324,42.2685240476771,114.480634341654,35.8564706920657,-55.8891725838966,-42.754495996162,0,0,0,0,0
-109.424062729697,37.3463896386385,59.6348295761964,42.4387196227425,116.234364120967,34.0355500209149,-57.9032173005358,-42.7613917199233,0,0,0,0,0
-109.732787938421,35.8746854372612,62.6579212378602,42.545581041708,116.758384135915,32.7975206561648,-61.1567857304052,-42.7095781242365,0,0,0,0,0
-111.017687551686,34.1869198107252,64.13546470159,42.6078204912212,118.208974489622,31.1942155197359,-62.8464697514664,-42.7931402936589,0,0,0,0,0
-111.206978783621,32.9933057506743,67.0041845307441,42.4300467917231,118.27745359381,30.2488997701697,-65.5895816835115,-42.4318582263567,0,0,0,0,0
-113.242110977252,31.4084643585891,69.2384170178124,42.256530548783,120.241092271113,28.9802892502188,-67.7571701868956,-42.1466205606751,0,0,0,0,0
-115.008820219781,29.5959907006768,71.2347604904733,42.2430837868386,122.500650240395,27.6223206751469,-70.2469352528905,-41.9247563271472,0,0,0,0,0
-116.356946846159,27.7268086581853,72.8026693533325,42.3864209963936,123.279032265775,26.3094447715548,-73.747117472856,-41.7822380295359,0,0,0,0,0
-117.071911630908,26.3757834557324,76.2062519003197,42.1313637846685,126.033970166268,25.072258099288,-76.7388706550152,-41.409125445084,0,0,0,0,0
-119.201872038433,24.6751995979705,78.5520112348909,42.0041472883413,128.925918151221,23.7423770021432,-79.8814714314304,-41.1057201168742,0,0,0,0,0
-119.931511720642,23.3356037701526,81.9456075875975,41.7238900898452,129.707824041381,22.6047077099607,-83.3350997013011,-40.853527875747,0,0,0,0,0
-122.926773706049,22.0109493755304,85.1574044223918,41.343081951152,132.864971394139,21.5337839292018,-86.7191987476796,-40.4616782081837,0,0,0,0,0
-124.110319403718,20.5145732412389,89.0027855175037,41.0646222419065,135.880715277422,20.2476517157744,-90.6370809569611,-40.2219408910983,0,0,0,0,0
-127.241400363442,19.1075018496157,92.9699856678407,40.6491693504801,137.551919932956,19.072600173282,-94.9139090730927,-39.8387474897541,0,0,0,0,0
-129.680278693196,17.5259643676382,98.0187230431796,40.1148278654578,142.941269584613,17.9895267018421,-100.507271736667,-39.2361153694351,0,0,0,0,0
-135.651157785511,15.8544954735951,103.671944693889,39.6060393023344,147.008586600716,16.6766578633224,-105,-38.6662519711373,0,0,0,0,0
-138.458648554744,14.1353834708094,105,39.1755447214305,152.623418799758,15.6440644815546,-105,-38.1774150640134,0,0,0,0,0
-144.676346882101,13.0466217494571,105,38.6308414092927,155,14.6645111439859,-105,-37.5464938077003,0,0,0,0,0
-152.378540315141,11.9233138532863,105,38.1171417148395,155,13.9037035338226,-105,-37.0200657810495,0,0,0,0,0
-155,10.6879923303037,105,37.5159368527431,155,13.1796024502796,-105,-36.5984083826436,0,0,0,0,0
-155,10.0380539230111,105,37.1152893236533,155,12.965323493215,-105,-36.5984083826436,0,0,0,0,0
-155,9.81317296799864,105,36.7886138601158,155,12.8655650963736,-105,-36.5984083826437,0,0,0,0,0
-155,9.65808759596673,105,36.5984083826436,155,12.8438653207947,-105,-36.5984083826438,0,0,0,0,0
-155,9.23759715173802,105,36.5984083826436,155,12.3802307906477,-105,-36.5984083826437,0,0,0,0,0
-155,9.30332722372507,105,36.5984083826437,155,12.4367640665107,-105,-36.5984083826437,0,0,0,0,0
-155,9.38608478200186,105,36.5984083826437,155,12.5385776758824,-105,-36.5984083826436,0,0,0,0,0
-155,9.39909025288619,105,36.5984083826438,155,12.5002440296827,-105,-36.5984083826437,0,0,0,0,0
-155,9.45904173359609,105,36.5984083826437,155,12.4851165993831,-105,-36.5984083826437,0,0,0,0,0
-155,9.52326214660765,105,36.5984083826437,155,12.5535235915591,-105,-36.5984083826436,0,0,0,0,0
-155,9.54032368869494,105,36.8612748247831,155,12.4395011767322,-105,-36.5984083826438,0,0,0,0,0
-155,9.63374485175156,105,37.0988018443579,155,12.3396675257577,-105,-36.5984083826437,0,0,0,0,0
-155,9.69176206672931,105,37.2732392456952,155,12.2499595917745,-105,-36.5984083826438,0,0,0,0,0
-155,9.72143120937949,105,37.4444672963885,155,12.1404612147162,-105,-36.5984083826437,0,0,0,0,0
-155,9.70831243683417,105,37.5613191716531,155,12.1130529537704,-105,-36.6922136053692,0,0,0,0,0
-155,9.71396302525732,105,37.6667356667484,155,12.0837881443739,-105,-36.8315997820939,0,0,0,0,0
-154.957776382761,9.74079611999264,105,37.7444818836781,155,12.1391563428343,-105,-36.8896368558724,0,0,0,0,0
-154.351188738345,9.7473614608125,105,37.7905423776185,155,12.1746688994853,-105,-36.9452605352405,0,0,0,0,0
-150.590141467604,9.28582670972764,105,37.8304262962375,155,12.2351236254051,-105,-36.9850768710357,0,0,0,0,0
-153.063649559612,9.65416700881322,105,37.9349228457322,155,12.1937752352813,-105,-37.0637795784236,0,0,0,0,0
-152.717413310191,9.60718190501976,105,37.9804616700592,155,12.1583065333028,-105,-37.117382559099,0,0,0,0,0
-148.461260878832,9.27820133727772,105,38.0174577682472,155,12.2549113347773,-105,-37.1511954849676,0,0,0,0,0
-147.373179082869,9.3889577137897,105,38.0867561860914,155,12.350720124184,-105,-37.2313254608254,0,0,0,0,0
-146.469786137034,9.47230306227564,105,38.1350351626952,155,12.4127661721848,-105,-37.2585964736958,0,0,0,0,0
-145.363685665696,9.60874285813278,105,38.2192554774134,155,12.4845867671917,-105,-37.3815174979858,0,0,0,0,0
-144.382856631912,9.7669159703178,105,38.284069974034,155,12.5418484952118,-105,-37.4730427414598,0,0,0,0,0
-146.585651109884,10.451301726491,105,38.3429963256965,155,12.6604357206262,-105,-37.607122512233,0,0,0,0,0
-144.672218291224,10.5255671213073,105,38.53161119701,153.635989967204,12.7812156019064,-105,-37.7892559550392,0,0,0,0,0
-142.573277459505,10.8171650538127,105,38.6900851282941,151.512771916574,12.8639941390995,-105,-38.0486268707284,0,0,0,0,0
-140.008910273253,11.2856570597984,105,38.8902786148424,149.502343707235,13.3010560012652,-105,-38.2047449434735,0,0,0,0,0
-137.240231222013,11.8947663355659,105,39.110946271705,146.560426028402,13.6927701597813,-105,-38.5061081073445,0,0,0,0,0
-137.670755649593,12.8174756629506,105,39.3423604648795,146.612878000744,14.5162719603113,-105,-38.7533783668414,0,0,0,0,0
-133.622175096628,13.7160825715492,105,39.7327170826966,142.892339378375,15.2605482870586,-105,-39.1357527105063,0,0,0,0,0
-132.624432301287,14.8088816354321,102.984810040692,40.1821489574679,138.93456560509,15.8970765228061,-103.308998968368,-39.6624756696784,0,0,0,0,0
-128.579323076909,15.8433001172279,98.7819667974166,40.6895521876195,137.51040403968,16.8781969824101,-99.306541704775,-40.1740918834451,0,0,0,0,0
-128.259038324404,17.1710774091886,95.9362411887953,40.9530197193342,134.461888992236,17.831615349551,-96.1162646619232,-40.4850885810914,0,0,0,0,0
-126.813789392497,18.4247573635242,92.5102524662751,41.3609691069158,132.790823063037,18.809893059738,-92.4469745652929,-40.9256645045578,0,0,0,0,0
-124.550729590583,19.7111536538353,89.4836966323665,41.6113607237006,130.259214805976,19.9237227872239,-89.1276557707285,-41.2423574036412,0,0,0,0,0
-122.413695150904,21.1246765134205,87.200089144417,41.7317510534191,130.147583943163,21.2168848907713,-86.4225285793323,-41.3506525865409,0,0,0,0,0
-122.062814537095,22.4280410761179,84.2319922161301,41.9513149292832,127.537002600712,22.4532174390652,-83.6143013605776,-41.5738074108596,0,0,0,0,0
-120.545742728191,23.8208039362567,82.5669807360518,41.9848909369899,125.393198520196,23.8046556483698,-81.2774300824238,-41.6800380254841,0,0,0,0,0
-118.972190349889,24.9481316906147,80.8467504349264,42.0605756630713,123.576279016333,24.9685483048404,-79.2856068036803,-41.7694094602236,0,0,0,0,0
-117.842815854964,25.9478598800558,79.5958433581093,42.107889487529,123.667736778803,25.7702965933484,-76.7585274796221,-41.8647167337945,0,0,0,0,0
-118.600378972521,26.7767689217207,77.7687933885336,42.1529220930378,122.449609339616,26.721601851444,-75.398098440099,-41.9385927354759,0,0,0,0,0
-117.588446450463,27.6669146553859,76.6383532813292,42.2463939614948,120.921189151609,27.6678520516056,-73.7129898587735,-42.1566631274721,0,0,0,0,0
-117.083354637796,29.0035958598169,75.9888710687592,42.0448359830856,120.015438174618,28.9681665661023,-72.6332979280328,-42.1162710428199,0,0,0,0,0
-117.590193960595,29.7919856778847,73.8731725719643,42.1194430343799,118.785883209346,30.2539466411033,-71.2141031192493,-42.1922806170928,0,0,0,0,0
-116.42561155245,30.8831520666274,72.5517787190584,42.2261050616876,118.911119091934,31.2185587028174,-68.6607380035944,-42.3081425223869,0,0,0,0,0
-115.588482079122,32.1016379470879,71.5498285592724,42.0996360680175,117.709424370185,32.591446010803,-67.2473469740255,-42.2566006574999,0,0,0,0,0
-115.007105835996,33.3734783473026,70.7965635476347,41.7823069428457,116.979318944131,34.1405724041388,-66.2810980721725,-41.9766501544031,0,0,0,0,0
-114.143295364224,34.6095335016035,69.7594137153889,41.7279498723326,115.850692753704,35.557830296496,-64.9317884806667,-42.0312573521491,0,0,0,0,0
-114.309865379525,35.5723957459426,67.2311189733816,41.654027255649,115.619051336699,36.4944835106583,-61.9910168125005,-42.1511421426564,0,0,0,0,0
-113.195058085875,37.0057772802884,65.9111393442091,41.527772139721,114.310595239372,37.9753910417585,-60.4592077475643,-42.1202621393154,0,0,0,0,0
-111.738155980818,38.3884031544642,64.2739506990381,41.5171198477344,112.624799441301,39.3064885587052,-58.6056479423507,-42.282248027933,0,0,0,0,0
-110.41792797383,39.527774066028,62.8245182451119,41.3834729635007,111.121862749631,40.4783234446182,-56.9803227898809,-42.1342736846003,0,0,0,0,0
-109.360758012246,40.8600278255689,61.6142653388769,41.0593333244876,110.068391954429,41.8540339380947,-55.7646143164261,-41.8598147713912,0,0,0,0,0
-109.127662496826,41.6928061826851,58.7265618987182,40.947435326113,109.7359252018,42.7242257086686,-52.7766168381193,-41.6982880486549,0,0,0,0,0
-108.108548569837,43.0495163104051,57.5717534469634,40.5440095588337,108.834673824992,44.2113433577446,-51.7069461739005,-41.1522882274717,0,0,0,0,0
-107.520709557192,44.2583203759856,56.846863231058,40.1431182609089,108.00076492942,45.4680084508214,-50.7506312159674,-40.854624725571,0,0,0,0,0
-106.60710188129,45.3758353932957,55.8542876600391,39.740466210213,107.163209745881,46.631976311461,-49.8237778330231,-40.4073189873331,0,0,0,0,0
-105.645367754569,46.4552485368938,54.841637125348,39.5135829387572,106.477174288057,47.8748351721187,-49.0268851356764,-40.0527472898177,0,0,0,0,0
-104.850841437919,47.6278997199476,53.9797210109157,39.0597241397678,106.465103943656,48.5147344256505,-46.396295201086,-39.6720867916727,0,0,0,0,0
-104.491085040363,48.2145551996823,51.0765953824313,38.9274994265341,105.599565814327,49.5108208823173,-45.5126521933839,-39.5202541605305,0,0,0,0,0
-103.173328094363,49.374615314921,49.8110978008545,38.7677823361414,104.470777140006,50.655790514994,-44.4125580265542,-39.3732107293847,0,0,0,0,0
-101.846379882057,50.7661587299744,48.5423467624264,38.6208842395781,104.069713451397,51.4653114193442,-41.4748177974406,-39.1346304602561,0,0,0,0,0
-100.714219140566,51.3530082327292,45.0861733251991,38.6262174537,102.420645529916,52.5041500636493,-40.0434791899298,-39.3142667469626,0,0,0,0,0
-99.7490756053674,52.2972543209393,41.7614014653408,38.5250184684139,101.485513590721,53.2850651345148,-36.7624357377618,-39.3123954364853,0,0,0,0,0
-98.8933982733724,53.9427409351525,40.9525506071998,37.8837347505927,100.813035619177,55.0458112605805,-36.0467988619079,-38.5751276327846,0,0,0,0,0
-98.1928493027491,55.0513534960177,37.8867274212634,37.544097750595,100.196240647859,56.1127687887524,-33.0261099225179,-38.2497908680724,0,0,0,0,0
-97.1882198161279,56.5189706551572,37.0542955164855,37.0050309983658,99.1936122446362,57.6763511330156,-32.1676378575573,-37.5863660503407,0,0,0,0,0
-97.375221225642,58.2066555122422,37.0321475728771,36.5984083826437,99.0777176357275,59.0836470023783,-31.9395647307032,-36.683980893044,0,0,0,0,0
-97.3554719938143,59.7800516742233,36.8621265283568,36.5984083826437,99.4203381189349,60.1395805798833,-29.5773143262288,-36.5984083826437,0,0,0,0,0
-97.4402891018898,61.3005766627198,36.760085201593,36.5984083826437,99.2965978710803,61.6012544023286,-29.3078795892832,-36.5984083826438,0,0,0,0,0
-97.7293684967247,62.2666042209698,34.3926722286095,36.5984083826437,99.2436090089861,63.2676398578278,-29.0526313623512,-36.5984083826437,0,0,0,0,0
-97.8963829453883,63.829008913719,34.3153707463627,36.5984083826438,99.5416357830509,64.2278415785653,-26.6422363718545,-36.5984083826437,0,0,0,0,0
-97.8985131547507,64.7923557436723,31.7646495724258,36.5984083826437,99.1204892439501,65.7844895794368,-26.1997042417429,-36.5984083826437,0,0,0,0,0
-97.673438674702,66.3070339314242,31.4658519104917,36.5984083826437,99.3397563953378,66.7128272221594,-23.7413010216467,-36.5984083826437,0,0,0,0,0
-97.8146216335485,67.6371397292934,31.3833786421379,36.5984083826437,99.4952867908699,67.9734207154503,-23.6324612646577,-36.5984083826437,0,0,0,0,0
-98.1641328311715,68.2355647501347,29.0478872346797,36.5984083826437,99.2007771003645,69.0754242082937,-23.3335149036772,-36.5984083826437,0,0,0,0,0
-98.3688376906726,69.4026297657659,28.9973191308879,36.5984083826437,99.713031680469,69.5744508284978,-21.0492332829737,-36.5984083826437,0,0,0,0,0
-98.6523466363648,69.8349736633587,26.6327279052702,36.5984083826437,99.6001848803346,70.6007382561136,-20.8421357907794,-36.5984083826436,0,0,0,0,0
-98.7917462191312,70.8484558775672,26.55571353713,36.5984083826438,99.9924862461465,70.9598489628022,-18.5076287947228,-36.5984083826437,0,0,0,0,0
-98.9981288830748,71.7968862390501,26.5110177307184,36.5984083826437,100.075870443305,71.9716633128763,-18.3759083862436,-36.5984083826436,0,0,0,0,0
-99.3860025138335,72.7552118968851,26.5326726463775,36.5984083826437,100.242288956328,73.0653142473472,-18.2573837009935,-36.5984083826437,0,0,0,0,0
-100.012232733975,73.1499671974805,24.2750853653228,36.5984083826439,100.42152020342,74.0821481713027,-18.1492160809815,-36.5984083826437,0,0,0,0,0
-100.490542049481,74.3221512094073,24.2644022351325,36.5984083826437,101.010597986432,74.4991308057883,-15.8291215509467,-36.5984083826438,0,0,0,0,0
-100.476114373066,75.4780942962683,24.0588850897462,36.5984083826437,101.07194472269,75.6509809759389,-15.6363442543811,-36.5984083826437,0,0,0,0,0
-100.453171414906,76.1027218671548,21.4860377128505,36.5984083826437,100.752224063362,76.8315965852635,-15.3206531757991,-36.5984083826437,0,0,0,0,0
-100.711833674943,77.3150732266981,21.3558283456293,36.5984083826438,101.116834935357,77.2848520044722,-12.8899019184702,-36.5984083826436,0,0,0,0,0
-100.94125930017,78.4786647241158,21.2137565571646,36.5984083826437,101.457898033985,78.3450967476267,-12.7777988219847,-36.5984083826436,0,0,0,0,0
-101.368576594399,79.4900850046956,21.1459242546545,36.5984083826437,101.908300143425,79.279860687006,-12.7044583215839,-36.5984083826437,0,0,0,0,0
-101.51046945118,80.3375034914325,21.0191131244285,36.5984083826437,101.875795559531,80.1932895310557,-12.509527281857,-36.5984083826437,0,0,0,0,0
-101.664796405109,81.0949746042186,20.9086236960001,36.5984083826437,101.896635941303,80.8765807603864,-12.3737206636675,-36.5984083826437,0,0,0,0,0
-101.846256278947,81.6447314967797,20.8425500190073,36.5984083826437,102.216126130319,80.7703695970351,-9.99866350996717,-36.5984083826437,0,0,0,0,0
-102.249523278271,81.4693497465523,18.5026273645409,36.5984083826437,102.277396138454,81.2436974184657,-9.91039310864257,-36.5984083826437,0,0,0,0,0
-102.383956445554,81.7405357662192,18.4763773122119,36.5984083826437,102.342849933729,81.49523972036,-9.86939046010172,-36.5984083826437,0,0,0,0,0
-102.489411773852,81.932318466091,18.4593873267568,36.5984083826437,102.501964271331,81.6809243920234,-9.85992089097086,-36.5984083826437,0,0,0,0,0
-102.518601548701,81.9795974887944,18.4558149265613,36.5984083826439,102.475809031746,81.6800255905198,-9.8551093114474,-36.5984083826436,0,0,0,0,0
-102.548202946968,81.9941062177501,18.4594185119205,36.5984083826437,102.447257466125,81.6535525180593,-9.85538596465649,-36.5984083826437,0,0,0,0,0
-102.495459338425,81.8274784538157,18.4834794934969,36.5984083826437,102.382350176484,81.5273487540114,-9.87015352201312,-36.5984083826437,0,0,0,0,0
-102.355186073209,81.6732438381776,18.4840868628512,36.5984083826437,102.246918194596,81.363566695162,-9.87879530450548,-36.5984083826437,0,0,0,0,0
-102.19312040653,81.5034509770514,18.4820731546074,36.5984083826437,102.063963230408,81.1839749913742,-9.88048487088485,-36.5984083826437,0,0,0,0,0
-101.903342011359,81.3774280906635,18.4395903163835,36.5984083826437,101.710307731231,80.9718023706505,-9.85307352296052,-36.5984083826436,0,0,0,0,0
-101.685301481011,81.1744303228787,18.4286639166817,36.5984083826437,101.470555541978,80.7205811884322,-9.85439930318302,-36.5984083826437,0,0,0,0,0
-101.248354226499,81.0608852750787,18.3454129551391,36.5984083826438,101.026968723532,80.5060119226867,-9.8036057746383,-36.5984083826438,0,0,0,0,0
-100.798172430192,80.2937040263236,15.9232466223324,36.5984083826437,100.539749899018,79.6867639241245,-7.40544350754811,-36.5984083826438,0,0,0,0,0
-100.323650116922,80.1581714912739,15.8318863913165,36.5984083826437,100.020529950127,79.5299407949313,-7.32259675131112,-36.5984083826437,0,0,0,0,0
-99.9691854327171,80.0124347199436,15.7699870343684,36.5984083826437,99.5652348270387,79.3427212161739,-7.25604872596986,-36.5984083826437,0,0,0,0,0
-99.7980388183007,79.2290160800413,13.418337446811,36.5984083826437,99.2446795971019,78.5740167991524,-4.88078207682852,-36.5984083826437,0,0,0,0,0
-99.5162298181307,79.2033907113495,13.3524487275971,36.5984083826438,98.9758619622674,78.5458003637382,-4.82657071773471,-36.5984083826438,0,0,0,0,0
-99.1865999635743,79.22411025961,13.2672433179135,36.5984083826437,98.5650939353763,78.5189435994576,-4.74099119860386,-36.5984083826438,0,0,0,0,0
-98.7650600040918,79.3062339748279,13.1505083156632,36.5984083826438,98.1513804772691,78.5333796217918,-4.64879664555696,-36.5984083826438,0,0,0,0,0
-98.5757441589499,78.7603204846904,10.7600219627849,36.5984083826437,97.8934147002954,77.9515951288307,-2.2604006231062,-36.5984083826437,0,0,0,0,0
-98.216912604369,78.8874379497591,10.6548785906722,36.5984083826437,97.6272008838287,78.0442588226542,-2.19094068760281,-36.5984083826436,0,0,0,0,0
-97.9560332222667,79.0523591600962,10.569661657473,36.5984083826438,97.4919538746545,78.2236309604076,-2.13899964821935,-36.5984083826437,0,0,0,0,0
-97.7513962651343,79.1974857597713,10.5018111229841,36.5984083826437,97.2748464787612,78.4304110191702,-2.06752017304302,-36.5984083826436,0,0,0,0,0
-97.6208694729183,79.2585414109776,10.4631909908658,36.5984083826437,97.1375837913798,78.5437828434841,-2.02527081598761,-36.5984083826437,0,0,0,0,0
-97.5450756443738,78.7438148437847,8.10199530064143,36.5984083826437,97.0237627955142,78.0423912454245,0.33823557510818,-36.5984083826437,0,0,0,0,0
-97.2874606630694,78.9080820080369,8.02208203646638,36.5984083826437,96.8008105449462,78.2844598287329,0.41140483392395,-36.5984083826438,0,0,0,0,0
-97.1535850094242,79.0675983037207,7.97207758839041,36.5984083826437,96.7078041503182,78.4789059510883,0.452153617028322,-36.5984083826438,0,0,0,0,0
-97.1498400696693,79.2365333744625,7.9505659200028,36.5984083826438,96.7761186747471,78.6341950757542,0.457036251354431,-36.5984083826437,0,0,0,0,0
-97.2533741198069,79.403184315117,7.95285499266231,36.5984083826437,96.8148686432254,78.8378122048367,0.473532032661238,-36.5984083826437,0,0,0,0,0
-97.3615403603264,79.5141615065679,7.9625725182072,36.5984083826437,96.8991611451411,78.328109242204,2.7968736426561,-36.5984083826437,0,0,0,0,0
-97.4590617722872,79.6407676867858,7.96758499584981,36.5984083826438,96.9462204356382,78.4187163262882,2.79903912654425,-36.5984083826437,0,0,0,0,0
-97.558448381895,79.7676790047189,7.97252878345208,36.5984083826437,97.0345129797212,78.5227065106096,2.79549444633777,-36.5984083826436,0,0,0,0,0
-97.6334820999116,79.8899012583405,7.97251058852609,36.5984083826437,97.0741286124259,78.5960299334734,2.79726271496662,-36.5984083826436,0,0,0,0,0
-97.660003016561,79.897666848713,7.97708940757384,36.5984083826437,97.0952830600688,78.657034548537,2.80092500409378,-36.5984083826436,0,0,0,0,0
-97.6523844849101,79.9411203055879,7.96977030531195,36.5984083826437,97.1675172136024,78.6995681054223,2.79325648824048,-36.5984083826437,0,0,0,0,0
-97.6457605987882,79.9237349538396,7.97066055663567,36.5984083826437,97.2288306998478,78.7658128452927,2.7905919581828,-36.5984083826439,0,0,0,0,0
-97.548001119202,79.9288285528541,7.94941851558771,36.5984083826437,97.1903423338352,78.7660485452802,2.79744107833434,-36.5984083826437,0,0,0,0,0
-97.5986975905741,79.9069403336497,7.96294272149987,36.5984083826437,97.2979971175533,78.7237777309741,2.77303476855298,-36.5984083826437,0,0,0,0,0
-97.5461236728916,79.859101035475,7.958058600412,36.5984083826437,97.3761927343913,78.7335730330902,2.76036217697719,-36.5984083826437,0,0,0,0,0
-97.4189795102299,79.8242168889228,7.93560381795091,36.5984083826437,97.3904057122553,78.6940255131813,2.75278558295182,-36.5984083826438,0,0,0,0,0
-97.2536815140088,79.8526229737668,7.89702175361589,36.5984083826437,97.3166026975432,78.7591166847947,2.77418893447174,-36.5984083826437,0,0,0,0,0
-97.154191624701,79.9032340514393,7.86977533283845,36.5984083826437,97.3336634950682,78.9037608072952,2.7894900830676,-36.5984083826437,0,0,0,0,0
-96.9267747527811,79.9806651029775,7.81272668490633,36.5984083826437,97.2258776400972,79.0050120002007,2.82097922092655,-36.5984083826438,0,0,0,0,0
-96.7678705927227,80.0630604531212,7.76996502995908,36.5984083826437,97.2746184930773,79.1063044857651,2.82528387331558,-36.5984083826437,0,0,0,0,0
-96.5545152307571,80.1526535164857,7.71565845869118,36.5984083826437,97.312049014175,79.1727730513175,2.8272766841703,-36.5984083826437,0,0,0,0,0
-96.6221274226014,80.2085137655,7.7232141685757,36.5984083826437,97.4720642873632,79.2799457253007,2.81389353522811,-36.5984083826437,0,0,0,0,0
-96.5881993154821,80.3375476276771,7.70166793415266,36.5984083826437,97.5703990711927,79.4014312863481,2.81324957254827,-36.5984083826438,0,0,0,0,0
-96.6067555200326,80.3485568521935,7.70417589610818,36.5984083826437,97.8096864077197,79.4285619302055,2.77708976416947,-36.5984083826437,0,0,0,0,0
-96.2384720536265,80.5112051510231,7.61229204081689,36.5984083826437,97.5223785363096,79.656545822547,2.8544741214042,-36.5984083826437,0,0,0,0,0
-95.8242958874467,80.6563072884355,7.51532684990203,36.5984083826437,97.0123685408194,79.8190144955716,3.29685761896159,-36.5984083826437,0,0,0,0,0
-95.5078648177274,80.8006795784702,7.43954766043563,36.5984083826437,96.620672873186,80.1431512925083,3.39422885676356,-36.5984083826437,0,0,0,0,0
-95.0794444911183,80.798610513866,6.48740514123072,36.5984083826437,95.9872443637967,80.5098000747921,3.50413057073334,-36.5984083826437,0,0,0,0,0
-94.6022210047654,81.0068296142702,6.42496692553996,36.5984083826438,95.2862125027693,80.8948116976423,3.61927282990022,-36.5984083826437,0,0,0,0,0
-94.1952025930373,81.0868118096291,6.40100285480354,36.5984083826437,94.5992630752716,80.6883425000136,6.08743525798571,-36.5984083826438,0,0,0,0,0
-94.2473053110917,81.2556464730466,6.35045284899179,36.5984083826437,94.2983283715517,81.0992481214537,6.20946940866323,-36.5984083826437,0,0,0,0,0
-94.0081544897407,81.2422897702917,6.35445016332563,36.5984083826437,93.8194538021996,81.4046746424664,6.29999170476313,-36.5984083826437,0,0,0,0,0
-93.7414652524559,81.0922981463214,6.39935945446085,36.5984083826437,93.3816737856897,81.6665427412039,6.37748290851441,-36.5984083826437,0,0,0,0,0
-93.4981627169372,80.9042500646769,6.45571775640118,36.5984083826438,92.9763816469569,81.889279525668,6.44330925668216,-36.5984083826437,0,0,0,0,0
-93.3514062809656,80.7195530763128,6.51113193635456,36.5984083826438,92.7464077736731,81.9836910239559,6.47118802198696,-36.5984083826437,0,0,0,0,0
-93.2581506314157,80.4986393519054,6.57749232749826,36.5984083826437,92.8447087262296,82.0187617571798,6.48154061166282,-36.5984083826437,0,0,0,0,0
-93.0331062438158,80.284847414218,6.64179856928448,36.5984083826437,92.7457669620635,81.9940625148284,6.47424979354331,-36.5984083826437,0,0,0,0,0
-92.7968058696419,80.068304280509,6.70701984822906,36.5984083826437,92.6080506264382,82.0732581498076,6.49762382190258,-36.5984083826437,0,0,0,0,0
-92.7807036212793,80.5199139741753,9.07620552563363,36.5984083826438,92.859246060844,82.0633938946778,6.49471297055414,-36.5984083826437,0,0,0,0,0
-92.6532533477652,80.3670262327995,9.12199987718923,36.5984083826437,92.8200034553588,82.1103032170906,6.50855418418952,-36.5984083826437,0,0,0,0,0
-92.7123181861763,80.209391550811,9.16926143437931,36.5984083826437,92.9167778081331,82.1619535455548,6.52379050729216,-36.5984083826438,0,0,0,0,0
-92.7539536243269,80.1256693164934,9.19438178442583,36.5984083826437,93.0693947248622,82.1945649639898,6.53340851284338,-36.5984083826437,0,0,0,0,0
-92.8604663415689,80.0421945082978,9.21944117745947,36.5984083826438,93.2825968661093,82.2055794673825,6.53665663943418,-36.5984083826437,0,0,0,0,0
-93.022132573627,80.0084055269533,9.22958853149902,36.5984083826438,93.5803052595788,82.1925086510533,6.53280209581368,-36.5984083826436,0,0,0,0,0
-93.0915043231547,80.0465199994452,9.21814232402549,36.5984083826437,93.8706455311364,82.1300223383595,6.51437159198808,-36.5984083826437,0,0,0,0,0
-93.1906618114836,80.085686180433,9.20638318197634,36.5984083826438,94.1356062004521,82.0752058864477,6.49819856393834,-36.5984083826437,0,0,0,0,0
-93.2982588201845,80.1097450711518,9.19916126423799,36.5984083826437,94.4780005626939,82.114422994357,6.50976962203608,-36.5984083826437,0,0,0,0,0
-93.3543037110852,80.2062398328361,9.17020684809411,36.5984083826437,94.7730350115862,82.1345160172174,6.51569720730543,-36.5984083826438,0,0,0,0,0
-93.4093036806041,80.2314489347712,9.1626454547113,36.5984083826437,94.9831863737631,82.2010971249052,6.53533483869502,-36.5984083826437,0,0,0,0,0
-93.4378794562425,80.2824855577895,9.14734083164918,36.5984083826438,95.1812676346368,82.1987786927744,6.53465114322527,-36.5984083826436,0,0,0,0,0
-93.4684383946087,79.7165003042018,6.81317398542552,36.5984083826437,95.302136564062,82.1998598324354,6.53496996755427,-36.5984083826439,0,0,0,0,0
-93.5625697462838,79.7170905377689,6.81299568251563,36.5984083826437,95.5179118952491,82.1378838008974,6.5166906689065,-36.5984083826437,0,0,0,0,0
-93.6271298170447,79.7342491166936,6.80781257316189,36.5984083826437,95.5883463221448,82.1085171479741,6.50802724105877,-36.5984083826437,0,0,0,0,0
-93.4799524899647,79.7947483201369,6.78954219417722,36.5984083826437,95.5332777026253,81.4631653315936,8.84797886474659,-36.5984083826437,0,0,0,0,0
-93.4879537840932,79.9094148666085,6.7549334758823,36.5984083826438,95.6838323367957,81.4195111232478,8.83515456521134,-36.5984083826437,0,0,0,0,0
-93.5065205542119,80.0447399789313,6.71412265414369,36.5984083826437,95.7407144894745,81.3506643607992,8.81492319526385,-36.5984083826437,0,0,0,0,0
-93.8062864422413,79.5413246714399,4.3550499635526,36.5984083826438,95.9310036964624,81.3157189192362,8.80465115149045,-36.5984083826437,0,0,0,0,0
-94.0761270506672,79.6550482086494,4.32060156685163,36.5984083826437,96.155936657446,81.978695631711,6.46971327237408,-36.5984083826438,0,0,0,0,0
-94.2935909640159,79.7865914999723,4.28078781060204,36.5984083826437,96.2719609052301,81.9739746620777,6.46831950361919,-36.5984083826437,0,0,0,0,0
-94.5599236956471,79.9517591064575,4.23084572917582,36.5984083826437,96.4270320462216,81.9469695780416,6.46034616071958,-36.5984083826437,0,0,0,0,0
-94.7546329594352,80.0477712707593,4.20183886231937,36.5984083826437,96.4082085958989,81.9114696095144,6.44986298659816,-36.5984083826438,0,0,0,0,0
-94.815471604899,80.130358737774,4.17690207274382,36.5984083826438,96.256753264372,81.8961094547631,6.44532652223362,-36.5984083826437,0,0,0,0,0
-94.9060219032971,80.1518046672922,4.17042874346243,36.5984083826437,96.2557993144186,81.8309071176792,6.4260656507204,-36.5984083826436,0,0,0,0,0
-95.1553061722767,80.0739955060476,4.19391919001788,36.5984083826437,96.4788424600831,81.6955501035811,6.38605996053191,-36.5984083826437,0,0,0,0,0
-95.2936714269298,79.9603125380683,4.22826086828894,36.5984083826438,96.5989158167356,81.5379312682969,6.33943833164482,-36.5984083826437,0,0,0,0,0
-95.4056350487875,80.0426073729583,5.10655096832797,36.5984083826437,96.6826036202444,81.4265403887299,6.30646637468889,-36.5984083826436,0,0,0,0,0
-95.5735216129354,79.8573566522008,5.15702593430814,36.5984083826437,96.8468327557556,81.2678982369004,6.25947305774222,-36.5984083826438,0,0,0,0,0
-95.7666222168995,79.6385423231562,5.21698562894868,36.5984083826437,96.96126599199,81.1244193757304,6.21693555019714,-36.5984083826437,0,0,0,0,0
-95.9224696695357,80.1023794965336,7.59093385725631,36.5984083826438,97.1002475175044,80.9604460467812,6.16827946307702,-36.5984083826438,0,0,0,0,0
-96.1587435459485,79.905724928978,7.66040753105463,36.5984083826437,97.3506430597817,81.4931359321945,3.79770000165065,-36.5984083826437,0,0,0,0,0
-96.3857278360924,79.7673623084128,7.72315330097984,36.5984083826437,97.5800329799377,81.363734876639,3.75916181858114,-36.5984083826437,0,0,0,0,0
-96.5904382194087,79.6515284329474,7.77968953274852,36.5984083826437,97.7685786406342,81.2107457609717,3.71356301212114,-36.5984083826436,0,0,0,0,0
-96.9008241583705,79.5979730655043,7.85259586165931,36.5984083826438,97.9407764628874,81.105284946343,3.68210729989674,-36.5984083826436,0,0,0,0,0
-97.2251223966518,80.2078177775882,10.2533399457983,36.5984083826437,98.2113017221838,80.8938019072467,3.61897118342733,-36.5984083826437,0,0,0,0,0
-97.4847089645303,80.1883311177082,10.3122123461137,36.5984083826437,98.3009018303558,81.3914897677281,1.24173127446668,-36.5984083826437,0,0,0,0,0
-97.9413137091302,80.152912789147,10.4165071325588,36.5984083826437,98.6043001804828,81.3307254398252,0.508732765143385,-36.5984083826438,0,0,0,0,0
-98.2094797203544,80.1422478669096,10.4766919100327,36.5984083826437,98.6836683093062,81.0890098434282,0.460697086432195,-36.5984083826437,0,0,0,0,0
-98.5166868353384,80.2001927270493,10.5355909311509,36.5984083826437,98.8434741127129,80.8282454970504,0.396702886271145,-36.5984083826436,0,0,0,0,0
-98.5026978490981,80.9618535761179,12.8447345120355,36.5984083826437,98.8524109666395,81.2225873348723,-1.9672575263398,-36.5984083826436,0,0,0,0,0
-98.5877198076819,81.0693328672456,12.8473091360998,36.5984083826438,98.9284190309065,80.8980111255504,-2.02967950292071,-36.5984083826437,0,0,0,0,0
-98.4762948809846,81.1648817675206,12.8094009418722,36.5984083826437,98.9177983604751,80.7313014167303,-2.0537220555141,-36.5984083826437,0,0,0,0,0
-98.5640561273299,81.1847533732427,12.8252058204676,36.5984083826439,98.9901266310318,80.427688096993,-2.11320007322521,-36.5984083826438,0,0,0,0,0
-98.2055333944419,81.2369780461846,12.7414760802293,36.5984083826437,98.6672897607664,80.1301456552747,-2.10194415359546,-36.5984083826437,0,0,0,0,0
-98.1051615409562,80.6291160063863,10.3860352137311,36.5984083826438,98.3952156163188,80.6261068408912,-4.39918415270118,-36.5984083826438,0,0,0,0,0
-97.5727995123113,80.6867639297651,10.2665702020274,36.5984083826438,97.9573379129786,79.725347524434,-2.03126383815637,-36.5984083826437,0,0,0,0,0
-97.0401191365905,80.5349214513366,10.1736978251757,36.5984083826438,97.4605545678854,79.3374765132285,-1.9895006578039,-36.5984083826437,0,0,0,0,0
-96.7562225357164,80.4446222478296,10.124240937453,36.5984083826438,97.2422111699035,79.6637016218991,-4.31091414736607,-36.5984083826437,0,0,0,0,0
-96.2102544486781,80.1865617250427,10.0357967081223,36.5984083826437,96.7937106778372,79.196525144549,-4.27716836972942,-36.5984083826436,0,0,0,0,0
-96.0119177580089,79.8769239778225,10.0247212206957,36.5984083826437,96.6266699239012,78.6433427760028,-4.30583122788424,-36.5984083826437,0,0,0,0,0
-95.85995332693,79.6164572646194,10.0171234840285,36.5984083826437,96.4254631436149,78.0851614475049,-4.32410400570678,-36.5984083826437,0,0,0,0,0
-95.3798245857842,79.2888440142111,9.93874135189265,36.5984083826437,96.0352829977368,77.5048688849295,-4.29665712071004,-36.5984083826437,0,0,0,0,0
-95.0108972232396,79.012422142102,9.87704255603424,36.5984083826438,95.7344275183331,76.9669567824713,-4.27899343162194,-36.5984083826437,0,0,0,0,0
-94.5915086694863,78.8248976080602,9.79286042982918,36.5984083826437,95.4199229149827,76.6179970436324,-4.23495665232452,-36.5984083826437,0,0,0,0,0
-94.1502438010335,78.5721744519188,9.70540366424569,36.5984083826437,95.0636520867512,76.1456729717345,-4.18718432082735,-36.5984083826438,0,0,0,0,0
-93.914261110335,78.3129328699195,9.66535177117494,36.5984083826437,94.8393204483716,75.7490407315948,-4.16228127445803,-36.5984083826437,0,0,0,0,0
-93.8484596141731,78.0668340551039,9.66514899912897,36.5984083826437,94.7342623316006,75.371854082817,-4.16485386696216,-36.5984083826437,0,0,0,0,0
-93.7096119658245,77.6828960281119,9.65438032918812,36.5984083826437,94.5436866595165,74.9740230938822,-4.14411216726067,-36.5984083826437,0,0,0,0,0
-93.6085471077804,77.2504559152794,9.65470179329023,36.5984083826437,94.2496258534335,75.2969065081346,-6.40865403552384,-36.5984083826437,0,0,0,0,0
-93.9622640472856,76.9040097343387,9.77157120644098,36.5984083826438,94.4097584832401,75.0712422727255,-6.47035829819655,-36.5984083826436,0,0,0,0,0
-93.9923220130204,76.381944518696,9.81478187941518,36.5984083826437,94.4488009614969,74.7766446776299,-6.5034452961182,-36.5984083826436,0,0,0,0,0
-94.1611509551261,75.9248141136389,9.89394974830293,36.5984083826437,94.5536766942696,74.450642638878,-6.55868961894331,-36.5984083826437,0,0,0,0,0
-94.3663443014011,76.0867941553196,12.3154585845991,36.5984083826437,94.7573139011885,74.0730806466202,-6.64886762603341,-36.5984083826437,0,0,0,0,0
-94.5644095741486,75.548548460298,12.4152304787246,36.5984083826438,94.8396746380362,73.6971948705676,-6.70405910805345,-36.5984083826438,0,0,0,0,0
-94.6729384206564,75.0728726825778,12.4854375335102,36.5984083826437,94.8833208020848,73.3828698944799,-6.74305053021948,-36.5984083826437,0,0,0,0,0
-94.3800701965293,74.5709153366183,12.4301509789145,36.5984083826437,94.6809862785971,73.0446856711369,-6.70590495658218,-36.5984083826437,0,0,0,0,0
-94.4831360516931,74.1943957083096,12.4912868039551,36.5984083826437,94.8386866270178,72.6600984239631,-6.78705854812407,-36.5984083826438,0,0,0,0,0
-94.7283202393635,73.8933157255677,12.5952976748486,36.5984083826437,95.0038812067322,72.3678677641544,-6.86503186233794,-36.5984083826437,0,0,0,0,0
-95.0749234385929,73.652781693772,12.7310300384383,36.5984083826437,95.2216273560019,72.6793783769569,-9.29031255473197,-36.5984083826437,0,0,0,0,0
-95.3132310247129,73.3836769606952,12.8350887003885,36.5984083826438,95.4360677085218,72.3317783851887,-9.39372070402744,-36.5984083826437,0,0,0,0,0
-95.6812872525646,73.205325305214,12.9778287610653,36.5984083826437,95.6356832566726,71.9605413924701,-9.49658746741231,-36.5984083826437,0,0,0,0,0
-96.1015244177675,73.0888116803565,13.1348724122635,36.5984083826438,95.8482258238952,71.6383817873476,-9.60175112884247,-36.5984083826438,0,0,0,0,0
-96.7564279998508,72.9372165283181,13.3799124185219,36.5984083826438,96.3898258962516,71.4130066133581,-9.81766027621785,-36.5984083826438,0,0,0,0,0
-96.9461932636258,72.8826289339118,13.4528475197231,36.5984083826437,96.3867561170274,71.1396623961706,-9.84511653692569,-36.5984083826437,0,0,0,0,0
-97.2898346021337,72.8393393467059,13.5792555594847,36.5984083826438,96.5702957471883,70.8967416339613,-9.93794243634603,-36.5984083826437,0,0,0,0,0
-97.7143823244132,72.8895789068866,13.7231703794329,36.5984083826437,96.9781175977481,70.8078555018709,-10.0981877536155,-36.5984083826437,0,0,0,0,0
-97.9990740030603,72.8822220372139,13.8248375369676,36.5984083826437,97.2026422048119,70.7445810263895,-10.1886983614514,-36.5984083826437,0,0,0,0,0
-98.1684969733192,72.8703637273502,13.886440151909,36.5984083826438,97.4317245180695,70.642410590161,-10.2861563007286,-36.5984083826437,0,0,0,0,0
-98.3590443229372,72.8872646652534,13.9516950438877,36.5984083826438,97.6165082460008,70.5630075719267,-10.3650054831077,-36.5984083826436,0,0,0,0,0
-98.4686803313992,72.8453526275608,13.9964232897322,36.5984083826438,97.6871435027779,70.4539055096498,-10.4051465203094,-36.5984083826436,0,0,0,0,0
-98.6255831889539,72.7667067027983,14.0633841347597,36.5984083826437,97.8043662555706,70.3274636504658,-10.4653796856019,-36.5984083826436,0,0,0,0,0
-98.7876600695646,72.6143644111391,14.1433041320536,36.5984083826437,97.8286194524995,70.8542134892872,-12.8179602452067,-36.5984083826438,0,0,0,0,0
-98.8452945565458,72.4186210352025,14.1925123676945,36.5984083826438,97.8822666419285,70.6948411528862,-12.8588553744057,-36.5984083826437,0,0,0,0,0
-98.8422155581333,72.9256312039216,16.54423507715,36.5984083826437,97.9568184846661,70.6502188116026,-12.8932783852159,-36.5984083826436,0,0,0,0,0
-99.0244336975373,72.8310176395458,16.6249939524654,36.5984083826437,98.0532747649541,70.5294020991579,-12.9462347038581,-36.5984083826437,0,0,0,0,0
-99.1408548614167,72.6790514640193,16.690645481261,36.5984083826438,98.1090302596001,70.549294021033,-12.9652131352048,-36.5984083826437,0,0,0,0,0
-99.2082832765232,72.5761033701059,16.7311925882376,36.5984083826437,98.1318339649629,70.612032357002,-12.9657565725587,-36.5984083826437,0,0,0,0,0
-99.2303745278506,72.5228172981556,16.7474849074885,36.5984083826437,98.1486620618634,70.7184245726552,-12.9581683521061,-36.5984083826438,0,0,0,0,0
-99.1954092084796,72.4346245899891,16.7477125189888,36.5984083826437,98.1249869885829,70.7659924614701,-12.9427863031245,-36.5984083826437,0,0,0,0,0
-99.2176493130727,72.3708684687161,16.7656724208609,36.5984083826437,98.1555467589143,70.8367969816609,-12.9451168211264,-36.5984083826437,0,0,0,0,0
-99.2952137392753,72.3571615126708,16.7969256056315,36.5984083826438,98.2101976365787,70.9325889014209,-12.9532205376721,-36.5984083826437,0,0,0,0,0
-99.327918222388,72.4034478852197,16.802165635553,36.5984083826437,98.2201758664248,71.1017262700644,-12.9343732014227,-36.5984083826438,0,0,0,0,0
-99.3882785222182,72.5164515624305,16.8074614307546,36.5984083826437,98.2253918669471,71.2409757656492,-12.9176666955565,-36.5984083826438,0,0,0,0,0
-99.4467569540937,72.5964542136575,16.8169373062993,36.5984083826437,98.2598302890504,71.35193801058,-12.915652502572,-36.5984083826437,0,0,0,0,0
-99.5532522134693,72.7044849736462,16.8397008636844,36.5984083826437,98.3482925290415,71.4084196051158,-12.9410542149824,-36.5984083826437,0,0,0,0,0
-99.6828037958472,72.7808039639618,16.8756557947751,36.5984083826437,98.3652531138722,71.4706798010912,-12.9388755850472,-36.5984083826436,0,0,0,0,0
-99.7187712804239,72.86480227088,16.8755524690744,36.5984083826437,98.3982784529583,71.5069756982206,-12.9461905571482,-36.5984083826437,0,0,0,0,0
-99.6719319697519,72.9117082268446,16.8508248548988,36.5984083826437,98.3289492793855,71.5597048824275,-12.9132351705543,-36.5984083826437,0,0,0,0,0
-99.6371581096742,73.016056307213,16.8214940584314,36.5984083826437,98.2650708520315,71.6036146688478,-12.8836143687958,-36.5984083826437,0,0,0,0,0
-99.5817031345657,73.1732150936391,16.7764091966554,36.5984083826437,98.2686347886753,71.6519324538413,-12.878396055329,-36.5984083826436,0,0,0,0,0
-99.4340698336573,73.2756356269437,16.7068734960313,36.5984083826438,98.2448344295215,71.6868246970822,-12.864900975162,-36.5984083826438,0,0,0,0,0
-99.2647101727885,73.4435499826092,16.6200598758407,36.5984083826437,98.2069147596134,71.7911152236477,-12.8369110579596,-36.5984083826438,0,0,0,0,0
-99.24377847951,73.6088863584489,16.5873410721119,36.5984083826437,98.1252285932988,71.9704067475144,-12.7830793815068,-36.5984083826437,0,0,0,0,0
-99.2714493164906,73.2932159484718,14.2137404350594,36.5984083826437,97.9459255630718,72.2685165763963,-12.679015447544,-36.5984083826437,0,0,0,0,0
-99.1274293859422,73.5315631992904,14.1274481128996,36.5984083826438,97.8041466352112,72.5565282956863,-12.5912489537129,-36.5984083826437,0,0,0,0,0
-99.0506846837345,73.9400079148369,14.0396776684193,36.5984083826437,97.6359650364338,73.025490065859,-12.4728039744917,-36.5984083826437,0,0,0,0,0
-98.8553227642634,74.2920210189337,13.9218614088736,36.5984083826437,97.4270024890387,73.3726419392241,-12.358056321483,-36.5984083826436,0,0,0,0,0
-98.708744223176,74.6959837152253,13.8146545401838,36.5984083826437,97.354197222534,73.8803018144806,-12.2715121527222,-36.5984083826437,0,0,0,0,0
-98.5059776894573,75.1456553845149,13.6849860411892,36.5984083826437,97.2433239744063,74.4132202938755,-12.1707087838336,-36.5984083826438,0,0,0,0,0
-98.3085920151309,75.6048220273725,13.558633731785,36.5984083826438,97.1864487754911,74.925768608906,-12.0910248040883,-36.5984083826437,0,0,0,0,0
-98.2002474903689,75.945070428135,13.4783988052636,36.5984083826437,97.1901791555544,75.371962979322,-12.038573799642,-36.5984083826436,0,0,0,0,0
-98.1430662935784,76.2899635376678,13.4139028449553,36.5984083826437,97.20447688593,75.7182978508335,-12.0011462234224,-36.5984083826437,0,0,0,0,0
-98.0726105670891,76.5393280396501,13.3591151102808,36.5984083826437,97.1815327658289,76.0034873578339,-11.9599043038982,-36.5984083826437,0,0,0,0,0
-98.0508237748385,76.6573002554048,13.3367452357154,36.5984083826437,97.2581397877042,76.1710706067445,-11.9620569260419,-36.5984083826438,0,0,0,0,0
-97.9436717955833,76.736673108858,13.2949913922271,36.5984083826437,97.2143466603053,76.3364089334786,-11.9292086313938,-36.5984083826437,0,0,0,0,0
-97.8960819262821,76.8926748335246,13.2604703604156,36.5984083826438,97.3101732637863,76.4013177431973,-11.9489446271901,-36.5984083826437,0,0,0,0,0
-97.8050250358159,76.9744113461081,13.2236383712348,36.5984083826437,97.3987690001212,76.5088590185514,-11.9610887420387,-36.5984083826437,0,0,0,0,0
-97.8135246644166,77.1267285193292,13.2059759212471,36.5984083826437,97.615727724557,76.6533515243821,-12.0047348900807,-36.5984083826437,0,0,0,0,0
-97.7248365624792,77.2267748667124,13.1678952039804,36.5984083826437,97.7794988002033,76.803072384431,-12.0316675288876,-36.5984083826437,0,0,0,0,0
-97.7257641773371,77.3828409070229,13.1477838214184,36.5984083826438,98.0367686366778,76.9938887499018,-12.0783540830856,-36.5984083826437,0,0,0,0,0
-97.9115236087658,77.4678158290663,13.1880447850002,36.5984083826437,98.3452809300374,77.1833898022069,-12.1377615707211,-36.5984083826437,0,0,0,0,0
-98.1023809428277,77.5545967807546,13.228961377913,36.5984083826437,98.62559455033,77.3454285716751,-12.191573645082,-36.5984083826437,0,0,0,0,0
-98.2875122714372,77.6671638442577,13.2641637196356,36.5984083826438,98.8127870326666,77.5358702624215,-12.2143995479297,-36.5984083826437,0,0,0,0,0
-98.5620242222634,77.7178198899226,13.3319911248027,36.5984083826437,99.1370047102205,77.7282233079551,-12.2724341465322,-36.5984083826438,0,0,0,0,0
-98.6045558013506,78.5158948914318,15.6533829282206,36.5984083826438,99.448084157412,77.9782389082151,-12.3156885962953,-36.5984083826439,0,0,0,0,0
-98.8190450196963,78.6109422321543,15.6973342999656,36.5984083826437,99.8702123198584,78.2001814889913,-12.3899795832041,-36.5984083826437,0,0,0,0,0
-99.005883417413,78.7437927162853,15.7274292524425,36.5984083826437,100.190687964205,78.5018266387142,-12.4211941100009,-36.5984083826437,0,0,0,0,0
-99.5133735043924,78.8402988243205,15.8478812407138,36.5984083826437,100.653928713476,78.8451415237663,-12.477431719753,-36.5984083826438,0,0,0,0,0
-99.792489946663,78.9998943364083,15.8957882837403,36.5984083826437,100.716104261096,79.2407213430697,-12.4203696578959,-36.5984083826437,0,0,0,0,0
-100.152753054538,79.1488950841748,15.9653651016033,36.5984083826438,100.920287312435,79.6485491721464,-12.3937251349713,-36.5984083826436,0,0,0,0,0
-100.434559072273,79.4317299654692,15.9889534707176,36.5984083826437,101.007212887602,79.4479395521241,-10.0004569086817,-36.5984083826437,0,0,0,0,0
-100.326511596213,79.8391160021203,15.8890776711386,36.5984083826437,100.628980819145,79.9440288440142,-9.82314038102313,-36.5984083826436,0,0,0,0,0
-100.477530890589,79.728614187591,13.4979774081875,36.5984083826437,100.374105448015,79.8190132098189,-7.34665179259384,-36.5984083826437,0,0,0,0,0
-100.406253585658,79.7312279077627,11.0345826886156,36.5984083826437,99.9984898384332,79.6388014943578,-4.86187511313066,-36.5984083826438,0,0,0,0,0
-100.138347270976,80.4299734642783,10.8512887815837,36.5984083826437,99.682518770227,79.4968840669502,-2.389596907027,-36.5984083826436,0,0,0,0,0
-99.953173573314,80.3967423587657,8.37813151296953,36.5984083826438,99.4622392405161,79.9217913401583,-2.27810286368173,-36.5984083826436,0,0,0,0,0
-99.9807823888986,80.3053387473152,5.96177507114617,36.5984083826437,99.3815123946846,79.6331223262909,0.118887106650381,-36.5984083826437,0,0,0,0,0
-100.21829799158,80.8265193638453,5.91573479122419,36.5984083826437,99.6189353844859,79.9574145186294,0.131266542260544,-36.5984083826436,0,0,0,0,0
-100.223845826668,81.3145856260232,5.83016468998893,36.5984083826437,99.7232900223544,80.2170932844266,0.157359123407876,-36.5984083826437,0,0,0,0,0
-100.496925503141,81.8099031694266,5.7880952302807,36.5984083826438,100.043599251812,80.5217132702699,0.157442918103228,-36.5984083826438,0,0,0,0,0
-100.842321376161,82.2582916417604,5.76160116229322,36.5984083826437,100.398652205721,80.7740240511069,0.146049332901386,-36.5984083826437,0,0,0,0,0
-101.056781461924,82.7386483136758,5.70337523609981,36.5984083826438,100.681304787321,81.1342488378678,0.168902937661195,-36.5984083826439,0,0,0,0,0
-101.429060873767,83.1627362271435,5.67539544863074,36.5984083826437,101.167787867441,81.4628267344212,0.159779080086049,-36.5984083826436,0,0,0,0,0
-101.850138634716,83.5519587709043,5.65577262203368,36.5984083826437,101.535928872656,81.8507762105626,0.184717429432925,-36.5984083826437,0,0,0,0,0
-101.908801351926,83.9097502193519,5.58912153109934,36.5984083826438,101.62338759602,82.2400146071702,0.251943187567221,-36.5984083826437,0,0,0,0,0
-102.04639297827,84.2426117463167,5.53686673956393,36.5984083826437,101.822662429575,82.5732939765233,0.294910977696868,-36.5984083826438,0,0,0,0,0
-102.225943450461,84.5002658557053,5.50415591733271,36.5984083826437,102.116756442607,82.9192236437264,0.33162722624707,-36.5984083826436,0,0,0,0,0
-102.261937151657,84.0133227678382,3.14770200240511,36.5984083826438,102.131289300476,83.2625998413758,0.403195310803722,-36.5984083826437,0,0,0,0,0
-102.469774169221,84.8435575787351,5.45849641511597,36.5984083826438,102.398225886187,83.5205755548433,0.429242619497507,-36.5984083826436,0,0,0,0,0
-102.482720094266,84.8984855613123,5.44791359448726,36.5984083826437,102.358984376323,83.7269426419068,0.478476910225736,-36.5984083826436,0,0,0,0,0
-102.513173489557,84.8801327748116,5.45545979258,36.5984083826437,102.235731392002,83.844603146293,0.516814988754278,-36.5984083826439,0,0,0,0,0
-102.58840836759,84.8320109323729,5.47480973865785,36.5984083826438,102.170988648295,83.9796946931336,0.552465261686038,-36.5984083826438,0,0,0,0,0
-102.613332699117,84.7685367655129,5.49181706011304,36.5984083826437,102.066737013822,84.0811481780038,0.584515740700684,-36.5984083826437,0,0,0,0,0
-102.540887224291,84.7101386090775,5.49622201219897,36.5984083826438,101.991863347092,84.0590155426455,0.587214056902384,-36.5984083826437,0,0,0,0,0
-102.59518347675,84.6110911963432,5.52462995948594,36.5984083826437,102.013332490721,84.0648405009393,0.586324201522622,-36.5984083826437,0,0,0,0,0
-102.51945760606,84.5330027062113,5.5327490022949,36.5984083826437,101.85153566089,84.0762749004209,0.60468882825154,-36.5984083826437,0,0,0,0,0
-102.383560386001,84.4474705525826,5.53488501866646,36.5984083826437,101.72121617354,83.9567624865829,0.592843442476444,-36.5984083826439,0,0,0,0,0
-102.296924061894,84.3018137384598,5.55574976365186,36.5984083826437,101.669495510785,83.8677582233095,0.579754963413855,-36.5984083826438,0,0,0,0,0
-102.208599040181,84.1763127188403,5.57161065994252,36.5984083826437,101.62432767388,83.7611398391794,0.562550686549436,-36.5984083826438,0,0,0,0,0
-101.972596985018,83.3827615417547,3.24617528438244,36.5984083826438,101.257192414915,82.9617146887444,2.89579543742062,-36.5984083826437,0,0,0,0,0
-101.709451585591,83.3594118703719,3.21691428494532,36.5984083826437,101.012014441597,82.8451612480895,2.89919756975881,-36.5984083826436,0,0,0,0,0
-101.436651320996,83.3032048110595,3.19283242956112,36.5984083826437,100.768129224604,82.73829851838,2.90528007598808,-36.5984083826436,0,0,0,0,0
-101.048044092193,83.2961508464005,3.14355417114508,36.5984083826437,100.410749561257,82.6601910241997,2.93014676695351,-36.5984083826437,0,0,0,0,0
-100.686916742701,83.3108649490625,3.09381069756524,36.5984083826438,100.02517681454,83.0225494596238,1.72743070387075,-36.5984083826437,0,0,0,0,0
-100.288613793664,83.3196547743811,3.04063337307792,36.5984083826439,99.5397024949502,82.2877554473108,4.03377438363026,-36.5984083826436,0,0,0,0,0
-99.9684356222597,83.3187408186643,2.99946113316766,36.5984083826437,99.1373637217761,82.2646135356725,4.026912666163,-36.5984083826436,0,0,0,0,0
-99.6270071129912,83.326806243074,2.95411203248918,36.5984083826439,98.6761244000731,82.2721081388027,4.02913494742476,-36.5984083826437,0,0,0,0,0
-99.3112553523541,82.6172207412013,0.599650016497388,36.5984083826438,98.253221155893,82.2103397427012,4.01081707111021,-36.5984083826437,0,0,0,0,0
-98.8407792593596,82.6538711430083,0.903244927011157,36.5984083826437,97.8176092423479,82.1317066571076,3.98748968385119,-36.5984083826436,0,0,0,0,0
-98.0074348479146,82.5573831663203,0.931975090640354,36.5984083826437,96.9933699844009,82.0164218036592,3.95327242008348,-36.5984083826438,0,0,0,0,0
-97.014169805891,82.4102117928765,0.975822164534021,36.5984083826437,96.1270861734619,81.8689639925071,3.90947660676105,-36.5984083826437,0,0,0,0,0
-95.3115269168636,81.6231753960875,-1.31096998221056,36.5984083826437,95.1405445688743,81.7212634616966,3.86557500699652,-36.5984083826436,0,0,0,0,0
-93.8870894283347,81.570173368724,-1.29513812845093,36.5984083826437,94.6387032426669,81.5286690771272,3.79167651993175,-36.8900871112386,0,0,0,0,0
-93.6287521848972,81.4745409858941,-1.06842964854864,39.7260747580438,95.200916306187,81.2677412557325,3.55917224776024,-39.5054422235953,0,0,0,0,0
-94.3194594018793,81.3899674239937,-0.648229685763013,45.8336252459719,95.7160246411906,81.013815380279,3.28470762683513,-42.6718297471276,0,0,0,0,0
-94.8723023325544,81.3085639590892,-0.241234550669563,51.5769200836049,96.2500870894881,80.7848197903773,2.92236740669992,-47.1911625632138,0,0,0,0,0
-94.8540248014809,81.5239418460495,0.0507777013037483,57.5766662942348,96.3179549349453,81.744225719307,0.365620829633443,-52.6047997953309,0,0,0,0,0
-94.7778822169552,81.5821140069027,0.284944059237541,61.6582438532801,96.4727268044622,81.7361700204008,0.0804595781988134,-57.1311359214432,0,0,0,0,0
-93.8877375437293,81.7578617222352,0.421069386254985,65.2741879188308,95.6845998212503,81.8833480752238,-0.116928095574632,-61.5033918707414,0,0,0,0,0
-93.7360183962393,81.6878944560618,0.702067424691362,69.0171826677281,95.6855872514672,81.7507882034611,-0.410632200960691,-65.0475500410371,0,0,0,0,0
-93.5930341259217,81.6204440539073,0.959039490132568,72.2992920905379,95.8470265626437,81.7113962815941,-0.624710271233758,-68.0377965085112,0,0,0,0,0
-93.3915075572634,82.7007149755459,3.2913363472058,74.6815442058343,95.7949852711922,82.8515865791292,-2.95786430566435,-71.1748639431949,0,0,0,0,0
-93.0056913070447,82.4544539137341,3.57913484638666,76.4296953993133,95.4295172081843,82.8079398725105,-3.15700424613228,-73.7381347998327,0,0,0,0,0
-93.2637634030173,83.3131592017332,6.09764478586237,78.9982408851057,95.7505898459329,82.5703477001464,-3.55457876956213,-77.1822970657399,0,0,0,0,0
-93.3924616228505,82.9546444053443,6.49660734709848,80.7707821271064,95.9064662433595,82.4327717983496,-3.83571897334019,-79.7236886249899,0,0,0,0,0
-92.9881184159406,82.7907555750455,6.83529085423466,83.3175208698603,95.5544221595849,82.4014420274813,-4.04677492876679,-82.237307576588,0,0,0,0,0
-93.5983826962632,82.5459890618115,7.21725083311803,85.4962087300901,96.1342769288103,82.2822495047712,-4.26529496701334,-83.9208920655946,0,0,0,0,0
-94.1860813915597,82.3200651289417,7.65298028547749,88.2254853749666,96.9887635327083,82.1069268625115,-4.57694852599531,-86.142064145516,0,0,0,0,0
-94.3608414677819,82.2257459005959,8.02657899858862,91.2396639945896,97.2981164881933,82.0398519381004,-4.85302154769384,-88.8541570797491,0,0,0,0,0
-94.2381850999272,82.2203910153617,8.29972292603853,93.9036262779117,97.2075172872803,82.204226316972,-4.95450051926639,-91.7361474804538,0,0,0,0,0
-94.9578016435285,81.9430121848429,8.79168235403029,96.2446835365695,98.0395744596875,82.1791432515693,-5.18516074698732,-94.2448342763659,0,0,0,0,0
-95.119210926496,81.7241568044487,9.09919200919463,97.2319009508806,98.1137842875296,82.190054159754,-5.3141943794021,-95.889644952354,0,0,0,0,0
-94.7435063217161,81.4730571192299,9.40263205527423,97.8627392267652,97.6077968503691,82.0776900020763,-5.45672974716238,-96.3672311696056,0,0,0,0,0
-93.5848707822537,81.4099864362444,9.55631889584886,98.6867255419034,96.6461745492799,82.0914012337837,-5.49477931817264,-96.9526655719894,0,0,0,0,0
-92.7717598435528,82.859942619737,11.5853102638343,99.9160415021595,95.8762015512956,81.9930868369031,-5.67180847450455,-97.9425267056673,0,0,0,0,0
-93.0603883753229,82.6325985420805,12.0194682684938,101.728607483019,96.0349066700217,81.6504066737195,-6.12497801318569,-99.3927525031968,0,0,0,0,0
-93.6220081607524,82.6730520715614,12.1864320298562,103.420855483263,96.239640794555,81.6378571965848,-6.28209263117148,-100.943508616678,0,0,0,0,0
-93.4918679002071,82.7595128918604,12.2329389046586,104.505786763555,95.9082432399551,81.5201146247691,-6.46721927401486,-101.685078693392,0,0,0,0,0
-93.6540869307649,82.6506945877798,12.6185896646461,106.72831259467,95.7597230620429,82.8916667656418,-8.6930191710289,-104.022533968802,0,0,0,0,0
-93.6163196395221,82.6396154774917,12.8804895429273,108.71927238251,95.4582437285427,82.7768358476195,-9.01614647524037,-106.06507087587,0,0,0,0,0
-93.534523569649,82.6629789213772,13.1032697980836,110.676474286311,95.2435850908197,82.7491249558731,-9.21794236697744,-107.745347979694,0,0,0,0,0
-93.1794132219411,82.841110563797,13.1369068149894,112.493519549386,95.0183577581157,82.7180054283419,-9.40749639099859,-109.251371437328,0,0,0,0,0
-93.2098967228145,82.8723283028877,13.2620467021043,113.773882736399,95.1157930921929,82.6848862466991,-9.5872665994405,-110.625301419056,0,0,0,0,0
-93.6308898237852,82.9300131716998,13.3572229887302,115.063438039522,95.5210047524592,82.6352740506974,-9.74961027124504,-111.647484856772,0,0,0,0,0
-94.4482326417584,83.0065609815837,13.3989882884548,116.11251371275,96.362472421385,82.6919613432518,-9.7712622124543,-112.445740917858,0,0,0,0,0
-94.5897944758393,82.9924536710649,13.4735647515888,116.586207463228,96.4813480090165,82.7266625063782,-9.76881697065117,-112.790087643143,0,0,0,0,0
-94.9725026668552,82.9185746853821,13.6076269612062,116.976235103526,96.8074963800121,82.7007441328138,-9.82360506947634,-113.035365664841,0,0,0,0,0
-95.3892851523101,82.9150744438268,13.6702996840108,117.449326975212,97.2568077567952,82.6396217067506,-9.93720423501917,-113.460232195697,0,0,0,0,0
-95.5112071588373,82.9506906624765,13.6480217607123,117.607160942439,97.4134966170231,82.6394552292467,-9.95817020320305,-113.655891607411,0,0,0,0,0
-95.4617731129103,82.959449269392,13.6425954856925,117.646579916327,97.5197438588701,82.6843131098762,-9.92156973228372,-113.788780634838,0,0,0,0,0
-95.8878930527369,82.8292199010704,13.8012731207045,117.692235728005,98.0977762168939,82.6331952192605,-9.98830492880345,-113.872931981126,0,0,0,0,0
-95.6251779632811,82.9755617911925,13.632542606758,117.718711860108,97.9559390834566,82.8124428974817,-9.78967728840666,-113.912657131947,0,0,0,0,0
-95.616734946618,83.1070489239543,13.4840167263761,117.767332367686,97.8431141324904,82.9753460211579,-9.61573317175643,-114.012742495963,0,0,0,0,0
-95.9696273391247,83.1531652505516,13.465217770136,118.060763769678,98.1265709219625,83.1011877335522,-9.48729466189112,-114.150853232885,0,0,0,0,0
-96.0314371431695,83.0995725260433,13.5626844187368,118.344342922929,98.2447080325871,83.1066897211481,-9.50952598614077,-114.43546430714,0,0,0,0,0
-95.8357302036516,83.1415256284351,13.5468344762933,118.624573964772,98.2048770023052,83.1435134119092,-9.49065046389051,-114.665972336107,0,0,0,0,0
-95.683981950493,82.9523214330064,13.8281364777759,119.088499109361,98.2938119181933,83.1052732621691,-9.57066244581987,-115.030867583232,0,0,0,0,0
-95.7146073211709,82.9315809183735,13.8848616999723,119.349210600516,98.2394080049185,83.0844687625263,-9.64898172731497,-115.575121844379,0,0,0,0,0
-95.3532595058637,82.9963419561848,13.8924602950367,120.049297469354,98.1084826076292,83.0913340215991,-9.72581863928655,-116.422643193345,0,0,0,0,0
-95.3866036344676,83.0671033843137,13.8835795333877,120.685174678711,98.1343396177391,83.0622294151676,-9.87929848746979,-117.6180311723,0,0,0,0,0
-95.2428625973551,83.1189585381227,13.9239796982466,121.554726327202,97.9172244521088,83.0571639077118,-10.0074192512246,-118.843110018245,0,0,0,0,0
-95.1402823729264,83.1510791129301,14.0171690830619,122.684171589716,97.5970355727635,83.0612276444301,-10.1489642596131,-120.32284178745,0,0,0,0,0
-95.4762363200201,81.3780745344886,12.6357001495563,123.961818600226,97.1452980128465,82.9814996747837,-10.4146954610889,-122.033441420428,0,0,0,0,0
-95.0622772619527,81.5504114436763,12.5410582724431,125.072515749111,96.666815303538,83.0248124845594,-10.4894452127044,-123.359176249423,0,0,0,0,0
-94.9474635735474,81.7818934294229,12.3839186178232,126.381982742271,96.5033343397968,83.0406884274515,-10.6097616300945,-124.837656856577,0,0,0,0,0
-94.6319160477009,82.089749734958,12.1441550247807,127.976326372839,96.3158216995332,81.3268860216171,-9.15564785592999,-127.000678266507,0,0,0,0,0
-94.0684043839956,82.3917706528797,11.8610420768059,129.19632707656,95.4622889067326,81.4471455663517,-9.14239949940527,-128.686280347021,0,0,0,0,0
-93.1693231552108,80.9582543655665,9.93632887773264,130.282306579115,93.7191420626815,81.7323145747113,-8.88343994775011,-130.222207642571,0,0,0,0,0
-90.9005538295882,81.6987929607624,9.01054533706994,131.304330907015,90.7373340385738,82.3444011687851,-8.17294741365651,-131.877666273584,0,0,0,0,0
-88.647984101018,80.9070069325597,6.11605438649388,132.092034404267,88.3325173204028,81.3345517900514,-5.57741384420753,-132.944304914145,0,0,0,0,0
-86.5674035768413,81.7710801447846,4.96578578721919,132.693064780104,85.9766204298591,82.0506795142875,-4.64173208629771,-133.944469263916,0,0,0,0,0
-84.2134397047348,82.4957535945693,4.01364468403715,133.520572071921,83.8479056672552,80.810593438991,-2.28520828564154,-134.606359576731,0,0,0,0,0
-82.5346943612222,81.4053697555458,1.45574636069267,134.331700209322,82.3603469044011,81.4120936919269,-1.47791691483649,-135.349745308094,0,0,0,0,0
-81.132847994633,82.1897510160768,0.39575887632151,134.858710383792,81.3980308595838,81.9036104256424,-0.808950857034209,-135.687416441953,0,0,0,0,0
-80.0000163172644,82.6776234642151,-0.251882943355771,135.782918116655,80.6859952297564,82.2556992823192,-0.343535343762721,-136.572290609766,0,0,0,0,0
-78.4900392310686,83.3107286593891,-1.10581872553988,136.560265362158,79.4978358886462,82.6040432094131,0.125263217202725,-137.213507262524,0,0,0,0,0
-76.8601616729593,82.0803453969301,-3.5185974378886,137.040351653129,78.4305984472705,83.0482334290643,0.730877161152576,-137.679040954228,0,0,0,0,0
-76.3113027101477,82.3334494313557,-3.86103042475144,137.490855362822,78.082207317369,83.0788867984006,0.765420109230018,-138.300090611417,0,0,0,0,0
-75.3703380692723,82.5674684060227,-4.17812219739978,137.970781629789,77.4926774944801,81.218431495108,2.31781950097305,-138.689111499579,0,0,0,0,0
-74.4530267406738,82.9115926765279,-4.64689342477358,138.005018712736,76.7973493898834,81.3565097252589,2.50940869566477,-138.658338058003,0,0,0,0,0
-73.8683755724782,83.3040806356889,-5.1801075406189,138.072347757153,76.3153612426537,81.534698728527,2.75625631863401,-138.610808886013,0,0,0,0,0
-72.9829540784965,83.6547380679767,-5.65520675922719,138.072594485259,75.246073930247,81.7337146765214,3.02947142467914,-138.793012457787,0,0,0,0,0
-72.3540598666053,83.8483318347196,-5.91787506237735,138.312317614755,74.4133262030041,81.9212244493233,3.28577478773459,-139.12283524637,0,0,0,0,0
-72.0267388464756,84.0344533488068,-6.17024511580598,138.481673799561,73.9598521248945,82.1081961586433,3.54242551625036,-139.298088168352,0,0,0,0,0
-71.6952199386869,84.2144635390105,-6.41427662126744,138.635784721188,73.6370015181131,82.2268856053567,3.70455319473455,-139.574517012152,0,0,0,0,0
-71.6049717856686,84.3272438353257,-6.56749683211689,138.788483067211,73.3788630760478,82.4007964711453,3.94267196141127,-139.91630432779,0,0,0,0,0
-71.4490271719279,84.4415924799985,-6.72142779438069,138.719257113434,73.179863746672,82.5931584538128,4.20729196784276,-139.895867555574,0,0,0,0,0
-71.4607135170975,84.4200532159148,-6.69248139317534,138.737406081606,73.2277885534433,82.6203501335596,4.24442023369282,-139.992438363387,0,0,0,0,0
-71.5751394001223,84.4010389827758,-6.66624487578059,138.648639402572,73.3014266822214,82.6301942683899,4.25804577503797,-139.950464318098,0,0,0,0,0
-71.8051857278307,84.3710552988595,-6.62511146323235,138.543304713191,73.5095225318891,82.6551858178509,4.29254476684213,-139.876729013135,0,0,0,0,0
-72.0391226192649,84.3478368728496,-6.59373693029246,138.53524123626,73.701812228572,82.689007692285,4.33889158040948,-139.920757583947,0,0,0,0,0
-72.0805538360898,84.303345017882,-6.53369327942437,138.533770651732,73.7377892922037,82.6699293437752,4.31288277189959,-139.835239235331,0,0,0,0,0
-72.2713361881441,84.2204323276782,-6.42159997114695,138.503796735547,73.8778036411813,82.5821329058352,4.19229980587098,-139.834960792442,0,0,0,0,0
-72.3914565114349,84.1010809340884,-6.26042779722359,138.510033497899,73.9476316545656,82.5114894574267,4.09516309083175,-139.85011844159,0,0,0,0,0
-72.6520216337401,84.0243734661567,-6.15723526647543,138.616676884063,74.2084421896946,82.3641190715579,3.89182748859754,-140.015714640105,0,0,0,0,0
-72.7566670730359,83.9879091993504,-6.1082821561086,138.703283264828,74.2757315182196,82.3023507248409,3.80620023697568,-140.157722664468,0,0,0,0,0
-72.8291788934176,84.0154824956889,-6.14610987313517,138.820769101431,74.2793777424934,82.2979503664991,3.79952203966094,-140.329088919159,0,0,0,0,0
-73.0531254344336,83.9628900059745,-6.0755740678316,138.98747754115,74.4753904228383,82.2300143651757,3.7052362427824,-140.473258966147,0,0,0,0,0
-73.151198472485,83.9917482000363,-6.11508993736943,139.088932011654,74.5720921161779,82.2379519195409,3.71586507991675,-140.566450741887,0,0,0,0,0
-73.0937892830324,84.0194999148977,-6.15294951256303,139.149101343567,74.4821941589262,82.2548379611776,3.7392432530627,-140.550332448406,0,0,0,0,0
-73.1723735483692,84.0273219048452,-6.16389002349121,139.230387523856,74.6144935007195,82.2215229521526,3.69293974081645,-140.631298235426,0,0,0,0,0
-73.2365588326382,84.0258202497446,-6.16215414847658,139.303184276988,74.7527762042604,82.2104645982786,3.67764321537037,-140.635840541988,0,0,0,0,0
-73.1602833790064,84.0597013616762,-6.20827140539826,139.345489048572,74.7021526309865,82.1793501389513,3.63426998661328,-140.737756119414,0,0,0,0,0
-73.102195787041,83.9637354388141,-6.07718558658707,139.105432143911,74.7819056424471,84.003780350189,2.02621586868751,-140.571503271672,0,0,0,0,0
-73.0767199189155,83.787042218759,-5.83727700335168,139.031255640069,74.7959003048361,83.8399699468395,1.80060936226586,-140.366133786581,0,0,0,0,0
-73.1833692716527,83.6970722791622,-5.71463498192919,138.837082487318,74.9363967505926,83.7341448753507,1.65513438789232,-140.190747623404,0,0,0,0,0
