JMW9912/AVATAR/Dynamixel/dynamixel_control/data/csv/poppy/1119/1119_2030_Semina_collar_poppy__robot_point.csv
theta1,theta2,theta3,theta4,theta5,theta6,theta7,theta8,theta9,theta10,theta11,theta12,frame
-101.846342458545,79.5438102259919,-13.7983777290976,65.4200996822785,103.673768790949,80.0688256316048,15.792045932819,-68.3577355787022,0,0,0,0,0
-104.458247993432,79.4498295101565,-13.6362117342842,64.3808924959349,104.909623210983,80.4009908053086,15.8822804470641,-65.2389604733088,0,0,0,0,0
-105.172993052734,79.7557804324675,-13.5367934518612,64.482923489424,105.240112097518,80.7105864399967,15.8773106767934,-64.6146216655434,0,0,0,0,0
-104.486650522108,79.5024168611131,-13.6307411397791,64.3850738435619,104.651149735303,80.3210163474296,15.9671710535127,-64.5402333873009,0,0,0,0,0
-104.2083584811,79.4502949906838,-13.6677008066341,64.3444588558462,104.482715814965,80.079888335258,15.9980246154136,-64.5204136454296,0,0,0,0,0
-104.325525586288,79.357179022196,-13.6562244115288,64.36143368047,104.532425626498,79.8163174574809,16.0006425900087,-64.5311769145569,0,0,0,0,0
-104.120202038499,79.3466279240091,-13.6826662002704,64.3313303744656,104.394835559599,79.7121295278937,16.0229369641926,-64.513146451221,0,0,0,0,0
-103.898244762706,77.9966101641027,-16.1544509008424,64.454424837212,104.043680055565,78.3714053149595,18.5044179212567,-64.6340058595165,0,0,0,0,0
-103.947006622946,77.970708509592,-16.1482812479982,64.4614388834339,103.951038225085,78.360906988894,18.5191034955921,-64.621366059186,0,0,0,0,0
-104.178062639165,77.9297087579893,-16.1160189858248,64.4943296956191,103.977365453679,78.4858846851668,18.5105879678055,-64.6229661556371,0,0,0,0,0
-104.07172118525,78.04704229839,-16.1274440402827,64.4791381798957,103.707322358783,78.621380727185,18.5470166497709,-64.5829246073592,0,0,0,0,0
-103.89169331889,78.1291407714504,-16.1506351367167,64.4532625753288,103.334020679889,78.8181779654959,18.5965455531169,-64.5262227398783,0,0,0,0,0
-103.479414506979,78.097366224904,-16.2117999745795,64.3935431610128,102.294593836529,77.7211690528249,21.200421238626,-64.5688887447009,0,0,0,0,0
-102.989890448841,78.0872116268578,-16.2837454157967,64.3210262797447,101.702497527764,77.8305822872829,21.2727810198494,-64.7213172666165,0,0,0,0,0
-102.525151708624,78.1356196075129,-16.3498548400771,64.2504422067173,101.321555577085,78.0025622922221,21.3029718379368,-64.9379123330365,0,0,0,0,0
-101.10382734191,76.8862204195469,-19.0396590202163,64.2187094609387,99.9837502711408,76.7625434969573,23.9236652491312,-65.709954379648,0,0,0,0,0
-100.032645594347,77.0044419607421,-19.2124767685592,64.0455736524554,99.0773558067342,76.9280389483147,24.0640390608932,-65.7575737069078,0,0,0,0,0
-99.0379307176812,77.1362991216904,-19.3719000515082,63.8771924419234,98.0296577379274,77.1226176529298,24.2535758215924,-65.5504202362619,0,0,0,0,0
-97.4038058341294,75.9954004145342,-22.1751683150748,63.8260352913022,96.2370475983072,76.0551066117923,27.0762260848826,-65.676712347835,0,0,0,0,0
-95.7779569334172,76.1491684919917,-22.471671822007,63.5295168663101,94.6165993759832,76.4568790605867,27.4360556236686,-64.9879940269846,0,0,0,0,0
-94.2882043541801,76.2649446811779,-22.7470105522288,63.2425712088704,92.8126065577041,77.1080307207902,27.8302818823597,-64.1327132876294,0,0,0,0,0
-93.2818082829804,76.6828201490394,-22.9042738564833,63.0310381060673,91.2825145687656,77.9452323014244,28.1743660485619,-63.0627400735838,0,0,0,0,0
-91.927904722958,77.415167655049,-23.0953578157408,62.7268030209417,89.4939394423613,79.0376389739868,28.4450779491692,-62.6134637277036,0,0,0,0,0
-90.3850537270454,78.3490057787898,-23.294129466494,62.3541999648107,87.5943088717252,80.5289446718484,28.6820344659941,-62.0724743751912,0,0,0,0,0
-88.7004180828245,79.6920446017037,-23.4625480030269,61.9023446676597,84.8909376164252,81.1910969521582,31.7410769902834,-61.6390451901739,0,0,0,0,0
-86.2043009969829,81.5416281418265,-23.6977259467301,61.1783163025384,81.5229737463385,81.9727443414076,35.0010625290651,-61.0171633269251,0,0,0,0,0
-84.7645028192638,82.8980853381297,-23.7796524794561,60.7055956813686,80.0776184302204,83.7701516262428,35.1049206670159,-60.4109437923442,0,0,0,0,0
-83.4710332822852,84.0868926848564,-23.8450836578888,60.25912169086,78.6790947047319,85.2244759300923,35.2328350516201,-59.8319080129043,0,0,0,0,0
-82.5544652412777,84.9640399894835,-23.8798865597777,59.9259921358708,77.7329956855069,86.2008027575988,35.314900502028,-59.4255004093087,0,0,0,0,0
-82.1300722583317,85.4311235835717,-23.8851071535138,59.7618962069271,77.2147707086782,86.6319498196474,35.3737335109916,-59.2143858393117,0,0,0,0,0
-81.9083176991218,85.6903113763941,-23.8850254051486,59.6735206163111,76.8988612408119,86.8039905816851,35.423072533416,-59.0990612141238,0,0,0,0,0
-81.6824333357402,85.8209393521391,-23.9044401390055,59.5961472941825,76.5621210404499,86.8267733792712,35.5002942345488,-59.0016024190349,0,0,0,0,0
-81.4699241196319,85.9582610812893,-23.9204393208246,59.5214633442074,76.363879338561,86.931579936452,35.5317620762804,-58.9289430147983,0,0,0,0,0
-81.4775509446197,85.9516476866304,-23.9200964211274,59.5243207422932,76.3824841074231,86.7514303650684,35.5551470047194,-58.9636847862086,0,0,0,0,0
-81.4526943346515,86.0276507372712,-23.91295932837,59.5094424284993,76.4746459653356,86.6383968953011,35.5504021511684,-59.0078923349811,0,0,0,0,0
-81.4610334891119,86.0412935614262,-23.9094625886494,59.5104381393356,76.4941383649265,86.530499976304,35.5623262441661,-59.0308417226158,0,0,0,0,0
-80.70262357186,84.8099189276684,-26.9058363815751,59.6466477051601,76.3188206634738,86.350807323569,35.6325153203402,-59.0108291062782,0,0,0,0,0
-80.7194533219195,84.81489945416,-26.9018591271198,59.6508583185828,76.3612014429491,86.1872894896145,35.6474709525878,-59.0489225644294,0,0,0,0,0
-80.6854322666254,84.8009627021476,-26.9105196089656,59.6427700824,76.3916168648083,86.1337941026753,35.6483622144895,-59.0659733044009,0,0,0,0,0
-80.5089126927282,84.8201724125353,-26.9419187166342,59.5907370624643,75.4251457819171,84.7933231907753,38.7517912327166,-59.3387846470906,0,0,0,0,0
-80.5736981734679,84.8313542660633,-26.9276595111796,59.6078670615752,76.2811439501416,85.9181173595618,35.7086683297355,-59.0693889916998,0,0,0,0,0
-80.7424125329468,84.7548612172061,-26.9063875758791,59.6638642836638,76.5733453898582,85.7501514962336,35.6632652992643,-59.1773759772656,0,0,0,0,0
-81.0018214767226,84.67437361673,-26.8680970991443,59.7455206375055,76.9055748037346,85.6133237010186,35.6032916038354,-59.2908588596165,0,0,0,0,0
-81.0508707111556,84.654459582597,-26.8615213275125,59.7614092193437,76.948158189995,85.4799860525546,35.613146041766,-59.3233287746141,0,0,0,0,0
-81.144738530908,84.6126235809374,-26.8495307034505,59.7921684890881,77.2282893047474,85.2371555760227,35.5817118818802,-59.437784068755,0,0,0,0,0
-81.3446185420915,84.5803860278372,-26.8156368535257,59.8513715226774,77.475638356804,85.0745826908828,35.5459667842813,-59.5302168228398,0,0,0,0,0
-81.8357514327742,84.364437679233,-26.7522107642229,60.0101618686437,78.0952851254618,84.7705947165773,35.440585347896,-59.7438692208555,0,0,0,0,0
-82.1698864672367,84.0991593753441,-26.7257907303178,60.1293117630499,78.4771074792949,84.4715822988375,35.3917396371622,-59.8904781217079,0,0,0,0,0
-82.5177823465442,83.8487764985815,-26.6941194259009,60.2493964768799,78.8245774474893,84.075518142127,35.3649267738447,-60.0404520881735,0,0,0,0,0
-82.9670035964668,83.3693169870233,-26.6742632654841,60.417828538862,79.386239987271,83.5235990255959,35.3075090438874,-60.2664367775221,0,0,0,0,0
-83.6760356860576,82.7812095552087,-26.6169352473626,60.6617208886556,80.2431063680995,82.9036242422473,35.1859929756303,-60.5729856644531,0,0,0,0,0
-84.0480968436011,82.1898392233059,-26.6237290623617,60.8125999641753,80.8435710734219,82.1742266134809,35.1399070719376,-60.8218037809629,0,0,0,0,0
-85.0084811479223,81.4774008147899,-26.5276441369043,61.1200219070281,81.9732214062733,81.4290941914408,34.9634360179228,-61.1961657462201,0,0,0,0,0
-86.1711274345776,80.4366847005097,-26.4275122906083,61.4916687348128,83.1957294674688,80.4222847007677,34.7940301751907,-61.6102540689091,0,0,0,0,0
-86.6595106101454,78.2742406761145,-29.1448210313859,62.0369962469769,83.5359658526269,78.1943156742431,37.5217376044334,-62.2591898488709,0,0,0,0,0
-88.1426978392824,77.2790793868076,-28.9275377065162,62.4403268298206,84.9449353074949,77.1834789768984,37.267792227461,-62.6736841756403,0,0,0,0,0
-89.3641552025664,76.4131526201754,-28.7463030631003,62.7571993820235,86.1499555880796,76.1696674409194,37.0613851089749,-63.0250343926414,0,0,0,0,0
-90.7317856435329,75.6836756319199,-28.5118443685406,63.0800523799752,87.4874381075392,75.2574674974015,36.8023809071328,-63.3749768488855,0,0,0,0,0
-91.7961488782298,75.0762160272154,-28.3288236097504,63.3207396612657,88.5413494390734,74.3962863547738,36.6076699353321,-63.6483728373115,0,0,0,0,0
-92.8261478524791,74.7091462037918,-28.1290903065059,63.5342199547046,89.461169991384,73.7270497755607,36.4134303772366,-63.9377828575896,0,0,0,0,0
-93.9359784652152,74.4186314297537,-27.9037187465387,63.7508770364738,91.1086440714012,72.9306025419015,35.8340749662778,-65.4801454721382,0,0,0,0,0
-95.2166620290342,74.2401406035557,-27.6312421654533,63.9843303645808,93.7227320687257,73.4072163450535,32.5756339418284,-66.4297881095756,0,0,0,0,0
-95.8369097642307,72.8486328083053,-29.9652636969083,64.6925677167732,95.4904199076521,72.7340582621224,32.0426600524704,-67.6819615775008,0,0,0,0,0
-97.8050792319103,72.4832968817876,-29.3021986249297,66.3539206329887,97.1286516936403,72.1165662310503,31.5853412020364,-68.5660613601276,0,0,0,0,0
-99.4194999322309,72.1838618164779,-28.6971126070972,68.2236888417373,99.3712825221184,72.8831341987283,28.554598754085,-69.3422813206846,0,0,0,0,0
-101.602840688245,73.2614397412553,-25.7724905743183,68.6223824028608,100.88562921456,72.4927137079119,28.2378043370604,-69.5262372123828,0,0,0,0,0
-103.094859877441,72.9979152223445,-25.4451375448793,69.0382958657008,102.745186045101,73.3747272979789,25.5200868575006,-69.0241006532727,0,0,0,0,0
-104.6409121568,74.0624515396135,-22.8157420909252,68.6169638677412,104.207432092046,74.3777697576335,22.9464204218923,-68.2119024456504,0,0,0,0,0
-105.758972226715,75.3037772199351,-20.3859890011142,67.3957914464696,105.796309576356,76.9598801139437,18.0748379972796,-66.6178220182433,0,0,0,0,0
-106.888212335305,76.3493855779782,-17.9457339157929,66.3688561683983,107.047223680741,78.0114516018293,15.6102418344352,-65.7034245945949,0,0,0,0,0
-108.059183580176,77.4037823368674,-15.5657828110228,64.9868298072452,108.10704583014,77.9318761864886,15.5525010133798,-64.9946929031304,0,0,0,0,0
-109.592896833309,78.2347758245066,-13.0086766088035,65.0176194678811,109.592057125426,79.0619135107996,13.0050098148097,-65.0265241896601,0,0,0,0,0
-111.426686194796,79.1990889423298,-10.0451966108114,65.0675335724592,111.12391206515,80.8779826381476,8.90175223915313,-65.0115314786153,0,0,0,0,0
-113.43827792905,81.439368437383,-5.1689044779163,65.0911580551273,112.391674821738,80.8818747176363,8.73217862646433,-65.132744624398,0,0,0,0,0
-114.791032452087,82.5728334869351,-2.7268484896114,65.1499372482493,114.130208762989,82.2179736264666,6.23059267305175,-65.2140179613874,0,0,0,0,0
-116.198782133389,83.6841086164199,-0.312964054445132,65.2165828372381,115.490774752882,83.3022718127023,3.81500420807072,-65.2643270263089,0,0,0,0,0
-117.09398485681,83.6748836313133,-0.220257359792896,65.2735682583137,116.679662945727,83.1558033804265,3.68491135991772,-65.3404373559296,0,0,0,0,0
-117.602066769613,85.0179355637919,2.05079625073316,65.2940559099591,117.515159980785,84.2392993911768,1.36399219528553,-65.3540223102221,0,0,0,0,0
-118.369608332828,85.0619002644033,2.11365006759709,65.337580140215,118.253329125814,84.1673101410396,1.2899197517583,-65.3918183217808,0,0,0,0,0
-118.592995570961,86.3185166751396,4.34292952833451,65.3501506629614,118.498382375752,84.0316688725131,1.2559329444835,-65.3995636320089,0,0,0,0,0
-119.179059009602,86.3019864993133,4.38543728333443,65.3768459276216,118.939241120848,83.9934644049957,1.20979882301168,-65.4192234069329,0,0,0,0,0
-119.588078656538,86.154981370838,4.42881521091229,65.3872564150139,119.144572122842,84.1003687684446,1.199417924458,-65.4321916406875,0,0,0,0,0
-119.76330856242,85.9774437590539,4.45967039789088,65.3855184831619,119.196776518204,84.0413731721566,1.18894924469419,-65.4324420528948,0,0,0,0,0
-119.964424187366,86.91223368889,6.69826095632968,65.3890336749348,119.423555537595,83.9793655771227,1.16093545380303,-65.4399770862675,0,0,0,0,0
-120.188210873429,86.7616415058313,6.72955695265239,65.3887514307705,119.562202572153,83.925567092297,1.14198287102275,-65.4437854705469,0,0,0,0,0
-120.545620270081,86.6734681111129,6.764368999596,65.3958574801953,119.781730138502,85.0969272382978,-1.07490267275062,-65.4334062621138,0,0,0,0,0
-120.815027500145,86.5923213348733,6.79325343641472,65.3996188180133,120.005865300939,85.0733630198129,-1.09641669366277,-65.4411923162828,0,0,0,0,0
-120.918019422819,86.669699099555,6.79129357317382,65.4071461134747,120.134386508474,85.0610764885223,-1.10871165433966,-65.4455174985308,0,0,0,0,0
-120.793876290892,86.6916495796667,6.77981862204464,65.4046942194622,120.081672162954,85.0280463416788,-1.10771514713812,-65.4422467420709,0,0,0,0,0
-120.833990943772,86.6996126221471,6.78172022077919,65.4063616945398,120.201203808757,84.969949547538,-1.1243293684405,-65.444316406548,0,0,0,0,0
-120.564791455385,86.6587602796672,6.76742778255056,65.395635090704,119.977409658426,84.8671120942632,-1.11555630190529,-65.4318040797348,0,0,0,0,0
-120.525909683671,86.5861497586031,6.77301266612292,65.3901928711102,119.964740455937,84.7612098838342,-1.12547632415044,-65.4269350031776,0,0,0,0,0
-120.480202975177,86.2539995494216,6.80760075902725,65.3690721379836,119.820609978019,84.5306042956719,-1.13591106477833,-65.4115351611681,0,0,0,0,0
-120.32301782441,85.9891079293353,6.82485066627484,65.3475922107331,119.604199818559,84.3091846504062,-1.13725322758202,-65.3930970625986,0,0,0,0,0
-120.276744453262,85.5739918796432,6.86691516480886,65.3195472047412,119.431751880773,84.0640141969924,-1.14374965761203,-65.3747259350373,0,0,0,0,0
-120.220562853494,85.4430683484201,6.87621789253706,65.3090058353677,119.283716193567,83.8755660425192,-1.1461690419487,-65.3595096751694,0,0,0,0,0
-120.108871133477,85.3112466419571,6.88021074610651,65.2963035481653,119.085467243884,83.7194920607086,-1.13938823200203,-65.3432500980629,0,0,0,0,0
-119.903129309806,85.1959625838563,6.87301501759944,65.2810605565392,118.866625160082,83.6418759666085,-1.1226066647213,-65.329481210004,0,0,0,0,0
-119.583206814475,85.2806016722294,6.83430254086696,65.2744953949797,118.505641489426,83.6686978966762,-1.08146958986842,-65.3135455073661,0,0,0,0,0
-119.60461167385,84.1727449463556,4.62494496211122,65.2764029673841,118.33964972829,83.7276945745342,-1.05915053280694,-65.3081258275416,0,0,0,0,0
-119.548726434872,84.2065058601828,4.61563111630727,65.2762956018336,118.206073478646,83.6831796788878,-1.04833546649851,-65.2991322528504,0,0,0,0,0
-119.460545611385,84.2878071545911,4.59843416827431,65.2778104853138,118.040358029198,83.7074137857942,-1.02889869689403,-65.2916329300097,0,0,0,0,0
-119.436773031853,84.2713519196861,4.59754632293004,65.2757955609628,117.967901344415,82.4171950041408,1.19213616182356,-65.3075678061908,0,0,0,0,0
-119.423665563782,84.3400708273587,4.5895950822889,65.2795455899885,117.803640769447,82.3969990615067,1.2109919702643,-65.2979157185688,0,0,0,0,0
-118.763982000597,83.0027375359816,2.32052426439748,65.2493302344396,117.115930822661,82.2897724381277,1.28943273012584,-65.2541552657211,0,0,0,0,0
-118.207947645696,82.9904482566483,2.2543729514461,65.2214324852339,116.628707823291,82.0891003822494,1.33998446233184,-65.2150831542926,0,0,0,0,0
-118.077917377672,82.9482651154715,2.24179647968572,65.2122084601863,116.359199445641,81.872830107556,1.36448378548067,-65.1875551247419,0,0,0,0,0
-116.961504343904,81.6081249423377,-0.121533338666325,65.1635124906431,115.212092716103,80.4289682980299,3.76492828123705,-65.1412864916935,0,0,0,0,0
-116.120558153745,81.5099396178538,-0.232575444484269,65.104766015729,114.32711187986,80.2617159717049,3.89406833090476,-65.0672787687495,0,0,0,0,0
-115.419919969697,80.2892121833569,-2.58465719828061,65.094747996886,113.550299921731,78.9111582017032,6.28891522181087,-65.0623997846605,0,0,0,0,0
-114.292688317151,78.9815079096741,-5.02374336410855,65.0623461376849,112.227847833352,78.8886292456243,6.51125847828871,-64.9472215315315,0,0,0,0,0
-113.375852871393,78.935705401928,-5.17874652385069,64.9868077286051,111.209863806663,77.756164924025,8.98817715829458,-64.941299901408,0,0,0,0,0
-112.078979765258,77.5725291892779,-7.6975045721164,64.944598671104,109.935079623202,78.0057126684641,9.20721288149883,-64.8216210099756,0,0,0,0,0
-110.75233444257,77.5398922463638,-7.94583567691393,64.8175010761478,108.233955044513,76.9645768927007,11.846508461972,-64.7520382000784,0,0,0,0,0
-109.290338255261,76.1898008367487,-10.5592408670187,64.7656338392055,106.786150510378,76.5657573304765,13.4024533125705,-64.6600306293711,0,0,0,0,0
-107.865687315969,76.0769576836994,-10.8580090664507,64.6032211784297,105.397247085823,76.7537612377175,13.593176390113,-64.4823110544778,0,0,0,0,0
-107.310554545997,76.0148950456304,-10.9771657975765,64.5354687028635,104.416586975891,75.8607340365219,16.1465637291581,-64.5134229178663,0,0,0,0,0
-106.351565110223,74.7206566701177,-13.4972101604342,64.5496501258446,103.439520027333,76.1397472331545,16.2907193622914,-64.3788382290188,0,0,0,0,0
-105.036387568231,74.8098465892709,-13.694552501035,64.3787741392751,102.103577325121,75.1526404967699,18.9479512497045,-64.3744872324535,0,0,0,0,0
-104.023081194392,74.9300021366608,-13.8451692619002,64.2402404398063,101.129308514841,75.503736027198,19.1021908377661,-64.2277171316886,0,0,0,0,0
-102.937225742971,75.1392251471465,-14.0031445824482,64.0858519215512,99.8042082405832,75.793280951693,19.318148606428,-64.0156610258763,0,0,0,0,0
-101.868371897544,74.0069168397187,-16.6290361150108,64.1050604207187,98.6470911182241,74.8389385736884,22.0113859761875,-64.0538210092598,0,0,0,0,0
-100.792954892272,74.268891008547,-16.8005250446367,63.9416024486941,97.4500962749825,75.3340103635609,22.2101895671583,-63.8449660653218,0,0,0,0,0
-99.2736793355229,74.6211842556605,-17.0405513664156,63.6950036807919,96.3965405780992,75.6650959450315,22.3891607520867,-63.6526040404248,0,0,0,0,0
-97.3285527455051,75.230066381518,-17.3324285591511,63.3553536469106,94.4180679254439,76.1690325704851,22.7299612207176,-63.2702241074929,0,0,0,0,0
-95.1758137310709,74.6208557765126,-20.2308094435056,63.1855180059418,91.8531388492695,75.8214736321805,25.7621115643103,-63.0257588477779,0,0,0,0,0
-93.3136968931345,75.6710703060104,-20.489747794523,62.8071871429947,90.2490039941777,76.8176093811626,26.0015489862107,-62.648541189932,0,0,0,0,0
-91.5031586466421,77.0468447810305,-20.6908389996458,62.3992273523532,88.1987365033742,77.9251105234388,26.3098516398547,-62.1366442683939,0,0,0,0,0
-89.6638719607619,77.1125384745529,-23.5624992531407,62.2408093610627,85.9176970415968,78.0668301815015,29.3345701955339,-61.8790134859922,0,0,0,0,0
-87.8322747556381,78.755478992693,-23.7336822096686,61.7442071728837,84.3781283038005,79.5676310603141,29.4919304620985,-61.3908113545656,0,0,0,0,0
-87.0154978948345,80.386147970736,-23.6927906769843,61.4560791152496,83.4245906104015,81.4423962044544,29.4558719636339,-60.9817854433718,0,0,0,0,0
-83.7714264294727,81.0430137874109,-26.8328979506963,60.8384718180457,79.8906132174966,82.0910833515351,32.7727793551801,-60.2800197140789,0,0,0,0,0
-81.5204500623596,82.9326205452665,-27.021685883801,60.0674529862505,78.1825500373061,83.884986890001,32.9071055259763,-59.5913553191595,0,0,0,0,0
-79.4810961941991,84.7289279947023,-27.1569567251016,59.3063955660324,76.4301510423843,85.5354344132147,33.0577239255588,-58.8678909536091,0,0,0,0,0
-77.8977520713082,86.4706671989977,-27.191138667549,58.6380287936342,75.3256418632861,87.0590757722493,33.0670467289609,-58.3181339473384,0,0,0,0,0
-77.0576472007857,87.9525616450562,-27.1103458574633,58.1955301199926,74.8418933022822,88.3523402049556,32.9651420654111,-57.9696061947929,0,0,0,0,0
-75.8857709303157,89.1898587519254,-27.1248549564582,57.6642990580813,74.0105162753697,89.2803251956641,32.9980964742391,-57.5649107760246,0,0,0,0,0
-75.1743350347134,90.0378637807002,-27.1131535870613,57.3184478251511,73.5862763356478,89.884400150232,32.9914957332523,-57.3321518570259,0,0,0,0,0
-74.64033390886,90.3302550339039,-27.1624041328198,57.1047778605827,73.0999759400992,90.1998741291558,33.0468468058871,-57.1272590213505,0,0,0,0,0
-74.2709856989843,90.1988297548902,-27.2549560643451,57.0050375985696,72.7329549391858,90.2788764980424,33.1158223199218,-56.9992314849712,0,0,0,0,0
-73.9797358309816,89.8861895332221,-27.3655303204568,56.9563858245643,72.3397259511434,90.1717979953232,33.2232119376028,-56.8948560572785,0,0,0,0,0
-74.080587161891,89.483707264396,-27.417421104218,57.0471571900763,72.2629951863992,89.8418005759743,33.2979282759195,-56.9281483016084,0,0,0,0,0
-74.1248520826862,89.2857967944171,-27.4438740357525,57.0896829773266,72.2711502154447,89.6025696910685,33.3376200316104,-56.9719315373972,0,0,0,0,0
-74.0246564274453,89.1804289226865,-27.4818489402134,57.0721718491445,72.8832499619318,90.6880908170967,30.2350602562867,-56.7160584721191,0,0,0,0,0
-73.9726955784482,89.2148755196126,-27.4858033578126,57.0504588366292,72.020136845985,89.4972161291078,33.4134950672635,-56.9110406103069,0,0,0,0,0
-73.8716754893881,89.4072442505905,-27.4712656970123,56.9903204212119,71.7908141230942,89.6606939093263,33.43769398402,-56.8105631978514,0,0,0,0,0
-73.7038972728295,89.7679848840059,-27.4394257049192,56.883794674357,71.6706577923561,89.8437587249054,33.433223192416,-56.7408569702342,0,0,0,0,0
-73.4189047757237,90.1622205862711,-27.4236277337376,56.7329354034856,71.3471878131482,90.1283574919365,33.457412858436,-56.5883561616632,0,0,0,0,0
-73.235873871625,90.4554863402818,-27.4059427752555,56.6292802339147,71.0108885488044,90.3334568953591,33.4983771211842,-56.4446949179503,0,0,0,0,0
-72.4103740020819,89.4035544487779,-30.5623113939702,56.7702153500081,70.8390548304271,90.5978803720057,33.4908135049145,-56.3425432690447,0,0,0,0,0
-72.3605408486986,89.5359882717523,-30.5494292650375,56.7332111579687,70.7125451602385,90.6788910533072,33.5054213672952,-56.2873239976272,0,0,0,0,0
-72.2291177493333,89.6741951492951,-30.5527541561007,56.6687061687197,70.6240769354602,90.6792274946647,33.5256890421223,-56.2587197861815,0,0,0,0,0
-72.0011931495814,89.8269152677318,-30.5739517961146,56.570248560471,70.4374568510574,90.7290266326347,33.5597359918243,-56.1894589631767,0,0,0,0,0
-71.9201358861079,89.860499143297,-30.5851717008522,56.5384481256097,70.3511752013422,90.756403499384,33.5746958675111,-56.1565876192098,0,0,0,0,0
-71.9913156434881,89.7975119450525,-30.5813240003582,56.5717363225835,70.320562462169,90.5710002187622,33.6151258665722,-56.1798711820394,0,0,0,0,0
-72.0850402250866,89.575826454695,-30.6010369633351,56.6375416227003,70.4504089801635,90.3269022631467,33.628938109149,-56.265336695558,0,0,0,0,0
-72.3451255304079,89.2214382041755,-30.608710772516,56.7776897889464,70.6719544432541,89.9693869920873,33.641595001341,-56.3997777515787,0,0,0,0,0
-72.6410851364514,88.8014677031385,-30.619816397672,56.9382526364632,71.0818162346508,89.5646362221206,33.6184858105842,-56.6015958865222,0,0,0,0,0
-73.1032054908352,88.2862703785418,-30.6112141944646,57.1645279743584,71.3881167287508,89.1709222782883,33.6169017747173,-56.7666189881169,0,0,0,0,0
-73.1428719176489,87.797255603383,-30.688310960353,57.2499705774367,71.4193262192857,88.8052174788073,33.6740708238698,-56.8382455848092,0,0,0,0,0
-74.2476390403875,88.516666150667,-27.5556342102998,57.2366949813082,71.9248387649568,88.1892918893682,33.6637259258891,-57.1000530645389,0,0,0,0,0
-74.6738848373774,87.8146150111833,-27.5948993337878,57.468229746854,72.4315226077049,87.5938658573215,33.6481382976688,-57.3549402251798,0,0,0,0,0
-74.9966047682712,87.0538094609035,-27.6630288894441,57.6701288141399,72.7038686146089,86.7459021021866,33.7296940728276,-57.5727478076701,0,0,0,0,0
-76.0271145430268,85.9866449737504,-27.6395070845074,58.12598431364,73.6661283234741,85.6336612074127,33.689842307371,-58.0352578783388,0,0,0,0,0
-77.1277700213264,84.8639623798267,-27.6046601217259,58.594550358264,74.7120612403651,84.1252691915344,33.689467282136,-58.5630497254425,0,0,0,0,0
-78.305243656163,83.4226934983248,-27.597238419411,59.1019155104004,76.126281552338,82.3248249123728,33.636596958867,-59.2106510673972,0,0,0,0,0
-80.2443428532835,82.8671210768943,-24.6104480424906,59.4545370907342,78.3329226406077,81.392871554004,30.590040549549,-59.6177209857776,0,0,0,0,0
-81.9378826963827,80.4489625425216,-24.6473892732412,60.1187866729333,79.9540606372148,78.775157069564,30.6052092949843,-60.3132113062591,0,0,0,0,0
-84.6042152896018,79.0974427291194,-21.6943947212591,60.6498018238985,82.7119418551815,77.3163160678399,27.5580110504214,-60.8241580958572,0,0,0,0,0
-87.4703071165143,77.5537285302008,-18.7765124690633,61.1801502670518,85.585450199365,75.7959597338047,24.5361499410893,-61.3133421946594,0,0,0,0,0
-90.6208787850225,75.9724195829505,-15.8568622691984,61.7006084191572,88.0609615857353,73.0082836430611,24.330089684376,-61.9674921982525,0,0,0,0,0
-92.4626523265096,73.5818550328893,-15.7863298855255,62.0710607992561,90.3641963909926,71.9722574202213,21.4037690848969,-62.1636910418585,0,0,0,0,0
-95.4602058417405,73.1585706805356,-12.8119873537576,62.4290326862124,93.1933433932352,71.193633792138,18.3817945900866,-62.4410835732945,0,0,0,0,0
-98.1698813321576,73.0505907820006,-9.92155197613829,62.7094499021887,95.7032870707803,70.8212667550446,15.435030836553,-62.633778826995,0,0,0,0,0
-101.121328383641,73.4318445649562,-7.04034465045305,63.0426165512725,98.5813132999634,70.7510697227143,12.4570006763489,-62.8908606877034,0,0,0,0,0
-103.169810328115,73.2993279794159,-5.4939413035639,63.2570249393275,100.866775173186,71.0374153293345,9.62070750514482,-63.0478963430013,0,0,0,0,0
-105.811275495546,74.361829343037,-2.45065403213732,63.5247365863087,103.524814018221,70.5857931271622,9.1655116404167,-63.433507892875,0,0,0,0,0
-108.366659398839,74.2401965730239,-1.8508549334677,63.8340826064608,106.29524882571,71.8656306668094,5.9893343079616,-63.6742806809984,0,0,0,0,0
-110.887617617927,75.6979364935048,1.09909899090465,64.0696910187645,108.985509361188,72.1591571363222,5.23506683029493,-64.0096738244947,0,0,0,0,0
-112.605489466313,77.2891680442685,3.80230647277588,64.2341642117194,111.241681175476,73.9415914540763,2.29738647155469,-64.201453714416,0,0,0,0,0
-114.422532275917,78.0062422460346,4.17048238913515,64.4584672458402,113.26355199873,74.8246536755246,1.7890798703971,-64.4602985035486,0,0,0,0,0
-115.245320057742,78.6541456254028,4.31725340405254,64.5838248545192,114.30913570712,75.8475988710814,1.55303818907657,-64.6331621115658,0,0,0,0,0
-116.175871047978,80.5556207426288,6.72435332490826,64.7044274760962,115.377260084015,78.0431001963575,-0.912568856554998,-64.7470622919742,0,0,0,0,0
-117.060962735355,81.412887181083,6.82275099060556,64.8404607036059,116.399150075565,79.2526445769917,-1.05726630368503,-64.9134257529486,0,0,0,0,0
-118.089435898797,82.2438755505663,6.91997106640062,64.9712260613802,117.419082822782,80.4480515218159,-1.16448759291001,-65.0629128316592,0,0,0,0,0
-118.562034027533,84.211455805402,9.14849324776651,65.0714417008319,118.383589097763,82.6556485448206,-3.45673474703,-65.1644493312294,0,0,0,0,0
-118.717227021665,85.0159802385428,9.09788788371608,65.1454649400886,118.594836243215,82.4923027249797,-1.18660794443201,-65.2552303750692,0,0,0,0,0
-119.355785854667,85.7318601231495,9.09381016021152,65.2284787975092,119.143623784751,84.8718035525304,-3.35462729955429,-65.3333905486271,0,0,0,0,0
-120.381115355454,87.4839848687131,11.3188304968454,65.3341966206644,120.04209709539,85.7285469613369,-3.34768029898126,-65.4125934508618,0,0,0,0,0
-121.396892303188,89.6445284477702,13.4376503539935,65.4691487558316,121.219134559347,86.8152755708842,-3.55040370165676,-65.493015721178,0,0,0,0,0
-122.49811227491,89.9199321780973,12.2517881264772,65.5236293562801,121.99230057748,87.6680063699731,-3.50107908817523,-65.5437235182096,0,0,0,0,0
-123.0170714653,90.5580912345247,12.1859408553745,65.5666667769094,122.52631781325,88.1033145192084,-3.47298789472131,-65.5683615217937,0,0,0,0,0
-123.249470590469,90.9900109010011,12.1449470348348,65.5920542714599,122.895656427945,88.4161032072143,-3.45112896578144,-65.5835438822857,0,0,0,0,0
-123.114453474532,92.3133932585475,14.2733815253308,65.6434910266641,123.021170598785,89.7830939370126,-5.57885336328167,-65.6017323723958,0,0,0,0,0
-123.408641508436,92.3058228747568,14.2554815206853,65.6440452484418,123.170059952839,89.7122035762077,-5.58133478097159,-65.6015683097846,0,0,0,0,0
-123.282901998011,92.0163665691593,14.2836537032699,65.6275671988499,122.940544052075,89.4010560566849,-5.60708075991693,-65.589035931126,0,0,0,0,0
-123.159950257527,91.5675810027786,14.3223156774238,65.6008965144141,122.668611689375,88.938396963226,-5.64294819396048,-65.5694696264975,0,0,0,0,0
-123.080350959487,91.1126491999367,14.3583463056806,65.5725182928144,122.638901503617,88.4050283148619,-5.67982129305011,-65.5493856464075,0,0,0,0,0
-122.803626226845,90.6333629634369,14.4061358942931,65.5395894173266,122.03482187019,89.1443094949898,-7.8680849719963,-65.5376219203812,0,0,0,0,0
-122.500429718782,91.482480410098,16.5807772793575,65.5656171977803,122.196308320385,88.6734112886079,-7.89538622650147,-65.5190831635749,0,0,0,0,0
-122.459031986707,91.3133060897041,16.5945016752829,65.5531154004188,122.129170684991,88.340023001702,-7.91841302380843,-65.5014210658064,0,0,0,0,0
-122.515881660073,91.1811049962088,16.599383032224,65.543877078829,122.125996339035,88.0813211693712,-7.93536887362549,-65.4881541294669,0,0,0,0,0
-122.568759249232,91.0584073357208,16.6039963564444,65.535183344304,122.072662666733,87.8689465526685,-7.95002157637231,-65.4758757137155,0,0,0,0,0
-122.589514521028,91.0433351724543,16.6036647548299,65.5342054517956,121.973067074452,87.7661131691685,-7.95809372410042,-65.4682348940578,0,0,0,0,0
-122.64290073138,91.102859960072,16.5963515183165,65.5389733102261,121.994708885555,87.6629287428681,-7.96447234347161,-65.4630782390405,0,0,0,0,0
-122.662017083689,91.0532445198371,16.598428590444,65.5354153354255,121.956640214108,87.6378288285982,-7.96657674586012,-65.4608754088564,0,0,0,0,0
-122.632083013264,91.0302045331513,16.601826308581,65.5335109698596,121.97594033739,87.5836475428046,-7.96985336516042,-65.4583031590494,0,0,0,0,0
-123.074745671534,89.9093609324469,14.4419392855718,65.4916432730504,122.171238657103,87.6364275228452,-7.96394595602339,-65.4652889941113,0,0,0,0,0
-122.991914397896,89.9182685093003,14.4453092933256,65.4917293240736,122.288605506001,87.5868716622903,-7.96580800376077,-65.4648554956905,0,0,0,0,0
-122.923309293284,89.9050159098978,14.4495616771302,65.4902870281042,122.410666930084,87.5294843143994,-7.96820802571762,-65.4639466118098,0,0,0,0,0
-122.856241496526,89.9626438016613,14.4488741385718,65.4938707899229,122.640653722551,87.5497897013343,-7.96412290295231,-65.4690255137535,0,0,0,0,0
-122.848992796246,89.9432059996695,14.4505957515245,65.4924299056539,122.786471032105,87.5585718930851,-7.96183147484058,-65.4717914879812,0,0,0,0,0
-122.788560524858,89.978953439565,14.4510758192538,65.4944674797553,122.846260870682,87.5573607610817,-7.96122418584781,-65.4726091033811,0,0,0,0,0
-122.756723180747,89.8905396334548,14.4586833298597,65.487885337726,122.789951535827,87.5441644767576,-7.96278621962713,-65.4710469407372,0,0,0,0,0
-122.5181357888,89.847965319325,14.4731387819229,65.482473498596,122.458198037382,87.6375580856707,-7.9602818419863,-65.4707674892992,0,0,0,0,0
-122.085923344926,89.8398094222499,14.4948841709203,65.4764427056578,122.11572019386,87.7157374940029,-7.95941335211393,-65.4685025803952,0,0,0,0,0
-121.932123668253,89.267059411415,13.5119434728281,65.4515655105541,121.793424890291,87.7065456905482,-7.96429192841825,-65.4609777541344,0,0,0,0,0
-121.482833387418,89.2212675189328,13.4986700917254,65.4404795949361,121.470491640312,86.4683710382839,-5.81071404789438,-65.435851816059,0,0,0,0,0
-120.888055372882,88.9948860451382,13.5016249019769,65.4109065796287,120.896383113522,86.3189351632281,-5.66886212761548,-65.4147307649266,0,0,0,0,0
-120.530839556312,88.7416278726254,13.5155793550038,65.382622012241,120.662014317994,86.1488341665312,-5.67117261719784,-65.3981686361611,0,0,0,0,0
-120.214575837397,88.4038615738569,13.5385598014059,65.3473765186832,120.307189437319,85.9524719672773,-5.66547719659002,-65.3753653332461,0,0,0,0,0
-119.757103037339,88.0816302725909,13.5479167849593,65.307173003404,119.955865066873,85.7050886637343,-5.66321873355264,-65.3484699856115,0,0,0,0,0
-119.700428056006,86.5152670077668,11.3743234065098,65.2361488633631,119.617652898757,85.341275660387,-5.67082750902367,-65.3136848373327,0,0,0,0,0
-118.838484244862,86.0473792145758,11.3462968284657,65.1635793334908,118.888558315735,83.6502981114568,-3.43628354395773,-65.2526176430093,0,0,0,0,0
-118.338920185186,85.6063729927635,11.338184180243,65.1033777910752,118.425536388274,83.0920567939211,-3.42802133475826,-65.1954766288573,0,0,0,0,0
-118.037503524153,85.0976514021204,11.3481641394181,65.0435826621502,118.042351291118,82.4590002192111,-3.42723213976993,-65.1337371115845,0,0,0,0,0
-117.668626283865,83.5271379009096,9.09407529218854,64.9669017385556,117.144147900175,81.8806338827566,-3.34318261746446,-65.0432160858472,0,0,0,0,0
-116.569813112473,83.2396226150428,8.97444776568662,64.8778907515464,115.977514294039,80.0949941220324,-0.950479712233829,-64.9498958643615,0,0,0,0,0
-115.73762153677,81.8457088432783,6.60793779222277,64.7964805101384,114.816551862326,79.5975051749323,-0.772713491677592,-64.8313790526748,0,0,0,0,0
-114.437471315342,81.847698621384,6.42403550362891,64.7007893526119,113.26387391527,78.062488251914,1.77930357010945,-64.726702434666,0,0,0,0,0
-113.196269656874,80.6289199441635,3.94528725552405,64.6013276530226,111.89622397163,77.9703631429974,2.03706753632244,-64.5972824472951,0,0,0,0,0
-111.723241519468,79.4689211022199,1.39637849526059,64.4902376389666,110.31377944986,76.7151506441213,4.66472748421668,-64.503952970674,0,0,0,0,0
-110.04102292797,79.8096227645825,1.13482206448595,64.3385665548928,108.151087300554,75.5962639770551,7.45044544401972,-64.3614875883282,0,0,0,0,0
-108.200392815946,78.8950908069677,-1.51049207929131,64.1850245887011,106.437222003976,76.1136943452021,7.76538972277288,-64.1776713313029,0,0,0,0,0
-105.764427802012,78.1723627621225,-4.27610362159973,63.9578026078587,103.713698079433,75.0150819461368,11.4868784030239,-63.9955285293057,0,0,0,0,0
-103.913028395088,77.8280623709749,-6.54861843399962,63.7944073319558,101.159539349091,73.4214129685166,16.775600592288,-63.9787193810859,0,0,0,0,0
-100.80551437227,77.3170480099543,-9.34027281273143,63.4232702958034,97.9324735065531,73.0107966236885,19.8193436360248,-63.6801819751414,0,0,0,0,0
-98.0878394285438,76.9707527608469,-12.1620119200771,63.1004602431452,95.6077416321605,72.9263192066768,22.7405311103747,-63.5321173275693,0,0,0,0,0
-95.5425685476855,76.8371765861258,-15.0179673543736,62.8000991472374,93.643320849007,74.1050217998107,23.0528406156068,-63.1530186187912,0,0,0,0,0
-93.1215795773223,78.0613835420426,-15.2689167088577,62.2905846131049,90.6426003328223,74.1322609819691,26.1810204235111,-62.8294539273556,0,0,0,0,0
-89.7532216737235,78.2204173203081,-18.3208680035183,61.7332770194595,86.8286579944327,74.2381932129479,29.564558592941,-62.3136555388394,0,0,0,0,0
-86.1624188460453,78.6787802211297,-21.4677578232587,61.0749467459204,83.7396722642451,75.8618685243056,30.1074524321252,-61.5021017290113,0,0,0,0,0
-83.8190901168211,80.480232808547,-21.6458371194798,60.3730465989478,80.317291494442,76.4606150137416,33.4590391339257,-60.9550682006675,0,0,0,0,0
-81.5711228962535,80.947025971201,-24.6460179673416,59.982097385977,78.597288814483,78.3385226353049,33.6294723777505,-60.3367485682601,0,0,0,0,0
-79.9042593105061,82.8751883752042,-24.6730291924259,59.3545855404153,76.6360822191253,80.5128157794381,33.7936784871856,-59.5701286419749,0,0,0,0,0
-77.038874001697,83.5118059494253,-27.843676976995,58.7148874116797,73.3221990296913,81.4600604253673,37.1683916073603,-58.8785919587647,0,0,0,0,0
-73.989463785712,85.4148267519421,-28.1526895151658,57.5517327106226,70.168176194662,83.8301104865724,37.6114295369925,-57.5952773518487,0,0,0,0,0
-72.0836347737817,87.2620069050639,-28.2139323381108,56.6967441678222,68.3107380098206,86.1073595415834,37.7041576950136,-56.6491013077868,0,0,0,0,0
-69.7267497742574,88.9066720366806,-28.3890654047673,55.6700135721178,65.4057855548593,87.2345809557488,41.0741328180046,-55.9299325503739,0,0,0,0,0
-68.1419521208969,90.4679150475815,-28.4101664080468,54.8827253701055,64.001262645327,89.2859426479516,41.0941142853378,-55.0769369306855,0,0,0,0,0
-65.9410961572496,92.1752753810228,-28.5179315264355,53.8173589214344,62.390817739509,90.9057807844567,41.2440849955417,-54.2112927604998,0,0,0,0,0
-63.2868511721151,92.1088055606876,-32.0643485055001,53.152863478417,60.456959940238,92.084037599748,41.5661570422805,-53.3042729427515,0,0,0,0,0
-61.9814895919983,93.0705302776447,-32.1663721471679,52.4939785934093,59.175276254583,92.7255773252225,41.8072361851713,-52.7213604404396,0,0,0,0,0
-60.7765135519383,93.7233113065851,-32.3090391354471,51.9184255904968,58.0221482556218,92.991939971672,42.0869255410981,-52.2586011591119,0,0,0,0,0
-59.8247524443694,93.820208220796,-32.5118902715548,51.5366102814193,57.9551514755858,93.9957478875155,38.9595112612463,-51.5727766992343,0,0,0,0,0
-58.8337246584646,93.654852057539,-32.783186700647,51.1848221810154,56.8923991534725,93.2662918060586,39.4034070304531,-51.3359228952245,0,0,0,0,0
-58.5756757308378,94.6780220529585,-29.5415515776323,50.5572143588505,55.997023817105,92.4378253977502,39.8266498900921,-51.1751426203879,0,0,0,0,0
-58.2141356693494,94.3957779230987,-29.6843380416724,50.4619555770699,55.5449660889387,91.6881592434316,40.1114206691347,-51.1586995115055,0,0,0,0,0
-57.9362517708607,94.098648093462,-29.812749275058,50.4021442131099,55.0861949621078,91.2571854165618,40.3326796957699,-51.0727282129662,0,0,0,0,0
-57.7639187753221,93.8765254581194,-29.9012314457268,50.3712563326027,54.8566671420744,90.7896973534337,40.4967356667942,-51.0789499394327,0,0,0,0,0
-58.2585699337426,93.7500116915999,-29.8195524718407,50.5926090101202,56.085022087223,91.6402596611177,36.9592303699067,-50.9051724603406,0,0,0,0,0
-58.7254838117674,93.7534607440118,-29.7153967169713,50.7793281465857,56.5600892054619,91.5205470592065,36.8579002496103,-51.1109421438325,0,0,0,0,0
-58.2638915542364,93.8051681707278,-29.8059649709027,50.5851932274053,56.0951899099813,91.4519830714531,36.9969390646394,-50.9446733126721,0,0,0,0,0
-58.1581800857164,93.9614037023732,-29.7943725913824,50.5155256232957,55.8495500664026,91.4196817605199,37.0698611207017,-50.8557469597714,0,0,0,0,0
-58.0337381963309,94.0859678993925,-29.7939853839379,50.4436761296834,55.6268480966968,91.4664340765099,37.1197031442152,-50.760597048165,0,0,0,0,0
-57.9233666872456,94.3277527942962,-29.7640756495957,50.3567876211197,55.4820630517878,91.7338187722081,37.1009745971587,-50.6537805378234,0,0,0,0,0
-58.1679973075072,94.4888900497637,-29.6736140684072,50.4269617583039,54.8089088072421,90.6508075188494,40.5396493075881,-51.0882708542679,0,0,0,0,0
-57.843217562057,94.5807316413232,-29.7247293718482,50.2797768906238,54.4295273531915,90.8451382190056,40.6081133595811,-50.9063021843257,0,0,0,0,0
-57.9800250996106,94.653490660347,-29.6781131157532,50.3220893468974,54.5856146882442,91.0605785614984,40.5177984298127,-50.9227807022148,0,0,0,0,0
-58.1703506491737,94.5970333182529,-29.6488008638704,50.4087765940057,54.8105284826082,91.1825620026665,40.4275100964592,-50.9835992397435,0,0,0,0,0
-58.2776193906224,94.5896078058758,-29.6268321891544,50.4532431457911,54.9282956948358,91.2730900622054,40.3746565542106,-51.0100063793863,0,0,0,0,0
-58.34656177926,94.5215197112772,-29.6268949727963,50.4929987061357,55.0012280702796,91.2871809228242,40.350785366138,-51.0347090757451,0,0,0,0,0
-57.7280973498914,93.1258548129303,-33.1655499443683,50.8511573644136,55.0575820605369,91.2957294810811,40.3328082297687,-51.054244674889,0,0,0,0,0
-57.628574235128,93.1138536801672,-33.1924405312049,50.8142770392267,54.92258331192,91.3448212849672,40.3611410362041,-50.993493130277,0,0,0,0,0
-58.2562044708178,94.4568708567296,-29.6613876009252,50.468108446206,54.7828997252723,91.3820204552252,40.3933780888309,-50.9332840321046,0,0,0,0,0
-57.544971954349,93.0013469005183,-33.2375463624079,50.8020528666383,54.7551829563895,91.5381475821551,40.3684586700618,-50.8914724434199,0,0,0,0,0
-57.6024315921839,92.9695130001935,-33.2305193450591,50.8304741582015,54.820769734453,91.6594379277332,40.3241856149979,-50.8918426788558,0,0,0,0,0
-57.7326186118013,92.9119820761036,-33.2113525615308,50.8921284702648,54.9650012701994,91.799671602177,40.2534528037394,-50.9179666130962,0,0,0,0,0
-57.8777566286632,92.8376784643705,-33.192215705509,50.9626170518236,55.0789603490226,91.9291189001506,40.1936944478207,-50.9346920863305,0,0,0,0,0
-57.9937124537874,92.7831983663219,-33.1758767563991,51.0179644662273,55.2052939572604,91.9118637738674,40.1612895615746,-50.9857717744603,0,0,0,0,0
-57.9950118092386,92.5997133376384,-33.2156280509247,51.0517946766137,55.0683819394812,91.7293010599424,40.2386175951718,-50.9711647264404,0,0,0,0,0
-57.9704863538754,92.2799425530874,-33.2914786437906,51.0998713804814,55.0430635135417,91.3386715698983,40.327914514491,-51.0401755252101,0,0,0,0,0
-59.4294256343864,92.8414839436072,-29.7628428852799,51.2157390486132,55.8939178783463,90.7712103195165,40.2036136392904,-51.4725137926456,0,0,0,0,0
-60.1192778170063,91.694616688173,-29.8631338103145,51.6784934537045,56.4577812808921,89.6137171332889,40.283090324042,-51.9079376707095,0,0,0,0,0
-61.356041410227,89.9672703603873,-29.9646012048422,52.4350073203495,58.4471588774288,89.1844463656701,36.850191613514,-52.2568817658994,0,0,0,0,0
-62.9724808584966,87.570473133859,-30.114211468279,53.40686196015,59.9707625224433,87.0750417164519,36.8815661124997,-53.1866127586962,0,0,0,0,0
-65.0566746540933,86.2990002382898,-26.9608535333027,54.0066978057876,61.5345284659252,84.453184022682,36.9941534348858,-54.1721656189895,0,0,0,0,0
-67.9424803603666,84.21136163208,-23.877111643558,54.9758034008576,64.677000509985,82.0320518783447,33.7628670286663,-55.1692503398376,0,0,0,0,0
-69.9616743529185,81.4206869336608,-21.1547106424359,55.6043341324656,67.263615761941,79.1357766600551,30.8191610327568,-55.9459307721664,0,0,0,0,0
-74.2166194750422,78.123128163021,-18.1917098063593,56.9185248047068,70.6359985493236,74.4661947878188,30.8489682075626,-57.4296767361936,0,0,0,0,0
-77.9512053435186,74.1371657315834,-18.2363957265913,58.1664571553836,75.3504273337063,71.6968100806922,27.4044953802311,-58.5690238351238,0,0,0,0,0
-80.2989387289465,72.4340064477691,-15.3473734477815,58.5036547373202,78.0714653713419,69.6025256053721,24.3696961831083,-58.9481317359341,0,0,0,0,0
-82.9922884817351,71.3921302573622,-12.3437372454636,58.9133638820212,80.91898301137,68.5240382798409,21.1930309227159,-59.3114789554169,0,0,0,0,0
-85.5543427938195,69.5119677833583,-12.1728322412687,59.503331594459,83.1218286395699,66.4729203428966,20.9638143862753,-59.8215104409911,0,0,0,0,0
-89.0722559849436,67.9035055665317,-11.7529626178789,60.2812273936796,85.937020600771,66.1888672664359,17.7504197994827,-60.1131524458422,0,0,0,0,0
-92.4806010398665,68.0701696906611,-8.5937897801557,60.7717910146812,88.551327323607,64.9588557843316,17.3117730758969,-60.6562264427972,0,0,0,0,0
-96.4768119863158,67.9564167895618,-6.24631107155869,61.4091813663612,92.1869835755429,65.4242693640617,13.9553525154092,-61.1349664371268,0,0,0,0,0
-99.5910507714683,67.5211114427472,-5.31537139767761,61.9004675332114,95.2619411303766,64.9823624262101,13.3679262796852,-61.7325202712754,0,0,0,0,0
-102.974899870144,69.1210895728862,-1.68427093819369,62.3440639655341,99.008649946526,65.6264709943657,11.4672764829227,-62.3476613445144,0,0,0,0,0
-106.267028503917,69.4078920853151,-0.614608331806892,62.8193439589033,102.548527144755,67.3554094319736,7.71229013119921,-62.745235973431,0,0,0,0,0
-109.146367376578,71.4734212765669,2.70629230755117,63.1907732667527,106.185986613639,68.3276525698268,6.38869901105548,-63.3138346685708,0,0,0,0,0
-111.633295014871,72.2832690198607,3.45491259947207,63.5431178491679,109.199179715624,69.3997699038043,5.34379688499612,-63.7542931400175,0,0,0,0,0
-113.769736630628,74.3990801378743,6.35493981113839,63.8074094486208,111.89882920503,71.8360786479982,2.18085317628814,-64.0426910531602,0,0,0,0,0
-115.118119975432,75.3097432521921,6.68131380363926,64.0261652180199,113.851516793965,73.1233072453251,1.63623610861586,-64.3357459109908,0,0,0,0,0
-115.953226382922,77.6708674158564,9.11372428737707,64.2217280518492,115.159300395877,74.4369964167838,1.32316052046457,-64.5600914225531,0,0,0,0,0
-116.976050250844,78.7801779244993,9.27312176127822,64.4215082542975,116.12258232894,76.9738917947848,-1.10219978227232,-64.6992341504766,0,0,0,0,0
-117.409060943086,80.1712388927068,9.27267127253037,64.6098671667917,117.147745234041,78.3103636345138,-1.24450105135591,-64.8796339770618,0,0,0,0,0
-117.602151091602,83.0813742644283,11.4402093074912,64.8238141890836,117.719258437525,79.6398813369582,-1.26640136303922,-65.0189828317271,0,0,0,0,0
-117.927923593091,84.51981988566,11.3792351309291,64.9843835239194,118.280802623875,82.0180172472928,-3.4919161374618,-65.1146135354312,0,0,0,0,0
-118.771927355756,85.8778031211307,11.3552640935937,65.1462852121809,119.180535785574,83.0706114671818,-3.52186226640296,-65.2289170507238,0,0,0,0,0
-118.945010936803,87.1219414468304,11.2583297064902,65.2547932139478,119.559531074912,84.1263279338543,-3.46574814438344,-65.3099997931181,0,0,0,0,0
-119.535398901789,88.1109017845151,11.2001868014242,65.350697897617,120.16934267136,84.9276036251677,-3.44407583599789,-65.3777021442874,0,0,0,0,0
-119.782821645231,88.6769186203206,11.1540990523261,65.3979929384207,120.485791309973,85.323440625043,-3.42871951595379,-65.4089830093232,0,0,0,0,0
-120.126444044455,88.7946804150763,11.1565642632374,65.4173876857868,120.64947512584,85.2993027573445,-3.44573701528071,-65.4132049910649,0,0,0,0,0
-120.067316485504,88.5560130912103,11.180306493389,65.3997852592826,120.509452115136,85.0123483522055,-3.46615228620504,-65.3939710777864,0,0,0,0,0
-120.422996884772,87.9945929698243,11.2624654473237,65.3725415246464,120.86204143398,85.6945125029096,-5.74128788406824,-65.378442950144,0,0,0,0,0
-120.410659932213,88.5587799956775,13.531084052131,65.3651754902875,121.141692417139,85.1430113760963,-5.834254020728,-65.3528844425608,0,0,0,0,0
-120.470635707637,87.9304191542324,13.6089964606145,65.3162612094459,121.091386916403,85.8315477263914,-8.07327098488196,-65.3281330866901,0,0,0,0,0
-120.491065352339,87.4502612214573,13.6674572119324,65.276186024841,121.059817809089,85.4203894353295,-8.12162894186915,-65.2980381627302,0,0,0,0,0
-120.808395745681,87.1825386040428,13.7237674736151,65.2608850982454,121.365436803724,85.1970026561503,-8.17998036252988,-65.2894305273782,0,0,0,0,0
-121.090927929877,87.0849981953742,13.7583648322948,65.2587179341135,121.493672522111,85.0841821136503,-8.20774135250926,-65.2840183364845,0,0,0,0,0
-121.177040664683,87.1827025765639,13.7524303342425,65.2692614210109,121.333068840284,85.0358866955451,-8.19751067344029,-65.2765426979316,0,0,0,0,0
-120.882428035498,87.273278931015,13.7180296105408,65.270656564929,120.945660276889,84.9684163320059,-8.16597771095096,-65.2613280828462,0,0,0,0,0
-120.762946741756,87.3219435723074,13.702989736947,65.272038806626,120.832159631672,84.8546309432541,-8.16794805456814,-65.249448506113,0,0,0,0,0
-120.588508010717,87.3974429318612,13.6808359787397,65.2741935565674,120.580054416024,84.7295705984906,-8.15600912481301,-65.2323520639773,0,0,0,0,0
-120.410717563514,87.4903829558765,13.6569188303374,65.2774570075718,120.484920614789,84.5630549248329,-8.16490472833797,-65.2163976050008,0,0,0,0,0
-120.378765943008,87.44835722958,13.6595859971989,65.2729473180833,120.362985085473,84.3245659966746,-8.17832265731207,-65.1935503097142,0,0,0,0,0
-120.419243117795,87.3690758676102,13.6718329483581,65.2671939625293,120.287282341885,84.0775934643087,-8.19713298820321,-65.1710097627536,0,0,0,0,0
-120.211453862695,87.3133656951575,13.6629979603465,65.2564506442555,120.108239637973,83.8330577663418,-8.20252010471575,-65.1447396541951,0,0,0,0,0
-120.298967873654,87.1024021494799,13.6938639556599,65.2403750244812,120.179352900905,83.5139226631852,-8.24589408354393,-65.1199469532696,0,0,0,0,0
-120.58783262658,86.8427945425919,13.7476490017301,65.2248695807104,120.207996741953,84.4767157364524,-10.4755013340967,-65.115732476566,0,0,0,0,0
-120.77599419923,86.6566362893988,13.7862968850161,65.2125261668857,120.338862944883,84.2464338190243,-10.5166215375887,-65.0986503571435,0,0,0,0,0
-120.5620275957,86.5209329957196,13.7841262504418,65.1945364786258,120.168616015602,84.0650555686454,-10.5162930365587,-65.0764318542038,0,0,0,0,0
-120.614137665215,86.4747984152901,13.7942950261271,65.1915658546596,120.13998945717,83.9729185778712,-10.5228731921944,-65.0668347908565,0,0,0,0,0
-120.649272451085,86.4615941815501,13.7990314888083,65.1912211496844,120.161967664339,83.9047471750275,-10.5330876210441,-65.0610662410783,0,0,0,0,0
-120.53943256806,86.4673564406777,13.7884785883813,65.1889347962274,119.961298193177,83.8759489829496,-10.5111436243091,-65.0518037399401,0,0,0,0,0
-120.368931932379,86.4621435519911,13.773938847442,65.1838597784183,119.744292453072,83.8666024528525,-10.485083268708,-65.0434892060182,0,0,0,0,0
-120.286484832287,86.4871523794706,13.763783830792,65.1838961165805,119.748900197755,82.7028393417665,-8.27393527006083,-65.0327137800937,0,0,0,0,0
-120.34173485684,85.247635987229,11.5716474087237,65.1477994788648,119.505452446669,82.6836914574927,-8.24191630607649,-65.0219307660009,0,0,0,0,0
-120.228393011746,85.2129922528239,11.5636603770061,65.1412037536509,119.240344198719,82.5840389405188,-8.2144097778737,-65.0023714838397,0,0,0,0,0
-120.006652888084,84.9137380075782,11.5728210036426,65.1065526499583,118.984091323624,82.3925488712126,-8.19551078783394,-64.9740024167107,0,0,0,0,0
-119.583904589758,84.4293687744345,11.5756026978802,65.0460930180126,118.600167465376,81.9182662181118,-8.17980592273273,-64.912115443711,0,0,0,0,0
-119.233407213606,83.7964054813432,11.5948767574678,64.9705039747884,118.401389459531,80.1479242234474,-5.96872868142114,-64.8485605227479,0,0,0,0,0
-118.662039851834,82.9981927610089,11.5909779999016,64.8645542981697,117.977166105964,79.5901030427988,-5.93454803329408,-64.772859972085,0,0,0,0,0
-118.178187477371,81.8716315429666,11.6108806968009,64.7188261784995,117.342660359993,78.9498716777828,-5.85791715475827,-64.6742595964926,0,0,0,0,0
-117.328668551189,79.4753662411555,9.30106128076847,64.5245656043524,115.981665251585,78.1702793551701,-5.62935197625288,-64.5112157118787,0,0,0,0,0
-115.772462770699,78.4362765638379,9.04764906860348,64.3078715000059,114.301421544956,76.2184818292483,-3.01877056979094,-64.338625543434,0,0,0,0,0
-114.191119741041,76.4140420717213,6.44280495838703,64.1034326140574,112.342239564926,74.3534999194796,-0.262559020287824,-64.1551577179752,0,0,0,0,0
-111.96188685127,74.5544004891425,3.60211605614199,63.865979948356,110.041403581356,73.8853209198325,0.32637238403268,-63.8870364843536,0,0,0,0,0
-110.301735658457,74.1371014853775,3.1729740762911,63.6556496460898,108.056274695479,72.2401340417883,3.22107932763407,-63.7038229557687,0,0,0,0,0
-108.113867765555,72.483319552341,0.214538537962937,63.4203081257647,105.478627297638,70.5375648236832,6.36523260956739,-63.4515207923755,0,0,0,0,0
-105.606842240114,71.0558921399288,-2.8897795887294,63.1718945555491,102.962474726547,69.1394393015422,9.54219813872851,-63.2390723982393,0,0,0,0,0
-103.283154819677,69.924272627253,-5.97109656250953,62.9775130312358,100.49359021118,67.9861075331644,12.7340354509895,-63.0608383536607,0,0,0,0,0
-100.05544857654,68.9981101559592,-9.34829285276271,62.6639802301119,97.516012269604,67.4747071429923,15.2835492328417,-62.7513238290277,0,0,0,0,0
-97.6272198236478,68.1646014561445,-12.7535456419074,62.5071897120216,95.2929734651664,67.0862806199986,18.2410402262729,-62.6473564624011,0,0,0,0,0
-95.3728022507503,68.9962059311416,-13.1137820318154,62.138046933443,92.4262556139916,66.9043858406532,21.3836513021488,-62.4336827462818,0,0,0,0,0
-91.6342088909621,68.7410696191072,-16.3564630176891,61.6546851667858,88.8329555122932,67.2008742273891,24.72696805303,-62.0752057043639,0,0,0,0,0
-90.0678871141625,68.874579317345,-19.2090207070581,61.6621453670816,87.5906690243334,69.1487055669273,24.8373983305123,-61.8459918188896,0,0,0,0,0
-88.3007076061825,70.7523430380301,-19.3880445803482,61.3256697940742,84.7898653472461,70.2716513359857,27.9519312539069,-61.5829264743674,0,0,0,0,0
-85.0071235086879,71.7199169661744,-22.5534988362616,60.880460611332,81.1473522579177,72.0572960816955,31.2349321565214,-61.0423686164644,0,0,0,0,0
-80.6790934925564,73.2709759152811,-25.9321965622291,60.0885299988192,76.3177885573597,74.312169008127,34.813479879379,-60.0568291253828,0,0,0,0,0
-77.3460793796581,76.4584688630168,-26.1978744043326,59.0169574072804,72.2738680542095,76.709577429119,38.218937235153,-59.1451117654465,0,0,0,0,0
-74.3953860156984,78.6671292697977,-29.2246669179248,58.3469457059028,69.0364412469251,79.1141843359121,41.4434451710883,-58.3712473388763,0,0,0,0,0
-72.2868404279369,82.2871012452151,-29.0721227325905,57.3468486017289,67.1125692497476,83.1763672264668,41.3099338309968,-57.1793328756589,0,0,0,0,0
-68.6871244677227,84.9454859133772,-32.2180224153929,56.1889422989307,64.7642771730074,86.9890708223651,41.3006622342672,-55.7688184775124,0,0,0,0,0
-66.3301139493515,88.996599273732,-31.9896422952045,54.7769290767445,62.0107475396304,89.0845893177434,44.5126919886849,-54.9176091125278,0,0,0,0,0
-64.6159458729144,92.4475690681264,-31.6920220389486,53.5789024889233,60.795400238618,91.8051113221322,44.3715884451229,-53.9287157261647,0,0,0,0,0
-63.0328627921294,95.3929804143471,-31.4443118744963,52.4474641937362,60.4190719429427,94.8135659818905,41.0475499248627,-52.6835503248177,0,0,0,0,0
-61.0821440213578,97.8833740803085,-31.3576407497206,51.2149975341132,58.2359688765195,96.0746375312775,41.4134303225641,-51.6308221588591,0,0,0,0,0
-58.7367792832764,99.2310731719027,-31.5960217917769,50.0318266851178,55.9409204906593,96.4926347008496,41.9860434514565,-50.7167252720561,0,0,0,0,0
-57.0001329761746,100.022427674997,-31.820909793642,49.182918146024,54.5479230234632,97.7473219884178,39.1138193635839,-49.4722995201599,0,0,0,0,0
-55.4921321174447,99.9737904511621,-32.1843449429459,48.595802514998,52.8556232116902,97.3338823634664,39.6758152602011,-48.9252746483485,0,0,0,0,0
-54.7813820648048,101.017792851833,-28.9248044685207,47.7926337942661,52.1268377178648,98.0891158743244,36.6048182282082,-48.0341088152147,0,0,0,0,0
-54.1484306232342,100.363690090593,-29.2150994355161,47.6641468378712,51.360656351697,97.4346532504064,36.9579344608611,-47.8703336464349,0,0,0,0,0
-53.2812841434235,99.4166761636814,-29.6299701368925,47.4921495715706,50.3751400426191,96.6271326317736,37.4091231609181,-47.6461369897689,0,0,0,0,0
-53.027990127121,98.3707416305317,-29.9330843062231,47.5904239847791,50.9567536117444,97.0929982783617,33.9596652473608,-47.3488949374002,0,0,0,0,0
-53.6036325431368,99.0516600233137,-26.391209389357,47.4063484677164,51.1367344116953,96.4427119127245,34.0639975010427,-47.5526943604425,0,0,0,0,0
-54.3062415723792,98.5722393412287,-26.3628374771404,47.7943483557289,51.9747667265093,95.8722954386508,33.9811887851042,-48.011235409198,0,0,0,0,0
-54.5433240047544,98.2030318493819,-26.4028472479649,47.9619015856882,52.2628602510901,95.3283695766714,34.032673716727,-48.2355225758197,0,0,0,0,0
-54.9522049035103,97.7805400665272,-26.4205272091675,48.2113060920973,53.3825740841408,96.1061440496084,30.3834332730147,-48.1657155234641,0,0,0,0,0
-55.2301097604344,97.531070152756,-26.4234826575989,48.373453816605,53.7874306213541,95.7685270770524,30.3688367123669,-48.3972035686243,0,0,0,0,0
-55.5700572347911,97.2722276307344,-26.4160883116425,48.5629937754777,54.340293321367,95.4006917932812,30.3272718075177,-48.6949218381212,0,0,0,0,0
-55.0905673546876,95.6523370874364,-30.0973537711506,48.9612249275357,53.9699386806807,93.8337779962211,33.9402167092307,-49.2178874579701,0,0,0,0,0
-55.4782853167305,95.4149931896176,-30.0642113584655,49.1645939039181,54.4224847554473,93.7392879529778,33.84756907344,-49.4191456995131,0,0,0,0,0
-55.5906751816752,95.2210441610748,-30.0834226322319,49.2459428751218,54.6522048901442,93.7422175149281,33.7891477618632,-49.5115242887846,0,0,0,0,0
-55.6468045462456,94.9682715919878,-30.1288863642416,49.3144044973812,54.7623109667483,93.6558230305463,33.7809508065875,-49.5720862905112,0,0,0,0,0
-55.6254014687037,94.8574747170263,-30.159253364181,49.3253457114726,54.8270875881313,93.636074150403,33.7691629155284,-49.6019065739143,0,0,0,0,0
-55.607495504425,94.7995203174751,-30.1766890635067,49.3282790187793,54.7939810204725,93.6607808242597,33.7718974530593,-49.583948940183,0,0,0,0,0
-55.8684880761975,94.7229032418705,-30.1350778974506,49.4494405418524,54.9077849864107,93.5496161135626,33.7683591991881,-49.6505164599549,0,0,0,0,0
-55.8837210604306,94.738080341405,-30.1281434941784,49.4530145688747,54.9493085490142,93.5227427757019,33.7640069477648,-49.6722440418999,0,0,0,0,0
-56.2326833389251,94.5655030276521,-30.0886708034453,49.626966845704,55.1290875574287,93.097809944777,33.8143065269648,-49.8230386042488,0,0,0,0,0
-56.517923562548,94.3642736570989,-30.0702383671493,49.7793103012428,55.2904427572047,92.6428395128736,33.875744829576,-49.9709213215414,0,0,0,0,0
-56.4080021368011,94.2092270517647,-30.1305081745589,49.7615408871321,55.0695952141264,91.9543921785611,34.0856036178928,-50.0057327040867,0,0,0,0,0
-56.9589905294079,93.5880067047157,-30.1474682434275,50.0945391473594,55.6653778777731,91.0025409613724,34.1474054734473,-50.4123218540791,0,0,0,0,0
-57.937566219454,92.6687430657976,-30.1344655831687,50.6475917414485,56.8013751132521,89.7957791844928,34.1271219812007,-51.070441523306,0,0,0,0,0
-59.1266753414251,91.1381574643814,-30.2083361365871,51.3751225312183,58.6070822968248,89.4998113014301,30.6912215834369,-51.4232695682176,0,0,0,0,0
-60.757000770727,89.2361470877885,-30.2577265595044,52.3127372706064,60.120812506736,87.2448568710852,30.8371989501292,-52.3520516043786,0,0,0,0,0
-61.6039459144843,86.8901786278096,-30.5706296260311,52.9779388548164,60.9618659904361,84.6502404163753,31.2003326062721,-53.0241847262318,0,0,0,0,0
-64.7367587287175,84.8845627439235,-27.3243065725302,54.0467817214964,63.4828880196457,81.1448306010491,31.3317954989476,-54.384876037607,0,0,0,0,0
-66.3388150345681,81.0297969651393,-27.7734474799048,55.0256478937824,66.0385676735815,78.6191821698615,28.3242036449159,-55.1095235107026,0,0,0,0,0
-69.5328832664433,76.5187200339221,-27.9333415298445,56.4904439749089,69.9139801603446,73.9824050158379,28.3095410022436,-56.7456507528074,0,0,0,0,0
-73.6503535021712,73.8120415495968,-24.6879169442162,57.5544712966013,74.501218593384,71.2465713304501,24.9279004626413,-57.8608593075455,0,0,0,0,0
-76.7357339553793,70.3175300145635,-24.5681710939421,58.5549416030207,77.7517165719112,67.5553708949064,24.7378723677139,-58.8141869504119,0,0,0,0,0
-79.2955508616646,68.022388023532,-24.3082792714788,59.2729554314782,80.5944959679372,66.5347812283451,21.5248064880911,-59.1305581964616,0,0,0,0,0
-81.8454511482915,66.3174553040771,-23.9226767106172,59.9199496062405,82.8109022945602,64.4630658676564,21.2664667607618,-59.6123154080892,0,0,0,0,0
-85.8962989692571,66.0471490432702,-20.3873602094935,60.5119080957094,86.4488139883014,62.8101575116586,20.5723342317099,-60.4026250506108,0,0,0,0,0
-90.3177702758575,66.1483590423894,-16.8361581191246,61.1682090273713,90.2401794189621,62.956225261662,17.0992992809141,-60.850411984802,0,0,0,0,0
-95.3154987984897,66.4094251646227,-13.2801401000717,61.8932848666631,95.0718514242906,63.4576717206013,13.4208552082835,-61.5076967966841,0,0,0,0,0
-99.8401328958358,67.1747383779621,-9.76662708516997,62.4707306135531,99.6206248700734,63.4837715319674,11.6535006534807,-62.2247146594751,0,0,0,0,0
-104.057698861447,68.6478361991466,-5.91274060818242,62.9530738986787,103.649193667946,65.3731352009858,7.61502516625163,-62.667635195058,0,0,0,0,0
-107.562787734079,69.2903729066217,-4.73664865257715,63.4497281794134,107.568261070552,66.5758173157479,6.08251873265237,-63.2612195549369,0,0,0,0,0
-111.012893904519,71.3335530968321,-1.3133972431782,63.7991190832681,111.172674697151,67.8507401972117,4.77009417694583,-63.7485351247766,0,0,0,0,0
-113.466396411651,73.5791617527728,1.68469620911247,64.0644948807712,113.880828012619,70.4999361003072,1.60554450809568,-64.036392734867,0,0,0,0,0
-114.869319272395,74.5292249235038,2.03522486167168,64.2774034168088,115.336452838132,71.8906122890647,1.2004472676673,-64.2958434485123,0,0,0,0,0
-116.134418745179,77.1878415611296,4.54672024979072,64.488816461904,116.873708842662,73.6467230958746,0.851298211742119,-64.5769853929886,0,0,0,0,0
-117.495500610072,78.5250395451165,4.75788509032546,64.7083718265638,118.382849713961,76.6726181548796,-1.61308894059232,-64.7882597034567,0,0,0,0,0
-118.098415687423,81.1183873563281,7.003696785177,64.8677931698322,119.012409173638,78.2288032047642,-1.61634767604303,-64.9612358120801,0,0,0,0,0
-118.830070443648,83.7378608419808,9.22000801049154,65.0418030708339,119.874945457563,80.9920864845684,-3.8208073824382,-65.1037499542477,0,0,0,0,0
-119.30421144189,85.1321961400248,9.14606338032783,65.1798609799181,120.310097123282,82.3830662470592,-3.73730812778231,-65.2250480719918,0,0,0,0,0
-119.537396079948,86.3515810974759,9.0487477456191,65.2810300259415,120.575828255467,83.5233848433531,-3.64297790371904,-65.3104568059737,0,0,0,0,0
-120.075767178834,87.3424497916592,8.98447106974368,65.3676981229693,120.870469971185,84.5985736395354,-3.54894691537856,-65.3832927483941,0,0,0,0,0
-120.988206940635,88.1032523168875,8.9486670692427,65.4426989889836,121.468159513235,85.4865867468884,-3.63544052715855,-65.4426050057148,0,0,0,0,0
-121.229477575631,89.3631306773348,10.1073763940028,65.4991668324611,121.898232685972,86.0372657599687,-3.60641400386885,-65.4789870363911,0,0,0,0,0
-122.033771365926,89.7245059438638,10.0588480862074,65.536260835424,122.591262623337,86.3771480179374,-3.59186965256114,-65.5081564976952,0,0,0,0,0
-122.701883513266,89.7587152103562,10.0344630927649,65.5488452589418,123.135169761548,86.2663512814543,-3.60612816230872,-65.5122353819685,0,0,0,0,0
-122.628152977029,89.6735073062831,10.0426407806941,65.543448690944,123.247688724414,87.1577466988165,-5.76493645996052,-65.5049216806084,0,0,0,0,0
-122.209689465416,90.4157896865783,12.2318485868039,65.5489130302494,123.140647250803,86.6678957505352,-5.80061207454619,-65.4797190557048,0,0,0,0,0
-122.161289113415,89.9052193233985,12.2668837820812,65.5178252321899,122.922500231922,86.2664660087186,-5.8289134958909,-65.4558356752343,0,0,0,0,0
-121.884811429446,89.225276417857,12.3211994801245,65.4698318797191,122.564218221368,86.8703467485142,-8.01166441179745,-65.4285221356288,0,0,0,0,0
-121.747229989092,89.1302238397358,13.5231508318618,65.4385261188419,122.758132414129,86.2559545452641,-8.05351226927962,-65.3935166599218,0,0,0,0,0
-122.14394478112,88.6392440404049,13.6142504824081,65.4072767863926,123.126199712041,85.754602168464,-8.27064820360374,-65.360191294856,0,0,0,0,0
-122.41327003602,88.2935948527087,13.6820206979253,65.3832323929179,123.329276004887,85.3111568499257,-8.36266136216722,-65.3296957871913,0,0,0,0,0
-122.490514968218,89.1653940320252,15.9027393089148,65.4009062711645,123.694221875474,84.9436463298179,-8.46297903303693,-65.3040345626525,0,0,0,0,0
-122.550671418224,88.891771254383,15.9490898003662,65.3776865464062,123.341085333728,85.6751790292588,-10.6506791551809,-65.2797238206772,0,0,0,0,0
-122.871597641955,88.8052358420857,15.9817763075964,65.3719196600364,123.503207574722,85.3016225184558,-10.7302225337784,-65.2488387846543,0,0,0,0,0
-123.180555614388,88.7191935775172,16.0148832068383,65.3652434495887,123.667857064965,85.0498741376256,-10.7913554141605,-65.2274394973166,0,0,0,0,0
-123.177293693753,88.6859134421319,16.0202890796188,65.3622712723409,123.489545123583,84.8910021038933,-10.7977283185887,-65.2126060693124,0,0,0,0,0
-123.209636244976,88.62554006805,16.0325386972862,65.3569211543096,123.492229607481,84.6818914452741,-10.833180436219,-65.1936983248906,0,0,0,0,0
-123.080388350219,88.5518760574386,16.0365977764527,65.350027885721,123.460307790618,84.5718965017423,-10.8477402644784,-65.1834698888591,0,0,0,0,0
-123.080171332078,88.5149075480748,16.0427597454896,65.3466847959328,123.266281545193,84.4725560294494,-10.8403862881664,-65.1732498500622,0,0,0,0,0
-122.920610685441,88.4563409402235,16.0419466377264,65.3408546719649,123.093100949551,84.4978155905118,-10.8149663735017,-65.1743997373134,0,0,0,0,0
-122.696619278444,88.3718692509809,16.0407487563876,65.3320672270117,123.11292317499,84.5340717131862,-10.8115389442896,-65.1778965253193,0,0,0,0,0
-122.418512952976,88.2554531767736,16.0402825896716,65.3194432067087,122.927835196063,84.5022765110699,-10.794090157934,-65.1734392275706,0,0,0,0,0
-122.22629440223,88.203784919284,16.0350378862739,65.3129620592872,122.725020938481,84.6013546063185,-10.7541253997032,-65.180538740335,0,0,0,0,0
-122.189017241909,88.1401179675917,16.0421145048805,65.3066785591462,122.537820602625,84.6201962686155,-10.7289509770481,-65.1800963045918,0,0,0,0,0
-122.1501270553,88.1590374763791,16.0365411263103,65.3080478184078,122.461373948288,84.7338427525357,-10.702868906674,-65.1894370769255,0,0,0,0,0
-122.212459621709,88.1518303640715,16.0419640145212,65.3080002132515,122.435468721262,84.7839076316001,-10.6923755884192,-65.1936056799195,0,0,0,0,0
-122.139812413383,88.199558225837,16.0297473414194,65.311705601097,122.52265189433,83.6462465997732,-8.52958843393159,-65.1863637755344,0,0,0,0,0
-122.038998219702,88.1917187250753,16.0240046097209,65.3098920677665,122.445374649718,83.6787596619083,-8.51466577516365,-65.1880974295724,0,0,0,0,0
-122.038222181411,86.977409213554,13.8508488382976,65.2659839550317,122.136594121788,83.6042682726146,-8.48549538335809,-65.1767866633593,0,0,0,0,0
-122.075043762802,86.9701040306964,13.8550024813651,65.2658294956997,122.131563290536,83.6612974863562,-8.47669105769123,-65.1816498044753,0,0,0,0,0
-121.934440348253,86.8282326144102,13.8635645192475,65.2509224144843,121.881484075527,83.5960456133274,-8.45358019921957,-65.1714775792357,0,0,0,0,0
-121.474846429648,86.655448488194,13.8475177019401,65.2273721029732,121.423497408764,83.4357371994648,-8.41547477900025,-65.1478987187434,0,0,0,0,0
-121.324308213286,86.4553403564385,13.860889993471,65.2058072424846,121.197602957761,83.2754423624476,-8.40619523693505,-65.1284036874101,0,0,0,0,0
-121.181683442373,86.193764912923,13.8820072636046,65.1780516638883,121.108883503822,83.1174439749008,-8.41408535712696,-65.1120784022424,0,0,0,0,0
-120.763596547036,85.8993227716966,13.8785793999905,65.1400960850564,120.652635551572,82.8801465465339,-8.38017330287829,-65.0782674085878,0,0,0,0,0
-120.610897961626,85.6570631540006,13.8926038697616,65.1123578890099,120.659010104496,81.4798026641912,-6.21446802572589,-65.0585153643727,0,0,0,0,0
-120.369637634334,85.4181456468464,13.895578503903,65.0819888881847,120.212780914847,81.2675957026579,-6.1674016113071,-65.0255862770526,0,0,0,0,0
-120.199981110492,85.2187549345504,13.9001391990109,65.056898052745,119.950323211972,81.1240506033491,-6.14041195873011,-65.0036535477735,0,0,0,0,0
-120.314935679004,83.9206683785321,11.7191615278331,65.0195919525423,119.600471586525,81.1482758351026,-6.08153272747566,-64.9933333627195,0,0,0,0,0
-119.847001183481,83.9783172945548,11.6538038676435,65.0107441558066,119.175025739325,81.3436218932675,-5.99561012202469,-64.9944103323401,0,0,0,0,0
-119.134522450724,84.0311795008848,11.5605260414041,64.9902233386574,118.468288853859,80.3301381957451,-3.65135896862753,-64.9908853589197,0,0,0,0,0
-118.811428346045,82.9350805108532,9.28703379042946,64.9666642836588,117.780645054941,80.5628356008228,-3.52109651047334,-64.9763961750117,0,0,0,0,0
-118.267895150431,83.0237705184636,9.20692398305192,64.9504409745287,117.048556101518,79.6132952037723,-1.15237556606763,-64.9802434936527,0,0,0,0,0
-117.701149564133,83.2287435431841,9.11824260639557,64.9412945154501,116.354841618772,79.9005787530525,-1.02052559444508,-64.9601093736936,0,0,0,0,0
-117.06693647121,82.2196727192862,6.77831647500028,64.9138028531884,115.480141533253,78.9880162784032,1.38918406660306,-64.9611404241868,0,0,0,0,0
-116.090614210423,82.5495159932989,6.63001070228381,64.8814300441878,114.518757851349,79.355048474485,1.56358715015915,-64.915483193582,0,0,0,0,0
-115.525781150103,81.5911582697007,4.28003089432679,64.8651442394031,113.625368322156,78.4023978993411,3.99437928291732,-64.9147099082846,0,0,0,0,0
-114.920336505568,81.9910704462416,4.18541294205627,64.851596039874,113.039265391244,78.8073056438475,4.09702617050669,-64.8881936835963,0,0,0,0,0
-114.284041492247,81.1475558546622,1.81234619535209,64.8436584087746,112.430946178514,77.9608808630973,6.49010263215496,-64.924395771451,0,0,0,0,0
-114.037357539861,81.5090388460775,1.77416142515742,64.8479901560676,112.344248740902,78.3714011510332,6.49974180060531,-64.9355983092614,0,0,0,0,0
-113.626545979229,81.939659062659,1.71724660477841,64.8410876019506,112.44112963157,78.8690813827302,6.47577943233108,-64.9657322536821,0,0,0,0,0
-113.563474338371,81.0230719765545,-0.581360383411351,64.8817762793288,112.26507175444,79.2394525085128,6.49910842885214,-64.9646258172887,0,0,0,0,0
-112.758236550523,81.2076236404089,-0.693526136798653,64.820304315873,111.60560306094,78.3219559083048,8.90228113272278,-64.9979408465315,0,0,0,0,0
-112.075559315076,81.5174731183553,-0.780784031877062,64.7720265590627,111.098896848501,78.7101834670452,8.97744575413643,-64.9614340243183,0,0,0,0,0
-111.607497751704,81.7482693156996,-0.835895184236108,64.7371810400651,110.676227465258,79.078315378329,9.03355947069568,-64.9294919205284,0,0,0,0,0
-111.305688277694,80.7760581204126,-3.18946990909421,64.7627163839012,110.522851147596,79.5709015762274,9.03757482380783,-64.9258029424817,0,0,0,0,0
-110.700698299399,81.1840561236786,-3.25706140611518,64.7168433132107,110.09091002196,80.0852181083192,9.07877924168369,-64.8910157724242,0,0,0,0,0
-110.206406600556,81.4105483179578,-3.31188432524229,64.6718965575445,109.456715157918,79.7069646615338,10.6769362997585,-64.8927909923906,0,0,0,0,0
-109.909975048019,81.7281827301443,-3.33271663234646,64.6506927895859,109.068040779898,80.2546006759947,10.7145346869222,-64.8559693993261,0,0,0,0,0
-109.867467335491,82.0225927703007,-3.32113219304395,64.656563402619,109.05046401811,80.753320274707,10.7115075502586,-64.8587464840159,0,0,0,0,0
-109.844396024961,82.2856817457941,-3.30869296968621,64.6630303453522,108.992169213834,81.0978488714469,10.7138858009088,-64.8542867599295,0,0,0,0,0
-109.858166717311,82.537752951717,-3.29248273260848,64.6729413963349,108.907172791365,81.333127693223,10.7197972846409,-64.8454550609326,0,0,0,0,0
-109.807489884575,82.7119739924076,-3.28798605226561,64.6725960603628,108.953645745276,81.5175698588512,10.713032510833,-64.8514714487145,0,0,0,0,0
-109.69660148759,82.6976758450796,-3.59597288100309,64.6704918031817,108.830366567081,81.6545484152192,10.7235510143954,-64.8372822613778,0,0,0,0,0
-109.740741984224,82.858668778768,-3.5922190961459,64.6807076323366,108.904630773326,81.6582056242577,10.7161947557316,-64.8460174966452,0,0,0,0,0
-109.585770105262,83.0617342871991,-3.59962671924652,64.6683219481166,108.975586473177,81.6870906894084,10.7088959248607,-64.8543627623429,0,0,0,0,0
-109.600542767557,83.2491806741737,-3.59715625844717,64.6753989684162,108.924534348452,81.7180776184463,10.7135284006649,-64.8484296247245,0,0,0,0,0
-109.613315001077,83.4761752632873,-3.59443456455773,64.6830332116986,109.006930193906,81.8801119865336,10.7036227057928,-64.8581568776514,0,0,0,0,0
-109.791499260842,83.5794900053156,-3.58378049436149,64.7068477891791,109.168481084401,81.8866180043142,10.6879017127469,-64.8769032598331,0,0,0,0,0
-109.927945006738,83.7400833533836,-3.57520050888544,64.7268871842895,109.261129120187,81.9820108681678,10.678005592874,-64.8875493560532,0,0,0,0,0
-110.053924625743,83.8488889812374,-3.56771866692094,64.7441848970532,109.332647952888,81.9794680194095,10.6711294275642,-64.8957403648217,0,0,0,0,0
-110.167647367404,83.8563230664141,-3.5616236250786,64.7575124926503,109.412908665187,82.0005151089599,10.6632562043729,-64.9048778160022,0,0,0,0,0
-110.101789769772,83.9545388046047,-3.5644929647359,64.7521954333481,109.382291301127,81.9390298802684,10.6667346847876,-64.9014149468927,0,0,0,0,0
-109.931829335218,83.8868245489013,-3.57384736954123,64.7308444024845,109.28277565405,81.9269711959149,10.6764313691227,-64.8900481129516,0,0,0,0,0
-109.971846416658,83.8780983147325,-3.57181773073177,64.7353175926993,109.244620890906,81.8894268386481,10.6804667482185,-64.8856694844948,0,0,0,0,0
-110.010904562052,83.7874136516541,-3.57034527180278,64.7377144146683,109.174316183052,81.9088334859833,10.6870917846239,-64.8775766573175,0,0,0,0,0
-110.036822055087,83.718719908413,-3.56942024212429,64.7390578050654,109.158491563223,81.9030147710178,10.6886769540698,-64.8757494947469,0,0,0,0,0
-109.928503232299,83.6477714314645,-3.57574826113427,64.7246694040116,108.934437877747,81.9002504001289,10.7103648999073,-64.8496784229625,0,0,0,0,0
-110.040582000409,83.5759060147907,-3.57015102148807,64.7359164664832,108.957497581761,81.7985017923344,10.7093373549256,-64.8523558902886,0,0,0,0,0
-109.938954768797,83.5120725845586,-3.57613257549596,64.7224318375376,108.933298304592,81.7358048854806,10.7124316653631,-64.8494737818027,0,0,0,0,0
-110.011556656823,83.4551543837982,-3.5725120781286,64.7294077882855,108.999094627694,81.7042949117158,10.7063774813534,-64.8571276199152,0,0,0,0,0
-109.85651643258,83.3839889709433,-3.5816082064047,64.709390183717,108.953986953956,81.6540060400166,10.7113691230135,-64.8517892091691,0,0,0,0,0
-109.769965742576,83.3153527979681,-3.58698920527152,64.697337597708,108.89760897272,81.5449918075241,10.7182126317417,-64.8449765156245,0,0,0,0,0
-109.597027823199,83.2286067856696,-3.59747216381402,64.6744063912975,108.782281493734,81.4970286133054,10.7302359750731,-64.8312878381988,0,0,0,0,0
-109.319807732597,83.1175826059805,-3.61436198571482,64.6378825938867,108.589922012256,81.4719249094907,10.7496993807188,-64.8083685231217,0,0,0,0,0
-109.000516779119,82.9872696801812,-3.63430588396994,64.5949347462808,108.406872735673,81.3151928327911,10.7702175128204,-64.7858840889621,0,0,0,0,0
-108.564060436909,82.8483815116704,-3.6618101882672,64.5360121630129,108.070509138076,81.2221580754054,10.805675065947,-64.7444870343879,0,0,0,0,0
